davideferrari95/blind_handover_controller/data/Test 265 - [2024-02-08 -- 12-50-48]/joint_states_data.csv
shoulder_pan_joint,shoulder_lift_joint,elbow_joint,wrist_1_joint,wrist_2_joint,wrist_3_joint
-0.0007058953633531928,-0.010542865842580795,-0.020079517737030983,0.027759907767176628,0.0005202705506235361,-0.0012412776704877615
-0.0007058953633531928,-0.010542865842580795,-0.020079517737030983,0.027759907767176628,0.0005202705506235361,-0.0012412776704877615
-0.0007308010244742036,-0.010658194310963154,-0.02001217007637024,0.02767854556441307,0.0004549457225948572,-0.0010843449272215366
-0.0007509493152610958,-0.010295763611793518,-0.019879139959812164,0.027337471023201942,0.00045030712499283254,-0.0010454703588038683
-0.000766823417507112,-0.010703401640057564,-0.019476456567645073,0.02748757041990757,0.00044860041816718876,-0.0010228764731436968
-0.000842011533677578,-0.010391033254563808,-0.019713446497917175,0.02720828540623188,0.00044996151700615883,-0.001019757241010666
-0.0008564945310354233,-0.010290736332535744,-0.020105037838220596,0.02748059295117855,0.0004487636615522206,-0.0011335861636325717
-0.0008624406764283776,-0.010610369965434074,-0.019961319863796234,0.02841838449239731,0.0004207943275105208,-0.0011717041488736868
-0.0008669175440445542,-0.009872698225080967,-0.0193862933665514,0.028594177216291428,0.0004469991254154593,-0.0015670330030843616
-0.0009235735051333904,-0.010737236589193344,-0.01988077722489834,0.02748233638703823,0.0004240902198944241,-0.0016658746171742678
-0.0008856785716488957,-0.011189333163201809,-0.019680500030517578,0.026440594345331192,0.0004007019742857665,-0.0015612886054441333
-0.0008093432988971472,-0.010005412623286247,-0.020053889602422714,0.027938559651374817,0.00042076644604094326,-0.0013260830892249942
-0.0007879832992330194,-0.010166557505726814,-0.02072025090456009,0.026333726942539215,0.0004538984503597021,-0.0012396682286635041
-0.0007399460300803185,-0.01040698029100895,-0.019860176369547844,0.02739429473876953,0.0004272164369467646,-0.001073154853656888
-0.000694864836987108,-0.011367986910045147,-0.02009616047143936,0.02917959727346897,0.0004578598600346595,-0.0008450804743915796
-0.0007993874023668468,-0.010481300763785839,-0.019894558936357498,0.02790101245045662,0.0004837703600060195,-0.0008242748444899917
-0.0007434100261889398,-0.010288211517035961,-0.0195127185434103,0.027415841817855835,0.0004609044990502298,-0.0008325357921421528
-0.0007434100261889398,-0.010288211517035961,-0.0195127185434103,0.027415841817855835,0.0004609044990502298,-0.0008325357921421528
-0.0007589997840113938,-0.01093500480055809,-0.019781462848186493,0.026767384260892868,0.0006074043340049684,-0.0008558398112654686
-0.0008873380138538778,-0.010493716225028038,-0.020743776112794876,0.026450375095009804,0.0006270538433454931,-0.0010726810432970524
-0.0008632087847217917,-0.010437165386974812,-0.020739199593663216,0.027427639812231064,0.0005844056722708046,-0.001077339518815279
-0.0007837870507501066,-0.010548560880124569,-0.019208019599318504,0.0272159855812788,0.0005287647363729775,-0.001035537221468985
-0.0007972987950779498,-0.010235545225441456,-0.020219573751091957,0.02724618650972843,0.0004816524451598525,-0.0009408362093381584
-0.0007748504867777228,-0.010672424919903278,-0.02105618640780449,0.026720795780420303,0.0005106309545226395,-0.0009074337431229651
-0.000727859849575907,-0.010858620516955853,-0.020134473219513893,0.026718007400631905,0.00047645438462495804,-0.0008935668156482279
-0.0006894675316289067,-0.01085718534886837,-0.019823962822556496,0.026550065726041794,0.0004432055284269154,-0.0007819781312718987
-0.0007179247331805527,-0.0111183887347579,-0.02097165398299694,0.02619660273194313,0.0004428209795150906,-0.0007893393631093204
-0.000739425711799413,-0.010205423459410667,-0.02037423849105835,0.026312345638871193,0.0004420453333295882,-0.0007943952223286033
-0.0007563765393570065,-0.010283609852194786,-0.01902236044406891,0.02638108655810356,0.00041809669346548617,-0.0007327755447477102
-0.0009623928344808519,-0.011008956469595432,-0.019920524209737778,0.02655208297073841,0.0003876800474245101,-0.0006521521136164665
-0.000968020292930305,-0.010257107205688953,-0.02061241865158081,0.027004506438970566,0.00035271269734948874,-0.000676567608024925
-0.0009259081562049687,-0.010461096651852131,-0.019990991801023483,0.026793593540787697,0.0003747988084796816,-0.0006943918415345252
-0.0008439601515419781,-0.011124853976070881,-0.020271936431527138,0.02720887027680874,0.0003644138341769576,-0.0006364065338857472
-0.0008379773353226483,-0.010645970702171326,-0.020063143223524094,0.027410101145505905,0.00037003090255893767,-0.0006554147112183273
-0.0007608877494931221,-0.01070460956543684,-0.019835254177451134,0.02764996699988842,0.00037367147160694003,-0.0007121229427866638
-0.00070026027970016,-0.01097929012030363,-0.01997767761349678,0.027332669124007225,0.00035432406002655625,-0.000768708239775151
-0.0007233646465465426,-0.01048087328672409,-0.020194798707962036,0.027325045317411423,0.00035892942105419934,-0.0007872038404457271
-0.0007532293093390763,-0.010253207758069038,-0.019391663372516632,0.027566121891140938,0.00034646494896151125,-0.0009201939101330936
-0.000851239135954529,-0.010983428917825222,-0.020041776821017265,0.027898326516151428,0.000386001484002918,-0.0009012576192617416
-0.0008832468301989138,-0.011563790962100029,-0.020101483911275864,0.027724945917725563,0.000403863174142316,-0.0008338519255630672
-0.0007999492809176445,-0.010268356651067734,-0.019449753686785698,0.027301397174596786,0.0004099238140042871,-0.0008298909524455667
-0.0007990241865627468,-0.010009142570197582,-0.019647900015115738,0.02750748209655285,0.00041180546395480633,-0.0008234808337874711
-0.0007990241865627468,-0.010009142570197582,-0.019647900015115738,0.02750748209655285,0.00041180546395480633,-0.0008234808337874711
-0.0007201545522548258,-0.01054893434047699,-0.02001533843576908,0.02741769701242447,0.0004157487419433892,-0.0007649848703294992
-0.0007274426170624793,-0.010142084211111069,-0.019289031624794006,0.02716345340013504,0.0004168818995822221,-0.0007107426063157618
-0.0006698144134134054,-0.010076073929667473,-0.01961512118577957,0.025382239371538162,0.0003927581710740924,-0.000731588457711041
-0.0006198112387210131,-0.010626701638102531,-0.01987823098897934,0.02712114341557026,0.00041550700552761555,-0.0007515212055295706
-0.0005456656799651682,-0.009874094277620316,-0.019581705331802368,0.02740919403731823,0.00039874500362202525,-0.0007609255844727159
-0.000579780200496316,-0.00899823009967804,-0.019935863092541695,0.027179056778550148,0.00037820127909071743,-0.0008010827586986125
-0.0006040120497345924,-0.010581783950328827,-0.019855966791510582,0.027300765737891197,0.0004275633255019784,-0.0008755469461902976
-0.0005599479773081839,-0.010025563649833202,-0.019369278103113174,0.0275447778403759,0.00040045875357463956,-0.0008502909331582487
-0.000586748297791928,-0.009829914197325706,-0.019495505839586258,0.02784682810306549,0.0003683648828882724,-0.000799904519226402
-0.0005465913563966751,-0.009820367209613323,-0.01959332823753357,0.027993232011795044,0.0003735199570655823,-0.0008074153447523713
-0.0006342980195768178,-0.009460718370974064,-0.01909196935594082,0.027879469096660614,0.00037756230449303985,-0.0007358182920143008
-0.0005578463897109032,-0.009972698986530304,-0.019274581223726273,0.027381233870983124,0.00035472624585963786,-0.0007204025168903172
-0.0004963116953149438,-0.01011724304407835,-0.01967422105371952,0.027549484744668007,0.00033297110348939896,-0.0006266335840336978
-0.0005325727397575974,-0.009884114377200603,-0.01900532841682434,0.027660690248012543,0.0003136319573968649,-0.0006521219038404524
-0.0004878477193415165,-0.011080295778810978,-0.019269460812211037,0.02756180427968502,0.00034239800879731774,-0.000587731134146452
-0.0005188952200114727,-0.01001014094799757,-0.019468069076538086,0.027252910658717155,0.0003275875642430037,-0.0005303576472215354
-0.00048202992184087634,-0.009402208030223846,-0.019280530512332916,0.028097685426473618,0.00031157719786278903,-0.0005217693978920579
-0.0005040841060690582,-0.010773040354251862,-0.019000910222530365,0.02896575815975666,0.0002969029010273516,-0.0005143781891092658
-0.00047769828233867884,-0.009949242696166039,-0.019326871261000633,0.028378421440720558,0.00028353664674796164,-0.00047766233910806477
-0.0004483418888412416,-0.00938519649207592,-0.018986161798238754,0.027886586263775826,0.0003074396518059075,-0.00044411871931515634
-0.0005193541292101145,-0.009662792086601257,-0.019224733114242554,0.02699124999344349,0.0002854772610589862,-0.0004445509985089302
-0.0004850910045206547,-0.009488583542406559,-0.01875942014157772,0.02829022891819477,0.00027459728880785406,-0.00041891104774549603
-0.000513897102791816,-0.009656848385930061,-0.019233955070376396,0.028083616867661476,0.0002596892591100186,-0.00039835917414166033
-0.0004804540076293051,-0.009538635611534119,-0.01966140605509281,0.027784941717982292,0.0002422634861432016,-0.0003280142555013299
-0.00048723365762270987,-0.009814837016165257,-0.018805930390954018,0.028828030452132225,0.0002296687162015587,-0.00030318289645947516
-0.0004766084020957351,-0.009696491062641144,-0.018706008791923523,0.02857641875743866,0.0002184993791161105,-0.0003329446481075138
-0.0004766084020957351,-0.009696491062641144,-0.018706008791923523,0.02857641875743866,0.0002184993791161105,-0.0003329446481075138
-0.00045034909271635115,-0.009250902570784092,-0.01916642300784588,0.027230359613895416,0.0002471986517775804,-0.00031990432762540877
-0.00040528245153836906,-0.009427933022379875,-0.019600884988904,0.02698458358645439,0.00022884042118676007,-0.0003324497665744275
-0.00040528245153836906,-0.009427933022379875,-0.019600884988904,0.02698458358645439,0.00022884042118676007,-0.0003324497665744275
-0.00048077991232275963,-0.009212146513164043,-0.01945694163441658,0.027719898149371147,0.00025126183754764497,-0.000317195343086496
-0.00044535374036058784,-0.008803375996649265,-0.01871209591627121,0.02730056270956993,0.00024581063189543784,-0.00032315278076566756
-0.00041146454168483615,-0.009083490818738937,-0.01910252682864666,0.02787112444639206,0.00023685222549829632,-0.00032799720065668225
-0.0003823253500740975,-0.00946572981774807,-0.01925371028482914,0.027389580383896828,0.000228286866331473,-0.0003149288531858474
-0.00041408243123441935,-0.008896718733012676,-0.018743950873613358,0.027272190898656845,0.000247600837610662,-0.00030180797330103815
-0.00039067762554623187,-0.008893762715160847,-0.019560255110263824,0.027285126969218254,0.000242996247834526,-0.0002896695223171264
-0.0003678920620586723,-0.009042488411068916,-0.019410017877817154,0.027849514037370682,0.0002352988813072443,-0.00032740813912823796
-0.0003475922567304224,-0.008974175900220871,-0.018787531182169914,0.02765202708542347,0.00022786756744608283,-0.0003208817506674677
-0.000329414353473112,-0.008348356001079082,-0.019315898418426514,0.0275876447558403,0.0002876891230698675,-0.00030054154922254384
-0.0003130447003059089,-0.009401700459420681,-0.01920582354068756,0.027034642174839973,0.00027975233388133347,-0.00028178514912724495
-0.0002982250589411706,-0.00902548711746931,-0.018998896703124046,0.027219347655773163,0.00026398495538160205,-0.0002651756803970784
-0.00028474529972299933,-0.008815624751150608,-0.019283883273601532,0.028044402599334717,0.00024939171271398664,-0.000250413257163018
-0.00030674104345962405,-0.009065421298146248,-0.019483478739857674,0.02744465507566929,0.00027115075499750674,-0.0002372095186728984
-0.000298381521133706,-0.009167119860649109,-0.01823764108121395,0.026564745232462883,0.00026859264471568167,-0.00026434476603753865
-0.0002865639980882406,-0.00881312508136034,-0.020025625824928284,0.026050014421343803,0.0002565445611253381,-0.00025710079353302717
-0.0002654348500072956,-0.009189165197312832,-0.018211480230093002,0.027365263551473618,0.00023432201123796403,-0.00023507043079007417
-0.0002654348500072956,-0.009189165197312832,-0.018211480230093002,0.027365263551473618,0.00023432201123796403,-0.00023507043079007417
-0.0002472076448611915,-0.008422091603279114,-0.01894517056643963,0.027777057141065598,0.000242171052377671,-0.00021624074724968523
-0.0002472076448611915,-0.008422091603279114,-0.01894517056643963,0.027777057141065598,0.000242171052377671,-0.00021624074724968523
-0.00023132259957492352,-0.008590596728026867,-0.019194643944501877,0.027845436707139015,0.00023289688397198915,-0.00020020395459141582
-0.00022412245743907988,-0.009517068974673748,-0.019225651398301125,0.02720256894826889,0.00022462768538389355,-0.00019304596935398877
-0.00021735590416938066,-0.008805470541119576,-0.018238641321659088,0.025730425491929054,0.00021689507411792874,-0.00018638215260580182
-0.00021735590416938066,-0.008805470541119576,-0.018238641321659088,0.025730425491929054,0.00021689507411792874,-0.00018638215260580182
-0.00021098676370456815,-0.009197392500936985,-0.01869160868227482,0.026815272867679596,0.0002096760435961187,-0.00018016344984062016
-0.00019930567941628397,-0.00853813998401165,-0.018712256103754044,0.02739858627319336,0.00019658904056996107,-0.00016889233666006476
-0.00019930567941628397,-0.00853813998401165,-0.018712256103754044,0.02739858627319336,0.00019658904056996107,-0.00016889233666006476
-0.000193937768926844,-0.008798900060355663,-0.018888473510742188,0.02733157016336918,0.00019063953368458897,-0.0001637701061554253
-7.953776366775855e-05,-0.008639555424451828,-0.018650595098733902,0.027872439473867416,0.0001980109082069248,-0.00015894873649813235
-3.5236818803241476e-05,-0.00878431648015976,-0.01852090284228325,0.027382774278521538,0.00020456039055716246,-0.00015440404240507632
-3.0343286198331043e-05,-0.00888834148645401,-0.018616272136569023,0.027044368907809258,0.00019968219567090273,-0.0001501113292761147
-2.9305436328286305e-05,-0.008593965321779251,-0.018201036378741264,0.027940131723880768,0.00019434423302300274,-0.00014605099568143487
-5.5615495512029156e-05,-0.008288424462080002,-0.01899665594100952,0.027356449514627457,0.00018923917377833277,-0.00014220451703295112
-5.50107542949263e-05,-0.008903034031391144,-0.018922870978713036,0.027174193412065506,0.00018439283303450793,-0.00013855584256816655
-5.339365452528e-05,-0.008508111350238323,-0.018315913155674934,0.027248119935393333,0.00017978803953155875,-0.00013508935808204114
-2.6285975764039904e-05,-0.008295665495097637,-0.018334493041038513,0.02730831690132618,0.00017540757835377008,-0.000131792199681513
-2.5206583813996986e-05,-0.00840195082128048,-0.01798502542078495,0.027259543538093567,0.00017123609723057598,-0.0001286522892769426
-2.451537875458598e-05,-0.008726056665182114,-0.01763378642499447,0.026780826970934868,0.00016725793830119073,-0.00012565843644551933
-2.38652246480342e-05,-0.008446223102509975,-0.018558451905846596,0.02647298015654087,0.00016346042684745044,-0.0001228007604368031
-2.324876913917251e-05,-0.008296689949929714,-0.01832710951566696,0.026442861184477806,0.00015053040988277644,-0.00012007030454697087
-2.2663305571768433e-05,-0.00889895111322403,-0.018256179988384247,0.026414772495627403,0.0001430596166756004,-0.00011745842493837699
-7.570068191853352e-06,-0.008780608884990215,-0.018473530188202858,0.026522399857640266,0.00013848113303538412,-0.00011495791841298342
-1.0156212226775096e-07,-0.008805195800960064,-0.018006281927227974,0.026961402967572212,0.0001343353360425681,-0.00011256163998041302
-1.3625853778620467e-09,-0.00816438440233469,-0.018145104870200157,0.02700001560151577,0.00013044026854913682,-0.00011026318679796532
-1.828082303589884e-11,-0.008665945380926132,-0.01818244904279709,0.026908107101917267,0.0001267655025003478,-0.0001080565998563543
-1.828082303589884e-11,-0.008665945380926132,-0.01818244904279709,0.026908107101917267,0.0001267655025003478,-0.0001080565998563543
-3.2904837132753575e-15,-0.008762072771787643,-0.018414417281746864,0.027156829833984375,0.00012000371498288587,-0.00010389847739133984
-4.414604033935895e-17,-0.008324211463332176,-0.017986811697483063,0.026960600167512894,0.00011688662925735116,-0.00010193723574047908
-5.922754840559578e-19,-0.008501208387315273,-0.017671650275588036,0.0271402969956398,0.00011392724991310388,-0.00010004854266298935
-7.946131224318798e-21,-0.007809069473296404,-0.018197467550635338,0.027372237294912338,0.00011111395724583417,-9.822859283303842e-05
-1.0660749576868345e-22,-0.0089551517739892,-0.018138796091079712,0.027380531653761864,0.00010843632480828092,-9.647367551224306e-05
-1.4302755228243248e-24,-0.008401989005506039,-0.01796484738588333,0.026784146204590797,0.00010588478471618146,-8.105125016300008e-05
-1.918897064527916e-26,-0.008247624151408672,-0.018362365663051605,0.026755420491099358,0.00010345048212911934,-7.775626727379858e-05
-2.574445445665833e-28,-0.007870935834944248,-0.017969628795981407,0.026628602296113968,0.00010112560266861692,-7.631391054019332e-05
-3.453947339778186e-30,-0.00827376265078783,-0.017831923440098763,0.026812374591827393,9.890291403280571e-05,-7.503344386350363e-05
-4.633910990651961e-32,-0.008466614410281181,-0.018112733960151672,0.026881800964474678,9.677577327238396e-05,-7.380228635156527e-05
-6.216982991632723e-34,-0.007799368817359209,-0.017878258600831032,0.026347268372774124,9.473836689721793e-05,-6.545958603965119e-05
-8.340876430095972e-36,-0.007634641602635384,-0.018291471526026726,0.026376450434327126,9.278497600462288e-05,-5.7647899666335434e-05
-1.1190349146558692e-37,-0.007938500493764877,-0.01807495392858982,0.026212304830551147,0.0001078808491001837,-5.630445230053738e-05
-1.5013287539021798e-39,-0.007929589599370956,-0.017650181427598,0.027639096602797508,0.00010685318557079881,-5.540905840462074e-05
-2.014226412620492e-41,-0.008187043480575085,-0.01803944632411003,0.027562452480196953,0.00010485063830856234,-5.456728831632063e-05
-2.704506036146897e-43,-0.008576645515859127,-0.017901264131069183,0.02674570120871067,0.00010285813186783344,-4.120502126170322e-05
-4.203895392974451e-45,-0.008263816125690937,-0.019129233434796333,0.026837453246116638,0.00010093572927871719,-3.977943197241984e-05
-0.0,-0.008215637877583504,-0.018454324454069138,0.028033096343278885,9.908379433909431e-05,-3.914913031621836e-05
0.0,-0.007857893593609333,-0.017496516928076744,0.02794979140162468,9.729848534334451e-05,-3.864403333864175e-05
0.0,-0.008894833736121655,-0.018617600202560425,0.02637311816215515,9.557625162415206e-05,2.630894050525967e-05
0.0,-0.00860639289021492,-0.018168235197663307,0.025521835312247276,9.391408821102232e-05,3.0064167731325142e-05
0.0,-0.008345198817551136,-0.018025659024715424,0.025438668206334114,9.230866999132559e-05,4.09224558097776e-05
0.00013148579455446452,-0.00831517856568098,-0.018508149310946465,0.026147743687033653,9.075734851649031e-05,4.380551399663091e-05
0.00013148579455446452,-0.00831517856568098,-0.018508149310946465,0.026147743687033653,9.075734851649031e-05,4.380551399663091e-05
0.000408385181799531,-0.008245645090937614,-0.018511969596147537,0.026374541223049164,8.780568168731406e-05,5.676295040757395e-05
0.000408385181799531,-0.008245645090937614,-0.018511969596147537,0.026374541223049164,8.780568168731406e-05,5.676295040757395e-05
0.00035479923826642334,-0.008664414286613464,-0.017762767150998116,0.02709357626736164,8.504017750965431e-05,0.0003059158334508538
0.00038174301153048873,-0.008844216354191303,-0.01833958365023136,0.026642369106411934,8.372162119485438e-05,0.0005596336559392512
0.0003657597699202597,-0.007978169247508049,-0.018328577280044556,0.025465931743383408,8.244343916885555e-05,0.0005837551434524357
0.0003781106206588447,-0.008818861097097397,-0.0181158185005188,0.02542846091091633,8.120380516629666e-05,0.000572372053284198
0.000374371069483459,-0.008538477122783661,-0.018137836828827858,0.02632707916200161,8.000071829883382e-05,0.0005973040242679417
0.0003560698824003339,-0.008649693801999092,-0.017751799896359444,0.026652978733181953,7.883286161813885e-05,0.0009269607253372669
0.00037997012259438634,-0.008929544128477573,-0.01817346177995205,0.025851869955658913,7.76985107222572e-05,0.000977640156634152
0.0003645012911874801,-0.008479486219584942,-0.01824892871081829,0.0258156917989254,7.659637776669115e-05,0.000986955943517387
0.0003488251240924001,-0.008714520372450352,-0.01757626421749592,0.02590673789381981,7.552511669928208e-05,0.001253593829460442
0.0003470995288807899,-0.008802543394267559,-0.018189385533332825,0.025633782148361206,7.448338874382898e-05,0.0012927394127473235
0.00037977364263497293,-0.008663348853588104,-0.01838771440088749,0.025740986689925194,7.347001519519836e-05,0.0012537708971649408
0.00036151762469671667,-0.009143192321062088,-0.017813220620155334,0.025996940210461617,7.248385372804478e-05,0.001392514444887638
0.00039306964026764035,-0.008535755798220634,-0.0179824847728014,0.026034846901893616,7.152382750064135e-05,0.0013415503781288862
0.000418794370489195,-0.008195187896490097,-0.017696604132652283,0.026378611102700233,7.058884511934593e-05,0.0012866385513916612
0.00040140419150702655,-0.008565783500671387,-0.018043043091893196,0.026266612112522125,6.967802619328722e-05,0.001465185428969562
0.0006432236987166107,-0.008942202664911747,-0.018184255808591843,0.02624727413058281,6.87903884681873e-05,0.0014269212260842323
0.0006730078021064401,-0.008212199434638023,-0.017467591911554337,0.025821711868047714,6.792510976083577e-05,0.0018688314594328403
0.0006096003344282508,-0.008498967625200748,-0.018237687647342682,0.026516849175095558,6.70813606120646e-05,0.0018228478729724884
0.0006072887917980552,-0.009130275808274746,-0.01838567666709423,0.027289897203445435,6.625826063100249e-05,0.002157915849238634
0.0005798664642497897,-0.008169131353497505,-0.017371201887726784,0.027018919587135315,6.545511132571846e-05,0.00208451459184289
0.0006040347507223487,-0.00839958805590868,-0.017918605357408524,0.026534926146268845,6.467127241194248e-05,0.002064548898488283
0.0006461592274717987,-0.008500168099999428,-0.01770310290157795,0.025836637243628502,6.390587805071846e-05,0.001922023482620716
0.0006860030116513371,-0.008326992392539978,-0.01770721934735775,0.025287246331572533,6.31584771326743e-05,0.0019039914477616549
0.0007103748503141105,-0.00870432611554861,-0.018635045737028122,0.026123570278286934,6.242829840630293e-05,0.0018566889921203256
0.000665644183754921,-0.008575797080993652,-0.018530741333961487,0.025910919532179832,6.101749750087038e-05,0.0017680100863799453
0.0008014381746761501,-0.008303200826048851,-0.01843200996518135,0.026425212621688843,6.03357439104002e-05,0.0016974343452602625
0.0008014381746761501,-0.008303200826048851,-0.01843200996518135,0.026425212621688843,6.03357439104002e-05,0.0016974343452602625
0.0008083924185484648,-0.008679757826030254,-0.01776113361120224,0.02715362422168255,5.96690624661278e-05,0.001685835886746645
0.0007159312954172492,-0.00864402949810028,-0.018336240202188492,0.02609499916434288,3.895963800459867e-06,0.001853392692282796
0.0007330598309636116,-0.008387058041989803,-0.01817432790994644,0.024613987654447556,2.543786195019493e-07,0.0023906221613287926
0.0007429903489537537,-0.008026114664971828,-0.017980344593524933,0.02454708144068718,1.6609105202292085e-08,0.0032457865308970213
0.0008670080569572747,-0.007783776614814997,-0.018316907808184624,0.02491939626634121,1.0844559694689337e-09,0.0036411264445632696
0.0010112910531461239,-0.008687084540724754,-0.018152860924601555,0.026258723810315132,7.08072211974553e-11,0.0034035586286336184
0.0018537697615101933,-0.007938029244542122,-0.018368449062108994,0.02574821189045906,4.623205464293623e-12,0.003016743343323469
0.0019215266220271587,-0.007938703522086143,-0.018443498760461807,0.025603847578167915,3.018623220309158e-13,0.0027546812780201435
0.0019624698907136917,-0.007895365357398987,-0.017821962013840675,0.025878872722387314,1.9709452101532125e-14,0.0025200655218213797
0.0017736671725288033,-0.008527819998562336,-0.018300959840416908,0.02593977563083172,1.286886357093381e-15,0.002522500464692712
0.0017016680212691426,-0.008014283142983913,-0.018316831439733505,0.025877106934785843,8.402449707987922e-17,0.002321776235476136
0.0016952762380242348,-0.007648591883480549,-0.01811910793185234,0.025564689189195633,5.486199312141601e-18,0.0023043507244437933
0.001636582426726818,-0.00812299270182848,-0.018655790016055107,0.025874577462673187,3.582096336878995e-19,0.0026519245002418756
0.002105732448399067,-0.008105028420686722,-0.01814827136695385,0.02592250145971775,2.3388530204349724e-20,0.0033004547003656626
0.0027460006531327963,-0.007733579725027084,-0.018386203795671463,0.025880206376314163,1.5271038499500336e-21,0.0033694829326123
0.0029577601235359907,-0.007919169031083584,-0.018502971157431602,0.02598433941602707,9.970897026139812e-23,0.003244195133447647
0.0027139168232679367,-0.008391846902668476,-0.017284685745835304,0.025968225672841072,6.510283274045831e-24,0.002940582809969783
0.002526030642911792,-0.00824870727956295,-0.017939917743206024,0.02626296877861023,4.250749870689805e-25,0.0027964680921286345
0.0023753002751618624,-0.007713332772254944,-0.01834314502775669,0.026380382478237152,2.7754357642922773e-26,0.002799543784931302
0.002596090314909816,-0.008169138804078102,-0.017974000424146652,0.026516994461417198,1.8121612181193986e-27,0.003228142624720931
0.0031162824016064405,-0.008332641795277596,-0.017984163016080856,0.025797296315431595,1.1832116724800687e-28,0.0031866643112152815
0.0034993337467312813,-0.007784949615597725,-0.017661595717072487,0.02714415080845356,7.725527172587206e-30,0.003162125824019313
0.0033041336573660374,-0.008445723913609982,-0.01813969947397709,0.026928478851914406,5.044217411355915e-31,0.003138587111607194
0.0030535170808434486,-0.008257729932665825,-0.01842273771762848,0.02607312612235546,3.293513296445332e-32,0.003210911061614752
0.0031832850072532892,-0.007502072490751743,-0.017793215811252594,0.025892172008752823,1.4040766889737442e-34,0.003634423715993762
0.0031832850072532892,-0.007502072490751743,-0.017793215811252594,0.025892172008752823,1.4040766889737442e-34,0.003634423715993762
0.003496204037219286,-0.007522620260715485,-0.018101779744029045,0.026080306619405746,9.167617592145337e-36,0.0033823205158114433
0.0035636918619275093,-0.007676549255847931,-0.016874466091394424,0.0266549214720726,5.985799075844129e-37,0.003466487629339099
0.0034689365420490503,-0.00799402967095375,-0.017387285828590393,0.026604237034916878,3.9082993291965313e-38,0.0032749914098531008
0.003354674205183983,-0.007661457639187574,-0.017416873946785927,0.026220595464110374,2.5518401736525654e-39,0.0035021600779145956
0.0034978161565959454,-0.007430865429341793,-0.017512021586298943,0.02613729052245617,1.666171900051494e-40,0.003232905175536871
0.0036597587168216705,-0.007969919592142105,-0.0180246289819479,0.026272306218743324,1.0878279978553555e-41,0.003366223070770502
0.003873613430187106,-0.007180551532655954,-0.01741928793489933,0.025941254571080208,7.1045832141268225e-43,0.003622316522523761
0.0038564789574593306,-0.007290802430361509,-0.017629433423280716,0.025930538773536682,4.624284932271896e-44,0.0038246200419962406
0.003780674422159791,-0.008083170279860497,-0.01715645007789135,0.026085324585437775,2.802596928649634e-45,0.0042013805359601974
0.003717902349308133,-0.007784461136907339,-0.017394084483385086,0.02573298290371895,0.0,0.0036770878359675407
0.0037763933651149273,-0.007569149136543274,-0.017661364749073982,0.0251707062125206,0.0,0.003458513878285885
0.0044045764952898026,-0.007878660224378109,-0.017377549782395363,0.026180798187851906,0.0,0.003673794213682413
0.0044045764952898026,-0.007878660224378109,-0.017377549782395363,0.026180798187851906,0.0,0.003673794213682413
0.00457063689827919,-0.007897925563156605,-0.017231184989213943,0.0259566567838192,0.0,0.004176766611635685
0.004722089972347021,-0.007110729813575745,-0.017479224130511284,0.0252059493213892,0.0,0.004156420007348061
0.004536227788776159,-0.0075815715827047825,-0.017668746411800385,0.02528374269604683,0.0,0.004299409221857786
0.004405619110912085,-0.007688608486205339,-0.017114583402872086,0.025630934163928032,0.0,0.004244510550051928
0.004930533934384584,-0.0075830332934856415,-0.017165984958410263,0.02578653208911419,0.0,0.004487060476094484
0.005081889685243368,-0.006787750404328108,-0.01694994606077671,0.025250226259231567,0.0,0.004380445461720228
0.004997628275305033,-0.0069617764092981815,-0.017186081036925316,0.024555645883083344,0.0,0.0038844195660203695
0.005119155626744032,-0.007310434710234404,-0.01727839931845665,0.024454891681671143,0.0,0.0036061417777091265
0.005129529163241386,-0.008037058636546135,-0.01677531935274601,0.02517014741897583,0.0,0.003985222429037094
0.00569169782102108,-0.007069704122841358,-0.017011944204568863,0.025754740461707115,0.0,0.004601411521434784
0.005420447792857885,-0.006904748268425465,-0.016754813492298126,0.025314029306173325,0.0,0.004816465545445681
0.005538631230592728,-0.007428670767694712,-0.017078591510653496,0.025292174890637398,0.0,0.004733161069452763
0.005538631230592728,-0.007428670767694712,-0.017078591510653496,0.025292174890637398,0.0,0.004733161069452763
0.005555678624659777,-0.0071831438690423965,-0.01674535498023033,0.024693364277482033,0.0,0.004878937732428312
0.005721782799810171,-0.00702250748872757,-0.01714596338570118,0.02492469921708107,0.0,0.004846332594752312
0.005232549738138914,-0.007377613801509142,-0.016652187332510948,0.023978790268301964,0.0,0.004602950531989336
0.005887348670512438,-0.0074738264083862305,-0.01710992306470871,0.024506239220499992,0.0,0.004573127254843712
0.006496340502053499,-0.0068791392259299755,-0.01691649854183197,0.025736941024661064,0.0,0.004544829484075308
0.006306551396846771,-0.006823576521128416,-0.016718676313757896,0.02527836337685585,0.0,0.0046315547078847885
0.006233498454093933,-0.007405417505651712,-0.01690993644297123,0.024973226711153984,0.0,0.004713906440883875
0.006322428118437529,-0.007294351700693369,-0.016592787578701973,0.02481020614504814,0.0,0.004378334619104862
0.00626172823831439,-0.007211305201053619,-0.01716769114136696,0.024921389296650887,0.0,0.004431311972439289
0.006499188952147961,-0.007100146729499102,-0.016744321212172508,0.0253051295876503,0.0,0.004972943104803562
0.0068811289966106415,-0.007068068254739046,-0.016736526042222977,0.025292787700891495,0.0,0.004916827194392681
0.0067055183462798595,-0.00804588571190834,-0.0172007717192173,0.02512865699827671,0.0,0.004978007636964321
0.006417812313884497,-0.00713510625064373,-0.016686009243130684,0.02522718720138073,0.0,0.005450414028018713
0.007013475522398949,-0.006177831441164017,-0.01683667115867138,0.02559022605419159,0.0,0.00526601355522871
0.0066786459647119045,-0.006484808400273323,-0.016508975997567177,0.02534198947250843,0.0,0.005828470457345247
0.006773655768483877,-0.007169143762439489,-0.017090419307351112,0.024901408702135086,0.0,0.005460107699036598
0.007286716252565384,-0.007082435768097639,-0.017389662563800812,0.024927137419581413,0.0,0.005100826267153025
0.007760223932564259,-0.006449728738516569,-0.01699952594935894,0.025247137993574142,8.366085239686072e-06,0.005091402679681778
0.007743732538074255,-0.0060797082260251045,-0.017624421045184135,0.025200288742780685,5.462455874294392e-07,0.005042305216193199
0.007169885095208883,-0.00674180593341589,-0.016696937382221222,0.02507840283215046,3.5665937758722066e-08,0.005388851277530193
0.00677958270534873,-0.007381343748420477,-0.017066625878214836,0.025248609483242035,2.328730763778708e-09,0.0058576869778335094
0.006873096339404583,-0.007046922575682402,-0.016934921965003014,0.025568248704075813,1.520494841145137e-10,0.005797374527901411
0.007365092169493437,-0.006392050534486771,-0.016684111207723618,0.024946874007582664,9.927744390458848e-12,0.00542348250746727
0.008110140450298786,-0.006176140159368515,-0.01737319678068161,0.024260902777314186,6.482107060314102e-13,0.005744554102420807
0.006811975967139006,-0.006835809908807278,-0.01697523705661297,0.02351074479520321,4.2323525868866174e-14,0.005876708775758743
0.007619727868586779,-0.006676970515400171,-0.017631513997912407,0.024349572136998177,1.8043182175522826e-16,0.005785714834928513
0.007619727868586779,-0.006676970515400171,-0.017631513997912407,0.024349572136998177,1.8043182175522826e-16,0.005785714834928513
0.0077514611184597015,-0.006625039968639612,-0.017030518501996994,0.025004178285598755,1.1780909770410908e-17,0.005683478899300098
0.007321017794311047,-0.006348363123834133,-0.01778750866651535,0.02462509088218212,7.69209158587109e-19,0.0059482138603925705
0.008226650767028332,-0.006739893928170204,-0.017040245234966278,0.024671228602528572,5.0223860628896826e-20,0.006098474375903606
0.00852959044277668,-0.006811912637203932,-0.01804736629128456,0.025264441967010498,3.2792591895997025e-21,0.006617148872464895
0.008072960190474987,-0.006401465740054846,-0.01791458949446678,0.024495160207152367,2.141121977547546e-22,0.006419115699827671
0.007625599857419729,-0.006514682434499264,-0.01674238219857216,0.024937747046351433,1.3979995747100466e-23,0.005979482550173998
0.008156017400324345,-0.0067471847869455814,-0.017605092376470566,0.024020912125706673,9.127938130520142e-25,0.006538091693073511
0.008380703628063202,-0.00715928990393877,-0.016855016350746155,0.023680200800299644,5.959890977560992e-26,0.006949301343411207
0.008274908177554607,-0.0065201506949961185,-0.017770925536751747,0.0243405532091856,3.891383052721209e-27,0.006338020320981741
0.008431799709796906,-0.0062842960469424725,-0.017375266179442406,0.024556193500757217,2.5407948754537703e-28,0.0061353822238743305
0.008447854779660702,-0.006231141742318869,-0.016824575141072273,0.024719662964344025,-0.00011791030556196347,0.006443076767027378
0.00833013467490673,-0.006692623253911734,-0.01764415018260479,0.024476004764437675,-0.00020825745014008135,0.0072965775616467
0.007633621338754892,-0.006668262183666229,-0.016987184062600136,0.025107795372605324,-0.00020502829283941537,0.0068190027959644794
0.008805492892861366,-0.006710843648761511,-0.01685473881661892,0.024854296818375587,-0.00021569652017205954,0.006588096730411053
0.008300716988742352,-0.00683573679998517,-0.01703549176454544,0.024488605558872223,-0.0002246334624942392,0.006632636301219463
0.008344325236976147,-0.006423043552786112,-0.017051879316568375,0.024189868941903114,-0.000216785425436683,0.006244467105716467
0.007760501001030207,-0.006541542708873749,-0.017339641228318214,0.023477450013160706,-0.00020849026623182,0.006569572724401951
0.006092071533203125,-0.006717356853187084,-0.01689082384109497,0.024907536804676056,-0.0002254893333883956,0.006879548076540232
0.005077362060546875,-0.006150410510599613,-0.017405740916728973,0.025295596569776535,-0.00022523679945152253,0.006966805085539818
0.006000021938234568,-0.006408350076526403,-0.017051270231604576,0.025030523538589478,-0.00023321478511206806,0.006866030860692263
0.007141647860407829,-0.006823196075856686,-0.017201853916049004,0.024868398904800415,-0.0002397603093413636,0.006799154914915562
0.007051533553749323,-0.006916110869497061,-0.01764778047800064,0.025104999542236328,-0.00023293792037293315,0.006622208282351494
0.006494911387562752,-0.006422886624932289,-0.01671920157968998,0.024593820795416832,-0.00022569690190721303,0.007031278219074011
0.006380763836205006,-0.006120074540376663,-0.01732972264289856,0.024059658870100975,-0.00030912840156815946,0.006941446103155613
0.006795596797019243,-0.006336471997201443,-0.017176395282149315,0.02401067316532135,-0.0003167716786265373,0.0069753387942910194
0.006230206694453955,-0.006479727104306221,-0.01750689372420311,0.02438507415354252,-0.0003266794083174318,0.0071645150892436504
0.006637831684201956,-0.006093376316130161,-0.017227377742528915,0.023968370631337166,-0.0003155115700792521,0.007025670260190964
0.006883740425109863,-0.006156530696898699,-0.017820917069911957,0.024183962494134903,-0.0002981972065754235,0.007284458260983229
0.006883740425109863,-0.006156530696898699,-0.017820917069911957,0.024183962494134903,-0.0002981972065754235,0.007284458260983229
0.006801532115787268,-0.006373557727783918,-0.01736358180642128,0.023994501680135727,-0.000326446199323982,0.00760298129171133
0.006465950980782509,-0.006465872749686241,-0.017230432480573654,0.024093227460980415,-0.00031307945027947426,0.0076370276510715485
0.006993130315095186,-0.006286455783993006,-0.017699692398309708,0.023713979870080948,-0.0003299071395304054,0.007255718111991882
0.006762776058167219,-0.0065576015040278435,-0.01688799448311329,0.02379377745091915,-0.0003249200526624918,0.007016138173639774
0.006892159581184387,-0.006378760561347008,-0.01724221743643284,0.023638365790247917,-0.00031150749418884516,0.00716885831207037
0.007036473602056503,-0.006371570285409689,-0.017277754843235016,0.023406829684972763,-0.00037813378730788827,0.007525849621742964
0.007513503544032574,-0.0067072403617203236,-0.017323266714811325,0.023174623027443886,-0.00036008766619488597,0.007467687129974365
0.007471210788935423,-0.006324783433228731,-0.0174847524613142,0.023232413455843925,-0.0003341337142046541,0.007456955499947071
0.007581824902445078,-0.00618879497051239,-0.01679369993507862,0.023081567138433456,-0.0003110712277702987,0.007468375843018293
0.007096822839230299,-0.006566568277776241,-0.017344266176223755,0.023072486743330956,-0.000290949217742309,0.00758140766993165
0.007698672823607922,-0.0065720281563699245,-0.017797335982322693,0.023444175720214844,-0.00032412822474725544,0.007887791842222214
0.007685840595513582,-0.006190244574099779,-0.017221979796886444,0.023375973105430603,-0.0003088971716351807,0.007613766472786665
0.007373149041086435,-0.006373680662363768,-0.017263470217585564,0.0235975943505764,-0.00029238188290037215,0.007884114049375057
0.007499219384044409,-0.006402009632438421,-0.016811611130833626,0.02397853136062622,-0.00027737251366488636,0.007870114408433437
0.007802389562129974,-0.0063203866593539715,-0.01762210577726364,0.023976288735866547,-0.00029626989271491766,0.007985509000718594
0.0076111978851258755,-0.006286735646426678,-0.017799807712435722,0.023765185847878456,-0.0002926953893620521,0.00809734407812357
0.007474161684513092,-0.0065162405371665955,-0.017347607761621475,0.0235233586281538,-0.00031503659556619823,0.008062905631959438
0.008200212381780148,-0.006165734492242336,-0.017381463199853897,0.023960579186677933,-0.0003074659616686404,0.008048919960856438
0.008571850135922432,-0.006388330366462469,-0.016564983874559402,0.024909764528274536,-0.00036152484244666994,0.008126083761453629
0.008086001500487328,-0.006551891099661589,-0.01732255518436432,0.02458806149661541,-0.0003692224563565105,0.007576329167932272
0.007955051027238369,-0.006325777620077133,-0.017460010945796967,0.023759346455335617,-0.0004014817241113633,0.008059228770434856
0.00860587414354086,-0.006090766284614801,-0.017087431624531746,0.02326391078531742,-0.0004209569306112826,0.006834463682025671
0.008606313727796078,-0.006330293137580156,-0.017304081469774246,0.023259393870830536,-0.0004097658966202289,0.006459759082645178
0.008328384719789028,-0.006638352293521166,-0.016860205680131912,0.02360772155225277,-0.0007044436642900109,0.006366472225636244
0.008744959719479084,-0.006635714787989855,-0.017694538459181786,0.02364995703101158,-0.0007118275971151888,0.0072225225158035755
0.008935123682022095,-0.0062114703468978405,-0.0174753125756979,0.024183645844459534,-0.0006071616080589592,0.0069696600548923016
0.008763667196035385,-0.006186355371028185,-0.017362700775265694,0.024315575137734413,-0.000624187639914453,0.0070718443021178246
0.008763667196035385,-0.006186355371028185,-0.017362700775265694,0.024315575137734413,-0.000624187639914453,0.0070718443021178246
0.009072338230907917,-0.006163572892546654,-0.016819056123495102,0.023657619953155518,-0.0005775481113232672,0.007365511264652014
0.009384794160723686,-0.006443983409553766,-0.01740078441798687,0.022859379649162292,-0.0005662241601385176,0.007416071370244026
0.009045948274433613,-0.005902652628719807,-0.017846401780843735,0.022577177733182907,-0.000555818434804678,0.00795119907706976
0.009355446323752403,-0.0059044016525149345,-0.01767807826399803,0.023094037547707558,-0.0005151107325218618,0.0077262562699615955
0.009335394017398357,-0.00660322280600667,-0.01704636588692665,0.023829607293009758,-0.0004645144799724221,0.008183539845049381
0.009111542254686356,-0.006233626510947943,-0.01701987534761429,0.023618308827280998,-0.000421153730712831,0.007805734407156706
0.00998746883124113,-0.005944122560322285,-0.017723729833960533,0.023329230025410652,-0.0004514659522101283,0.008061209693551064
0.009722699411213398,-0.005256915930658579,-0.018227430060505867,0.023168252781033516,-0.00045929590123705566,0.007938886992633343
0.009522887878119946,-0.004183453042060137,-0.017792120575904846,0.023079246282577515,-0.0004578402731567621,0.008010185323655605
0.009574721567332745,-0.003528614528477192,-0.017350735142827034,0.02314654365181923,-0.00045851035974919796,0.00801101140677929
0.009953339584171772,-0.004118559882044792,-0.016998399049043655,0.022939587011933327,-0.00045685580698773265,0.008177969604730606
0.009940775111317635,-0.0045966217294335365,-0.01776827685534954,0.022835619747638702,-0.00043127828394062817,0.008194164372980595
0.0106699513271451,-0.0047491914592683315,-0.017504049465060234,0.022591086104512215,-0.0004852657439187169,0.008234502747654915
0.010290354490280151,-0.004375710617750883,-0.016944238916039467,0.023237314075231552,-0.00044960403465665877,0.007917585782706738
0.010468898341059685,-0.004039079416543245,-0.01765359751880169,0.023307375609874725,-0.00046946248039603233,0.00873425230383873
0.01039655040949583,-0.0038987156003713608,-0.017647884786128998,0.022835467010736465,-0.00044898808118887246,0.008601969107985497
0.010768800973892212,-0.003966877236962318,-0.017630213871598244,0.02267172373831272,-0.0004491926229093224,0.008430440910160542
0.010150791145861149,-0.004228304605931044,-0.017357112839818,0.023281291127204895,-0.0004479711060412228,0.008929889649152756
0.010515054687857628,-0.004135780036449432,-0.016751984134316444,0.02336863800883293,-0.0004719694843515754,0.008864282630383968
0.010466252453625202,-0.003852248191833496,-0.017471525818109512,0.023359213024377823,-0.0005148934433236718,0.008630565367639065
0.010737051256000996,-0.004159612115472555,-0.0172143392264843,0.023146506398916245,-0.0005205797497183084,0.00864855945110321
0.011230208911001682,-0.003607529914006591,-0.017102738842368126,0.023188713937997818,-0.0005513390642590821,0.008282534778118134
0.01126568391919136,-0.0033883715514093637,-0.017369523644447327,0.02335410565137863,-0.0005104325828142464,0.008865508250892162
0.011770501732826233,-0.0033747521229088306,-0.01674945279955864,0.023213783279061317,-0.00046698268852196634,0.008872579783201218
0.010742094367742538,-0.0035123894922435284,-0.017065154388546944,0.02367289550602436,-0.00048239476745948195,0.008594561368227005
0.011035984382033348,-0.003831499954685569,-0.017165208235383034,0.024159381166100502,-0.00043246953282505274,0.008180234581232071
0.010914983227849007,-0.0036039308179169893,-0.017388928681612015,0.023182779550552368,-0.00044729531509801745,0.007800681982189417
0.01081442553550005,-0.0035708299838006496,-0.016700662672519684,0.02271343767642975,-0.00043363115401007235,0.008295227773487568
0.01131743099540472,-0.0036868408787995577,-0.016863612458109856,0.023455169051885605,-0.0004098089411854744,0.008591624908149242
0.01131743099540472,-0.0036868408787995577,-0.016863612458109856,0.023455169051885605,-0.0004098089411854744,0.008591624908149242
0.011098633520305157,-0.0037549291737377644,-0.016746317967772484,0.023976273834705353,-0.0003974426945205778,0.009084532037377357
0.013123207725584507,-0.003349049249663949,-0.01703234203159809,0.023560797795653343,-0.00037436289130710065,0.008786352351307869
0.011081338860094547,-0.0034643595572561026,-0.016922088339924812,0.022724419832229614,-0.00034619562211446464,0.008993297815322876
0.01023239828646183,-0.0036380996461957693,-0.01655164174735546,0.023310193791985512,-0.0003770086623262614,0.00890540610998869
0.01172876451164484,-0.004086936358362436,-0.017357870936393738,0.024530163034796715,-0.0003594759909901768,0.008770916610956192
0.011337813921272755,-0.004217811860144138,-0.016644973307847977,0.023805169388651848,-0.0003374950319994241,0.009406429715454578
0.010901427827775478,-0.004067834001034498,-0.016929715871810913,0.023115219548344612,-0.00036345113767310977,0.009293614886701107
0.011013629846274853,-0.003462121356278658,-0.016543423756957054,0.02290170267224312,-0.0003495442506391555,0.009382805787026882
0.0105545399710536,-0.00345843774266541,-0.016728416085243225,0.022235054522752762,-0.000331551069393754,0.009410726837813854
0.01081870123744011,-0.003715846221894026,-0.01701221615076065,0.022754600271582603,-0.00035395624581724405,0.009451725520193577
0.010989987291395664,-0.004306907765567303,-0.0166085846722126,0.02360420860350132,-0.0003424547321628779,0.009093467146158218
0.010796108283102512,-0.00431666849181056,-0.01700400374829769,0.023291219025850296,-0.0003272356989327818,0.009084843099117279
0.011124086566269398,-0.004062219522893429,-0.01636320725083351,0.02305476926267147,-0.00035259334254078567,0.009433098137378693
0.01103432010859251,-0.003916934132575989,-0.016314266249537468,0.02313341200351715,-0.0003396176325622946,0.00905327033251524
0.010705357417464256,-0.003999182488769293,-0.016423948109149933,0.023402396589517593,-0.00037548778345808387,0.009394915774464607
0.011178558692336082,-0.0035777681041508913,-0.016848621889948845,0.023261889815330505,-0.00035471192677505314,0.009717399254441261
0.010932963341474533,-0.003565136343240738,-0.01678585447371006,0.023161519318819046,-0.0003330785839352757,0.009632350876927376
0.011265971697866917,-0.0036456098314374685,-0.016071150079369545,0.02270974963903427,-0.00036239888868294656,0.00968443788588047
0.011375050991773605,-0.003771566553041339,-0.016606366261839867,0.022610781714320183,-0.0003456820850260556,0.009749495424330235
0.010979661718010902,-0.0037296225782483816,-0.01605847291648388,0.023027420043945312,-0.00032789172837510705,0.009493755176663399
0.010979661718010902,-0.0037296225782483816,-0.01605847291648388,0.023027420043945312,-0.00032789172837510705,0.009493755176663399
0.011422079056501389,-0.004159374628216028,-0.016543706879019737,0.023200010880827904,-0.0003334098437335342,0.009460841305553913
0.011046640574932098,-0.0035836100578308105,-0.016223857179284096,0.021891750395298004,-0.00032402758370153606,0.009778640232980251
0.011928459629416466,-0.003923364914953709,-0.016823045909404755,0.022363007068634033,-0.00036826389259658754,0.009713659062981606
0.011571520939469337,-0.0042031025514006615,-0.016441890969872475,0.023036420345306396,-0.00035893748281523585,0.010417492128908634
0.01143219880759716,-0.004065191838890314,-0.017062317579984665,0.022641319781541824,-0.00033362428075633943,0.00981726311147213
0.011271318420767784,-0.0039571914821863174,-0.016255827620625496,0.022382967174053192,-0.00035634858068078756,0.010213035158813
0.011302328668534756,-0.003872948233038187,-0.016377128660678864,0.022515572607517242,-0.0003476403362583369,0.010265631601214409
0.011320321820676327,-0.0038271108642220497,-0.016796264797449112,0.022445693612098694,-0.0003676849592011422,0.009871670976281166
0.011336414143443108,-0.004087981767952442,-0.01677386276423931,0.022663744166493416,-0.00035933448816649616,0.009944645687937737
0.011763952672481537,-0.0039775678887963295,-0.016967687755823135,0.022902583703398705,-0.00034071996924467385,0.010726694948971272
0.011229577474296093,-0.0037725279107689857,-0.01632368378341198,0.022541314363479614,-0.00036629015812650323,0.010172631591558456
0.011861765757203102,-0.0037248649168759584,-0.01680883578956127,0.022591302171349525,-0.0003512256371323019,0.010538216680288315
0.011793608777225018,-0.004299812018871307,-0.01637127436697483,0.023037374019622803,-0.00042193575063720345,0.010561908595263958
0.011327365413308144,-0.004157691262662411,-0.016850942745804787,0.022596128284931183,-0.00045666994992643595,0.0103371012955904
0.01165843941271305,-0.003920644987374544,-0.017142606899142265,0.022132063284516335,-0.00043854324030689895,0.010357984341681004
0.012473447248339653,-0.004322919063270092,-0.016863591969013214,0.022220371291041374,-0.000456530338851735,0.01068470161408186
0.011637944728136063,-0.0041316659189760685,-0.017023101449012756,0.022492269054055214,-0.00044017418986186385,0.010494246147572994
0.011838361620903015,-0.004422916565090418,-0.016628097742795944,0.02279788628220558,-0.0004671702045015991,0.010683857835829258
0.011579088866710663,-0.004226790275424719,-0.01677224598824978,0.022374089807271957,-0.0005560139543376863,0.01092380378395319
0.012608020566403866,-0.003919246140867472,-0.016460677608847618,0.021929005160927773,-0.000591847172472626,0.010412944480776787
0.011926473118364811,-0.004034717567265034,-0.01656482182443142,0.022151120007038116,-0.0005293245194479823,0.010804565623402596
0.011475068517029285,-0.004084208980202675,-0.01675843819975853,0.022280896082520485,-0.0005431676399894059,0.010905133560299873
0.012236236594617367,-0.003979980014264584,-0.0165012888610363,0.022462056949734688,-0.0005128383054398,0.01049728225916624
0.011902115307748318,-0.004276962019503117,-0.017435066401958466,0.022698448970913887,-0.0004695924581028521,0.010299655608832836
0.012121899053454399,-0.00406632199883461,-0.016491403803229332,0.02208959497511387,-0.00043207479757256806,0.01040094904601574
0.012088379822671413,-0.003951814491301775,-0.01639753393828869,0.022159865126013756,-0.0004490213468670845,0.010246185585856438
0.01231081411242485,-0.003509555011987686,-0.016521036624908447,0.02273445948958397,-0.0004333511460572481,0.010471225716173649
0.012436269782483578,-0.003494418691843748,-0.01620621047914028,0.023315370082855225,-0.00040638112113811076,0.010706675238907337
0.012462517246603966,-0.004061650484800339,-0.017082251608371735,0.02252565510571003,-0.0004104705585632473,0.010234314948320389
0.011814814992249012,-0.0038967831060290337,-0.017710018903017044,0.02168530598282814,-0.0003911610401701182,0.009915688075125217
0.011999822221696377,-0.0038412066642194986,-0.01761220209300518,0.021644219756126404,-0.0003465930058155209,0.010499588213860989
0.012056107632815838,-0.0038023951929062605,-0.01737787202000618,0.022275887429714203,-0.00032090721651911736,0.010890448465943336
0.012056107632815838,-0.0038023951929062605,-0.01737787202000618,0.022275887429714203,-0.00032090721651911736,0.010890448465943336
0.012098163366317749,-0.003810321446508169,-0.017438596114516258,0.022558584809303284,-0.0003551781119313091,0.01095025334507227
0.012917598709464073,-0.0037415612023323774,-0.017139630392193794,0.021907998248934746,-0.0003366551536601037,0.011151738464832306
0.01213051937520504,-0.0033405416179448366,-0.017816690728068352,0.021706227213144302,-0.00034284789580851793,0.010906551964581013
0.012447210028767586,-0.0036575086414813995,-0.018104854971170425,0.021709294989705086,-0.00034768396290019155,0.010642864741384983
0.012279140762984753,-0.0046023232862353325,-0.017534438520669937,0.021917641162872314,-0.0003658504574559629,0.010790402069687843
0.01262213010340929,-0.004293058067560196,-0.01753978058695793,0.022009221836924553,-0.00035866504185833037,0.010916789062321186
0.012189696542918682,-0.003952172119170427,-0.01768912933766842,0.022209087386727333,-0.0004787328070960939,0.011204785667359829
0.012460333295166492,-0.0036225502844899893,-0.01796538196504116,0.020912617444992065,-0.0004515273030847311,0.01118756178766489
0.012780848890542984,-0.0036411250475794077,-0.017809206619858742,0.020365893840789795,-0.0004718391865026206,0.01088356040418148
0.01248030923306942,-0.003721446730196476,-0.017196379601955414,0.02137554995715618,-0.0004511029983405024,0.011571081355214119
0.013421370647847652,-0.00401126267388463,-0.01779923029243946,0.02104654349386692,-0.00041743137990124524,0.011349107138812542
0.01281583309173584,-0.004041402600705624,-0.017589999362826347,0.022267427295446396,-0.0004475780006032437,0.011448130011558533
0.012869910337030888,-0.0038858235348016024,-0.017553847283124924,0.021877480670809746,-0.00045081175630912185,0.011518530547618866
0.012648794800043106,-0.003793870797380805,-0.01826896332204342,0.02171652391552925,-0.00044978290679864585,0.011406662873923779
0.012896536849439144,-0.004259980749338865,-0.01739518716931343,0.02157178334891796,-0.0004264910821802914,0.01201134268194437
0.013095211237668991,-0.004023747052997351,-0.01758204773068428,0.02160872519016266,-0.00046773356734775007,0.012150723487138748
0.012786643579602242,-0.0038066906854510307,-0.017636243253946304,0.02163742110133171,-0.00042875722283497453,0.01194751262664795
0.01325028482824564,-0.003831153968349099,-0.017059696838259697,0.021518083289265633,-0.00042961249710060656,0.011831123381853104
0.012794166803359985,-0.003854929469525814,-0.017350662499666214,0.02183878794312477,-0.0004298099665902555,0.011537376791238785
0.013416830450296402,-0.00435346644371748,-0.016854628920555115,0.021806539967656136,-0.0004577894287649542,0.011748483404517174
0.013399651274085045,-0.004075630567967892,-0.01737469993531704,0.02157939039170742,-0.0004798960580956191,0.011354195885360241
0.014109080657362938,-0.004320524632930756,-0.01713217794895172,0.02153671346604824,-0.0004637323145288974,0.011634713038802147
0.014178854413330555,-0.004105661995708942,-0.017192082479596138,0.02218969352543354,-0.0005323616787791252,0.01206186693161726
0.013839787803590298,-0.0035234917886555195,-0.016875391826033592,0.02164328843355179,-0.0005352026200853288,0.012371315620839596
0.013839787803590298,-0.0035234917886555195,-0.016875391826033592,0.02164328843355179,-0.0005352026200853288,0.012371315620839596
0.014349689707159996,-0.003768098307773471,-0.01760818064212799,0.022257989272475243,-0.0005111622740514576,0.012567463330924511
0.014297622255980968,-0.00420662434771657,-0.017293468117713928,0.02231426350772381,-0.0004887664690613747,0.01229056529700756
0.01409386657178402,-0.0036078370176255703,-0.017354613170027733,0.022159991785883904,-0.0004546072450466454,0.012689459137618542
0.015134410001337528,-0.0035788605455309153,-0.016654687002301216,0.02208654023706913,-0.0004534851177595556,0.012611079029738903
0.015134410001337528,-0.0035788605455309153,-0.016654687002301216,0.02208654023706913,-0.0004534851177595556,0.012611079029738903
0.014770803973078728,-0.0036957496777176857,-0.01731063425540924,0.02220633253455162,-0.00045203077024780214,0.01246510911732912
0.015001810155808926,-0.0033423814456909895,-0.017551003023982048,0.02176276035606861,-0.0004269825294613838,0.012794067151844501
0.014730633236467838,-0.0029955022037029266,-0.01747925765812397,0.021215060725808144,-0.000417270784964785,0.012775173410773277
0.015614044852554798,-0.0030299234203994274,-0.017637010663747787,0.02167665772140026,-0.0003950027748942375,0.013163923285901546
0.015279239043593407,-0.003301575081422925,-0.01756899617612362,0.022182263433933258,-0.00036397037911228836,0.012586393393576145
0.015509182587265968,-0.003612888278439641,-0.017642667517066002,0.02256876416504383,-0.0003949043166358024,0.01272412296384573
0.015200762078166008,-0.0033716459292918444,-0.01790405809879303,0.022021597251296043,-0.00037537142634391785,0.01282455399632454
0.015362687408924103,-0.0034426278434693813,-0.017379578202962875,0.021212678402662277,-0.00035144557477906346,0.013307231478393078
0.015497926622629166,-0.0032304979395121336,-0.017900139093399048,0.020819682627916336,-0.00038116503856144845,0.013892039656639099
0.015590719878673553,-0.003051039297133684,-0.017484478652477264,0.02081379108130932,-0.0004007523530162871,0.012447735294699669
0.015803802758455276,-0.0030794688500463963,-0.017723452299833298,0.021305447444319725,-0.00039114675018936396,0.012616672553122044
0.015451912768185139,-0.0031981728971004486,-0.017966357991099358,0.021605387330055237,-0.0004707271000370383,0.012727241963148117
0.01586393266916275,-0.003052136627957225,-0.0173861775547266,0.021080225706100464,-0.0005161090521141887,0.013525538146495819
0.01568322628736496,-0.003055739449337125,-0.01780426688492298,0.02105657197535038,-0.00048139525461010635,0.013280672952532768
0.016065143048763275,-0.0028742984868586063,-0.017902472987771034,0.021315865218639374,-0.0005111749633215368,0.013508961535990238
0.015855494886636734,-0.003051403211429715,-0.017961084842681885,0.021929655224084854,-0.00047697246191091835,0.013470066711306572
0.016265029087662697,-0.0030774606857448816,-0.018406003713607788,0.02166195586323738,-0.000490245409309864,0.013560573570430279
0.015888303518295288,-0.0029460762161761522,-0.01762935146689415,0.021545985713601112,-0.0004725823528133333,0.013574923388659954
0.016305258497595787,-0.0031260161194950342,-0.017522819340229034,0.020567163825035095,-0.0005448670708574355,0.013377287425100803
0.016159778460860252,-0.0027991996612399817,-0.01816333457827568,0.02085547335445881,-0.0005171517841517925,0.013374486938118935
0.015698475763201714,-0.0026767831295728683,-0.017594125121831894,0.02120371162891388,-0.00046584042138420045,0.013299708254635334
0.016053061932325363,-0.0027483755256980658,-0.01807413622736931,0.02153935842216015,-0.000422221957705915,0.013764199800789356
0.016532782465219498,-0.002305573085322976,-0.01780599355697632,0.02157207950949669,-0.00042520216084085405,0.014063459821045399
0.01622529700398445,-0.002248503267765045,-0.01833180896937847,0.021879877895116806,-0.0003952117695007473,0.014098862186074257
0.016523506492376328,-0.0023753177374601364,-0.017634853720664978,0.02207217738032341,-0.00042133984970860183,0.01418464258313179
0.016523506492376328,-0.0023753177374601364,-0.017634853720664978,0.02207217738032341,-0.00042133984970860183,0.01418464258313179
0.016393357887864113,-0.002000817796215415,-0.018059315159916878,0.021550415083765984,-0.0004017053870484233,0.014206627383828163
0.016528278589248657,-0.001567669096402824,-0.018539398908615112,0.021508093923330307,-0.00040434926631860435,0.014255487360060215
0.016880011186003685,-0.001140246051363647,-0.0178359542042017,0.0215061753988266,-0.00040582226938568056,0.013798174448311329
0.016762183979153633,-0.0008985356544144452,-0.018346747383475304,0.021448135375976562,-0.00039318285416811705,0.013469339348375797
0.017254266887903214,-0.0009923785692080855,-0.019109774380922318,0.02110338769853115,-0.0003637867630459368,0.013617017306387424
0.017050301656126976,-0.0010295858373865485,-0.017714235931634903,0.02078164927661419,-0.00039929262129589915,0.014271382242441177
0.0169895701110363,-0.0013273584190756083,-0.018001457676291466,0.020778052508831024,-0.0003755982033908367,0.014464911073446274
0.01741945557296276,-0.0012966090580448508,-0.018325434997677803,0.020516781136393547,-0.0003945105418097228,0.014917793683707714
0.017211632803082466,-0.0016867337981238961,-0.018692290410399437,0.020266670733690262,-0.00038392635178752244,0.01458034384995699
0.017475459724664688,-0.0015084589831531048,-0.01848302036523819,0.02067459188401699,-0.0004075208562426269,0.01440118346363306
0.0176312867552042,-0.001269652508199215,-0.017666960135102272,0.021065352484583855,-0.00039154247497208416,0.01425139233469963
0.017839491367340088,-0.0011544220615178347,-0.01812162436544895,0.020962713286280632,-0.0003717266663443297,0.01471603475511074
0.01840030588209629,-0.0010336210252717137,-0.01838250644505024,0.020811766386032104,-0.0004519392387010157,0.014279499650001526
0.017763417214155197,-0.0009186356328427792,-0.01849534548819065,0.02065521664917469,-0.00042450183536857367,0.015069498680531979
0.017848070710897446,-0.0006746788276359439,-0.01852976530790329,0.020379425957798958,-0.00044578505912795663,0.015227419324219227
0.017775854095816612,-0.0007764850743114948,-0.01796986535191536,0.020522641018033028,-0.00042812537867575884,0.014857948757708073
0.017035936936736107,-0.0008153528324328363,-0.018062496557831764,0.02104315347969532,-0.00039773143362253904,0.01461971364915371
0.017926005646586418,-0.0010551169980317354,-0.018367214128375053,0.02121766284108162,-0.00040048413211479783,0.015086638741195202
0.018005866557359695,-0.001179356942884624,-0.017616847530007362,0.020892396569252014,-0.0004024122899863869,0.014164832420647144
0.01809973455965519,-0.0011355070164427161,-0.018259108066558838,0.020624658092856407,-0.00037993694422766566,0.014659798704087734
0.017806705087423325,-0.0010215374641120434,-0.018499955534934998,0.02064516581594944,-0.00038337180740199983,0.015162944793701172
0.017705567181110382,-0.0010228919563814998,-0.018020832911133766,0.02036627195775509,-0.0003858675481751561,0.015236739069223404
0.0187168400734663,-0.0009431850630789995,-0.018180720508098602,0.02022131159901619,-0.0004052405711263418,0.01580745354294777
0.018520018085837364,-0.0008448251173831522,-0.017758293077349663,0.020882295444607735,-0.00042197550646960735,0.015431059524416924
0.01858716644346714,-0.0007494459860026836,-0.018699631094932556,0.020687296986579895,-0.00045841370592825115,0.015200251713395119
0.019554348662495613,-0.0007551332819275558,-0.018259888514876366,0.02004189044237137,-0.0004864230577368289,0.015216324478387833
0.01762067899107933,-0.0006663457024842501,-0.018316633999347687,0.02035154215991497,-0.0007379453163594007,0.014958756975829601
0.01762067899107933,-0.0006663457024842501,-0.018316633999347687,0.02035154215991497,-0.0007379453163594007,0.014958756975829601
0.0179789699614048,-0.0006710919551551342,-0.018603481352329254,0.020425911992788315,-0.0008360923384316266,0.015400881879031658
0.018413906916975975,-0.0007046351674944162,-0.018039323389530182,0.020216818898916245,-0.0007434495491907,0.015222806483507156
0.018508970737457275,-0.0011326128151267767,-0.018405502662062645,0.020549235865473747,-0.0007556155906058848,0.01539875753223896
0.019216429442167282,-0.0012624550145119429,-0.018720680847764015,0.020369676873087883,-0.0006805645534768701,0.015328415669500828
0.01874208264052868,-0.0011955068912357092,-0.017942240461707115,0.020605629310011864,-0.000690072774887085,0.01556245144456625
0.018864881247282028,-0.0010101355146616697,-0.018015652894973755,0.02093701809644699,-0.0006390526541508734,0.015538168139755726
0.0187431238591671,-0.0008704813662916422,-0.0179478507488966,0.021370911970734596,-0.0006023209425620735,0.015614076517522335
0.018713869154453278,-0.0008722966304048896,-0.01818893849849701,0.021344834938645363,-0.0005389362922869623,0.015455536544322968
0.01923077367246151,-0.0007812739931978285,-0.018487442284822464,0.020921722054481506,-0.0005520479753613472,0.015547413378953934
0.01927625760436058,-0.0006324111018329859,-0.01812666282057762,0.020560404285788536,-0.0005204316694289446,0.015834441408514977
0.01899675279855728,-0.0006599236512556672,-0.018302839249372482,0.020533759146928787,-0.0005442982655949891,0.015641968697309494
0.019127199426293373,-0.0006861556903459132,-0.018873702734708786,0.020547017455101013,-0.0005096239037811756,0.015776999294757843
0.01914474554359913,-0.0007097392226569355,-0.018117191269993782,0.021158255636692047,-0.0005347064579837024,0.015494875609874725
0.01910989359021187,-0.0009041157318279147,-0.018797846511006355,0.021310050040483475,-0.0005526497843675315,0.015731189399957657
0.01957673206925392,-0.0009129919344559312,-0.01827213540673256,0.02128450945019722,-0.0005878337542526424,0.01584365777671337
0.019295332953333855,-0.0009073902620002627,-0.018129941076040268,0.02092050015926361,-0.0005746399983763695,0.016049310564994812
0.019029872491955757,-0.0008972377399913967,-0.019351709634065628,0.021453268826007843,-0.0005642049363814294,0.01591307856142521
0.019378742203116417,-0.0008828561985865235,-0.018373114988207817,0.021281994879245758,-0.0005527838366106153,0.015688037499785423
0.01959277130663395,-0.0008723597857169807,-0.018074672669172287,0.021023642271757126,-0.0005733734578825533,0.015946289524435997
0.019328584894537926,-0.0008763791993260384,-0.018413057550787926,0.020303379744291306,-0.0005391461309045553,0.016467995941638947
0.019480915740132332,-0.0008049076423048973,-0.018196217715740204,0.020510688424110413,-0.0006024015601724386,0.016672376543283463
0.019695915281772614,-0.0008146230247803032,-0.01871252991259098,0.020718280225992203,-0.0005459235399030149,0.015420690178871155
0.019763272255659103,-0.000863557041157037,-0.018878664821386337,0.020651569589972496,-0.000558951054699719,0.016128484159708023
0.019763272255659103,-0.000863557041157037,-0.018878664821386337,0.020651569589972496,-0.000558951054699719,0.016128484159708023
0.019700810313224792,-0.0008581001311540604,-0.018270380795001984,0.020563999190926552,-0.0005263357888907194,0.016198333352804184
0.019285937771201134,-0.0008351494325324893,-0.01877574250102043,0.020601749420166016,-0.0005499168764799833,0.016494324430823326
0.019509781152009964,-0.0009307552827522159,-0.018583625555038452,0.020646292716264725,-0.0005075407098047435,0.016515659168362617
0.019509781152009964,-0.0009307552827522159,-0.018583625555038452,0.020646292716264725,-0.0005075407098047435,0.016515659168362617
0.01981310173869133,-0.0009387446916662157,-0.018814802169799805,0.02060908079147339,-0.0005109487101435661,0.01662476547062397
0.019786328077316284,-0.0009338166564702988,-0.01838233694434166,0.020274724811315536,-0.0005482140695676208,0.01681167632341385
0.019784582778811455,-0.001246290048584342,-0.01853008009493351,0.020414382219314575,-0.0005643781623803079,0.016456149518489838
0.01955452375113964,-0.0010754320537671447,-0.018380707129836082,0.020726388320326805,-0.0005356965702958405,0.016756337136030197
0.019748633727431297,-0.0010446072556078434,-0.01851012371480465,0.020299481227993965,-0.0005290888366289437,0.01662353239953518
0.019979722797870636,-0.0008976134704425931,-0.018700653687119484,0.019983699545264244,-0.0005220334860496223,0.016751177608966827
0.019548751413822174,-0.0008961093844845891,-0.01846901699900627,0.02028169110417366,-0.0005650781677104533,0.016876673325896263
0.01943901553750038,-0.0007981961825862527,-0.018293296918272972,0.02026604861021042,-0.000567117880564183,0.01687096618115902
0.02029048092663288,-0.000665060942992568,-0.018827375024557114,0.019963521510362625,-0.0005078540416434407,0.01708430051803589
0.020563649013638496,-0.0006890576332807541,-0.018665805459022522,0.020050588995218277,-0.0005412388127297163,0.01694059744477272
0.020011574029922485,-0.000712985172867775,-0.01866576261818409,0.020295221358537674,-0.0004969358560629189,0.017054051160812378
0.020366786047816277,-0.000732097658328712,-0.018730303272604942,0.019852105528116226,-0.0005258311284705997,0.017196260392665863
0.019599491730332375,-0.0009261592640541494,-0.01773332804441452,0.019843341782689095,-0.0005409451550804079,0.01688748225569725
0.019544629380106926,-0.0009540229220874608,-0.018274635076522827,0.020160896703600883,-0.0005186055786907673,0.017194697633385658
0.02018619515001774,-0.0009423133451491594,-0.018323499709367752,0.020107213407754898,-0.0005433728802017868,0.017008649185299873
0.020258992910385132,-0.0008240910246968269,-0.01794316992163658,0.0194842629134655,-0.0004899026826024055,0.01727694645524025
0.020050356164574623,-0.0008312855497933924,-0.018469322472810745,0.019839121028780937,-0.0005067345919087529,0.01732904650270939
0.01930602639913559,-0.0007551049930043519,-0.018247347325086594,0.019771959632635117,-0.00048146405606530607,0.01717311143875122
0.020214468240737915,-0.000684897939208895,-0.01805659756064415,0.019401293247938156,-0.0004789619706571102,0.017422698438167572
0.020582037046551704,-0.0007086388068273664,-0.01831061579287052,0.01983068883419037,-0.0004754384281113744,0.016898419708013535
0.02034381777048111,-0.0006985898944549263,-0.017657097429037094,0.019892722368240356,-0.0004906935500912368,0.018873825669288635
0.020463477820158005,-0.0006777746020816267,-0.018599804490804672,0.01959392987191677,-0.00044481997611001134,0.017265120521187782
0.020029490813612938,-0.0006994323339313269,-0.017817508429288864,0.01988636702299118,-0.0004536958003882319,0.01756143569946289
0.020067190751433372,-0.0007219246472232044,-0.018269378691911697,0.020497137680649757,-0.0004180901451036334,0.018012523651123047
0.020609349012374878,-0.0006714827031828463,-0.017719632014632225,0.02004821039736271,-0.0004540308436844498,0.01795927807688713
0.020609349012374878,-0.0006714827031828463,-0.017719632014632225,0.02004821039736271,-0.0004540308436844498,0.01795927807688713
0.020733151584863663,-0.0006929690716788173,-0.018003007397055626,0.01987842470407486,-0.0004749047220684588,0.018546616658568382
0.020139537751674652,-0.000627688248641789,-0.018353495746850967,0.019094517454504967,-0.0005049213650636375,0.01845461130142212
0.021475091576576233,-0.0006239761714823544,-0.018247002735733986,0.01841738633811474,-0.0004895374295301735,0.018774185329675674
0.021090446040034294,-0.000597787497099489,-0.018670231103897095,0.019581718370318413,-0.0006668207934126258,0.01824161596596241
0.020655067637562752,-0.0005522686988115311,-0.0185763668268919,0.01989656686782837,-0.0007053603185340762,0.017449267208576202
0.020654812455177307,-0.0005419836961664259,-0.018308261409401894,0.01978246495127678,-0.0007078120252117515,0.017922015860676765
0.021281499415636063,-0.00048542633885517716,-0.018806805834174156,0.019686566665768623,-0.0006578285829164088,0.01889687031507492
0.02152644842863083,-0.0005220616585575044,-0.018867524340748787,0.019859790802001953,-0.0006704239058308303,0.019443098455667496
0.021765267476439476,-0.0004790721577592194,-0.018506212159991264,0.02000255323946476,-0.0006224909448064864,0.0191922876983881
0.022069288417696953,-0.0005123344017192721,-0.018578466027975082,0.020905742421746254,-0.0005740998312830925,0.018904590979218483
0.022378284484148026,-0.0005343462689779699,-0.018795566633343697,0.020543890073895454,-0.0005647955695167184,0.018964022397994995
0.022271737456321716,-0.0005043923738412559,-0.0187408234924078,0.019196858629584312,-0.0005054069915786386,0.019100693985819817
0.022086329758167267,-0.0005735429003834724,-0.019312702119350433,0.01899399422109127,-0.0005388522986322641,0.01932017132639885
0.02192341536283493,-0.000520996400155127,-0.018588559702038765,0.019130336120724678,-0.0005553813534788787,0.019145937636494637
0.022437809035182,-0.0004670758207794279,-0.018903138116002083,0.01862465590238571,-0.0005278469761833549,0.019110068678855896
0.022688964381814003,-0.0004231351485941559,-0.018890822306275368,0.018959475681185722,-0.0005393674946390092,0.018396304920315742
0.02258787490427494,-0.00038675678661093116,-0.01813097484409809,0.0194289181381464,-0.0005166273331269622,0.018786229193210602
0.022544007748365402,-0.00035613702493719757,-0.018649129197001457,0.01912701316177845,-0.0005633168620988727,0.01937958225607872
0.022420575842261314,-0.00033001293195411563,-0.019159045070409775,0.019525175914168358,-0.0005129802157171071,0.01966997981071472
0.02285376377403736,-0.0003074603737331927,-0.018423177301883698,0.01929919235408306,-0.0005405843839980662,0.019357331097126007
0.022974703460931778,-0.0002877928491216153,-0.01779228448867798,0.01913740672171116,-0.0005011861212551594,0.020681042224168777
0.022815341129899025,-0.0002704905637074262,-0.01842481456696987,0.019276082515716553,-0.0005252109840512276,0.018621094524860382
0.022815341129899025,-0.0002704905637074262,-0.01842481456696987,0.019276082515716553,-0.0005252109840512276,0.018621094524860382
0.022921165451407433,-0.00025515322340652347,-0.01824888586997986,0.019134363159537315,-0.0005448758602142334,0.018595844507217407
0.022923635318875313,-0.0002414594346191734,-0.019280986860394478,0.018681829795241356,-0.0005220154998824,0.01939072459936142
0.023328498005867004,-0.00022916212037671357,-0.019258931279182434,0.018975336104631424,-0.0004877278406638652,0.019931156188249588
0.023647964000701904,-0.00020797800971195102,-0.0188042763620615,0.019289299845695496,-0.0005154715618118644,0.020147817209362984
0.023481719195842743,-0.00019878963939845562,-0.01839502900838852,0.019433189183473587,-0.0005494107026606798,0.020329512655735016
0.023007210344076157,-0.00019037911260966212,-0.01810707151889801,0.019000325351953506,-0.0005420164088718593,0.020247140899300575
0.02343812771141529,-0.00018265133257955313,-0.01879402995109558,0.018360299989581108,-0.0005632752436213195,0.02020651288330555
0.023437393829226494,-0.00017552658391650766,-0.01882747933268547,0.01906866580247879,-0.0006467920611612499,0.020377187058329582
0.024124858900904655,-0.00016893672000151128,-0.018844960257411003,0.019294556230306625,-0.0007590865716338158,0.020095735788345337
0.024316586554050446,-0.00016282407159451395,-0.01893596351146698,0.018971627578139305,-0.0007533521275036037,0.019990703091025352
0.024492105469107628,-0.00015713817265350372,-0.018573887646198273,0.01909833401441574,-0.0007191632175818086,0.02036188170313835
0.02437095157802105,-0.00015183632785920054,-0.018860245123505592,0.018953926861286163,-0.0006930378149263561,0.02068854309618473
0.02367023006081581,-0.00014688017836306244,-0.018950127065181732,0.018385382369160652,-0.000668933498673141,0.021031517535448074
0.024123303592205048,-0.00014223725884221494,-0.01863807439804077,0.01897381618618965,-0.0006626558024436235,0.02075205184519291
0.024591775611042976,-0.00013787912030238658,-0.018957646563649178,0.018954912200570107,-0.0006223784293979406,0.02021966129541397
0.02461777627468109,-0.00013378016592469066,-0.01926705241203308,0.018500030040740967,-0.0006439420394599438,0.02017183043062687
0.024324407801032066,-0.00012991948460694402,-0.01853376068174839,0.01874794065952301,-0.000586839800234884,0.02045600675046444
0.024759892374277115,-0.00012628562399186194,-0.018882805481553078,0.018882960081100464,-0.0006119604222476482,0.021086376160383224
0.025324324145913124,-0.00012283843534532934,-0.019330784678459167,0.018504546955227852,-0.0006215734756551683,0.021103089675307274
0.025361793115735054,-0.00011956239904975519,-0.018526043742895126,0.01863476075232029,-0.0005892383051104844,0.020657166838645935
0.025521637871861458,-0.00011647926294244826,-0.01883970946073532,0.01835407130420208,-0.0006218840135261416,0.02027609385550022
0.02521464414894581,-0.00011354163871146739,-0.01912989281117916,0.018603693693876266,-0.0006546871154569089,0.021051637828350067
0.02491050399839878,-0.00011074753274442628,-0.018648335710167885,0.018938714638352394,-0.0005962179857306182,0.020922306925058365
0.02559240348637104,-0.00010808736988110468,-0.018867364153265953,0.01853921078145504,-0.0006208028644323349,0.02106481045484543
0.025664187967777252,-0.00010555196786299348,-0.019345659762620926,0.018482929095625877,-0.0005700578913092613,0.021015429869294167
0.025412116199731827,-0.00010313318489352241,-0.01861494407057762,0.018732555210590363,-0.0005924426368437707,0.021064380183815956
0.025667808949947357,-0.00010082231892738491,-0.019250942394137383,0.018768997862935066,-0.0006467520142905414,0.021475739777088165
0.025931846350431442,-9.861297439783812e-05,-0.019209014251828194,0.01891041360795498,-0.0006532527622766793,0.022530971094965935
0.02602023258805275,-9.649832645663992e-05,-0.01855187863111496,0.01906002312898636,-0.0006299285450950265,0.022140201181173325
0.026161907240748405,-9.447250340599567e-05,-0.018958110362291336,0.018961437046527863,-0.0005671561229974031,0.021682295948266983
0.026409879326820374,-9.066580241778865e-05,-0.018870944157242775,0.019070137292146683,-0.0006037652492523193,0.020729966461658478
0.026391856372356415,-8.887511648936197e-05,-0.018724065274000168,0.019315235316753387,-0.00057643698528409,0.02088073454797268
0.026391856372356415,-8.887511648936197e-05,-0.018724065274000168,0.019315235316753387,-0.00057643698528409,0.02088073454797268
0.026655394583940506,-8.715392323210835e-05,-0.01885272189974785,0.019912511110305786,-0.0006065939087420702,0.021985545754432678
0.02664927951991558,-8.549800986656919e-05,-0.019092444330453873,0.01963701657950878,-0.0006409375928342342,0.022859910503029823
0.02637305110692978,-8.390399307245389e-05,-0.01983535662293434,0.018718117848038673,-0.0006621614447794855,0.022858133539557457
0.026109378784894943,-8.236819121520966e-05,-0.019597172737121582,0.01838548295199871,-0.0006735292263329029,0.022236058488488197
0.026680396869778633,-8.088770118774846e-05,-0.018794244155287743,0.018445264548063278,-0.0007643961580470204,0.02191292867064476
0.02641356736421585,-7.945943070808426e-05,-0.018789971247315407,0.018483204767107964,-0.0008703973144292831,0.022127505391836166
0.026642488315701485,-7.808081136317924e-05,-0.019064808264374733,0.018741825595498085,-0.0008804068784229457,0.022648122161626816
0.026941053569316864,-7.674907828914002e-05,-0.019017888233065605,0.018746331334114075,-0.0008547562756575644,0.02250225655734539
0.02692883089184761,-6.097213190514594e-05,-0.019800487905740738,0.018197298049926758,-0.0008093090727925301,0.02260667085647583
0.026977933943271637,6.644534551014658e-06,-0.019606290385127068,0.01864292472600937,-0.0008222552132792771,0.022424044087529182
0.026930661872029305,4.885765156359412e-05,-0.018698593601584435,0.018784161657094955,-0.0008304828661493957,0.022067734971642494
0.02730332687497139,6.408545596059412e-05,-0.019829414784908295,0.019210508093237877,-0.0008087450987659395,0.02236156351864338
0.026862401515245438,6.358770042425022e-05,-0.020630309358239174,0.019423196092247963,-0.000845332455355674,0.02342415787279606
0.02732861414551735,6.249238504096866e-05,-0.02001047693192959,0.01864759251475334,-0.0007843940984457731,0.022062283009290695
0.028177669271826744,6.142623897176236e-05,-0.01959650218486786,0.01823093183338642,-0.0008152900263667107,0.021888218820095062
0.02752404846251011,6.0395825130399317e-05,-0.020080313086509705,0.018048664554953575,-0.0006996837328188121,0.02236717939376831
0.027087461203336716,5.9399284509709105e-05,-0.019869664683938026,0.018066754564642906,-0.0007179765962064266,0.022735383361577988
0.024208083748817444,5.843510007252917e-05,-0.01927187852561474,0.018544437363743782,-0.0006912192911840975,0.022739019244909286
0.027987787500023842,5.7501791161485016e-05,-0.019871091470122337,0.018660608679056168,-0.0006643804372288287,0.022584697231650352
0.028529928997159004,6.591260898858309e-05,-0.020091770216822624,0.01814374141395092,-0.0006036772392690182,0.022422978654503822
0.02748362347483635,6.95873677614145e-05,-0.020075349137187004,0.018155386671423912,-0.0006188440602272749,0.023052340373396873
0.027714721858501434,6.858976121293381e-05,-0.020428039133548737,0.018708867952227592,-0.0005783369415439665,0.022864852100610733
0.028092889115214348,0.00030645504011772573,-0.020072970539331436,0.018224962055683136,-0.0005161077715456486,0.02288939617574215
0.028088169172406197,0.0003151653800159693,-0.020083269104361534,0.0183769091963768,-0.0005036855000071228,0.023168213665485382
0.027080781757831573,0.00027677591424435377,-0.020269781351089478,0.018118152394890785,-0.0005880423705093563,0.023353800177574158
0.027080781757831573,0.00027677591424435377,-0.020269781351089478,0.018118152394890785,-0.0005880423705093563,0.023353800177574158
0.027591345831751823,0.0003107365046162158,-0.0197961013764143,0.01855221390724182,-0.0005636581918224692,0.023639552295207977
0.0284639410674572,0.0002957188989967108,-0.020148690789937973,0.018311455845832825,-0.0008023384143598378,0.023421164602041245
0.028498683124780655,0.000280389009276405,-0.02031872607767582,0.01812133379280567,-0.0006998826283961535,0.023579521104693413
0.028239797800779343,0.00030915465322323143,-0.02013244293630123,0.018228137865662575,-0.0006067260983400047,0.02356857806444168
0.027858752757310867,0.000296319427434355,-0.02033592388033867,0.0181367676705122,-0.0006335573852993548,0.02332109585404396
0.028587233275175095,0.00028302904684096575,-0.020899871364235878,0.01845763437449932,-0.000572740682400763,0.02365490235388279
0.028812402859330177,0.0003090130048803985,-0.021103793755173683,0.018512368202209473,-0.0005924662691541016,0.023591797798871994
0.02847483567893505,0.00029678590362891555,-0.020205823704600334,0.01808084361255169,-0.0005507487803697586,0.02377595566213131
0.028613025322556496,0.00035131972981616855,-0.02058858424425125,0.018420284613966942,-0.0005070443148724735,0.023751860484480858
0.02851509116590023,0.00037781306309625506,-0.02087293565273285,0.01798628270626068,-0.0005315962480381131,0.02512030117213726
0.028728438541293144,0.0003730763273779303,-0.021001892164349556,0.017962075769901276,-0.0004988146247342229,0.023367393761873245
0.029213985428214073,0.00040046972571872175,-0.02061888761818409,0.0181789118796587,-0.00042054083314724267,0.023340364918112755
0.029192747548222542,0.00038259432767517865,-0.020734338089823723,0.017880301922559738,-0.00044521610834635794,0.02379138581454754
0.029167361557483673,0.00041157513624057174,-0.020856333896517754,0.018456723541021347,-0.00047956471098586917,0.02434185892343521
0.02925286442041397,0.0006796075031161308,-0.021016236394643784,0.01853754185140133,-0.0005015008500777185,0.025281373411417007
0.029137248173356056,0.0007197881932370365,-0.02101057395339012,0.017926901578903198,-0.0004832483537029475,0.02536471001803875
0.02917633019387722,0.0007055426831357181,-0.021039897575974464,0.018090780824422836,-0.0007429627003148198,0.024826502427458763
0.02950439602136612,0.0006639027851633728,-0.020628340542316437,0.018080055713653564,-0.0007736181723885238,0.02380119450390339
0.029522784054279327,0.0006568952812813222,-0.0202924907207489,0.01797323115170002,-0.0007050716667436063,0.02369525097310543
0.02974751964211464,0.0006266075652092695,-0.02076374739408493,0.018101578578352928,-0.0007013719296082854,0.02433420903980732
0.029857875779271126,0.0006639565108343959,-0.021019047126173973,0.0176063384860754,-0.0006520789465866983,0.02511782944202423
0.029558321461081505,0.0006970835383981466,-0.020201297476887703,0.018115311861038208,-0.0006541680777445436,0.024589788168668747
0.029988164082169533,0.0007203315035440028,-0.02009527198970318,0.017920950427651405,-0.0006172480643726885,0.024628639221191406
0.029818974435329437,0.0007387762889266014,-0.020375704392790794,0.01812184602022171,-0.000569630297832191,0.025056608021259308
0.029731951653957367,0.0009163979557342827,-0.020253002643585205,0.01831766590476036,-0.0005171483498997986,0.025316115468740463
0.030420754104852676,0.0009050918160937726,-0.02013910561800003,0.017792487516999245,-0.0004975319025106728,0.02408617176115513
0.030420754104852676,0.0009050918160937726,-0.02013910561800003,0.017792487516999245,-0.0004975319025106728,0.02408617176115513
0.031066540628671646,0.0008036554791033268,-0.02036694996058941,0.018537193536758423,-0.0005263425409793854,0.024267900735139847
0.030815860256552696,0.000810291210655123,-0.019884826615452766,0.018505249172449112,-0.0005553645314648747,0.024803010746836662
0.029940439388155937,0.0007422401686199009,-0.020342297852039337,0.018533986061811447,-0.0006615291349589825,0.025094060227274895
0.029235079884529114,0.0007841129554435611,-0.02092093974351883,0.018436778336763382,-0.0006909254589118063,0.025279451161623
0.030337896198034286,0.0008087161113508046,-0.02019563503563404,0.017912430688738823,-0.0007185546564869583,0.025479694828391075
0.03078429028391838,0.0012136438162997365,-0.020223192870616913,0.017750009894371033,-0.0007327913190238178,0.025471622124314308
0.03047722578048706,0.0015106163918972015,-0.02054859884083271,0.017448075115680695,-0.000750080100260675,0.02665243111550808
0.03163497895002365,0.001410014694556594,-0.020142748951911926,0.01772027648985386,-0.0007738004787825048,0.02515275962650776
0.030921034514904022,0.0015442438889294863,-0.02006581798195839,0.018034618347883224,-0.0008030087337829173,0.024829940870404243
0.03078058362007141,0.00145281245931983,-0.02089340053498745,0.01768741011619568,-0.0007569801528006792,0.02492627501487732
0.030255760997533798,0.0013833108823746443,-0.02157057821750641,0.017264073714613914,-0.0007630703039467335,0.02525552175939083
0.030197856947779655,0.0015928995562717319,-0.02065756358206272,0.017115335911512375,-0.0007645413861609995,0.02569781430065632
0.03100396692752838,0.0015499090077355504,-0.021012650802731514,0.01735241897404194,-0.000711897446308285,0.02603323385119438
0.030895832926034927,0.0019785489421337843,-0.020926102995872498,0.018216390162706375,-0.00064915104303509,0.025900542736053467
0.0306314155459404,0.0018538357689976692,-0.020792555063962936,0.017763802781701088,-0.0006216606707312167,0.026033826172351837
0.03093555197119713,0.001959855668246746,-0.022447951138019562,0.01700410433113575,-0.0005564545281231403,0.026152780279517174
0.030860386788845062,0.0018389592878520489,-0.0209627915173769,0.016646061092615128,-0.0005810051807202399,0.026223821565508842
0.030871862545609474,0.0020034913904964924,-0.02061374858021736,0.016777701675891876,-0.0005779744242317975,0.026010366156697273
0.03131064400076866,0.0019955956377089024,-0.021137932315468788,0.017489580437541008,-0.0005656092544086277,0.025820830836892128
0.03125881031155586,0.002221735194325447,-0.021202052012085915,0.017404664307832718,-0.0005573945818468928,0.02569485269486904
0.031025569885969162,0.002363581210374832,-0.02140478789806366,0.017785033211112022,-0.0005479298415593803,0.026454666629433632
0.03114859014749527,0.0022414689883589745,-0.021147307008504868,0.018185516819357872,-0.0005526235909201205,0.026688896119594574
0.031171483919024467,0.0022331043146550655,-0.020721938461065292,0.017885178327560425,-0.0005799627979286015,0.02649577148258686
0.03145870193839073,0.002042158506810665,-0.020909616723656654,0.017902614548802376,-0.0005672631086781621,0.025454239919781685
0.030738916248083115,0.00232507660984993,-0.021100249141454697,0.01733776368200779,-0.0005902423872612417,0.025265755131840706
0.03195113316178322,0.0024566343054175377,-0.02096915990114212,0.017421618103981018,-0.0006065842462703586,0.02617042139172554
0.031987160444259644,0.0026515538338571787,-0.02121077850461006,0.017359908670186996,-0.0007080264040268958,0.026937924325466156
0.030939577147364616,0.002724239369854331,-0.021535774692893028,0.01705746166408062,-0.0008453981718048453,0.026605578139424324
0.031244022771716118,0.002787371166050434,-0.021409517154097557,0.01759934611618519,-0.0008601480512879789,0.026649989187717438
0.031597089022397995,0.0028676586225628853,-0.020690299570560455,0.01747456192970276,-0.0008654978009872139,0.027286864817142487
0.031597089022397995,0.0028676586225628853,-0.020690299570560455,0.01747456192970276,-0.0008654978009872139,0.027286864817142487
0.033041954040527344,0.002761435927823186,-0.02101246640086174,0.017544753849506378,-0.0009902132442221045,0.02650615945458412
0.031578004360198975,0.00340976077131927,-0.021334940567612648,0.017136000096797943,-0.0008799811475910246,0.0259820856153965
0.031489357352256775,0.0034827643539756536,-0.021384257823228836,0.017492620274424553,-0.0008493120549246669,0.0256499033421278
0.03215767443180084,0.003137929830700159,-0.0212885532528162,0.017574124038219452,-0.0007728186319582164,0.02651253342628479
0.03223368152976036,0.0030265911482274532,-0.02146851271390915,0.01747247949242592,-0.0007745650946162641,0.02698664553463459
0.03235497698187828,0.0035677545238286257,-0.021584440022706985,0.017613030970096588,-0.0007001630146987736,0.0270531065762043
0.0336938314139843,0.0039341324009001255,-0.021117715165019035,0.017541101202368736,-0.0006640680367127061,0.026946501806378365
0.03369731083512306,0.003976008389145136,-0.02068771794438362,0.017760230228304863,-0.0006880133296363056,0.026907702907919884
0.0323360338807106,0.003915153909474611,-0.02152213081717491,0.01765989512205124,-0.0007103215320967138,0.02690226025879383
0.03239596635103226,0.003961497452110052,-0.02178443782031536,0.017260687425732613,-0.0008776937611401081,0.026877228170633316
0.03312481939792633,0.003933862783014774,-0.021137785166502,0.01758629083633423,-0.001037382404319942,0.027209078893065453
0.0333876758813858,0.004187387879937887,-0.020970217883586884,0.017189133912324905,-0.0010248920880258083,0.027271538972854614
0.03349348157644272,0.004255009815096855,-0.021057233214378357,0.017682483419775963,-0.0009588692337274551,0.02742753177881241
0.03335660696029663,0.004056932404637337,-0.021254483610391617,0.01795204170048237,-0.0008946506422944367,0.02767644077539444
0.03358868882060051,0.004385809414088726,-0.020629476755857468,0.017532147467136383,-0.0008220337913371623,0.02735784649848938
0.03328780084848404,0.004238316789269447,-0.020960314199328423,0.01738319732248783,-0.0007907805847935379,0.02755647525191307
0.033105671405792236,0.0044027287513017654,-0.021427569910883904,0.016947109252214432,-0.000803145463578403,0.027324575930833817
0.033957455307245255,0.005065575707703829,-0.021792765706777573,0.01728023961186409,-0.0007624413701705635,0.027184365317225456
0.03411218523979187,0.005057180300354958,-0.02180154249072075,0.017381373792886734,-0.0007738430285826325,0.02763308957219124
0.03415549546480179,0.004396675620228052,-0.021516595035791397,0.01749562658369541,-0.0008577723638154566,0.027726031839847565
0.034184135496616364,0.004243506118655205,-0.02103736810386181,0.017831377685070038,-0.0008813962922431529,0.027548395097255707
0.03410360962152481,0.004788572899997234,-0.02121698297560215,0.017493262887001038,-0.0008850122103467584,0.02776225656270981
0.03449215367436409,0.004833302926272154,-0.021290495991706848,0.01736084744334221,-0.000886844820342958,0.028026141226291656
0.03392653539776802,0.005057365633547306,-0.021835776045918465,0.017478102818131447,-0.0009464335162192583,0.027576832100749016
0.03444476053118706,0.0051198359578847885,-0.02215958759188652,0.017177099362015724,-0.0009547297959215939,0.027709517627954483
0.03525356575846672,0.005159661173820496,-0.02176903560757637,0.017818337306380272,-0.0009378613904118538,0.028025195002555847
0.03470861166715622,0.0049490658566355705,-0.02183990180492401,0.017609456554055214,-0.0008304668008349836,0.028369860723614693
0.03431897610425949,0.005552091170102358,-0.022234566509723663,0.01762864552438259,-0.000831693469081074,0.028761262074112892
0.03484678640961647,0.0053133671171963215,-0.02192568965256214,0.01774032786488533,-0.0007753586396574974,0.028651181608438492
0.03484678640961647,0.0053133671171963215,-0.02192568965256214,0.01774032786488533,-0.0007753586396574974,0.028651181608438492
0.03540080785751343,0.005924624856561422,-0.021617190912365913,0.017161058261990547,-0.0007989642908796668,0.02867264859378338
0.03536732494831085,0.005346348974853754,-0.021250946447253227,0.017574746161699295,-0.0008108081528916955,0.02867680788040161
0.03525342419743538,0.005384613759815693,-0.021833401173353195,0.017536848783493042,-0.0009701203089207411,0.0286421962082386
0.035808756947517395,0.005564868915826082,-0.022642169147729874,0.017614124342799187,-0.0009899867000058293,0.0280409324914217
0.03706340491771698,0.005637591239064932,-0.020710662007331848,0.01683095097541809,-0.0008723437786102295,0.02890559285879135
0.037063635885715485,0.006072653457522392,-0.02174777165055275,0.017091723158955574,-0.0008691411931067705,0.029759807512164116
0.03430299088358879,0.005837598815560341,-0.021962890401482582,0.01732826791703701,-0.0008505653822794557,0.028618179261684418
0.036216504871845245,0.0051054940558969975,-0.022423282265663147,0.0167873315513134,-0.000829671451356262,0.027739593759179115
0.036521825939416885,0.005890931002795696,-0.021807903423905373,0.01673480123281479,-0.0008446588763035834,0.029070429503917694
0.03655536472797394,0.007339208386838436,-0.021698663011193275,0.016968118026852608,-0.0008525634184479713,0.029325036332011223
0.037400174885988235,0.0065253726206719875,-0.02213691733777523,0.017521468922495842,-0.00084411830175668,0.029120301827788353
0.037586670368909836,0.006130771245807409,-0.02222776599228382,0.017056094482541084,-0.000895843782927841,0.03040815144777298
0.03557990491390228,0.005650764796882868,-0.021588174626231194,0.01730509288609028,-0.0009656443726271391,0.03049853816628456
0.03674713894724846,0.006041203625500202,-0.02169281803071499,0.017742997035384178,-0.0009599382756277919,0.02917470596730709
0.037331320345401764,0.0068471855483949184,-0.022311177104711533,0.017777131870388985,-0.000921263825148344,0.028055578470230103
0.03763812035322189,0.006841236259788275,-0.022292746230959892,0.017697062343358994,-0.0008647533250041306,0.029109803959727287
0.037051960825920105,0.006240779999643564,-0.022220637649297714,0.017238827422261238,-0.000833928759675473,0.03028174676001072
0.03676575422286987,0.006459332536906004,-0.02182859741151333,0.016714995726943016,-0.0008319530170410872,0.03038019686937332
0.03743703290820122,0.006483632605522871,-0.021812686696648598,0.016285134479403496,-0.0008094372460618615,0.0302751362323761
0.03759801760315895,0.006609565578401089,-0.02209646813571453,0.016225125640630722,-0.0008184810867533088,0.030188292264938354
0.037427015602588654,0.006501456722617149,-0.022196318954229355,0.017054162919521332,-0.0007876582676544785,0.03015960566699505
0.037151411175727844,0.006433360744267702,-0.021867647767066956,0.017074568197131157,-0.000920402817428112,0.03016515076160431
0.037237271666526794,0.006606539711356163,-0.02136526256799698,0.017716949805617332,-0.0009248469141311944,0.030310258269309998
0.0371042862534523,0.007422538008540869,-0.021857600659132004,0.017726674675941467,-0.000862975837662816,0.02988247759640217
0.0378539152443409,0.0066852574236691,-0.022123435512185097,0.017406707629561424,-0.0008560833521187305,0.030336743220686913
0.0378539152443409,0.0066852574236691,-0.022123435512185097,0.017406707629561424,-0.0008560833521187305,0.030336743220686913
0.037383366376161575,0.0068221562542021275,-0.021159151569008827,0.0175710991024971,-0.0008291850099340081,0.030462929978966713
0.039083633571863174,0.00695032300427556,-0.021648390218615532,0.017873112112283707,-0.0007765095215290785,0.03090253286063671
0.03980117291212082,0.006877635605633259,-0.022139769047498703,0.017392253503203392,-0.0008422320825047791,0.030833473429083824
0.03715170919895172,0.0066001154482364655,-0.021511800587177277,0.016839440912008286,-0.0009250607108697295,0.030901234596967697
0.03725363686680794,0.006601433735340834,-0.021522797644138336,0.017067113891243935,-0.0011009520385414362,0.030672481283545494
0.03882118687033653,0.00683565204963088,-0.02143184281885624,0.016464902088046074,-0.0011274389689788222,0.03064666874706745
0.03865079954266548,0.007516935933381319,-0.021841734647750854,0.017001865431666374,-0.0012883821036666632,0.030137959867715836
0.039306361228227615,0.007032343652099371,-0.021746112033724785,0.017268775030970573,-0.0012712040916085243,0.030903195962309837
0.03966757282614708,0.006596787367016077,-0.021827341988682747,0.017459172755479813,-0.0012032899539917707,0.031828682869672775
0.03829050064086914,0.005242862273007631,-0.021988019347190857,0.017247401177883148,-0.0010978132486343384,0.03152374178171158
0.03875409811735153,0.004040997941046953,-0.022114118561148643,0.01738695241510868,-0.0010061314096674323,0.030328264459967613
0.03925524279475212,0.004153992515057325,-0.02148311957716942,0.017607431858778,-0.0008861171663738787,0.029649673029780388
0.03926578909158707,0.004687205888330936,-0.02170368656516075,0.01752764917910099,-0.000734597269911319,0.03060678392648697
0.039405457675457,0.005005797371268272,-0.021946538239717484,0.017357492819428444,-0.0006208453560248017,0.030945727601647377
0.03858029097318649,0.004804559051990509,-0.022139176726341248,0.017613183706998825,-0.0006381311686709523,0.03162447363138199
0.03916404768824577,0.004705995786935091,-0.0222557932138443,0.017145216464996338,-0.0006527454243041575,0.03176656365394592
0.039582107216119766,0.005127598065882921,-0.021946841850876808,0.017172086983919144,-0.0006759907118976116,0.031447913497686386
0.03957229480147362,0.005077784415334463,-0.022277917712926865,0.01767911948263645,-0.0007240301347337663,0.03033718466758728
0.039442066103219986,0.005160603206604719,-0.021994318813085556,0.0171175729483366,-0.0007652748026885092,0.0303291454911232
0.04025045409798622,0.00488502811640501,-0.02201412059366703,0.01705460250377655,-0.0007846087100915611,0.03147677332162857
0.039366282522678375,0.004769418388605118,-0.02266259305179119,0.01652318611741066,-0.0007985499687492847,0.03196938335895538
0.03995199501514435,0.00477000093087554,-0.022196762263774872,0.016918886452913284,-0.0007701994036324322,0.031645551323890686
0.03998890519142151,0.004525340627878904,-0.02301386371254921,0.016848044469952583,-0.0009442442678846419,0.031614866107702255
0.039683353155851364,0.005075265187770128,-0.022820642217993736,0.01648818701505661,-0.0009472516248933971,0.031809307634830475
0.039893828332424164,0.005361534655094147,-0.021780382841825485,0.016615917906165123,-0.0008811258594505489,0.03181884065270424
0.04012022912502289,0.004642869345843792,-0.022059690207242966,0.015975356101989746,-0.0008793884771876037,0.031801488250494
0.04053964838385582,0.004410766065120697,-0.023831285536289215,0.01631496474146843,-0.0008911628974601626,0.03218497708439827
0.04023941978812218,0.004488611128181219,-0.022416837513446808,0.01595969870686531,-0.0009744624840095639,0.032086730003356934
0.040275365114212036,0.00476590171456337,-0.022753356024622917,0.016721108928322792,-0.0009072586544789374,0.032355815172195435
0.040275365114212036,0.00476590171456337,-0.022753356024622917,0.016721108928322792,-0.0009072586544789374,0.032355815172195435
0.04068046435713768,0.005276964046061039,-0.023698905482888222,0.017673276364803314,-0.000931935734115541,0.03222218528389931
0.04061467945575714,0.005388116929680109,-0.02280358038842678,0.018023373559117317,-0.0009288041037507355,0.031895801424980164
0.04067545756697655,0.004814011510461569,-0.02360822632908821,0.01807323284447193,-0.0008902841946110129,0.03203625604510307
0.04183272644877434,0.00493880920112133,-0.023318614810705185,0.018299490213394165,-0.0008323604124598205,0.03227229043841362
0.04066852107644081,0.0050624338909983635,-0.022656703367829323,0.01836312934756279,-0.0008291327976621687,0.032651014626026154
0.03987554833292961,0.0049411701038479805,-0.022732418030500412,0.017468975856900215,-0.000754634034819901,0.032572902739048004
0.04150494933128357,0.005825170315802097,-0.023830508813261986,0.01739589497447014,-0.0006940409657545388,0.03231439366936684
0.0413067489862442,0.005386959295719862,-0.02334907464683056,0.017245441675186157,-0.0006631163996644318,0.032061878591775894
0.04243171960115433,0.005280376877635717,-0.02329411543905735,0.017479058355093002,-0.0006363222491927445,0.03210679069161415
0.041200995445251465,0.005448749288916588,-0.022846505045890808,0.01848292537033558,-0.0006418495904654264,0.032412655651569366
0.039320819079875946,0.005493655800819397,-0.022904084995388985,0.018157145008444786,-0.0006436310359276831,0.03261220082640648
0.04092123359441757,0.00590605428442359,-0.02375940792262554,0.017248546704649925,-0.0006947354995645583,0.03241949900984764
0.04036117345094681,0.006497910711914301,-0.023726146668195724,0.01732070930302143,-0.0007614021305926144,0.03233058750629425
0.04149381071329117,0.005849467124789953,-0.023387588560581207,0.017513563856482506,-0.0008050314499996603,0.03250555321574211
0.04140421375632286,0.005899676121771336,-0.02302655205130577,0.018460355699062347,-0.00082002131966874,0.03318193182349205
0.04079286754131317,0.00565536180511117,-0.02335854060947895,0.01806153915822506,-0.001178012229502201,0.03343832492828369
0.041634220629930496,0.00598552543669939,-0.023216700181365013,0.017251966521143913,-0.001146270427852869,0.03213389962911606
0.04118691757321358,0.00654055317863822,-0.023507248610258102,0.017447907477617264,-0.0011070473119616508,0.031994570046663284
0.041356686502695084,0.005928467493504286,-0.023861069232225418,0.016497107222676277,-0.0010169848101213574,0.03273366391658783
0.04158613830804825,0.005757695995271206,-0.023579150438308716,0.01801881194114685,-0.0009205230744555593,0.03246022388339043
0.04156093671917915,0.005585701670497656,-0.02312602661550045,0.016392074525356293,-0.0007781295571476221,0.03396816924214363
