davideferrari95/blind_handover_controller/data/Test 290 - [2024-02-08 -- 13-58-57]/joint_states_data.csv
shoulder_pan_joint,shoulder_lift_joint,elbow_joint,wrist_1_joint,wrist_2_joint,wrist_3_joint
0.003360639326274395,0.008408198133111,-0.010449264198541641,0.001981624634936452,1.4208503507794026e-23,0.0032308578956872225
0.00347465043887496,0.007646303158253431,-0.010980178602039814,0.0019353999523445964,9.277138351752986e-25,0.0029677371494472027
0.00347465043887496,0.007646303158253431,-0.010980178602039814,0.0019353999523445964,9.277138351752986e-25,0.0029677371494472027
0.003277310635894537,0.007440225686877966,-0.010092439129948616,0.002037634840235114,6.0573079037848e-26,0.003047495847567916
0.0036087047774344683,0.008103538304567337,-0.010800347663462162,0.001944933901540935,3.9549892002505305e-27,0.0029665399342775345
0.0033582139294594526,0.008247909136116505,-0.009997745975852013,0.002117086434736848,2.5823253880332936e-28,0.002945598913356662
0.0034651709720492363,0.008152946829795837,-0.01004731934517622,0.0019915164448320866,1.686074027260142e-29,0.0028252205811440945
0.0032186349853873253,0.007195751648396254,-0.010208833031356335,0.001976221101358533,1.100885912454693e-30,0.0030351588502526283
0.0032710591331124306,0.008076591417193413,-0.010231522843241692,0.001840535318478942,7.187998079748558e-32,0.003147699637338519
0.003331349929794669,0.007872560061514378,-0.010026060976088047,0.0018982429755851626,4.69324899039231e-33,0.0028683985583484173
0.003333057276904583,0.008085254579782486,-0.010291524231433868,0.0017769100377336144,3.0643562747177926e-34,0.0027774053160101175
0.0031307563185691833,0.0077321529388427734,-0.010279678739607334,0.0020011067390441895,2.0008057489908426e-35,0.002796759596094489
0.003466265043243766,0.007893570698797703,-0.009818153455853462,0.0019068745896220207,1.3063831607707696e-36,0.002835234859958291
0.003321071621030569,0.008395940996706486,-0.009939268231391907,0.0021516946144402027,8.529748033376634e-38,0.003188277827575803
0.0035285265184938908,0.007815669290721416,-0.009777693077921867,0.0020376755855977535,5.56931641271716e-39,0.0031367859337478876
0.003235194133594632,0.007436609361320734,-0.010742191225290298,0.00201567355543375,3.6363695149229003e-40,0.0029476762283593416
0.0031695421785116196,0.008791128173470497,-0.010195066221058369,0.0018550025997683406,2.3742199881055376e-41,0.003063056617975235
0.0032392279244959354,0.008079388178884983,-0.009569345973432064,0.001803488819859922,1.5498361015432477e-42,0.003317601280286908
0.003607512218877673,0.007588134612888098,-0.009966555051505566,0.001714720274321735,1.0089348943138683e-43,0.0032589875627309084
0.0033323843963444233,0.008023852482438087,-0.010686437599360943,0.0018841068958863616,7.006492321624085e-45,0.003076169639825821
0.0035200961865484715,0.008193369954824448,-0.009890315122902393,0.0018073497340083122,0.0,0.0028296413365751505
0.003236244898289442,0.00811904389411211,-0.009937576949596405,0.001995072001591325,0.0,0.002840265166014433
0.003236244898289442,0.00811904389411211,-0.009937576949596405,0.001995072001591325,0.0,0.002840265166014433
0.0030270314309746027,0.008249323815107346,-0.009858855046331882,0.001889923121780157,0.0,0.0028893330600112677
0.0031050124671310186,0.008065196685492992,-0.009613681584596634,0.0019330538343638182,0.0,0.003369774902239442
0.0032458927016705275,0.00817240308970213,-0.010688403621315956,0.001988918287679553,0.0,0.0036906017921864986
0.002787053817883134,0.007594708353281021,-0.009174897335469723,0.0021563211921602488,0.0,0.0034168774727731943
0.002668130211532116,0.008703731000423431,-0.010095922276377678,0.0021532156970351934,0.0,0.0031800027936697006
0.0028432642575353384,0.008035743609070778,-0.009609543718397617,0.002108328975737095,0.0,0.0031494428403675556
0.0028987580444663763,0.007893549278378487,-0.009599683806300163,0.0020519266836345196,0.0,0.003201523097231984
0.00300300819799304,0.008053015917539597,-0.010410578921437263,0.002001854358240962,0.0,0.0031147433910518885
0.0028290210757404566,0.008396569639444351,-0.00983849260956049,0.001968418713659048,0.0,0.003483874024823308
0.002848510630428791,0.007936383597552776,-0.009207907132804394,0.0019613783806562424,0.0,0.003317193826660514
0.002731175161898136,0.008243273943662643,-0.01010668370872736,0.001949863275513053,0.0,0.0035121794790029526
0.0028862764593213797,0.00804478581994772,-0.009889655746519566,0.0020175727549940348,0.0,0.0034044377971440554
0.003209067974239588,0.007900155149400234,-0.010008984245359898,0.00200077542103827,0.0,0.0032791642006486654
0.0030094729736447334,0.007868860848248005,-0.010085172951221466,0.0020694963168352842,0.0,0.003194695571437478
0.0031477247830480337,0.007907876744866371,-0.009853644296526909,0.0020472384057939053,0.0,0.0034638973884284496
0.0030263084918260574,0.008294792845845222,-0.00962970033288002,0.002330461749807,0.0,0.0032953585032373667
0.0031545248348265886,0.008248528465628624,-0.010810323059558868,0.0024670029524713755,0.0,0.0035167571622878313
0.002736553782597184,0.007878248579800129,-0.010250660590827465,0.0023904675617814064,0.0,0.0036802797112613916
0.0027904678136110306,0.008160128258168697,-0.009708289057016373,0.002171175554394722,0.0,0.003389426041394472
0.003051383886486292,0.008185846731066704,-0.010281365364789963,0.0020685303024947643,0.0,0.0031851953826844692
0.0031070613767951727,0.0076040057465434074,-0.00997348502278328,0.0018749483861029148,0.0,0.0030863143038004637
0.0029644081369042397,0.007419758941978216,-0.009481309913098812,0.00185166927985847,0.0,0.0031929512042552233
0.002833383623510599,0.008263777010142803,-0.010106373578310013,0.0019162740791216493,0.0,0.003520691068843007
0.0028647216968238354,0.008370377123355865,-0.010079574771225452,0.001927832025103271,0.0,0.003736228682100773
0.0029250849038362503,0.007598841562867165,-0.01083342358469963,0.0019965246319770813,0.0,0.0037029266823083162
0.0029250849038362503,0.007598841562867165,-0.01083342358469963,0.0019965246319770813,0.0,0.0037029266823083162
0.0032349182292819023,0.007718887645751238,-0.010424453765153885,0.002055850112810731,0.0,0.003615322755649686
0.003113583428785205,0.008274992927908897,-0.009949550963938236,0.002291605807840824,0.0,0.003327943617478013
0.002822169801220298,0.007772931829094887,-0.010523973032832146,0.002173782791942358,0.0,0.0031269192695617676
0.0029044817201793194,0.00745773920789361,-0.010419102385640144,0.00231481296941638,0.0,0.0031768062617629766
0.002975093200802803,0.008267425000667572,-0.010221733711659908,0.002335556549951434,0.0,0.0029830813873559237
0.002789523685351014,0.007794696372002363,-0.010476884432137012,0.0020922382827848196,0.0,0.003349972888827324
0.00285880034789443,0.007383115589618683,-0.009719680063426495,0.002113679889589548,0.0,0.003284809645265341
0.0029289002995938063,0.007970258593559265,-0.010107831098139286,0.002095213159918785,0.0,0.003282909281551838
0.003117670537903905,0.008218569681048393,-0.010364770889282227,0.002030507894232869,0.0,0.0031187564600259066
0.0032935780473053455,0.007577849086374044,-0.010787906125187874,0.0021488419733941555,0.0,0.0030415509827435017
0.0030027905013412237,0.008104328066110611,-0.010484936647117138,0.0021631107665598392,0.0,0.0031736392993479967
0.003010623622685671,0.008533346466720104,-0.01036693062633276,0.002377707976847887,0.0,0.0032880983781069517
0.0030625408980995417,0.007949679158627987,-0.009452690370380878,0.0023760972544550896,0.0,0.003200722159817815
0.0032873637974262238,0.007483349181711674,-0.010630966164171696,0.002279127249494195,0.0,0.0032295130658894777
0.003207952482625842,0.007817639037966728,-0.0088860634714365,0.0023873469326645136,0.0,0.003145100548863411
0.0029351781122386456,0.008193925954401493,-0.010171483270823956,0.0022083015646785498,0.0,0.0034271625336259604
0.003019527532160282,0.007684594951570034,-0.010725666768848896,0.0021223891526460648,0.0,0.0037022221367806196
0.003369527868926525,0.007476067170500755,-0.009571741335093975,0.001945161260664463,0.0,0.003469614777714014
0.0036655764561146498,0.008140082471072674,-0.009297247044742107,0.002061539562419057,0.0,0.003330080769956112
0.003439441090449691,0.008245313540101051,-0.010513807646930218,0.002084225183352828,0.0,0.0034344098530709743
0.0030534761026501656,0.00789704080671072,-0.009919322095811367,0.0021337068174034357,0.0,0.003592438530176878
0.0033300432842224836,0.007713819853961468,-0.010023854672908783,0.0021055492106825113,0.0,0.0034458187874406576
0.0030843729618936777,0.008200787007808685,-0.011042454279959202,0.0020364827942103148,0.0,0.0031826847698539495
0.0032352509442716837,0.008760655298829079,-0.010045221075415611,0.0019287759205326438,0.0,0.0030712916050106287
0.0032802647911012173,0.007926429621875286,-0.009328288957476616,0.0018994285492226481,0.0,0.003338870359584689
0.0035163583233952522,0.007536780554801226,-0.010512958280742168,0.002132927067577839,0.0,0.003577926428988576
0.003481003688648343,0.008118357509374619,-0.009884761646389961,0.0019572111777961254,0.0,0.0032819833140820265
0.0034705447033047676,0.00791526772081852,-0.009626619517803192,0.0018584420904517174,0.0,0.0032353056594729424
0.003664745017886162,0.007556363008916378,-0.009785744361579418,0.0018455319805070758,0.0,0.003260804805904627
0.003664745017886162,0.007556363008916378,-0.009785744361579418,0.0018455319805070758,0.0,0.003260804805904627
0.003816954093053937,0.008195399306714535,-0.009298170916736126,0.0020410690922290087,0.0,0.0035800649784505367
0.003554512280970812,0.007888572290539742,-0.010064802132546902,0.002394712995737791,0.0,0.003510868176817894
0.003279345575720072,0.007528145797550678,-0.009515741840004921,0.002371590118855238,0.0,0.003702617483213544
0.0033021036069840193,0.008049721829593182,-0.009460778906941414,0.002329502021893859,0.0,0.003607918508350849
0.0033956554252654314,0.008308403193950653,-0.010295579209923744,0.002361116698011756,0.0,0.0034419947769492865
0.0034365630708634853,0.007739607244729996,-0.009735063649713993,0.002432245295494795,0.0,0.0036113138776272535
0.0035120914690196514,0.008119250647723675,-0.00961257889866829,0.0024153857957571745,0.0,0.0035233208909630775
0.0036507314071059227,0.008076061494648457,-0.01021779514849186,0.0027286303229629993,0.0,0.003457873361185193
0.0036938798148185015,0.008398392237722874,-0.009540398605167866,0.0026790981646627188,0.0,0.0034806951880455017
0.003777100006118417,0.008611269295215607,-0.009396567940711975,0.002571192802861333,0.0,0.003539287718012929
0.0033459148835390806,0.008698251098394394,-0.010219542309641838,0.0024381987750530243,0.0,0.003427985357120633
0.0031525760423392057,0.008532569743692875,-0.010136736556887627,0.002147082472220063,0.0,0.0035257216077297926
0.0032712253741919994,0.008184434846043587,-0.009374690242111683,0.0021756405476480722,0.0,0.0037208846770226955
0.0031088832765817642,0.007773648481816053,-0.009532260708510876,0.0021679215133190155,0.0,0.0037763151340186596
0.0033338558860123158,0.00906294398009777,-0.009500756859779358,0.0022141262888908386,0.0,0.0037540255580097437
0.003566760802641511,0.008193878456950188,-0.010080307722091675,0.0024950969964265823,0.0,0.003389550605788827
0.0036493209190666676,0.007598905358463526,-0.010066499933600426,0.0024781981483101845,0.0,0.003300593001767993
0.003546166466549039,0.007821554318070412,-0.00949542224407196,0.0023366250097751617,0.0,0.003325940342620015
0.003524861065670848,0.008100917562842369,-0.009945021942257881,0.0022629948798567057,0.0,0.0036329093854874372
0.0034029767848551273,0.007481938693672419,-0.009799454361200333,0.002184409648180008,0.0,0.0034746939782053232
0.003512445604428649,0.007270537782460451,-0.009334695525467396,0.002376572461798787,0.0,0.0034829811193048954
0.0036996169947087765,0.007331935688853264,-0.009158958680927753,0.002496624831110239,0.0,0.0035860640928149223
0.0037672296166419983,0.008222267962992191,-0.009728055447340012,0.0024331696331501007,0.0,0.003626385470852256
0.0036945147439837456,0.0077144550159573555,-0.009615994989871979,0.002398526994511485,0.0,0.003644657088443637
0.0036368712317198515,0.007416833657771349,-0.008887152187526226,0.0021739325020462275,0.0,0.003627551021054387
0.003656519576907158,0.008090159855782986,-0.009527357295155525,0.002200008137151599,0.0,0.0036594965495169163
0.003656519576907158,0.008090159855782986,-0.009527357295155525,0.002200008137151599,0.0,0.0036594965495169163
0.0035187038592994213,0.007677795831114054,-0.009203732945024967,0.0023309634998440742,0.0,0.003576576476916671
0.003968751523643732,0.007548632100224495,-0.008828728459775448,0.002149292966350913,0.0,0.00400648033246398
0.003968751523643732,0.007548632100224495,-0.008828728459775448,0.002149292966350913,0.0,0.00400648033246398
0.004204308148473501,0.007521430961787701,-0.009230769239366055,0.002225796692073345,0.0,0.00390059407800436
0.003597118193283677,0.0076495446264743805,-0.00953343603760004,0.0025485754013061523,0.0,0.0031805885955691338
0.0036061082500964403,0.007390656042844057,-0.009811031632125378,0.0029501807875931263,0.0,0.003295181319117546
0.004087706096470356,0.007438269443809986,-0.008946279995143414,0.0028406637720763683,0.0,0.003722590859979391
0.004188127350062132,0.007455023936927319,-0.009538434445858002,0.0028027414809912443,0.0,0.0039848461747169495
0.0040609934367239475,0.007314555812627077,-0.00985181238502264,0.002705964492633939,0.0,0.0036034779623150826
0.0034943765494972467,0.007310162764042616,-0.00913008488714695,0.0025281666312366724,0.0,0.003450380638241768
0.004050401039421558,0.007561504375189543,-0.010144632309675217,0.00250240252353251,0.0,0.0034675144124776125
0.004185208119452,0.007579370401799679,-0.009798958897590637,0.002613607095554471,0.0,0.0035634972155094147
0.00429794704541564,0.007198870647698641,-0.009051593020558357,0.0025527551770210266,0.0,0.003487282432615757
0.004068934358656406,0.007031087763607502,-0.00907056126743555,0.0025590623263269663,0.0,0.003736945567652583
0.003724949201568961,0.007738757878541946,-0.009482614696025848,0.0026058282237499952,0.0,0.0041584111750125885
0.003756109392270446,0.007612216752022505,-0.00885691586881876,0.002528427867218852,0.0,0.0044408743269741535
0.004345719702541828,0.007293167524039745,-0.009182495065033436,0.0025074121076613665,0.0,0.004582230467349291
0.004073516000062227,0.007090471219271421,-0.009597654454410076,0.00257588317617774,0.0,0.004238584078848362
0.0038676776457577944,0.007396714296191931,-0.009345954284071922,0.002495318418368697,0.0,0.00436616875231266
0.0043141781352460384,0.007519424427300692,-0.00982139352709055,0.002523216884583235,0.0,0.004238392226397991
0.0045992592349648476,0.007097078952938318,-0.009927967563271523,0.002356808865442872,0.0,0.0040129488334059715
0.0045992592349648476,0.007097078952938318,-0.009927967563271523,0.002356808865442872,0.0,0.0040129488334059715
0.004356122110038996,0.007017683237791061,-0.009103409945964813,0.0024162691552191973,0.0,0.004267407581210136
0.004077805671840906,0.007046510465443134,-0.008831142447888851,0.002530550118535757,0.0,0.004618127830326557
0.0038894766476005316,0.006926401983946562,-0.009862830862402916,0.0024600797332823277,0.0,0.004566902760416269
0.0038294692058116198,0.006779477000236511,-0.009506364353001118,0.0025884269271045923,0.0,0.00428785290569067
0.004001780413091183,0.006598693318665028,-0.008713538758456707,0.002489834325388074,0.0,0.004530738107860088
0.004056636709719896,0.007274281699210405,-0.00909501127898693,0.0023816097527742386,0.0,0.004167567938566208
0.004447111394256353,0.006820303853601217,-0.008968541398644447,0.002544532297179103,0.0,0.004117459524422884
0.003974894993007183,0.00655685318633914,-0.008996503427624702,0.002544654067605734,0.0,0.003899951698258519
0.003858713898807764,0.0066016255877912045,-0.00939858891069889,0.0026786893140524626,0.0,0.003960330970585346
0.004265774041414261,0.0072575523518025875,-0.008812147192656994,0.002728619147092104,0.0,0.00437958026304841
0.004267112817615271,0.006895933300256729,-0.0096768569201231,0.002518261317163706,0.0,0.004609772469848394
0.00400297436863184,0.00652939360588789,-0.009756120853126049,0.0025263717398047447,0.0,0.0045945001766085625
0.00436274241656065,0.006450453773140907,-0.009419417940080166,0.0026836104225367308,0.0,0.003930146340280771
0.0044294619001448154,0.006634680554270744,-0.009558632969856262,0.0028197364881634712,0.0,0.003535742172971368
0.004164590034633875,0.007231386378407478,-0.009632568806409836,0.002803026931360364,0.0,0.0036322709638625383
0.004418086260557175,0.006652328185737133,-0.009746737778186798,0.0029527987353503704,0.0,0.004244193434715271
0.004250949714332819,0.006759151350706816,-0.009935249574482441,0.0026311841793358326,0.0,0.00412864051759243
0.004399235360324383,0.006724839098751545,-0.010311393067240715,0.0024939109571278095,0.0,0.004272842314094305
0.004253735765814781,0.007219881750643253,-0.009559271857142448,0.00251733954064548,0.0,0.004553431179374456
0.00442237826064229,0.007140214554965496,-0.010493437759578228,0.002705690683797002,0.0,0.0042031691409647465
0.004548249300569296,0.007434544153511524,-0.01115370076149702,0.0029097942169755697,0.0,0.0036797798238694668
0.0045759789645671844,0.0069597945548594,-0.010049957782030106,0.0030216556042432785,0.0,0.003486798843368888
0.004595302511006594,0.007444217801094055,-0.01022428646683693,0.002920710714533925,0.0,0.0041411821730434895
0.004200942348688841,0.006910523399710655,-0.0099385567009449,0.0027269497513771057,0.0,0.00459394371137023
0.004467396531254053,0.00677367951720953,-0.009463231079280376,0.0024326900020241737,0.0,0.004755166359245777
0.004401025362312794,0.006575525272637606,-0.010202248580753803,0.002516035921871662,0.0,0.0043975673615932465
0.004401025362312794,0.006575525272637606,-0.010202248580753803,0.002516035921871662,0.0,0.0043975673615932465
0.005029522348195314,0.006852536462247372,-0.009922896511852741,0.002497054636478424,0.0,0.0041193170472979546
0.004816229920834303,0.007246458902955055,-0.00990956649184227,0.0024284436367452145,0.0,0.0038676492404192686
0.0047326828353106976,0.006823342759162188,-0.010215789079666138,0.0026187454350292683,0.0,0.0037715157959610224
0.004254003521054983,0.0074500455521047115,-0.009863351471722126,0.002829181030392647,0.0,0.003825131105259061
0.004560135304927826,0.007147348951548338,-0.010169929824769497,0.0032577114179730415,0.0,0.003942054696381092
0.004560135304927826,0.007147348951548338,-0.010169929824769497,0.0032577114179730415,0.0,0.003942054696381092
0.005038935225456953,0.0068220035172998905,-0.009554623626172543,0.003183944383636117,0.0,0.004217482637614012
0.0048642936162650585,0.00693209283053875,-0.009575208649039268,0.0031725044827908278,0.0,0.0038949474692344666
0.004716652445495129,0.007127494551241398,-0.009691844694316387,0.0030566034838557243,0.0,0.0040854280814528465
0.004632769618183374,0.007406173273921013,-0.009796296246349812,0.00297774956561625,0.0,0.0045731388963758945
0.004211558494716883,0.006956857163459063,-0.010748734697699547,0.002779071219265461,0.0,0.0046025225892663
0.004389859735965729,0.007393009029328823,-0.009884485974907875,0.0027784970588982105,0.0,0.004930116701871157
0.004933377727866173,0.0069542257115244865,-0.009331748820841312,0.0027468493208289146,0.0,0.004925519693642855
0.004886567126959562,0.006909058429300785,-0.010164502076804638,0.0027248659171164036,0.0,0.004287260118871927
0.004731487482786179,0.006543856579810381,-0.01057603769004345,0.0029129309114068747,0.0,0.003873963840305805
0.004646500572562218,0.0067689912393689156,-0.009641130454838276,0.003188793547451496,0.0,0.004100392572581768
0.004572322126477957,0.007257505320012569,-0.00992737989872694,0.003153766505420208,0.0,0.004396828822791576
0.0043999613262712955,0.007519520353525877,-0.010093839839100838,0.0030473540537059307,0.0,0.004482171963900328
0.004606631584465504,0.006933101452887058,-0.009665236808359623,0.002848284086212516,0.0,0.004620512016117573
0.005173047073185444,0.006369019392877817,-0.010060068219900131,0.0029275494161993265,0.0,0.0046256729401648045
0.004931841045618057,0.006724624894559383,-0.009756450541317463,0.0030768648721277714,0.0,0.004415218718349934
0.004931841045618057,0.006724624894559383,-0.009756450541317463,0.0030768648721277714,0.0,0.004415218718349934
0.004911893047392368,0.007211994379758835,-0.009402797557413578,0.0032261288724839687,0.0,0.004375804215669632
0.005225696135312319,0.006956018041819334,-0.009979398921132088,0.003156514372676611,0.0,0.004347323440015316
0.004932428244501352,0.006832875311374664,-0.009728805162012577,0.0030484877061098814,0.0,0.004499111324548721
0.004899504128843546,0.006773471832275391,-0.009305653162300587,0.003054743865504861,0.0,0.004621569998562336
0.00549268489703536,0.007601994089782238,-0.010005228221416473,0.0031124758534133434,0.0,0.004799045156687498
0.005224311724305153,0.006604282185435295,-0.009153374470770359,0.003172298427671194,0.0,0.004551814869046211
0.004789115395396948,0.006424437277019024,-0.00999405700713396,0.0029394207522273064,0.0,0.00430454732850194
0.005057547241449356,0.006903569679707289,-0.010378732345998287,0.002958015538752079,0.0,0.004433674272149801
0.00502357492223382,0.007381985895335674,-0.009216196835041046,0.0031132553704082966,0.0,0.004561018664389849
0.0055364323779940605,0.00716150039806962,-0.01036485843360424,0.003367873141542077,0.0,0.00477190176025033
0.0055364323779940605,0.00716150039806962,-0.01036485843360424,0.003367873141542077,0.0,0.00477190176025033
0.005657427478581667,0.006575288716703653,-0.009244661778211594,0.0034083400387316942,0.0,0.0047616795636713505
0.005304448306560516,0.00726417638361454,-0.010102162137627602,0.0036628299858421087,0.0,0.004661061801016331
0.005096519365906715,0.006801294628530741,-0.010222448967397213,0.003412927035242319,0.0,0.004644432105123997
0.005652169231325388,0.006643453612923622,-0.009207110852003098,0.003549199318513274,0.0,0.004812353290617466
0.005812581162899733,0.006603080313652754,-0.010240205563604832,0.0039541893638670444,0.0,0.005080949980765581
0.005784899927675724,0.007190179545432329,-0.010021908208727837,0.004156321752816439,0.0,0.00513308122754097
0.005188832059502602,0.007347960490733385,-0.00968501903116703,0.0036401350516825914,0.0,0.005602267570793629
0.005208393093198538,0.006413045339286327,-0.010496476665139198,0.003558361902832985,0.0,0.005374484695494175
0.005569410976022482,0.006491519510746002,-0.009684505872428417,0.0037439754232764244,0.0,0.004932965151965618
0.006068735383450985,0.007128225639462471,-0.009349445812404156,0.0038982860278338194,0.0,0.004802611190825701
0.005693731363862753,0.00706775626167655,-0.009740638546645641,0.003453998826444149,0.0,0.0051372358575463295
0.005887950304895639,0.00667792372405529,-0.010000494308769703,0.0033832667395472527,0.0,0.005108133424073458
0.005373463965952396,0.006625440903007984,-0.010207464918494225,0.0033357907086610794,0.0,0.005453541874885559
0.005874033086001873,0.00650920020416379,-0.010008078068494797,0.0034841664601117373,0.0,0.005200719460844994
0.005874033086001873,0.00650920020416379,-0.010008078068494797,0.0034841664601117373,0.0,0.005200719460844994
0.006300547160208225,0.006871793419122696,-0.009689624421298504,0.0036715015303343534,0.0,0.00526008615270257
0.006035120226442814,0.006629870273172855,-0.010331219993531704,0.003738383762538433,0.0,0.004968341439962387
0.006231897510588169,0.006392051465809345,-0.011344769969582558,0.0037948735989630222,0.0,0.0047463770024478436
0.0060278624296188354,0.0063955336809158325,-0.01035067904740572,0.003425013506785035,0.0,0.004724135156720877
0.006065053399652243,0.006669080350548029,-0.009951971471309662,0.003585399128496647,0.0,0.004780401475727558
0.006171025801450014,0.006947940681129694,-0.010079612024128437,0.004118440672755241,0.0,0.005078078713268042
0.005895576439797878,0.0064661032520234585,-0.009830045513808727,0.004269667901098728,0.0,0.005434295162558556
0.006191676016896963,0.006383304949849844,-0.010075612924993038,0.004038938321173191,0.0,0.005265522748231888
0.006364396307617426,0.006863599177449942,-0.009803852997720242,0.003824461018666625,0.0,0.005100400187075138
0.005981802940368652,0.006757711060345173,-0.01080280914902687,0.0034502819180488586,0.0,0.005204662214964628
0.006168528459966183,0.007235278375446796,-0.010306508280336857,0.0034594854805618525,0.0,0.005067601799964905
0.0059901038184762,0.006531075574457645,-0.009880704805254936,0.003677824977785349,0.0,0.005293786060065031
0.006290213670581579,0.00656543206423521,-0.010486378334462643,0.004174638539552689,0.0,0.005563295911997557
0.006689009256660938,0.006883228663355112,-0.010133091360330582,0.004128563683480024,0.0,0.006043856497853994
0.00672156224027276,0.006748418789356947,-0.010394788347184658,0.0040377238765358925,0.0,0.005936609115451574
0.0062193600460886955,0.0064025321044027805,-0.010396300815045834,0.003572482382878661,0.0,0.005734416656196117
0.006507875397801399,0.006401488557457924,-0.010378717444837093,0.0039938525296747684,0.0,0.0053229862824082375
0.006718670018017292,0.006797017063945532,-0.009754881262779236,0.004158479161560535,0.0,0.0060976417735219
0.006592779885977507,0.006625621113926172,-0.010084566660225391,0.004040499683469534,0.0,0.006179367192089558
0.00636886153370142,0.006520850118249655,-0.010509403422474861,0.0036460491828620434,0.0,0.005790608935058117
0.006508277263492346,0.006242959760129452,-0.00975877232849598,0.003438287414610386,0.0,0.005435708910226822
0.006548192352056503,0.006784841418266296,-0.01032993383705616,0.0036287750117480755,0.0,0.005695269908756018
0.007372470106929541,0.0069718314334750175,-0.010247048921883106,0.0037909781094640493,0.0,0.005955941043794155
0.006592473015189171,0.006752961780875921,-0.010091066360473633,0.00388273224234581,0.0,0.00625412305817008
0.006592473015189171,0.006752961780875921,-0.010091066360473633,0.00388273224234581,0.0,0.00625412305817008
0.006478024180978537,0.006354473065584898,-0.010563558898866177,0.0037894637789577246,0.0,0.006750535219907761
0.006835846696048975,0.006522592157125473,-0.009965412318706512,0.003803136060014367,0.0,0.0061138891614973545
0.006888678763061762,0.0070627834647893906,-0.010415606200695038,0.0040851011872291565,0.0,0.005941331852227449
0.0074341027066111565,0.007045685779303312,-0.01074511930346489,0.0043006520718336105,0.0,0.005736233666539192
0.00671072443947196,0.006592228077352047,-0.010445681400597095,0.0038669630885124207,0.0,0.006538229528814554
0.006778914015740156,0.007107984274625778,-0.010599873028695583,0.0035479359794408083,0.0,0.005994163919240236
0.007196179591119289,0.006756873335689306,-0.010829311795532703,0.003544456325471401,0.0,0.005750154610723257
0.007024604361504316,0.006285680923610926,-0.011537064798176289,0.004026949405670166,0.0,0.005459784064441919
0.0067894598469138145,0.006706456188112497,-0.010215329937636852,0.0041842982172966,0.0,0.005393588915467262
0.0071828942745924,0.006501248572021723,-0.009842379949986935,0.004084736108779907,0.0,0.005844467785209417
0.006983271799981594,0.006403901614248753,-0.01107912976294756,0.004053542390465736,0.0,0.006155762355774641
0.006755312904715538,0.00622427836060524,-0.010658551007509232,0.0035861919168382883,0.0,0.006036870647221804
0.006765071768313646,0.006639809347689152,-0.010090109892189503,0.0035854093730449677,0.0,0.0055671860463917255
0.00682399608194828,0.00664471834897995,-0.010696811601519585,0.004125120583921671,0.0,0.005713069811463356
0.007342853117734194,0.007184294983744621,-0.010442844592034817,0.004250467289239168,0.0,0.005977825727313757
0.0073547339998185635,0.006676254794001579,-0.010971970856189728,0.0043365564197301865,0.0,0.006407368928194046
0.007095772307366133,0.006369198672473431,-0.011166263371706009,0.004223354160785675,0.0,0.006130388472229242
0.007350073661655188,0.006727488711476326,-0.01026629377156496,0.004399554338306189,0.0,0.006081939209252596
0.007644336204975843,0.007032971363514662,-0.011101479642093182,0.004119228571653366,0.0,0.006085523404181004
0.007727789226919413,0.006947482004761696,-0.011678200215101242,0.003978603053838015,0.0,0.006242208182811737
0.007130751386284828,0.006517845205962658,-0.010310938581824303,0.004332236014306545,0.0,0.006309522315859795
0.007200693711638451,0.006322244647890329,-0.010898951441049576,0.004825785756111145,0.0,0.006250232923775911
0.008582190610468388,0.006635784637182951,-0.01087862066924572,0.004823863040655851,0.0,0.006034877151250839
0.008582190610468388,0.006635784637182951,-0.01087862066924572,0.004823863040655851,0.0,0.006034877151250839
0.007732327561825514,0.006620366591960192,-0.010651693679392338,0.0047139618545770645,0.0,0.005953378975391388
0.0077164857648313046,0.006443794816732407,-0.011445892043411732,0.004230672027915716,0.0,0.0063424017280340195
0.007055675145238638,0.006094985641539097,-0.010806649923324585,0.004383085295557976,0.0,0.006564685609191656
0.008025920949876308,0.006003975868225098,-0.01097127702087164,0.004143965896219015,0.0,0.006560946349054575
0.007917922921478748,0.006323615089058876,-0.010796671733260155,0.004397164564579725,0.0,0.006464802194386721
0.008169012144207954,0.00667366711422801,-0.010764986276626587,0.004726780112832785,0.0,0.0067837475799024105
0.007737049832940102,0.006477538496255875,-0.01131803821772337,0.0046538435854017735,0.0,0.007190850097686052
0.007684608921408653,0.006751172244548798,-0.011042294092476368,0.0044312188401818275,0.0,0.007014572154730558
0.007855135947465897,0.006496977061033249,-0.011286363005638123,0.004502075258642435,0.0,0.006811810191720724
0.00783698633313179,0.006426840089261532,-0.010292061604559422,0.004563386086374521,0.0,0.00681601045653224
0.007811543997377157,0.006634815596044064,-0.011065905913710594,0.0046459645964205265,0.0,0.006456871051341295
0.008341538719832897,0.005986492615193129,-0.010699554346501827,0.004543796647340059,0.0,0.006339459680020809
0.007940229028463364,0.005939380265772343,-0.01046493649482727,0.004292217083275318,0.0,0.006247608456760645
0.008183647878468037,0.006242525298148394,-0.010943006724119186,0.004493439104408026,0.0,0.006385800428688526
0.008149616420269012,0.006140951532870531,-0.010564443655312061,0.00451980484649539,0.0,0.006764106452465057
0.008539030328392982,0.006027930416166782,-0.010202927514910698,0.004288663621991873,0.0,0.00676617631688714
0.008434894494712353,0.006248414516448975,-0.010572502389550209,0.004795513115823269,0.0,0.006689833477139473
0.008546043187379837,0.0061558932065963745,-0.010020522400736809,0.005132093094289303,0.0,0.007025384809821844
0.008355735801160336,0.006570048630237579,-0.011178004555404186,0.0050491211004555225,0.0,0.007001332938671112
0.008522546850144863,0.006296779029071331,-0.011259675025939941,0.005058364011347294,0.0,0.007090463303029537
0.008272076956927776,0.005899177398532629,-0.010813632979989052,0.004918504972010851,0.0,0.006945130880922079
0.008508185856044292,0.006170404609292746,-0.011327097192406654,0.004598680883646011,0.0,0.00685895886272192
0.008577860891819,0.006637169048190117,-0.010360104963183403,0.004810059443116188,0.0,0.00733334943652153
0.008243757300078869,0.006355376448482275,-0.009905039332807064,0.0055137076415121555,0.0,0.0072891805320978165
0.008804739452898502,0.006297018378973007,-0.01039519626647234,0.005183492787182331,0.0,0.00702271144837141
0.008779661729931831,0.0064577218145132065,-0.011636359617114067,0.0046730684116482735,0.0,0.007169963326305151
0.00905844196677208,0.0060780891217291355,-0.010610384866595268,0.004769104532897472,0.0,0.007549692876636982
0.00905844196677208,0.0060780891217291355,-0.010610384866595268,0.004769104532897472,0.0,0.007549692876636982
0.00860548298805952,0.006303369998931885,-0.01092049665749073,0.004808400757610798,0.0,0.007664286065846682
0.008468575775623322,0.006500509101897478,-0.010935844853520393,0.004852679558098316,0.0,0.007567163556814194
0.008922280743718147,0.006146485451608896,-0.010759293101727962,0.005291552748531103,0.0,0.0070592560805380344
0.008531657047569752,0.006124935112893581,-0.01068264339119196,0.005234636832028627,0.0,0.007753026206046343
0.008779213763773441,0.006197494454681873,-0.010585886426270008,0.004696626681834459,0.0,0.007812195457518101
0.008607623167335987,0.0060810185968875885,-0.011183713562786579,0.004507668316364288,0.0,0.007209697738289833
0.008446368388831615,0.006160945165902376,-0.010846029035747051,0.004816542845219374,0.0,0.00787924975156784
0.008948948234319687,0.005613113287836313,-0.010896077379584312,0.005143964197486639,0.0,0.007807876914739609
0.009000870399177074,0.006332512013614178,-0.010101741179823875,0.005337355192750692,0.0,0.007540751248598099
0.008435179479420185,0.006857268512248993,-0.010866492055356503,0.0047253333032131195,0.0,0.008045962080359459
0.00893865805119276,0.005988670978695154,-0.010865183547139168,0.004622351843863726,0.0,0.007997958920896053
0.009154601953923702,0.0063711609691381454,-0.010726002976298332,0.004877862520515919,0.0,0.007994734682142735
0.008783659897744656,0.005947526544332504,-0.01127783302217722,0.005017097573727369,0.0,0.0077192289754748344
0.009414182975888252,0.006148193962872028,-0.010646089911460876,0.0056840358301997185,0.0,0.007544649764895439
0.008922423236072063,0.006694398354738951,-0.010468048974871635,0.005359661299735308,0.0,0.007838353514671326
0.008816961199045181,0.006534223910421133,-0.011082684621214867,0.0048952107317745686,0.0,0.008391018956899643
0.009012940339744091,0.006087000947445631,-0.010799238458275795,0.004763742443174124,0.0,0.00692230649292469
0.009119202382862568,0.006347083020955324,-0.011299374513328075,0.005028876475989819,0.0,0.006999765522778034
0.009084739722311497,0.006892453879117966,-0.011469396762549877,0.005124135874211788,0.0,0.007644088007509708
0.008689377456903458,0.006978461518883705,-0.011137436144053936,0.005378578789532185,0.0,0.008053043857216835
0.009645815007388592,0.006009293254464865,-0.011129414662718773,0.0054289125837385654,0.0,0.00820785854011774
0.009114593267440796,0.006411092821508646,-0.010832088999450207,0.0055424245074391365,0.0,0.00835555698722601
0.009482992812991142,0.0062103066593408585,-0.01134414877742529,0.005364821758121252,1.8602677300805226e-06,0.008791975677013397
0.009326581843197346,0.0066057913936674595,-0.011673158966004848,0.005265987943857908,1.2146219319220108e-07,0.009105202741920948
0.009499255567789078,0.006548796780407429,-0.010904727503657341,0.004851071164011955,7.930613499240735e-09,0.008620517328381538
0.009210905991494656,0.006188935600221157,-0.011307629756629467,0.006075375247746706,5.17812348554969e-10,0.0087622981518507
0.00936205592006445,0.006323760841041803,-0.010875288397073746,0.006040200125426054,3.3809448296562294e-11,0.008810251019895077
0.009671966545283794,0.006537793669849634,-0.010694116353988647,0.005682762712240219,2.207515420460382e-12,0.00904839951545
0.009671966545283794,0.006537793669849634,-0.010694116353988647,0.005682762712240219,2.207515420460382e-12,0.00904839951545
0.009242067113518715,0.006762356963008642,-0.011494060978293419,0.005187091417610645,1.4413497522250407e-13,0.009098522365093231
0.009974829852581024,0.0067058647982776165,-0.011218054220080376,0.005274362862110138,9.410984124424374e-15,0.009029888547956944
0.009690799750387669,0.006704043596982956,-0.011444070376455784,0.005616384092718363,6.144700460089427e-16,0.008583038114011288
0.009362991899251938,0.006542039569467306,-0.010677328333258629,0.00538824824616313,2.6195823586673917e-18,0.008429146371781826
0.009362991899251938,0.006542039569467306,-0.010677328333258629,0.00538824824616313,2.6195823586673917e-18,0.008429146371781826
0.009225375950336456,0.0066789607517421246,-0.010838208720088005,0.005411025136709213,1.1167691940863835e-20,0.008583913557231426
0.00922127440571785,0.006317100487649441,-0.011257476173341274,0.0053358981385827065,7.291705142044518e-22,0.00857582502067089
0.009635432623326778,0.006432549562305212,-0.011851790361106396,0.005294398404657841,4.7609620497268005e-23,0.008452254347503185
0.009222379885613918,0.006959002930670977,-0.011219978332519531,0.0053815580904483795,3.1085679281740043e-24,0.008605537004768848
0.009118405170738697,0.006821023300290108,-0.011216133832931519,0.005096782930195332,2.0296726722543018e-25,0.00923878513276577
0.00913245603442192,0.00584707735106349,-0.010919243097305298,0.005415407940745354,1.325231316212088e-26,0.009139764122664928
0.009780341759324074,0.0058784945867955685,-0.010898729786276817,0.005597567651420832,8.65281227635314e-28,0.00866533350199461
0.009159628301858902,0.005948541220277548,-0.01147488784044981,0.005759757477790117,5.649667945464454e-29,0.009249779395759106
0.009574866853654385,0.006384729873389006,-0.01123890746384859,0.0056641679257154465,3.6888295428239e-30,0.008951525203883648
0.009654643945395947,0.0060866172425448895,-0.011630385182797909,0.005430905614048243,2.408542315654055e-31,0.008820460177958012
0.009118237532675266,0.005945867858827114,-0.011385202407836914,0.005476729478687048,1.5726060237624145e-32,0.008804059587419033
0.009859143756330013,0.005937239155173302,-0.010879133827984333,0.005656328517943621,1.026799458231053e-33,0.008764202706515789
0.009777815081179142,0.006430583540350199,-0.011320390738546848,0.006254743319004774,6.704266152049981e-35,0.00872582383453846
0.009447646327316761,0.006392062176018953,-0.01186603493988514,0.006147335283458233,4.377406724795549e-36,0.008638703264296055
0.009957894682884216,0.00618393300101161,-0.01174971368163824,0.005889552179723978,2.858133637803264e-37,0.009308853186666965
0.009824320673942566,0.005627268459647894,-0.011476772837340832,0.005445765797048807,-6.491764452221105e-06,0.008751911111176014
0.009466497227549553,0.005758587270975113,-0.011359384283423424,0.0056386906653642654,-0.0001509105641162023,0.00829810556024313
0.00982674676924944,0.00654887780547142,-0.011947305873036385,0.00592958927154541,-0.00015514179540332407,0.008960305713117123
0.009795241057872772,0.006815018132328987,-0.011250181123614311,0.00638472568243742,-0.00017286086222156882,0.009150595404207706
0.009501557797193527,0.00619670283049345,-0.0123788146302104,0.005627037491649389,-0.0001743660104693845,0.009232080541551113
0.009793274104595184,0.006196004804223776,-0.01173325814306736,0.005577125120908022,-0.00016936038446146995,0.00901813618838787
0.010515146888792515,0.005971807520836592,-0.011386197060346603,0.004978399258106947,-0.00016423893976025283,0.009653444401919842
0.009483737871050835,0.0060975500382483006,-0.012089849449694157,0.0055253636091947556,-0.0001593927008798346,0.009302455931901932
0.009991055354475975,0.006627402734011412,-0.012143727391958237,0.005954289343208075,-0.0001548223226564005,0.009414571337401867
0.009991055354475975,0.006627402734011412,-0.012143727391958237,0.005954289343208075,-0.0001548223226564005,0.009414571337401867
0.010140334255993366,0.0066207898780703545,-0.011589852161705494,0.00614809850230813,-0.00016909111582208425,0.009647030383348465
0.009576067328453064,0.005786348599940538,-0.011455604806542397,0.005628315731883049,-0.00017040544480551034,0.009334993548691273
0.009920557029545307,0.005899996962398291,-0.011267193593084812,0.005379041191190481,-0.0001662920112721622,0.00885144341737032
0.009653388522565365,0.00635718135163188,-0.011714463122189045,0.0063066198490560055,-0.00015797794912941754,0.009347292594611645
0.00964114349335432,0.006078573875129223,-0.01161933969706297,0.006686688866466284,-0.00015411338245030493,0.009280594065785408
0.009720657020807266,0.006047507282346487,-0.011662295088171959,0.006063121370971203,-0.00015043324674479663,0.00953797996044159
0.009760521352291107,0.006115604192018509,-0.011283685453236103,0.005621530115604401,-0.00016515454626642168,0.009573355317115784
0.009722861461341381,0.006805673707276583,-0.012498002499341965,0.005205125082284212,-0.00016390689415857196,0.010029223747551441
0.009523105807602406,0.006270223762840033,-0.011818480677902699,0.005926342681050301,-0.0001604190474608913,0.010001236572861671
0.009351486340165138,0.0059851715341210365,-0.012466692365705967,0.006290707271546125,-0.0001569906307850033,0.009213660843670368
0.009706547483801842,0.0059868632815778255,-0.012722179293632507,0.006063804030418396,-0.00022012648696545511,0.00933738425374031
0.009631589986383915,0.006374344229698181,-0.011766600422561169,0.006079254671931267,-0.00021427338651847094,0.010526439175009727
0.00978049635887146,0.006688540335744619,-0.012054071761667728,0.0056152320466935635,-0.0002350762952119112,0.009787364862859249
0.010100928135216236,0.006413356401026249,-0.011744343675673008,0.00630564009770751,-0.00023440673248842359,0.009203167632222176
0.010046746581792831,0.006339965388178825,-0.012754563242197037,0.006652037147432566,-0.00022525018721353263,0.009449530392885208
0.00929439440369606,0.005648255348205566,-0.012289339676499367,0.005902385804802179,-0.00021626806119456887,0.009545213542878628
0.009796558879315853,0.006463887635618448,-0.011935705319046974,0.0057620336301624775,-0.00020794107695110142,0.009598484262824059
0.009833559393882751,0.006881399545818567,-0.012074015103280544,0.005980270449072123,-0.00022491294657811522,0.009816615842282772
0.00971266720443964,0.006132613401859999,-0.011457342654466629,0.006605012807995081,-0.00022468066890724003,0.010456962510943413
0.010182265192270279,0.006310631521046162,-0.012025909498333931,0.006847092881798744,-0.0002174346154788509,0.010154207237064838
0.009800744242966175,0.005917144939303398,-0.012210610322654247,0.006474254187196493,-0.00021021185966674238,0.010577710345387459
0.01000676304101944,0.006085009779781103,-0.012904271483421326,0.005991827696561813,-0.00020342570496723056,0.010081172920763493
0.009802760556340218,0.006124247796833515,-0.012140906415879726,0.006293581333011389,-0.00019706210878212005,0.00977937038987875
0.010174660012125969,0.006003831513226032,-0.011673886328935623,0.007046033628284931,-0.00020447706629056484,0.010640774853527546
0.010210726410150528,0.005210337229073048,-0.012454948388040066,0.0069986917078495026,-0.0002110447094310075,0.010364889167249203
0.01040888112038374,0.004367138259112835,-0.011591614224016666,0.006494636181741953,-0.00024375120119657367,0.010135147720575333
0.01040888112038374,0.004367138259112835,-0.011591614224016666,0.006494636181741953,-0.00024375120119657367,0.010135147720575333
0.0111743975430727,0.00446227565407753,-0.011988058686256409,0.006317987106740475,-0.00026561017148196697,0.010684325359761715
0.0122688552364707,0.005145530216395855,-0.012042484246194363,0.006219731643795967,-0.0002968578482978046,0.010551027953624725
0.012377430684864521,0.005511365365236998,-0.0125283133238554,0.0062025561928749084,-0.0003105968062300235,0.010392360389232635
0.011695010587573051,0.005013324785977602,-0.012640273198485374,0.006195752881467342,-0.0003170023555867374,0.010499468073248863
0.011626782827079296,0.005150629673153162,-0.01213900838047266,0.006264861673116684,-0.0003278585209045559,0.011030912399291992
0.01248715166002512,0.0053677307441830635,-0.011786086484789848,0.006611079443246126,-0.00031598488567397,0.010546662844717503
0.010916613042354584,0.00550610339269042,-0.012584603391587734,0.006714434828609228,-0.0004827597294934094,0.010495652444660664
0.012748973444104195,0.005115138832479715,-0.01245731208473444,0.006721212062984705,-0.0004891084972769022,0.010188527405261993
0.012712699361145496,0.005303538870066404,-0.012546136043965816,0.006520794704556465,-0.000444607634562999,0.009863841347396374
0.01264623086899519,0.005294694099575281,-0.012481764890253544,0.006337821949273348,-0.0004799713206011802,0.009823859669268131
0.012683970853686333,0.005100187845528126,-0.011798413470387459,0.00668293284252286,-0.00044528275611810386,0.010703188367187977
0.012742037884891033,0.0052146329544484615,-0.012151814065873623,0.006843384355306625,-0.00041163593414239585,0.01072399877011776
0.012705984525382519,0.005078649614006281,-0.012096159160137177,0.006656331475824118,-0.0003824785817414522,0.010214105248451233
0.012634254060685635,0.005165647715330124,-0.01301504485309124,0.006295864470303059,-0.00035716561251319945,0.010385185480117798
0.013073085807263851,0.0049999491311609745,-0.012668902054429054,0.006547472905367613,-0.0003349974285811186,0.010178624652326107
0.012977821752429008,0.004998477175831795,-0.012540966272354126,0.006992435548454523,-0.00036088694469071925,0.009900475852191448
0.012718934565782547,0.005682175047695637,-0.012260109186172485,0.006955897435545921,-0.00034720893017947674,0.010641181841492653
0.01315873209387064,0.005426420364528894,-0.012080552987754345,0.006765354890376329,-0.0003294528287369758,0.010984796099364758
0.012934459373354912,0.004909954499453306,-0.01240872498601675,0.007218576967716217,-0.00031310072517953813,0.010607481002807617
0.01310438197106123,0.0047679804265499115,-0.012003055773675442,0.007082444615662098,-0.00029827450634911656,0.010647954419255257
0.012436499819159508,0.00525161437690258,-0.012702444568276405,0.006848595570772886,-0.0003200308419764042,0.010596735402941704
0.012921852990984917,0.005281031597405672,-0.012305988930165768,0.006659526843577623,-0.0003110364486929029,0.011172148399055004
0.012967973947525024,0.005761318374425173,-0.012409006245434284,0.00715005025267601,-0.00029845692915841937,0.011417893692851067
0.013360822573304176,0.005493446718901396,-0.012240374460816383,0.0076959202997386456,-0.00026394735323265195,0.01127848494797945
0.013123971410095692,0.005281677469611168,-0.01149546355009079,0.007913518697023392,-0.00024688791017979383,0.011023235507309437
0.013160811737179756,0.0050353435799479485,-0.01233490277081728,0.007437086198478937,-0.00023388276167679578,0.010916171595454216
0.01334818173199892,0.004849545657634735,-0.01227618008852005,0.007126282900571823,-0.00026081211399286985,0.010987026616930962
0.013045746833086014,0.005258939228951931,-0.01280711404979229,0.0078085907734930515,-0.0002538239350542426,0.011451139114797115
0.013045746833086014,0.005258939228951931,-0.01280711404979229,0.0078085907734930515,-0.0002538239350542426,0.011451139114797115
0.013542192056775093,0.005123497918248177,-0.012363300658762455,0.008190830238163471,-0.00024275532632600516,0.011305185034871101
0.013518541119992733,0.0054097543470561504,-0.012478167191147804,0.007953006774187088,-0.00025969857233576477,0.010973229072988033
0.013518541119992733,0.0054097543470561504,-0.012478167191147804,0.007953006774187088,-0.00025969857233576477,0.010973229072988033
0.01299856323748827,0.004905020352452993,-0.011739309877157211,0.007872444577515125,-0.00024956392007879913,0.011069177649915218
0.013439437374472618,0.005223752930760384,-0.012477092444896698,0.0077469972893595695,-0.0002400623052380979,0.012434188276529312
0.013358999975025654,0.005812463350594044,-0.012487296015024185,0.0071541848592460155,-0.0002547806070651859,0.011454022489488125
0.013351584784686565,0.005961146671324968,-0.012577825225889683,0.008128940127789974,-0.00024619855685159564,0.01145271584391594
0.013593748211860657,0.005407258868217468,-0.01198743935674429,0.007886024191975594,-0.00030656668241135776,0.012194400653243065
0.013191607780754566,0.005052200052887201,-0.012547613121569157,0.007482926361262798,-0.0003082012408412993,0.01180150918662548
0.013324208557605743,0.005650664679706097,-0.011835344135761261,0.007515561301261187,-0.00034376513212919235,0.011363402009010315
0.01325661689043045,0.005768824368715286,-0.01259508915245533,0.008071991614997387,-0.00036670183180831373,0.011967543512582779
0.013057730160653591,0.0063800145871937275,-0.012600485235452652,0.007766385097056627,-0.00035860214848071337,0.012128522619605064
0.013797473162412643,0.005674765445291996,-0.01255765836685896,0.0075265406630933285,-0.00034007453359663486,0.012199805118143559
0.013741658069193363,0.005254541989415884,-0.012207623571157455,0.007657800801098347,-0.00035671383375301957,0.012523488141596317
0.014027994126081467,0.005329953972250223,-0.012229464016854763,0.008075756952166557,-0.00035004361416213214,0.012157052755355835
0.013371073640882969,0.005589702166616917,-0.012663532048463821,0.008099682629108429,-0.0003344752767588943,0.012170513160526752
0.013859500177204609,0.005778087303042412,-0.011956593953073025,0.008063911460340023,-0.00031966782989911735,0.01194444764405489
0.013411276042461395,0.006184573285281658,-0.012592006474733353,0.0084877023473382,-0.0003060786984860897,0.012161011807620525
0.013917890377342701,0.005649914965033531,-0.012583475559949875,0.008051219396293163,-0.00036574029945768416,0.012224641628563404
0.013906911946833134,0.005515057127922773,-0.012624438852071762,0.007600283715873957,-0.000360820849891752,0.011598020792007446
0.014445904642343521,0.005367150530219078,-0.01259970385581255,0.007685847580432892,-0.00033550368971191347,0.01167393196374178
0.013726535253226757,0.00592201529070735,-0.01231281366199255,0.008425739593803883,-0.0003426364273764193,0.011925715953111649
0.014151768758893013,0.006212220527231693,-0.012593790888786316,0.00798180140554905,-0.0003483440086711198,0.01243084017187357
0.013990185223519802,0.005472513847053051,-0.011994535103440285,0.00810860563069582,-0.00032893888419494033,0.012075353413820267
0.01422299724072218,0.005762908607721329,-0.012870541773736477,0.008438127115368843,-0.0003101566690020263,0.012586187571287155
0.014021794311702251,0.00553714158013463,-0.012469029985368252,0.00839274376630783,-0.0003356129163876176,0.013243487104773521
0.014021794311702251,0.00553714158013463,-0.012469029985368252,0.00839274376630783,-0.0003356129163876176,0.013243487104773521
0.0142839215695858,0.006839053239673376,-0.012893778271973133,0.008262134157121181,-0.0003086272918153554,0.013283598236739635
0.0142839215695858,0.006839053239673376,-0.012893778271973133,0.008262134157121181,-0.0003086272918153554,0.013283598236739635
0.014563364908099174,0.005913565866649151,-0.012750513851642609,0.00837763212621212,-0.00029423349769786,0.013013648800551891
0.014493308030068874,0.005848208907991648,-0.013035992160439491,0.00812684278935194,-0.0002811030426528305,0.013286399655044079
0.014630857855081558,0.006349298171699047,-0.013035622425377369,0.00883449800312519,-0.00029428076231852174,0.012929841876029968
0.014943382702767849,0.006334970705211163,-0.012720881029963493,0.008320373483002186,-0.0002832844329532236,0.012863177806138992
0.014666702598333359,0.005952293984591961,-0.013531502336263657,0.008111555129289627,-0.0002725959348026663,0.013028786517679691
0.014833308756351471,0.00598160782828927,-0.011760206893086433,0.008394893258810043,-0.0002626520290505141,0.013403911143541336
0.014273344539105892,0.005966931115835905,-0.013539998792111874,0.008632647804915905,-0.00025434885174036026,0.012949549593031406
0.015152521431446075,0.006104780826717615,-0.013487149029970169,0.008006096817553043,-0.0002457964001223445,0.012756213545799255
0.01463271863758564,0.005913568194955587,-0.013248855248093605,0.007972439751029015,-0.00023339453036896884,0.012490429915487766
0.015322376042604446,0.005710494238883257,-0.013041469268500805,0.008202946744859219,-0.00022190407617017627,0.012720412574708462
0.01500917412340641,0.005870552267879248,-0.013611679896712303,0.008776647970080376,-0.0002114744420396164,0.013032403774559498
0.015367689542472363,0.005603854078799486,-0.013963223434984684,0.008319676853716373,-0.00023181657888926566,0.013128161430358887
0.015440237708389759,0.005977030843496323,-0.013365129008889198,0.008132723160088062,-0.0002312727301614359,0.013219737447798252
0.015692610293626785,0.006519505754113197,-0.013570714741945267,0.008470313623547554,-0.00022236094810068607,0.013160443864762783
0.015238074585795403,0.005850303452461958,-0.01310311071574688,0.008313039317727089,-0.0002399244112893939,0.013122791424393654
0.015778319910168648,0.005834703333675861,-0.01351335272192955,0.007710872683674097,-0.00023911720199976116,0.013925578445196152
0.015664320439100266,0.00571899488568306,-0.013108435086905956,0.008007163181900978,-0.00023089555907063186,0.013153779320418835
0.015604794956743717,0.006189466919749975,-0.013679936528205872,0.008755283430218697,-0.0002463108394294977,0.012634258717298508
0.015902644023299217,0.006563886534422636,-0.013398160226643085,0.008714432828128338,-0.00024535501142963767,0.013146670535206795
0.015360873192548752,0.005737050902098417,-0.013674065470695496,0.007936469279229641,-0.0002895968791563064,0.013272386975586414
0.015487034805119038,0.005768348462879658,-0.012953829020261765,0.008715366013348103,-0.00031878892332315445,0.013644563034176826
0.015341538935899734,0.005609119310975075,-0.013616858050227165,0.008951925672590733,-0.0003007335471920669,0.01337709091603756
0.01591566950082779,0.005667355842888355,-0.0134200444445014,0.00840086955577135,-0.0002820862573571503,0.01366390474140644
0.015866385772824287,0.006025655660778284,-0.01393946073949337,0.00807337835431099,-0.0002654508571140468,0.013414628803730011
0.015866385772824287,0.006025655660778284,-0.01393946073949337,0.00807337835431099,-0.0002654508571140468,0.013414628803730011
0.01614854857325554,0.0060202693566679955,-0.013541457243263721,0.008313219994306564,-0.00025065921363420784,0.013508877716958523
0.01583722233772278,0.00558101013302803,-0.01356080174446106,0.008452980779111385,-0.00023742896155454218,0.013369052670896053
0.01594366692006588,0.005636683199554682,-0.01408058125525713,0.008583815768361092,-0.00026457622880116105,0.013729576952755451
0.01602495089173317,0.006049743853509426,-0.013602490536868572,0.009225920774042606,-0.00025731619098223746,0.013728591613471508
0.015825731679797173,0.006170705426484346,-0.013764250092208385,0.008310418576002121,-0.00024594375281594694,0.013909020461142063
0.015960652381181717,0.005659924354404211,-0.014005293138325214,0.008032482117414474,-0.00022542892838828266,0.013611547648906708
0.016502052545547485,0.005768632050603628,-0.012940668500959873,0.008630857802927494,-0.00024305428087245673,0.0136945815756917
0.016129035502672195,0.005696877837181091,-0.01401397492736578,0.008434874005615711,-0.00024211587151512504,0.013670000247657299
0.016642430797219276,0.005790879018604755,-0.013294258154928684,0.008196703158318996,-0.00023368344409391284,0.014022260904312134
0.01622311770915985,0.004984807688742876,-0.013780355453491211,0.009056216105818748,-0.0002532802755013108,0.013841080479323864
0.016201196238398552,0.004795630928128958,-0.01356782391667366,0.008874412626028061,-0.00024838047102093697,0.013906320556998253
0.016524504870176315,0.005279284901916981,-0.014014380984008312,0.00892559252679348,-0.00024033994122873992,0.013704127632081509
0.01584853231906891,0.005246915388852358,-0.013145535252988338,0.009414496831595898,-0.00024698200286366045,0.014377960003912449
0.016431620344519615,0.00540026044473052,-0.013810188509523869,0.009294871240854263,-0.0002713951689656824,0.01435953751206398
0.016336310654878616,0.0053130933083593845,-0.013401653617620468,0.00897208321839571,-0.00030216685263440013,0.014176305383443832
0.01659679412841797,0.004917102865874767,-0.013683118857443333,0.00921967439353466,-0.0003305843274574727,0.013945954851806164
0.016666101291775703,0.005096859764307737,-0.013355474919080734,0.00893981009721756,-0.0006255242042243481,0.014096185564994812
0.016827810555696487,0.005039880983531475,-0.01348892506211996,0.008673198521137238,-0.0009219514322467148,0.014021829701960087
0.01657077483832836,0.005348992999643087,-0.013763848692178726,0.009001899510622025,-0.0008832778548821807,0.014180241152644157
0.016322368755936623,0.0052609252743422985,-0.013943790458142757,0.00933320727199316,-0.0008265582728199661,0.014122807420790195
0.016785340383648872,0.004767801612615585,-0.013923406600952148,0.009169233962893486,-0.0007339825970120728,0.014153898693621159
0.01664675585925579,0.00489772716537118,-0.013604719191789627,0.008404814638197422,-0.0007382630719803274,0.014179838821291924
0.016800688579678535,0.005398319568485022,-0.01381572987884283,0.008869752287864685,-0.0006826657918281853,0.014424694702029228
0.017079360783100128,0.005078366491943598,-0.013439219444990158,0.009218987077474594,-0.0006316775106824934,0.01405330654233694
0.01671179197728634,0.0049308789893984795,-0.013731834478676319,0.009282802231609821,-0.0006096177385188639,0.014220582321286201
0.017042146995663643,0.0047999839298427105,-0.013470248319208622,0.009097124449908733,-0.0005904731806367636,0.014447658322751522
0.016513412818312645,0.005112553481012583,-0.013919314369559288,0.00942839402705431,-0.0006177688483148813,0.014828601852059364
0.01731657236814499,0.005078935995697975,-0.013316420838236809,0.008936078287661076,-0.000627096917014569,0.014614207670092583
0.017534838989377022,0.00475539593026042,-0.013957159593701363,0.009512708522379398,-0.0007143628317862749,0.014858271926641464
0.017249496653676033,0.004723498597741127,-0.013483686372637749,0.009823900647461414,-0.0007679950795136392,0.015969794243574142
0.017292462289333344,0.00466545857489109,-0.013868574984371662,0.009508362971246243,-0.0007944501703605056,0.01463982742279768
0.017292462289333344,0.00466545857489109,-0.013868574984371662,0.009508362971246243,-0.0007944501703605056,0.01463982742279768
0.01814805343747139,0.004698101431131363,-0.014209053479135036,0.00924667064100504,-0.0010890272678807378,0.014572479762136936
0.01814805343747139,0.004698101431131363,-0.014209053479135036,0.00924667064100504,-0.0010890272678807378,0.014572479762136936
0.017539726570248604,0.004518877249211073,-0.014241206459701061,0.009746896103024483,-0.0009962584590539336,0.015169925056397915
0.0180052537471056,0.004674897994846106,-0.013680554926395416,0.009617164731025696,-0.0009698924841359258,0.01529297512024641
0.018025828525424004,0.004734025336802006,-0.014427212998270988,0.009221100248396397,-0.0008675191784277558,0.015296746976673603
0.0182252898812294,0.004677143879234791,-0.013737021014094353,0.009053725749254227,-0.0007777620339766145,0.015590540133416653
0.018011439591646194,0.005090771242976189,-0.014309830032289028,0.010000692680478096,-0.0006723300903104246,0.015459197573363781
0.01775871217250824,0.005020664539188147,-0.013897481374442577,0.009257006458938122,-0.0006856619729660451,0.01573464460670948
0.01777191460132599,0.004828954115509987,-0.014412283897399902,0.009560544975101948,-0.0006204884848557413,0.015593658201396465
0.01715528778731823,0.004752629902213812,-0.014156612567603588,0.009773069992661476,-0.0006433498347178102,0.015120593830943108
0.019115393981337547,0.00529877096414566,-0.014013574458658695,0.009380591101944447,-0.0006503533804789186,0.014659796841442585
0.019055834040045738,0.005213138647377491,-0.014070890843868256,0.009220241568982601,-0.0006143110804259777,0.015347640961408615
0.018318291753530502,0.005047078710049391,-0.014574753120541573,0.009547999128699303,-0.0006141086341813207,0.015373705886304379
0.017960917204618454,0.005222666542977095,-0.01447087898850441,0.009562159888446331,-0.0005562240839935839,0.01567227952182293
0.018727535381913185,0.005058875773102045,-0.015015799552202225,0.009276808239519596,-0.0005880294484086335,0.015702396631240845
0.018598642200231552,0.005326870828866959,-0.014307480305433273,0.009791706688702106,-0.0006009842618368566,0.01564982160925865
0.019005436450242996,0.005073055624961853,-0.014859525486826897,0.009763251058757305,-0.0006066382629796863,0.01548002939671278
0.01893472671508789,0.005170036107301712,-0.015082196332514286,0.009997311048209667,-0.0005935276858508587,0.015623040497303009
0.018834654241800308,0.005524080712348223,-0.014795335941016674,0.010102659463882446,-0.000614681513980031,0.015726637095212936
0.01885676011443138,0.0051368968561291695,-0.014487359672784805,0.010054940357804298,-0.0005969597259536386,0.01608777604997158
0.01846485771238804,0.004786022938787937,-0.014561038464307785,0.009700236842036247,-0.0006218301714397967,0.016418423503637314
0.018007377162575722,0.005229332484304905,-0.01472566369920969,0.009996263310313225,-0.0006145132938399911,0.016054976731538773
0.0188970398157835,0.005016922485083342,-0.015328044071793556,0.010263138450682163,-0.000597979174926877,0.015980035066604614
0.019475281238555908,0.004802866373211145,-0.014653007499873638,0.010258754715323448,-0.0005486261215992272,0.015554697252810001
0.019129175692796707,0.004930844996124506,-0.015260755084455013,0.010733378119766712,-0.0005048032617196441,0.015756050124764442
0.019495926797389984,0.005152578931301832,-0.014669110998511314,0.010866549797356129,-0.00046733589260838926,0.01570306345820427
0.0193464457988739,0.004883745685219765,-0.015636052936315536,0.01018743310123682,-0.00043504455243237317,0.015957631170749664
0.018908994272351265,0.004913813900202513,-0.015108378604054451,0.010092183947563171,-0.00040692585753276944,0.016420919448137283
0.019297273829579353,0.00477673439309001,-0.015525110065937042,0.009907945990562439,-0.00042243595817126334,0.01653888262808323
0.019297273829579353,0.00477673439309001,-0.015525110065937042,0.009907945990562439,-0.00042243595817126334,0.01653888262808323
0.019389096647500992,0.005140978377312422,-0.015815582126379013,0.010947470553219318,-0.00038947933353483677,0.016426661983132362
0.01959977112710476,0.005346690304577351,-0.015758825466036797,0.010475926101207733,-0.00036953543894924223,0.016764096915721893
0.01958937756717205,0.005193222779780626,-0.01613176055252552,0.011509198695421219,-0.0003514947893563658,0.01631585881114006
0.019514288753271103,0.005291914567351341,-0.01574685052037239,0.01073126308619976,-0.00031668206793256104,0.016376683488488197
0.019783498719334602,0.005071327090263367,-0.015322119928896427,0.010470478795468807,-0.00028061485500074923,0.01656913012266159
0.019719460979104042,0.0048806252889335155,-0.015802567824721336,0.010643500834703445,-0.00026312866248190403,0.01691025123000145
0.01973702572286129,0.005233843810856342,-0.015540838241577148,0.010504262521862984,-0.0002485211007297039,0.016086386516690254
0.02000758983194828,0.005030197091400623,-0.01624106615781784,0.009919426403939724,-0.00023550514015369117,0.016124753281474113
0.020417530089616776,0.005034336820244789,-0.015437855385243893,0.010568950325250626,-0.0002567983465269208,0.016665637493133545
0.020158227533102036,0.005002439487725496,-0.01573302038013935,0.009963246062397957,-0.0002550537174101919,0.01659822277724743
0.020028403028845787,0.004953720606863499,-0.015180224552750587,0.009837327525019646,-0.00024419717374257743,0.016851065680384636
0.020526226609945297,0.005182285327464342,-0.016108902171254158,0.010179937817156315,-0.00023367140966001898,0.01697474718093872
0.020214134827256203,0.0054899766109883785,-0.015782061964273453,0.01041154470294714,-0.00024224029039032757,0.016886023804545403
0.01984422840178013,0.005489775445312262,-0.016214871779084206,0.010922856628894806,-0.0002496567030902952,0.017245452851057053
0.02032904140651226,0.005593270529061556,-0.0162929929792881,0.011232777498662472,-0.00024120908346958458,0.016872601583600044
0.020473798736929893,0.005315716844052076,-0.015782348811626434,0.010397468693554401,-0.0002611710806377232,0.01703031174838543
0.02037426456809044,0.005289458204060793,-0.016233738511800766,0.01092208456248045,-0.00025584909599274397,0.017029790207743645
0.020351726561784744,0.005152728408575058,-0.015480275265872478,0.010966911911964417,-0.00024731847224757075,0.017251502722501755
0.02089674584567547,0.005719353444874287,-0.015690965577960014,0.010408789850771427,-0.0002812241727951914,0.01732751913368702
0.020903896540403366,0.005329130217432976,-0.015103394165635109,0.010731900110840797,-0.000278106308542192,0.017190556973218918
0.0206032395362854,0.005008293781429529,-0.0158726554363966,0.010559681802988052,-0.0003117212327197194,0.01719510741531849
0.021161627024412155,0.0051652523688972,-0.01539278868585825,0.01025126501917839,-0.00033436663215979934,0.017150230705738068
0.020843664184212685,0.005028043873608112,-0.01611536368727684,0.010742584243416786,-0.00032863058731891215,0.017618220299482346
0.020843664184212685,0.005028043873608112,-0.01611536368727684,0.010742584243416786,-0.00032863058731891215,0.017618220299482346
0.020674344152212143,0.0058907330967485905,-0.01563989743590355,0.010783063247799873,-0.00031306067830882967,0.017415499314665794
0.021089058369398117,0.005417816340923309,-0.015911780297756195,0.011029389686882496,-0.00033518942655064166,0.016889387741684914
0.02166326902806759,0.005303237587213516,-0.016002587974071503,0.01108517125248909,-0.00032511295285075903,0.017377715557813644
0.02131483145058155,0.0052352240309119225,-0.015785101801156998,0.011836644262075424,-0.00047475771862082183,0.017623934894800186
0.020655261352658272,0.005726485047489405,-0.015614495612680912,0.011511745862662792,-0.000499133369885385,0.017670845612883568
0.021979864686727524,0.005889229476451874,-0.01619940996170044,0.010910010896623135,-0.0004752619133796543,0.01701519638299942
0.021768879145383835,0.0058256941847503185,-0.015192043967545033,0.01137382723391056,-0.000500969123095274,0.01688515767455101
0.021341657266020775,0.005166155286133289,-0.015956103801727295,0.010525002144277096,-0.00047206756426021457,0.016978368163108826
0.021349024027585983,0.005239109043031931,-0.015918945893645287,0.0109445471316576,-0.00043966982048004866,0.017162898555397987
0.021913934499025345,0.005129631608724594,-0.016118541359901428,0.011354200541973114,-0.00046174295130185783,0.01739531196653843
0.021282939240336418,0.005937053356319666,-0.015874609351158142,0.011232136748731136,-0.0004404183418955654,0.017619894817471504
0.020691772922873497,0.005837621632963419,-0.015744676813483238,0.01207649614661932,-0.00047563185216858983,0.01743650995194912
0.0214109867811203,0.00545861292630434,-0.01629670150578022,0.011584258638322353,-0.000503581773955375,0.017196640372276306
0.022079087793827057,0.005074025597423315,-0.016129210591316223,0.011504893191158772,-0.0004793414263986051,0.017487233504652977
0.02161055989563465,0.005312770139425993,-0.016226543113589287,0.011415512301027775,-0.0005098268738947809,0.017687860876321793
0.021243685856461525,0.005641487427055836,-0.01541768666356802,0.011256816796958447,-0.0005258006858639419,0.01794891059398651
0.021708903834223747,0.006081615574657917,-0.016348998993635178,0.011417781002819538,-0.0005047436570748687,0.01787455752491951
0.02299041487276554,0.005388278979808092,-0.016201552003622055,0.011272642761468887,-0.0006114480784162879,0.017906775698065758
0.022154007107019424,0.00529469083994627,-0.016241056844592094,0.011380655691027641,-0.0006649313727393746,0.01725105568766594
0.021355565637350082,0.0049733249470591545,-0.01631973125040531,0.011653954163193703,-0.0006177645991556346,0.017390932887792587
0.02170202136039734,0.004798713140189648,-0.015940606594085693,0.011498071253299713,-0.0006419106503017247,0.01782079227268696
0.022136598825454712,0.0051415348425507545,-0.015898821875452995,0.012216535396873951,-0.0005877031362615526,0.01700960285961628
0.0216632392257452,0.004948383662849665,-0.015862220898270607,0.012118413113057613,-0.0006040792213752866,0.018022075295448303
0.02166982926428318,0.0047313557006418705,-0.016583357006311417,0.011920345015823841,-0.0005656246212311089,0.018302004784345627
0.022106759250164032,0.0045750378631055355,-0.015704168006777763,0.012300451286137104,-0.0005249491659924388,0.01855246163904667
0.0223191287368536,0.004733079578727484,-0.016121361404657364,0.011464451439678669,-0.000519912748131901,0.018244966864585876
0.02242128923535347,0.004726395942270756,-0.015710417181253433,0.011890883557498455,-0.0004777506401296705,0.017983928322792053
0.02242128923535347,0.004726395942270756,-0.015710417181253433,0.011890883557498455,-0.0004777506401296705,0.017983928322792053
0.021880874410271645,0.005004985723644495,-0.01637081988155842,0.011601636186242104,-0.00047210685443133116,0.018576636910438538
0.021880874410271645,0.005004985723644495,-0.01637081988155842,0.011601636186242104,-0.00047210685443133116,0.018576636910438538
0.022313592955470085,0.004789330065250397,-0.016025381162762642,0.011923003941774368,-0.00043530145194381475,0.019043685868382454
0.022507447749376297,0.004677971825003624,-0.016332529485225677,0.011686899699270725,-0.00046083825873211026,0.018996868282556534
0.022136658430099487,0.004938796628266573,-0.01650448888540268,0.012102220207452774,-0.0004594174097292125,0.018873782828450203
0.02225341461598873,0.005424022674560547,-0.015943031758069992,0.01203962229192257,-0.00043836748227477074,0.019001517444849014
0.022159911692142487,0.005274995695799589,-0.016168249770998955,0.011680827476084232,-0.00041467181290499866,0.0189118143171072
0.022313429042696953,0.004765434190630913,-0.016139067709445953,0.011103891767561436,-0.0004334187542553991,0.018915146589279175
0.022273965179920197,0.004692500922828913,-0.016100233420729637,0.011592675931751728,-0.00046760617988184094,0.01932750828564167
0.022117670625448227,0.00479839788749814,-0.0171428844332695,0.011539648286998272,-0.00043915995047427714,0.01925012096762657
0.022650541737675667,0.004790933337062597,-0.016613252460956573,0.011770159937441349,-0.0004651960334740579,0.019045690074563026
0.02277485467493534,0.00532494205981493,-0.016827907413244247,0.011979225091636181,-0.00044065536349080503,0.019119322299957275
0.02168557420372963,0.005136843305081129,-0.016186239197850227,0.011785777285695076,-0.00041232621879316866,0.019528457894921303
0.023239102214574814,0.0046465047635138035,-0.01681671105325222,0.012045317329466343,-0.00042772587039507926,0.019513430073857307
0.02344326488673687,0.004822140093892813,-0.016716323792934418,0.011895802803337574,-0.00041574533679522574,0.019396306946873665
0.023238705471158028,0.004792874213308096,-0.016821203753352165,0.012175623327493668,-0.0003958511515520513,0.019391251727938652
0.02314676158130169,0.004857036750763655,-0.017590690404176712,0.011960171163082123,-0.00045080529525876045,0.01973937824368477
0.02315976843237877,0.005304232239723206,-0.016652943566441536,0.012095699086785316,-0.00041537880315445364,0.019804228097200394
0.022959258407354355,0.005549931898713112,-0.01673544943332672,0.012547329999506474,-0.00045131714432500303,0.01998233236372471
0.022896340116858482,0.004718818236142397,-0.01680881902575493,0.012678220868110657,-0.0004207685124129057,0.019792424514889717
0.023937974125146866,0.004357723984867334,-0.01732833869755268,0.012978062964975834,-0.00042219276656396687,0.019463423639535904
0.024463027715682983,0.004102701786905527,-0.017419865354895592,0.01264058705419302,-0.00042278828914277256,0.019632725045084953
0.024193434044718742,0.00436044204980135,-0.0170404314994812,0.01223553717136383,-0.000397963885916397,0.019774023443460464
0.0237539354711771,0.004986771382391453,-0.017250075936317444,0.012360219843685627,-0.00040046125650405884,0.020031701773405075
0.022348299622535706,0.004874983336776495,-0.01712784171104431,0.012763534672558308,-0.0004021157219540328,0.020331136882305145
0.02345183864235878,0.0049315933138132095,-0.017018835991621017,0.012648354284465313,-0.00038370629772543907,0.02027704007923603
0.024173391982913017,0.0043465932831168175,-0.016722774133086205,0.012564084492623806,-0.0004074114258401096,0.020353931933641434
0.02421490289270878,0.004385130014270544,-0.016369393095374107,0.012617026455700397,-0.00037708712625317276,0.020613301545381546
0.02421490289270878,0.004385130014270544,-0.016369393095374107,0.012617026455700397,-0.00037708712625317276,0.020613301545381546
0.02411895990371704,0.004428183659911156,-0.017381342127919197,0.012753555551171303,-0.00037893958506174386,0.02062109112739563
0.02475990727543831,0.004450325388461351,-0.01732689142227173,0.012640225701034069,-0.00036119529977440834,0.020432505756616592
0.024580705910921097,0.0051040141843259335,-0.01742330566048622,0.012951871380209923,-0.0003390061028767377,0.020849334076046944
0.024465221911668777,0.0045462376438081264,-0.017083346843719482,0.013161650858819485,-0.00031900257454253733,0.020496277138590813
0.024013273417949677,0.004501251969486475,-0.017370399087667465,0.012970761395990849,-0.00034463463816791773,0.020485766232013702
0.024602379649877548,0.004489400889724493,-0.017196187749505043,0.012910028919577599,-0.00033239024924114347,0.020557289943099022
0.025200748816132545,0.004676048178225756,-0.017473094165325165,0.012873154133558273,-0.0003551949339453131,0.0208311527967453
0.02503669448196888,0.004649138543754816,-0.017355449497699738,0.013495706021785736,-0.0003436215629335493,0.019923601299524307
0.02466399595141411,0.0048182071186602116,-0.01683042012155056,0.012925456278026104,-0.0003292356850579381,0.020246155560016632
0.025014806538820267,0.004842313006520271,-0.01746577024459839,0.013297018595039845,-0.0003463484172243625,0.021108169108629227
0.025338847190141678,0.004900067113339901,-0.017560714855790138,0.01268807239830494,-0.00032417086185887456,0.021418895572423935
0.025142282247543335,0.004786246456205845,-0.01769760623574257,0.013256575912237167,-0.00035881789517588913,0.021653076633810997
0.025407006964087486,0.0047322651371359825,-0.01756768859922886,0.013290426693856716,-0.00033990698284469545,0.020903056487441063
0.025536999106407166,0.004359320737421513,-0.017130941152572632,0.013010886497795582,-0.0003661208029370755,0.020188014954328537
0.02505486272275448,0.004974321462213993,-0.017690470442175865,0.013329853303730488,-0.00037651360617019236,0.020750349387526512
0.026096099987626076,0.005522569641470909,-0.017537161707878113,0.012997450307011604,-0.0003797390381805599,0.021911032497882843
0.026078324764966965,0.004761223681271076,-0.017696715891361237,0.013658701442182064,-0.0005397708155214787,0.021661946550011635
0.02560817077755928,0.004437361843883991,-0.017458520829677582,0.013139601796865463,-0.000580113148316741,0.021035512909293175
0.025656193494796753,0.0045860824175179005,-0.01687787100672722,0.013494557701051235,-0.0005898381932638586,0.020911360159516335
0.025796502828598022,0.004667496308684349,-0.017760509625077248,0.013063444755971432,-0.000616971286945045,0.022094594314694405
0.026126179844141006,0.004711251240223646,-0.01754429005086422,0.01335081271827221,-0.000604105822276324,0.022288339212536812
0.026126179844141006,0.004711251240223646,-0.01754429005086422,0.01335081271827221,-0.000604105822276324,0.022288339212536812
0.026455223560333252,0.004783921409398317,-0.01732615754008293,0.012935656122863293,-0.0007682063733227551,0.021183792501688004
0.026780128479003906,0.005109183490276337,-0.0171330738812685,0.013332512229681015,-0.0006831633509136736,0.020477894693613052
0.02678694576025009,0.004467616323381662,-0.01730113849043846,0.013035424053668976,-0.0006343909772112966,0.022374805063009262
0.02678694576025009,0.004467616323381662,-0.01730113849043846,0.013035424053668976,-0.0006343909772112966,0.022374805063009262
0.027034953236579895,0.004598907195031643,-0.01744357869029045,0.013073771260678768,-0.0005956267705187201,0.022536933422088623
0.02662120759487152,0.005055535119026899,-0.018076693639159203,0.013403675518929958,-0.0006177658215165138,0.022314533591270447
0.02698659896850586,0.00500438641756773,-0.017186276614665985,0.012716593220829964,-0.0005836324999108911,0.022181924432516098
0.027021540328860283,0.004790545906871557,-0.01755829155445099,0.012637690640985966,-0.0005797579069621861,0.02187378890812397
0.026944255456328392,0.00482945004478097,-0.017871489748358727,0.012357203289866447,-0.0006108833476901054,0.0220316331833601
0.02747303433716297,0.004794525448232889,-0.017691178247332573,0.01349302101880312,-0.0006383368163369596,0.02243776060640812
0.027272233739495277,0.004624084569513798,-0.01852218434214592,0.013021859340369701,-0.0006242981762625277,0.02220647595822811
0.027607431635260582,0.004799988120794296,-0.01777157001197338,0.013365221209824085,-0.0008531996281817555,0.022468125447630882
0.028074508532881737,0.0053250230848789215,-0.018147433176636696,0.01329074427485466,-0.0008623272296972573,0.022251298651099205
0.02802121266722679,0.004786147736012936,-0.01814236491918564,0.013296875171363354,-0.0007592482725158334,0.022255590185523033
0.027808109298348427,0.004977883771061897,-0.01732931286096573,0.012866314500570297,-0.0007196400547400117,0.02224537916481495
0.028163963928818703,0.004887656774371862,-0.01838706247508526,0.012824495323002338,-0.0006883058813400567,0.022883228957653046
0.029470963403582573,0.0048664347268640995,-0.01876380667090416,0.013383492827415466,-0.00068836280843243,0.022893376648426056
0.028881186619400978,0.004716017283499241,-0.018442194908857346,0.013083405792713165,-0.0006467349012382329,0.0225355327129364
0.02602115459740162,0.005168972071260214,-0.018404405564069748,0.014139034785330296,-0.0005788995185866952,0.022673333063721657
0.028991099447011948,0.005099297035485506,-0.017932821065187454,0.013883340172469616,-0.0005882597761228681,0.022838206961750984
0.029449835419654846,0.004478165879845619,-0.018632877618074417,0.013991112820804119,-0.0006184536032378674,0.022776080295443535
0.028663096949458122,0.004449433647096157,-0.019280558452010155,0.013322931714355946,-0.0006445429171435535,0.022491633892059326
0.02927147038280964,0.004970912355929613,-0.01792275533080101,0.014383193105459213,-0.0007775375852361321,0.02259255014359951
0.02992909587919712,0.0049486421048641205,-0.018109312281012535,0.013186568394303322,-0.0009136302978731692,0.022739699110388756
0.02960977889597416,0.0048967511393129826,-0.01913972944021225,0.013261017389595509,-0.0008200487936846912,0.022928040474653244
0.02960977889597416,0.0048967511393129826,-0.01913972944021225,0.013261017389595509,-0.0008200487936846912,0.022928040474653244
0.028949270024895668,0.004966645035892725,-0.01832626201212406,0.013071083463728428,-0.0008162885787896812,0.022557666525244713
0.02905781753361225,0.0044243428856134415,-0.01839319057762623,0.013697631657123566,-0.0007397317094728351,0.02270343527197838
0.02905781753361225,0.0044243428856134415,-0.01839319057762623,0.013697631657123566,-0.0007397317094728351,0.02270343527197838
0.02969220094382763,0.004485271405428648,-0.01830234006047249,0.014115753583610058,-0.0006807436002418399,0.023039571940898895
0.02942960150539875,0.005039301235228777,-0.018436258658766747,0.014802276156842709,-0.0005496694357134402,0.022946206852793694
0.029339713975787163,0.004568949807435274,-0.018346024677157402,0.01467432826757431,-0.0004897597245872021,0.022353049367666245
0.028686434030532837,0.004401904996484518,-0.018354691565036774,0.014599169604480267,-0.000523543800227344,0.02222021482884884
0.029058603569865227,0.004625897388905287,-0.018280813470482826,0.014188938774168491,-0.0004821126931346953,0.023187868297100067
0.02909974940121174,0.004816194996237755,-0.018504684790968895,0.014524105936288834,-0.0004428797692526132,0.023682693019509315
0.029185229912400246,0.004821510519832373,-0.018594715744256973,0.014333807863295078,-0.0004727026680484414,0.023252150043845177
0.02921523153781891,0.004686808213591576,-0.01816711015999317,0.014632752165198326,-0.0004435428709257394,0.023280737921595573
0.029305316507816315,0.004557038191705942,-0.018340012058615685,0.014072859659790993,-0.00041460507782176137,0.023665545508265495
0.02912125550210476,0.004538120701909065,-0.01841794140636921,0.014620313420891762,-0.00042992556700482965,0.023520100861787796
0.028760328888893127,0.004489912185817957,-0.0178537517786026,0.014298193156719208,-0.0004177575174253434,0.02372061461210251
0.029036885127425194,0.004441652912646532,-0.018260683864355087,0.01475260965526104,-0.0004036625032313168,0.02290027029812336
0.029307270422577858,0.005031669978052378,-0.018248766660690308,0.014306968078017235,-0.00037888152291998267,0.02279251255095005
0.0289760772138834,0.0048639215528965,-0.018228426575660706,0.014507549814879894,-0.0004103973915334791,0.02354944869875908
0.02733539417386055,0.004917751997709274,-0.018526431173086166,0.014254184439778328,-0.000389082299079746,0.02447269856929779
0.029825499281287193,0.004380730912089348,-0.01795872673392296,0.014587673358619213,-0.0004079790669493377,0.02429332584142685
0.030192658305168152,0.004298592917621136,-0.018177049234509468,0.014210226945579052,-0.00039623765042051673,0.023978454992175102
0.030310630798339844,0.004520766902714968,-0.018591009080410004,0.014826277270913124,-0.00041980561218224466,0.023908793926239014
0.029154982417821884,0.004726724233478308,-0.017666751518845558,0.014424669556319714,-0.00040318473475053906,0.023529237136244774
0.029068587347865105,0.0044342814944684505,-0.018471967428922653,0.014995978213846684,-0.0005912419292144477,0.023494692519307137
0.02956177294254303,0.0045208679512143135,-0.01835743337869644,0.014568387530744076,-0.0006581516936421394,0.024060091003775597
0.02956177294254303,0.0045208679512143135,-0.01835743337869644,0.014568387530744076,-0.0006581516936421394,0.024060091003775597
0.03031832166016102,0.004329746589064598,-0.017951803281903267,0.01491845678538084,-0.0006621064385399222,0.024305764585733414
0.029733527451753616,0.004358337726444006,-0.018384454771876335,0.014536713249981403,-0.0006432047812268138,0.024080852046608925
0.030347270891070366,0.004463991150259972,-0.01787782460451126,0.014907460659742355,-0.000971280038356781,0.02419358119368553
0.03053129091858864,0.004166212398558855,-0.018376683816313744,0.014505716972053051,-0.00100010319147259,0.024180429056286812
0.029719017446041107,0.004260535351932049,-0.018285734578967094,0.014734749682247639,-0.0009176363237202168,0.024526303634047508
0.029530690982937813,0.0041017839685082436,-0.018436847254633904,0.01563848741352558,-0.0009129099198617041,0.025181515142321587
0.030257796868681908,0.004019534680992365,-0.018722642213106155,0.014974256977438927,-0.0007911925204098225,0.02485828660428524
0.03047371469438076,0.004403332713991404,-0.018236009404063225,0.015496444888412952,-0.0007900408236309886,0.024060692638158798
0.03035052865743637,0.00424753874540329,-0.018483204767107964,0.015037833712995052,-0.0007879350450821221,0.024061325937509537
0.030444616451859474,0.0040542432107031345,-0.018553856760263443,0.015280717983841896,-0.0007739547872915864,0.024331431835889816
0.030205244198441505,0.0040299356915056705,-0.01812458224594593,0.014959667809307575,-0.0007405328215099871,0.024236319586634636
0.029934750869870186,0.004011584911495447,-0.018517455086112022,0.015341960825026035,-0.0006949412636458874,0.02439221926033497
0.030203521251678467,0.00392076326534152,-0.018797628581523895,0.015730489045381546,-0.0007012698915787041,0.02456776425242424
0.030492959544062614,0.00404718704521656,-0.018471527844667435,0.01559430081397295,-0.0006451964727602899,0.024619564414024353
0.03022604249417782,0.004185437690466642,-0.018735498189926147,0.015560048632323742,-0.0006481900345534086,0.024498235434293747
0.030528327450156212,0.004358847159892321,-0.018598590046167374,0.015422810800373554,-0.0006073472322896123,0.02427983470261097
0.03060906007885933,0.0039663431234657764,-0.018399033695459366,0.01565600000321865,-0.0006235440378077328,0.0242049228399992
0.03139721602201462,0.004343916196376085,-0.019110102206468582,0.015004044398665428,-0.0005838692304678261,0.02420705370604992
0.029931997880339622,0.004170177970081568,-0.018588637933135033,0.015117076225578785,-0.0006621568463742733,0.024331172928214073
0.0314558781683445,0.004314200021326542,-0.019005484879016876,0.014497736468911171,-0.000693111156579107,0.024761753156781197
0.03155095875263214,0.004249907564371824,-0.01930985413491726,0.015108977444469929,-0.0006692716851830482,0.024793308228254318
0.031393930315971375,0.0040732393972575665,-0.019377999007701874,0.015195038169622421,-0.0006714410847052932,0.02459167316555977
0.03115205280482769,0.004259164445102215,-0.019417211413383484,0.01622135378420353,-0.0007676429231651127,0.024832917377352715
0.031297482550144196,0.004606278613209724,-0.019712621346116066,0.015890242531895638,-0.0008793178130872548,0.02489939145743847
0.03130922466516495,0.004283134825527668,-0.01878640428185463,0.015227625146508217,-0.0008554127998650074,0.025021802634000778
0.031232623383402824,0.003960370551794767,-0.018895147368311882,0.01484113372862339,-0.0008042599074542522,0.025486964732408524
0.031232623383402824,0.003960370551794767,-0.018895147368311882,0.01484113372862339,-0.0008042599074542522,0.025486964732408524
0.03195962682366371,0.004349250812083483,-0.019527673721313477,0.015305927023291588,-0.000804389885161072,0.025736426934599876
0.03174801543354988,0.004105620086193085,-0.019372709095478058,0.015240696258842945,-0.000793247832916677,0.024496985599398613
0.032119810581207275,0.004431180190294981,-0.01949325203895569,0.016083093360066414,-0.0007300581783056259,0.024225924164056778
0.03204643726348877,0.004258331842720509,-0.01930355839431286,0.01599458046257496,-0.000631642818916589,0.02485116571187973
0.03263477236032486,0.004234823398292065,-0.019336679950356483,0.01569564826786518,-0.0006345779984258115,0.025590885430574417
0.032669663429260254,0.003915587440133095,-0.019661620259284973,0.01584278605878353,-0.0005898055387660861,0.025212759152054787
0.03210872784256935,0.003791035385802388,-0.01982700452208519,0.01473299227654934,-0.0005645728087984025,0.026345916092395782
0.03320155665278435,0.004238322842866182,-0.019286280497908592,0.014835855923593044,-0.0005193079123273492,0.02593039907515049
0.03371207043528557,0.004473214503377676,-0.019515329971909523,0.015485559590160847,-0.0005435093771666288,0.025553302839398384
0.03295980766415596,0.00438400125131011,-0.018864938989281654,0.015645910054445267,-0.0005092109786346555,0.02474248968064785
0.03183099627494812,0.0040780529379844666,-0.01943366788327694,0.01596565917134285,-0.000475811684736982,0.025946786627173424
0.03324137628078461,0.0039023503195494413,-0.018984217196702957,0.015439224429428577,-0.0004463180375751108,0.02661263570189476
0.03312183544039726,0.003908319864422083,-0.019791636615991592,0.016052961349487305,-0.00038018260966055095,0.026641907170414925
0.03291834518313408,0.003976522013545036,-0.019852424040436745,0.016227642074227333,-0.0003462590975686908,0.025617968291044235
0.03397798910737038,0.004041464999318123,-0.019462168216705322,0.016613321378827095,-0.0003523892955854535,0.025332830846309662
0.03306213393807411,0.003954234533011913,-0.01946139521896839,0.017068879678845406,-0.0003575830196496099,0.025842677801847458
0.032842352986335754,0.003876958042383194,-0.019262775778770447,0.016512282192707062,-0.0003857105039060116,0.025636058300733566
0.03303736448287964,0.004314038902521133,-0.019854692742228508,0.01664039120078087,-0.00041557708755135536,0.026027193292975426
0.03416156396269798,0.004116270691156387,-0.01969960704445839,0.01624467223882675,-0.00039922690484672785,0.02599860168993473
0.03365953266620636,0.0039613982662558556,-0.019288666546344757,0.016269780695438385,-0.000526385207194835,0.02583792805671692
0.033360835164785385,0.003991232719272375,-0.019839243963360786,0.016598980873823166,-0.0005153207457624376,0.025713561102747917
0.03424093872308731,0.004054255783557892,-0.019608421251177788,0.016446202993392944,-0.0005452692857943475,0.025802424177527428
0.03418957442045212,0.004014407284557819,-0.019247623160481453,0.016908619552850723,-0.0005052751512266695,0.02603273093700409
0.03379971534013748,0.0038959491066634655,-0.02026393823325634,0.0163608156144619,-0.0005342743243090808,0.02629018761217594
0.033893898129463196,0.0038427128456532955,-0.020010931417346,0.016686921939253807,-0.0004968285211361945,0.02601064369082451
0.03291689231991768,0.003992913756519556,-0.019220765680074692,0.01596393622457981,-0.0005176045815460384,0.026271795853972435
0.03291689231991768,0.003992913756519556,-0.019220765680074692,0.01596393622457981,-0.0005176045815460384,0.026271795853972435
0.03314938023686409,0.003841238794848323,-0.019905434921383858,0.016380734741687775,-0.0004901214269921184,0.026168497279286385
0.033711448311805725,0.0036986996419727802,-0.01989498920738697,0.015888385474681854,-0.00045934366062283516,0.02666575089097023
0.03400735184550285,0.0037141486536711454,-0.019301733002066612,0.016138872131705284,-0.0004712862428277731,0.026633966714143753
0.03368927538394928,0.0038033786695450544,-0.019616585224866867,0.016313590109348297,-0.000475052569527179,0.026929693296551704
0.03333874046802521,0.003866678336635232,-0.01995803788304329,0.016345195472240448,-0.0004717945121228695,0.02677454799413681
0.034788455814123154,0.003817240707576275,-0.019750552251935005,0.015872525051236153,-0.0005197516875341535,0.026067262515425682
0.03367697075009346,0.0038352650590240955,-0.019883189350366592,0.01632118970155716,-0.0007153683109208941,0.026121677830815315
0.03326137363910675,0.004236682318150997,-0.019769348204135895,0.016313953325152397,-0.0007983862305991352,0.026936516165733337
0.03419215604662895,0.004034141078591347,-0.019436532631516457,0.016595249995589256,-0.0008155262330546975,0.02757491171360016
0.03368816152215004,0.0038970771711319685,-0.019880102947354317,0.01651293784379959,-0.0007857481832616031,0.027011951431632042
0.03418591246008873,0.0044021629728376865,-0.019871139898896217,0.016099588945508003,-0.0007551657618023455,0.026078497990965843
0.034823447465896606,0.004177468363195658,-0.019854530692100525,0.016399376094341278,-0.0008343345834873617,0.025609862059354782
0.035260993987321854,0.004420887678861618,-0.020338431000709534,0.01602564938366413,-0.0008481227559968829,0.026647835969924927
0.03306802734732628,0.004214249085634947,-0.019925396889448166,0.016730578616261482,-0.0008307824027724564,0.02681230753660202
0.0334303081035614,0.004236417822539806,-0.01953567937016487,0.01641066186130047,-0.0007584680570289493,0.026948608458042145
0.03441479429602623,0.004071496427059174,-0.01976925879716873,0.016451429575681686,-0.0007683271542191505,0.027729379013180733
0.03425002470612526,0.0038982664700597525,-0.020676786080002785,0.01669490896165371,-0.0007431584526784718,0.028083927929401398
0.033846013247966766,0.0043349131010472775,-0.019974859431385994,0.016924014315009117,-0.0007661791751161218,0.02724182792007923
0.034834492951631546,0.004117890726774931,-0.02012188546359539,0.01709783636033535,-0.0006851542857475579,0.026888450607657433
0.034633900970220566,0.004487503785640001,-0.019876068457961082,0.016605079174041748,-0.0007028380641713738,0.02650274708867073
0.034266166388988495,0.0046051181852817535,-0.019619829952716827,0.016840996220707893,-0.0006816796376369894,0.02746606059372425
0.03443760424852371,0.004214375279843807,-0.01977328211069107,0.01654455065727234,-0.0006591671262867749,0.028300732374191284
0.03454973176121712,0.004240222275257111,-0.020623698830604553,0.01661473885178566,-0.00067854457302019,0.028023498132824898
0.03478928282856941,0.004564308095723391,-0.02061179094016552,0.01696309819817543,-0.000705268990714103,0.027516407892107964
0.034371517598629,0.0048040905967354774,-0.01991967111825943,0.016758069396018982,-0.0007143100956454873,0.027508502826094627
0.034371517598629,0.0048040905967354774,-0.01991967111825943,0.016758069396018982,-0.0007143100956454873,0.027508502826094627
0.03474883735179901,0.004789179656654596,-0.020360475406050682,0.017225472256541252,-0.0006636401521973312,0.027159137651324272
0.0347919687628746,0.004755422007292509,-0.021064884960651398,0.01702316291630268,-0.0006815656670369208,0.027217425405979156
0.03463113307952881,0.004686923697590828,-0.020605333149433136,0.017391983419656754,-0.0007112204912118614,0.027558378875255585
0.03546948358416557,0.004616203252226114,-0.019868765026330948,0.017151277512311935,-0.0007839483441784978,0.02803250588476658
0.03468555212020874,0.004736999981105328,-0.021199660375714302,0.016966722905635834,-0.0008024333510547876,0.028132278472185135
0.03561688959598541,0.004724111407995224,-0.019989047199487686,0.0175129733979702,-0.0010136958444491029,0.02839316427707672
0.03582979366183281,0.004791318904608488,-0.020745404064655304,0.017535079270601273,-0.0010113527532666922,0.028431421145796776
0.035395849496126175,0.004832158796489239,-0.02123294770717621,0.017419056966900826,-0.000939300749450922,0.02859131619334221
0.03482567518949509,0.004417115356773138,-0.020577922463417053,0.01686747744679451,-0.0008707430097274482,0.0285745020955801
0.03523788973689079,0.004346691071987152,-0.020310552790760994,0.01701209880411625,-0.0008209024672396481,0.02817329578101635
0.03540848195552826,0.004609068855643272,-0.02107803337275982,0.016574960201978683,-0.0007790467352606356,0.02828822284936905
0.0360654853284359,0.004294485319405794,-0.0211448073387146,0.01682279445230961,-0.0007056841859593987,0.02875346504151821
0.035795170813798904,0.004383744206279516,-0.0208467748016119,0.017070135101675987,-0.0006004156311973929,0.028483102098107338
0.03572649508714676,0.004642627201974392,-0.020475763827562332,0.01722538284957409,-0.000521306530572474,0.028684748336672783
0.03556505963206291,0.004484453238546848,-0.02093029022216797,0.017736610025167465,-0.0005530347698368132,0.028861360624432564
0.03589627891778946,0.004396826960146427,-0.020858077332377434,0.01757407933473587,-0.0005685490905307233,0.02893255092203617
0.03709060326218605,0.004460339434444904,-0.020443599671125412,0.018001027405261993,-0.0005766344256699085,0.029046403244137764
0.03637545928359032,0.004184850491583347,-0.021200861781835556,0.01851913519203663,-0.0005714439321309328,0.02885008044540882
0.03514205664396286,0.004539143294095993,-0.02144492231309414,0.018522657454013824,-0.0007626634323969483,0.029785294085741043
0.035895273089408875,0.004733969457447529,-0.020539749413728714,0.01876494102180004,-0.0007909449050202966,0.029240339994430542
0.03602459281682968,0.004592979792505503,-0.020840488374233246,0.018568143248558044,-0.0007529951981268823,0.029516257345676422
0.03672283515334129,0.004318279214203358,-0.02141258493065834,0.018008768558502197,-0.0007463305373676121,0.030046366155147552
0.0382218211889267,0.004365881904959679,-0.021134711802005768,0.018306251615285873,-0.0006959956372156739,0.02930372767150402
0.03739791736006737,0.004212203435599804,-0.020360857248306274,0.01768859103322029,-0.00068668118910864,0.028650039806962013
0.03739791736006737,0.004212203435599804,-0.020360857248306274,0.01768859103322029,-0.00068668118910864,0.028650039806962013
0.036226656287908554,0.004369271919131279,-0.021368201822042465,0.018222905695438385,-0.0006624498055316508,0.02996211312711239
0.036226656287908554,0.004369271919131279,-0.021368201822042465,0.018222905695438385,-0.0006624498055316508,0.02996211312711239
0.037484727799892426,0.004074351396411657,-0.020826106891036034,0.018122630193829536,-0.0006881608278490603,0.029460890218615532
0.03703925758600235,0.00442867074161768,-0.020521286875009537,0.01842339150607586,-0.0007094066822901368,0.029616039246320724
0.03719121962785721,0.00454808259382844,-0.02081245742738247,0.01878105290234089,-0.0006607185932807624,0.030324308201670647
0.03738957643508911,0.004434511996805668,-0.02096676640212536,0.018564186990261078,-0.000731340900529176,0.030187640339136124
0.03763328120112419,0.004441551864147186,-0.020619412884116173,0.018725313246250153,-0.0007529971189796925,0.029040293768048286
0.03712542727589607,0.004805214703083038,-0.02110636793076992,0.018356891348958015,-0.0007430133409798145,0.029999161139130592
0.037546172738075256,0.004433313384652138,-0.020816199481487274,0.01852867193520069,-0.000713823304977268,0.03057725913822651
0.03751961886882782,0.004972289316356182,-0.020405713468790054,0.018578866496682167,-0.0007424866780638695,0.030440151691436768
0.03695489093661308,0.00482147978618741,-0.020916447043418884,0.018475685268640518,-0.0007469836273230612,0.0301347766071558
0.038517337292432785,0.004320846404880285,-0.020845873281359673,0.018624374642968178,-0.0006822864525020123,0.030270326882600784
0.03875335678458214,0.004452529363334179,-0.020461877807974815,0.01854540966451168,-0.0006943359621800482,0.030036812648177147
0.0363817997276783,0.004447320941835642,-0.020635545253753662,0.0186654943972826,-0.0006360463448800147,0.030144665390253067
0.036912716925144196,0.004848994314670563,-0.020747119560837746,0.01870672032237053,-0.0006550517864525318,0.030241910368204117
0.03768131509423256,0.004835256841033697,-0.020527377724647522,0.018265902996063232,-0.000640792481135577,0.030318275094032288
0.03754208981990814,0.0044520082883536816,-0.02017725259065628,0.01848233863711357,-0.0006497597205452621,0.030309230089187622
0.03872975334525108,0.004535946529358625,-0.020915484055876732,0.01864248886704445,-0.0006270533776842058,0.030024344101548195
0.03872975334525108,0.004535946529358625,-0.020915484055876732,0.01864248886704445,-0.0006270533776842058,0.030024344101548195
0.03635133430361748,0.004666884429752827,-0.02090637944638729,0.0181847233325243,-0.0006781806005164981,0.030955031514167786
0.03776024654507637,0.0046882168389856815,-0.020994003862142563,0.018257280811667442,-0.0009690838633105159,0.029281605035066605
0.03863997384905815,0.0047026220709085464,-0.020813340321183205,0.01840098761022091,-0.0009748280863277614,0.030955228954553604
0.0384087897837162,0.0048216101713478565,-0.020665952935814857,0.018807604908943176,-0.0008746631792746484,0.03117660991847515
0.037902191281318665,0.005057651083916426,-0.020603841170668602,0.0184765812009573,-0.0008642186876386404,0.030686521902680397
0.037902191281318665,0.005057651083916426,-0.020603841170668602,0.0184765812009573,-0.0008642186876386404,0.030686521902680397
0.03826844319701195,0.004362050443887711,-0.020884640514850616,0.018815942108631134,-0.0007594619528390467,0.03128410130739212
0.03826844319701195,0.004362050443887711,-0.020884640514850616,0.018815942108631134,-0.0007594619528390467,0.03128410130739212
0.03842274472117424,0.004618803504854441,-0.0211352426558733,0.01890193112194538,-0.0007968158461153507,0.030626745894551277
0.03842274472117424,0.004618803504854441,-0.0211352426558733,0.01890193112194538,-0.0007968158461153507,0.030626745894551277
0.03819269314408302,0.004776394460350275,-0.022211173549294472,0.019336801022291183,-0.0008084694272838533,0.030781792476773262
0.038374096155166626,0.00494244834408164,-0.02198696881532669,0.018815983086824417,-0.0010052991565316916,0.0321526899933815
0.03887712210416794,0.004199230577796698,-0.02076670713722706,0.019154785200953484,-0.000998770585283637,0.03018161654472351
0.03842698782682419,0.004142207559198141,-0.021243201568722725,0.019583888351917267,-0.001052304171025753,0.029939230531454086
0.03954252973198891,0.004831027239561081,-0.021601984277367592,0.019733494147658348,-0.0010955329053103924,0.031587764620780945
0.039178844541311264,0.004891714081168175,-0.022021479904651642,0.019770348444581032,-0.00108702527359128,0.031762655824422836
0.038905784487724304,0.004562048241496086,-0.021585488691926003,0.018915969878435135,-0.0010605351999402046,0.03228680044412613
0.03957724943757057,0.0040147495456039906,-0.02181016281247139,0.018462469801306725,-0.0009500301093794405,0.03301221877336502
0.0394856333732605,0.0036625342909246683,-0.021817896515130997,0.0192489605396986,-0.0008793603628873825,0.03212680295109749
0.03957163169980049,0.0036845593713223934,-0.022034885361790657,0.019448820501565933,-0.0008486395236104727,0.030998334288597107
0.03925858065485954,0.00387696735560894,-0.021513070911169052,0.019957032054662704,-0.0007613979978486896,0.030930979177355766
0.039580732583999634,0.0039044839795678854,-0.02153557352721691,0.019678931683301926,-0.0007722121081314981,0.0324774868786335
0.039851102977991104,0.0037712170742452145,-0.022190524265170097,0.018762938678264618,-0.0007791369571350515,0.03244691714644432
0.03972430154681206,0.00368669955059886,-0.022284122183918953,0.019285742193460464,-0.0007290123030543327,0.0324300155043602
0.04029756411910057,0.00386809348128736,-0.02154437080025673,0.019904756918549538,-0.0007106518605723977,0.03370726853609085
0.040235359221696854,0.0038279478903859854,-0.02166115865111351,0.019557824358344078,-0.0007601910037919879,0.03327365964651108
0.039822135120630264,0.003549361601471901,-0.022005662322044373,0.019096186384558678,-0.0007907303515821695,0.03267549350857735
0.041975125670433044,0.003575354116037488,-0.022260284051299095,0.019459431990981102,-0.001160673564299941,0.032703474164009094
0.04141947627067566,0.003383152885362506,-0.02170032635331154,0.019387362524867058,-0.0012274065520614386,0.032958678901195526
