davideferrari95/blind_handover_controller/data/Test 192 - [2024-02-08 -- 11-29-36]/joint_states_data.csv
shoulder_pan_joint,shoulder_lift_joint,elbow_joint,wrist_1_joint,wrist_2_joint,wrist_3_joint
0.0019080003257840872,-0.003292507492005825,-0.011038043536245823,0.01153402030467987,-0.0,0.0025644327979534864
0.001628746511414647,-0.0028539851773530245,-0.010727278888225555,0.011760114692151546,-0.0,0.0028043300844728947
0.0018228086410090327,-0.00221811281517148,-0.010723059996962547,0.012093213386833668,-0.0,0.002847708761692047
0.0018228086410090327,-0.00221811281517148,-0.010723059996962547,0.012093213386833668,-0.0,0.002847708761692047
0.0021970777306705713,-0.001641951035708189,-0.010622544214129448,0.012477964162826538,-0.0,0.0025992889422923326
0.0022192499600350857,-0.0014207146596163511,-0.010714396834373474,0.012854726985096931,-0.0,0.0027055356185883284
0.002645831322297454,-0.001258835312910378,-0.011013937182724476,0.012980923987925053,-0.0,0.003003854537382722
0.0024474398232996464,-0.0009389740298502147,-0.010494813323020935,0.012646282091736794,-0.0,0.0031095147132873535
0.0020446113776415586,-0.0010627248557284474,-0.010884230956435204,0.012783384881913662,-0.0,0.003053735475987196
0.001833405694924295,-0.0019053065916523337,-0.010636314749717712,0.012075150385499,-0.0,0.002824179595336318
0.0018218110781162977,-0.001785453874617815,-0.010078993625938892,0.012198660522699356,-0.0,0.0026773549616336823
0.0021890525240451097,-0.001773501979187131,-0.011077462695538998,0.013068784959614277,-0.0,0.0027180933393538
0.0021843169815838337,-0.0014018863439559937,-0.010677315294742584,0.012816190719604492,-0.0,0.0027225010562688112
0.002419614465907216,-0.0011132318759337068,-0.010564282536506653,0.013134264387190342,-0.0,0.0028316399548202753
0.002285165712237358,-0.001056911307387054,-0.010831339284777641,0.012919455766677856,-0.0,0.0027196831069886684
0.002393171424046159,-0.000918862409889698,-0.010849865153431892,0.012664138339459896,-0.0,0.0023958187084645033
0.002274874597787857,-0.0009115797001868486,-0.011071363463997841,0.012210341170430183,-0.0,0.002410629065707326
0.0022195104975253344,-0.0007065167301334441,-0.010826337151229382,0.011952034197747707,-0.0,0.0024573153350502253
0.002477895701304078,-0.0006405662279576063,-0.010840265080332756,0.012002866715192795,-0.0,0.0026009627617895603
0.0026350724510848522,-0.0006684178952127695,-0.011157022789120674,0.011624423786997795,-0.0,0.0028087773825973272
0.0024723391979932785,-0.0007123099057935178,-0.011022061109542847,0.012122321873903275,-0.0,0.0030398499220609665
0.002311010379344225,-0.001027540653012693,-0.010747828520834446,0.011712206527590752,-0.0,0.0026935667265206575
0.002410497982054949,-0.0010033249855041504,-0.010565750300884247,0.011576426215469837,-0.0,0.002671736292541027
0.00257720029912889,-0.0008701037149876356,-0.010243836790323257,0.0110999820753932,-0.0,0.0026697528082877398
0.0024310064036399126,-0.0008720426703803241,-0.010945905931293964,0.011376173235476017,-0.0,0.0027672401629388332
0.0025285063311457634,-0.0007964742835611105,-0.010490364395081997,0.011888567358255386,-0.0,0.0026853226590901613
0.002397596137598157,-0.0008041461114771664,-0.010745774023234844,0.011743423528969288,-0.0,0.002931357128545642
0.002324587432667613,-0.0008262903429567814,-0.010776575654745102,0.011703412979841232,-0.0,0.002977309050038457
0.0025447288062423468,-0.0008379361242987216,-0.010486218146979809,0.011441247537732124,-0.0,0.003383029717952013
0.0025447288062423468,-0.0008379361242987216,-0.010486218146979809,0.011441247537732124,-0.0,0.003383029717952013
0.002811960643157363,-0.0011571284849196672,-0.010906065814197063,0.012099136598408222,-0.0,0.0032614523079246283
0.002595373895019293,-0.0011216257698833942,-0.010488823987543583,0.011732547543942928,-0.0,0.0029389900155365467
0.002714394358918071,-0.0009950922103598714,-0.010795000940561295,0.011623235419392586,-0.0,0.0025303869042545557
0.002685944549739361,-0.0009393258369527757,-0.011248545721173286,0.011795680969953537,-0.0,0.0024901090655475855
0.0026979846879839897,-0.0008639770094305277,-0.010325852781534195,0.011392641812562943,-0.0,0.0023938685189932585
0.0025337389670312405,-0.0007720255525782704,-0.010597954504191875,0.012107324786484241,-0.0,0.0026433344464749098
0.0028655650094151497,-0.0007462328649125993,-0.010949107818305492,0.012152913957834244,-0.0,0.002807564102113247
0.002725514117628336,-0.0006907390197739005,-0.010701474733650684,0.01270307507365942,-0.0,0.0030463668517768383
0.002598725724965334,-0.0007134253974072635,-0.011207442730665207,0.012957185506820679,-0.0,0.0028515534941107035
0.002677504438906908,-0.0007225750014185905,-0.010871722362935543,0.012901769019663334,-0.0,0.0027891062200069427
0.0027580854948610067,-0.0006671146838925779,-0.01060553453862667,0.012550964951515198,-0.0,0.0028217884246259928
0.002901077503338456,-0.0007155066123232245,-0.011239021085202694,0.012575643137097359,-0.0,0.002683722646906972
0.0027314515318721533,-0.0006992293056100607,-0.010833046399056911,0.012453153729438782,-0.0,0.002707752166315913
0.0030048436019569635,-0.0006524259224534035,-0.010265175253152847,0.01230765599757433,-0.0,0.002759410534054041
0.003019027877599001,-0.0006456206319853663,-0.010884992778301239,0.012467044405639172,-0.0,0.0025377562269568443
0.002610232913866639,-0.0006129450048319995,-0.01058727316558361,0.012665266171097755,-0.0,0.002568162977695465
0.0026127523742616177,-0.0006109877722337842,-0.010936184786260128,0.012301594018936157,-0.0,0.0026077055372297764
0.00272740819491446,-0.0005863566184416413,-0.010648228228092194,0.01185267511755228,-0.0,0.002452898072078824
0.00285328458994627,-0.000547459872905165,-0.010297510772943497,0.01156851090490818,-0.0,0.002606626134365797
0.0029583252035081387,-0.0005416309577412903,-0.010538866743445396,0.011122377589344978,-0.0,0.00267223734408617
0.0028797683771699667,-0.0004953895695507526,-0.010690242983400822,0.010744807310402393,-0.0,0.002578816143795848
0.0028504179790616035,-0.0005283129867166281,-0.010945530608296394,0.010942282155156136,-0.0,0.002878549974411726
0.0027942112646996975,-0.0005497110541909933,-0.010675722733139992,0.010350342839956284,-0.0,0.0029976556543260813
0.002895302139222622,-0.0005178592400625348,-0.011076451279222965,0.01059808861464262,-0.0,0.002986713545396924
0.0031138958875089884,-0.0006172441062517464,-0.01104955468326807,0.010832146741449833,-0.0,0.002893980825319886
0.003025991842150688,-0.0005588429048657417,-0.010500619187951088,0.01103589590638876,-0.0,0.002776059089228511
0.0029988226015120745,-0.0005924682482145727,-0.011072113178670406,0.011621708981692791,-0.0,0.0025405180640518665
0.002917476464062929,-0.0005372765008360147,-0.01104665081948042,0.011465615592896938,-0.0,0.0023422683589160442
0.002917476464062929,-0.0005372765008360147,-0.01104665081948042,0.011465615592896938,-0.0,0.0023422683589160442
0.003196920733898878,-0.0005137755651958287,-0.011479580774903297,0.011587157845497131,-0.0,0.0025201800744980574
0.003196920733898878,-0.0005137755651958287,-0.011479580774903297,0.011587157845497131,-0.0,0.0025201800744980574
0.0029678894206881523,-0.0005097476532682776,-0.011198405176401138,0.011668046936392784,-0.0,0.0028270871844142675
0.0029678894206881523,-0.0005097476532682776,-0.011198405176401138,0.011668046936392784,-0.0,0.0028270871844142675
0.0029364246875047684,-0.00047832963173277676,-0.01092504896223545,0.011156328022480011,-0.0,0.002828815719112754
0.0029708866495639086,-0.00047107809223234653,-0.010880975052714348,0.011509114876389503,-0.0,0.0025276532396674156
0.0031249388121068478,-0.0004834439023397863,-0.01148657314479351,0.01194318663328886,-0.0,0.00237233261577785
0.0032111243344843388,-0.00046832914813421667,-0.010753097012639046,0.011460181325674057,-0.0,0.002335755852982402
0.003394855186343193,-0.0004781848401762545,-0.010502205230295658,0.011773536913096905,-0.0,0.0022866937797516584
0.003155502723529935,-0.0004656030214391649,-0.011444907635450363,0.0115022799000144,-0.0,0.0027325772680342197
0.0034084327053278685,-0.00043383968295529485,-0.010882876813411713,0.011094733141362667,-0.0,0.0029563249554485083
0.003096749307587743,-0.00046304025454446673,-0.011333845555782318,0.011459466069936752,-0.0,0.002680277219042182
0.0031846188940107822,-0.0004357784055173397,-0.010818665847182274,0.011046046391129494,-0.0,0.0026000237558037043
0.00332819321192801,-0.0005039208917878568,-0.0105986213311553,0.011591416783630848,-0.0,0.002313215285539627
0.0035490759182721376,-0.00046471506357192993,-0.011216158978641033,0.011716299690306187,-0.0,0.002285863272845745
0.0032771744299679995,-0.00042135457624681294,-0.010547665879130363,0.0117661627009511,-0.0,0.002720695221796632
0.0030427686870098114,-0.0004611911135725677,-0.011141524650156498,0.011674636974930763,-0.0,0.003112328238785267
0.002853566547855735,-0.00043768284376710653,-0.011110015213489532,0.011877107433974743,-0.0,0.00315260561183095
0.002795463427901268,-0.00042881935951299965,-0.011702342890202999,0.01159609667956829,-0.0,0.002825059462338686
0.0028617889620363712,-0.0004392855043988675,-0.011488216929137707,0.011350703425705433,-0.0,0.0025856932625174522
0.002722578588873148,-0.0004313508397899568,-0.010364554822444916,0.011403877288103104,-0.0,0.0022893573623150587
0.0028796440456062555,-0.0004072001902386546,-0.011153853498399258,0.01097770407795906,-0.0,0.002383237471804023
0.0026216371916234493,-0.00042842395487241447,-0.01083438005298376,0.011203484609723091,-0.0,0.002349449321627617
0.0026133668143302202,-0.0003931846877094358,-0.010920614004135132,0.01173287071287632,-0.0,0.002349510323256254
0.0027384539134800434,-0.0003616078174673021,-0.011096220463514328,0.011084022931754589,-0.0,0.002490710001438856
0.0028885866049677134,-0.0003347049350850284,-0.010704160667955875,0.011021819896996021,-0.0,0.002521178452298045
0.0028885866049677134,-0.0003347049350850284,-0.010704160667955875,0.011021819896996021,-0.0,0.002521178452298045
0.0027667160611599684,-0.0003729349991772324,-0.011764350347220898,0.010825522243976593,-0.0,0.0024530431255698204
0.0027062438894063234,-0.00034961281926371157,-0.011279158294200897,0.010719590820372105,-0.0,0.002496127039194107
0.002797145629301667,-0.0003641691873781383,-0.010356232523918152,0.010925906710326672,-0.0,0.0025271198246628046
0.003181720618158579,-0.0003608718980103731,-0.011741218157112598,0.010918316431343555,-0.0,0.0023752786219120026
0.0032203570008277893,-0.0003415408718865365,-0.01127044390887022,0.011662528850138187,-0.0,0.0025161716621369123
0.00306715234182775,-0.0003647582489065826,-0.011152805760502815,0.011386225000023842,-0.0,0.002681770594790578
0.002812547143548727,-0.0003520759055390954,-0.010941467247903347,0.011060746386647224,-0.0,0.0028269414324313402
0.0029105190187692642,-0.0003357274690642953,-0.01071543525904417,0.011150895617902279,-0.0,0.003117647487670183
0.00297252438031137,-0.0003209068672731519,-0.011079484596848488,0.01097425539046526,-0.0,0.002963793696835637
0.0030425828881561756,-0.00032939144875854254,-0.01102219708263874,0.01116874534636736,-0.0,0.0026905324775725603
0.0028688565362244844,-0.0003073226544074714,-0.011147063225507736,0.01110756490379572,-0.0,0.002555562648922205
0.0029396656900644302,-0.00034438836155459285,-0.011256496421992779,0.010904211550951004,-0.0,0.0027553020045161247
0.003170834854245186,-0.00035984275746159256,-0.010961529798805714,0.0112223532050848,-0.0,0.0028999713249504566
0.003447044873610139,-0.00035683519672602415,-0.011128993704915047,0.01101338304579258,-0.0,0.0026079427916556597
0.003690218087285757,-0.000369543005945161,-0.011017384938895702,0.010924065485596657,1.5991614418453537e-05,0.0026087684091180563
0.003273386973887682,-0.000366317544830963,-0.010922693647444248,0.010892480611801147,0.00011116993118776008,0.002734418259933591
0.0034862621687352657,-0.00034878059523180127,-0.011374473571777344,0.009875113144516945,0.00011457443906692788,0.002823785413056612
0.0032847048714756966,-0.0004841368936467916,-0.010926926508545876,0.010715392418205738,0.00011212681420147419,0.003200557315722108
0.003657529829069972,-0.00041361089097335935,-0.010921861045062542,0.010473274625837803,0.00010683059372240677,0.003042934462428093
0.0038022114895284176,-0.00037878521834500134,-0.010587373748421669,0.01059475727379322,0.00011461160465842113,0.0029265694320201874
0.003858303651213646,-0.0004108194843865931,-0.01091594435274601,0.010474303737282753,0.0001216927485074848,0.0026238160207867622
0.0039017011877149343,-0.00038891800795681775,-0.01112044882029295,0.01034527737647295,0.00011962807911913842,0.002721229800954461
0.0039225127547979355,-0.00036288099363446236,-0.01050939504057169,0.010401737876236439,0.00011707560042850673,0.0028660341631621122
0.003471243428066373,-0.0003400272980798036,-0.011058488860726357,0.010423981584608555,0.00011459374945843592,0.0028974395245313644
0.004158224444836378,-0.0003198818303644657,-0.011213487014174461,0.009827437810599804,0.00012608560791704804,0.0030747144483029842
0.004046636633574963,-0.00034632254391908646,-0.011381007730960846,0.010936753824353218,0.00012793428322765976,0.0028664569836109877
0.00385826057754457,-0.0003335797809995711,-0.011388707906007767,0.010443245992064476,0.0001256703253602609,0.002826858079060912
0.003858847077935934,-0.0003168750845361501,-0.010205594822764397,0.010440811514854431,0.00012323097325861454,0.002822361420840025
0.003858847077935934,-0.0003168750845361501,-0.010205594822764397,0.010440811514854431,0.00012323097325861454,0.002822361420840025
0.004464056342840195,-0.00032736113644205034,-0.010491429828107357,0.010484444908797741,0.00013116416812408715,0.0028877127915620804
0.004464056342840195,-0.00032736113644205034,-0.010491429828107357,0.010484444908797741,0.00013116416812408715,0.0028877127915620804
0.00417818408459425,-0.00031463717459701,-0.009999530389904976,0.01012214832007885,0.0001327449717791751,0.002914297627285123
0.0039544375613331795,-0.00030148299993015826,-0.010732359252870083,0.010704907588660717,0.00013059942284598947,0.0028831965755671263
0.0038616787642240524,-0.0002893660857807845,-0.011182250455021858,0.010154166258871555,0.00012828843318857253,0.0028030299581587315
0.004291634075343609,-0.00026484200498089194,-0.010301698930561543,0.010660328902304173,0.00012604432413354516,0.002783950651064515
0.0041769747622311115,-0.00024436411331407726,-0.010823641903698444,0.010474376380443573,0.00012394646182656288,0.0027691968716681004
0.003962432499974966,-0.0002316990721737966,-0.010781968012452126,0.010157988406717777,0.00019936524040531367,0.002761661307886243
0.004064010456204414,-0.00022035125584807247,-0.010138587094843388,0.010440747253596783,0.00019596985657699406,0.0026881429366767406
0.003928596619516611,-0.0002100641722790897,-0.010931831784546375,0.010476827621459961,0.00018812141206581146,0.0028673543129116297
0.0037791240029037,-0.00020069465972483158,-0.010439915582537651,0.010609809309244156,0.00018059308058582246,0.0029042563401162624
0.00385425821878016,-0.00019212548795621842,-0.010085503570735455,0.011149323545396328,0.00020599151321221143,0.0029174352530390024
0.0043289437890052795,-0.00022059414186514914,-0.010808457620441914,0.010353047400712967,0.0002004547422984615,0.00277514336630702
0.004075111821293831,-0.00021240489149931818,-0.010853939689695835,0.010344899259507656,0.00019341209554113448,0.0029486482962965965
0.0039357072673738,-0.00020437227794900537,-0.011369271203875542,0.010461187921464443,0.00020198151469230652,0.003008719766512513
0.00441239308565855,-0.0001969193253898993,-0.010422755032777786,0.010164433158934116,0.00020953606872353703,0.0033320365473628044
0.004385544918477535,-0.00018353310588281602,-0.010734853334724903,0.010502208955585957,0.00021119980374351144,0.002886079950258136
0.004112561233341694,-0.0002066731540253386,-0.010463249869644642,0.010037703439593315,0.00021778173686470836,0.002912196097895503
0.004088450223207474,-0.00020048760052304715,-0.010009859688580036,0.010298158042132854,0.00021265530085656792,0.0029503460973501205
0.004057032521814108,-0.00019430914835538715,-0.010736996307969093,0.01003361027687788,0.0003170181589666754,0.0030249529518187046
0.004004071932286024,-0.0001884956145659089,-0.01067743357270956,0.009929872117936611,0.0003329782048240304,0.0029842474032193422
0.0047609941102564335,-0.00018301932141184807,-0.010021055117249489,0.009965485893189907,0.00033966562477871776,0.0030073653906583786
0.0045462073758244514,-0.00017785266391001642,-0.010924017988145351,0.009886808693408966,0.00036758213536813855,0.0031178263016045094
0.004507441073656082,-0.0001729695504764095,-0.010544292628765106,0.009665712714195251,0.0003534085117280483,0.003422332229092717
0.004507441073656082,-0.0001729695504764095,-0.010544292628765106,0.009665712714195251,0.0003534085117280483,0.003422332229092717
0.0043705725111067295,-0.0001683474110905081,-0.009824051521718502,0.010131871327757835,0.0003795943921431899,0.003322891192510724
0.004301523789763451,-0.00016396603314206004,-0.010133858770132065,0.010331179946660995,0.00049829320050776,0.0031138197518885136
0.004370750859379768,-0.00017995758389588445,-0.010584315285086632,0.00953545980155468,0.0005615478148683906,0.0028580890502780676
0.004551450721919537,-0.0001780821185093373,-0.010149744339287281,0.00982982013374567,0.0005804970860481262,0.0029187421314418316
0.004614566918462515,-0.00017381763609591872,-0.01054063718765974,0.009438926354050636,0.0005450589815154672,0.002992230700328946
0.004638852551579475,-0.00016972076264210045,-0.00999761838465929,0.008668787777423859,0.000567686976864934,0.003066436154767871
0.00465241027995944,-0.00016581227828282863,-0.010411285795271397,0.009250816889107227,0.000529706827364862,0.0028770731296390295
0.004669767804443836,-0.0001620795956114307,-0.01042171660810709,0.009580752812325954,0.0005230195820331573,0.0027840172406286
0.0047522434033453465,-0.00015851142234168947,-0.010606598109006882,0.008964480832219124,0.0005164439789950848,0.0028563106898218393
0.0046819886192679405,-0.00015509680088143796,-0.011154735460877419,0.009766334667801857,0.00048639142187312245,0.002917099744081497
0.004906323738396168,-0.00015182638890109956,-0.011252098716795444,0.00934595987200737,0.0004860083863604814,0.0028122905641794205
0.004942547529935837,-0.00014869093138258904,-0.010258586145937443,0.009531904943287373,0.0005177450948394835,0.002858818741515279
0.004763090051710606,-0.00014568225014954805,-0.010817734524607658,0.009164255112409592,0.0004820408357772976,0.003048782702535391
0.004624683875590563,-0.00014279312745202333,-0.010186885483562946,0.009569386951625347,0.0004788725054822862,0.00307458289898932
0.00457916222512722,-0.00013734545791521668,-0.010313300415873528,0.009040933102369308,0.000490576378069818,0.0036975836846977472
0.004803183488547802,-0.00013477454194799066,-0.01049772184342146,0.00947376899421215,0.00047299376456066966,0.0033485242165625095
0.005154098384082317,-0.00013229809701442719,-0.010233785025775433,0.00913174171000719,0.0005015389178879559,0.0030151286628097296
0.004792115651071072,-0.00012991110270377249,-0.010711414739489555,0.008874628692865372,0.0005014386842958629,0.0029591829515993595
0.004669848829507828,-0.00012760862591676414,-0.010510915890336037,0.009248241782188416,0.0005208835355006158,0.0030034291557967663
0.004622501786798239,-0.0001253863301826641,-0.010517231188714504,0.009359315037727356,0.0004938964266330004,0.003309587948024273
0.005130036734044552,-0.0001232401846209541,-0.012004727497696877,0.009050695225596428,0.0005091795464977622,0.0032517367508262396
0.005040759686380625,-0.00012116631114622578,-0.009859072044491768,0.009496680460870266,0.0004870532429777086,0.003364032134413719
0.005040759686380625,-0.00012116631114622578,-0.009859072044491768,0.009496680460870266,0.0004870532429777086,0.003364032134413719
0.004975504707545042,-0.0001191609917441383,-0.010340610519051552,0.009505338966846466,0.000509033037815243,0.0030433095525950193
0.005076606757938862,-0.00011534317309269682,-0.010433069430291653,0.01000219862908125,0.0004527382261585444,0.003056193934753537
0.005076606757938862,-0.00011534317309269682,-0.010433069430291653,0.01000219862908125,0.0004527382261585444,0.003056193934753537
0.00468524219468236,-0.00011352454021107405,-0.011037045158445835,0.009677800349891186,0.0004830662510357797,0.0028944630175828934
0.004725768230855465,-0.00011176245607202873,-0.010410716757178307,0.009418018162250519,0.00044502553646452725,0.0027070059441030025
0.005030194763094187,-0.00011005405394826084,-0.01012188009917736,0.009669717401266098,0.0004808061639778316,0.002838853048160672
0.005320427473634481,-0.00010839719470823184,-0.010698080062866211,0.009165473282337189,0.00048200838500633836,0.0028924117796123028
0.0055069876834750175,-0.0001067895136657171,-0.010765613988041878,0.008601383306086063,0.0004784711927641183,0.0031694816425442696
0.005058745387941599,-0.0001052287916536443,-0.010627915151417255,0.008613252080976963,0.0005018218071199954,0.0032852301374077797
0.004789386410266161,-0.00010371307143941522,-0.010469472035765648,0.008615889586508274,0.0004800334572792053,0.0035416483879089355
0.004991632886230946,-0.00010224038123851642,-0.009874635376036167,0.008325373753905296,0.0005762865766882896,0.0032326236832886934
0.005284806713461876,-9.251133451471105e-05,-0.01062660664319992,0.008320856839418411,0.0006094548152759671,0.003174567362293601
0.005216603167355061,-8.704757055966184e-05,-0.011143861338496208,0.008754215203225613,0.000603962573222816,0.0033223393838852644
0.005317226517945528,-3.4183449315605685e-05,-0.009776454418897629,0.008635923266410828,0.0005887215957045555,0.0031445007771253586
0.004943626932799816,-3.151032069581561e-05,-0.010059990920126438,0.008694127202033997,0.0006074612028896809,0.003051020437851548
0.004541287198662758,-3.0940827855374664e-05,-0.010748200118541718,0.008862871676683426,0.0005734326550737023,0.0029179872944951057
0.004970227368175983,-4.501910007093102e-05,-0.010023294016718864,0.009212099947035313,0.0006340604741126299,0.002847824012860656
0.005009694490581751,-4.486004399950616e-05,-0.010244319215416908,0.008768866769969463,0.0006683278479613364,0.003138813655823469
0.005183844827115536,-4.414451541379094e-05,-0.010083087719976902,0.00936589390039444,0.0006012506200931966,0.0037411272060126066
0.005553300958126783,0.00013106803817208856,-0.010416308417916298,0.009064450860023499,0.0006250532460398972,0.0036677056923508644
0.004870032425969839,0.00010309348726877943,-0.009753700345754623,0.00888516753911972,0.000595795048866421,0.0030919737182557583
0.0052352542988955975,9.249216964235529e-05,-0.009820298291742802,0.009470144286751747,0.0005939751863479614,0.0030087509658187628
0.0052016847766935825,8.386891568079591e-05,-0.010603426955640316,0.009078249335289001,0.0005629746010527015,0.003266106126829982
0.00602969853207469,7.671691128052771e-05,-0.00979611650109291,0.008613626472651958,0.0005510948249138892,0.0031235129572451115
0.005503660533577204,7.068931154208258e-05,-0.010816952213644981,0.009171731770038605,0.0005394438048824668,0.0032699350267648697
0.005503660533577204,7.068931154208258e-05,-0.010816952213644981,0.009171731770038605,0.0005394438048824668,0.0032699350267648697
0.0053799813613295555,6.10903007327579e-05,-0.009729651734232903,0.008492942899465561,0.0005257642478682101,0.003511521965265274
0.0053799813613295555,6.10903007327579e-05,-0.009729651734232903,0.008492942899465561,0.0005257642478682101,0.003511521965265274
0.004977529402822256,5.720648914575577e-05,-0.010249230079352856,0.008916549384593964,0.0005200368468649685,0.0033368612639606
0.005546236876398325,5.378705827752128e-05,-0.01054014079272747,0.008711261674761772,0.0005137349362485111,0.0035308622755110264
0.005361674353480339,5.075347507954575e-05,-0.009708389639854431,0.008147409185767174,0.0005487161688506603,0.0037217745557427406
0.005379009526222944,9.54063652898185e-05,-0.009951247833669186,0.007482497952878475,0.0005728428368456662,0.0037753935903310776
0.0055321925319731236,9.120835602516308e-05,-0.010036668740212917,0.0081422608345747,0.0005821990198455751,0.0037875387351959944
0.00513111287727952,8.681741019245237e-05,-0.00968705303966999,0.008437956683337688,0.0006096407887525856,0.0033760247752070427
0.005344511941075325,8.282234921352938e-05,-0.010427603498101234,0.007953807711601257,0.0006006795447319746,0.0030850956682115793
0.005245076958090067,7.917892799014226e-05,-0.010142852552235126,0.008208701387047768,0.0008645507623441517,0.0031629661098122597
0.005152115598320961,7.584262493764982e-05,-0.009787126444280148,0.0090381670743227,0.0008190406952053308,0.0032548762392252684
0.005638131871819496,7.277595432242379e-05,-0.010245229117572308,0.008373583666980267,0.0008181308512575924,0.0035652637016028166
0.0057670073583722115,6.994775321800262e-05,-0.010288489982485771,0.007998169399797916,0.0007365000201389194,0.003821599530056119
0.005505698267370462,6.73311369610019e-05,-0.00948339980095625,0.008433589711785316,0.0007412122213281691,0.003939407411962748
0.005036856979131699,9.603994840290397e-05,-0.010304735042154789,0.008719575591385365,0.0006819812697358429,0.0035031356383115053
0.005460079293698072,9.394909284310415e-05,-0.009667893871665001,0.00818676594644785,0.0006482413737103343,0.0035585425794124603
0.005511700641363859,9.080601739697158e-05,-0.00936310924589634,0.008602279238402843,0.0006781913689337671,0.003654359607025981
0.005608050152659416,8.78515129443258e-05,-0.010695659555494785,0.008458578027784824,0.0006961995968595147,0.003658098168671131
0.005710225086659193,8.248382800957188e-05,-0.009283631108701229,0.007813865318894386,0.0006596932653337717,0.00331478682346642
0.005710225086659193,8.248382800957188e-05,-0.009283631108701229,0.007813865318894386,0.0006596932653337717,0.00331478682346642
0.0055972011759877205,9.756928193382919e-05,-0.010007296688854694,0.00824581366032362,0.0007569013978354633,0.0034765847958624363
0.005825279280543327,0.00010352288518333808,-0.00971220713108778,0.008377979509532452,0.0007940120412968099,0.003743348177522421
0.005654079373925924,0.00010074337478727102,-0.009360624477267265,0.008246052078902721,0.0008087606984190643,0.003839173587039113
0.0055495877750217915,9.800244151847437e-05,-0.009772833436727524,0.007858766242861748,0.0007988341385498643,0.003812339622527361
0.00551245454698801,9.540529572404921e-05,-0.00954706035554409,0.008134647272527218,0.0008402974926866591,0.003781854175031185
0.006094096228480339,9.294205665355548e-05,-0.009756225161254406,0.00823938474059105,0.000948037370108068,0.003315848298370838
0.005920163355767727,0.0001289164210902527,-0.009246843867003918,0.008332368917763233,0.0009427507175132632,0.0031187133863568306
0.0057281507179141045,0.00012538782902993262,-0.009058029390871525,0.008363086730241776,0.0009135612635873258,0.003246928099542856
0.00574845215305686,0.00012198955664644018,-0.009399683214724064,0.0081229442730546,0.0008420808590017259,0.003631491446867585
0.005310504697263241,0.00013438465248327702,-0.009357730858027935,0.008069056086242199,0.0008765226230025291,0.003914372064173222
0.005764302797615528,0.00013874970318283886,-0.008968527428805828,0.008292609825730324,0.0008651717216707766,0.003887476632371545
0.006410601548850536,0.00013537623453885317,-0.009291731752455235,0.008369428105652332,0.0008686190121807158,0.004336322192102671
0.005838391371071339,0.0001514963951194659,-0.009590684436261654,0.007805337198078632,0.0008471112232655287,0.004136275965720415
0.005877267103642225,0.00015036498371046036,-0.009750587865710258,0.007712201215326786,0.000811134756077081,0.003510252106934786
0.005877267103642225,0.00015036498371046036,-0.009750587865710258,0.007712201215326786,0.000811134756077081,0.003510252106934786
0.006368326488882303,0.00014354573795571923,-0.009658422321081161,0.0075805350206792355,0.000880108040291816,0.0033783919643610716
0.006368326488882303,0.00014354573795571923,-0.009658422321081161,0.0075805350206792355,0.000880108040291816,0.0033783919643610716
0.0063845319673419,0.00015353500202763826,-0.008934558369219303,0.007408642675727606,0.0008830549195408821,0.00379833672195673
0.005931065883487463,0.00015681028889957815,-0.009614568203687668,0.007865815423429012,0.000839182292111218,0.004012709017843008
0.005743483547121286,0.0001535548217361793,-0.009877246804535389,0.007911941036581993,0.0009136268636211753,0.003985455725342035
0.005947338417172432,0.00015034960233606398,-0.009797618724405766,0.00765983434394002,0.0009152080747298896,0.003506249049678445
0.006100289989262819,0.00014777715841773897,-0.01020919717848301,0.007131105754524469,0.0009130696998909116,0.004061608575284481
0.006142055615782738,0.0002692433772608638,-0.009978537447750568,0.007251964416354895,0.0009034474496729672,0.004135755356401205
0.005752839148044586,0.0002556959225330502,-0.009485292248427868,0.008016904816031456,0.0008171358495019376,0.0037186138797551394
0.005833217408508062,0.0002883751876652241,-0.010359182953834534,0.008199968375265598,0.0007666086894460022,0.003368035890161991
0.005890526343137026,0.00027551851235330105,-0.010216131806373596,0.007207766640931368,0.0007726429030299187,0.003391682868823409
0.006327678449451923,0.0002621660241857171,-0.009659026749432087,0.0070924595929682255,0.000788042729254812,0.0034234316553920507
0.006172961089760065,0.00029111126787029207,-0.010021460242569447,0.007297635078430176,0.0008006951538845897,0.003961807582527399
0.005513856187462807,0.0002787807025015354,-0.011020236648619175,0.00730298412963748,0.0008736089221201837,0.0040376740507781506
0.006303630769252777,0.00030355938361026347,-0.0100699532777071,0.007261490914970636,0.0009192176512442529,0.003840511664748192
0.006134876050055027,0.0004372493422124535,-0.010235445573925972,0.007269587833434343,0.0009165731607936323,0.003638697322458029
0.006346512120217085,0.00040464141056872904,-0.010801885277032852,0.007182007189840078,0.0009455494000576437,0.003549029817804694
0.005919219460338354,0.00044247449841350317,-0.010136740282177925,0.006843215320259333,0.0008235173881985247,0.003603457473218441
0.005971201695501804,0.0004115785995963961,-0.010026996955275536,0.007325027137994766,0.0008275420404970646,0.0037633769679814577
0.006265687290579081,0.00044354781857691705,-0.009854241274297237,0.007482450921088457,0.0008126447210088372,0.004231235012412071
0.006330454256385565,0.0004166491562500596,-0.010555961169302464,0.007098006550222635,0.0007438005995936692,0.004234089516103268
0.006125885061919689,0.00044435382005758584,-0.009977818466722965,0.007015563547611237,0.000755051732994616,0.0043308618478477
0.006179780699312687,0.00042053646757267416,-0.00976201705634594,0.006920278538018465,0.0007047940162010491,0.0042930846102535725
0.006010545417666435,0.000515503401402384,-0.010317771695554256,0.007196828722953796,0.0007093973690643907,0.00403894716873765
0.00637804763391614,0.0005281394114717841,-0.009993968531489372,0.007366251200437546,0.0007311025401577353,0.003464787034317851
0.00637804763391614,0.0005281394114717841,-0.009993968531489372,0.007366251200437546,0.0007311025401577353,0.003464787034317851
0.006820303853601217,0.0005076592788100243,-0.00977423507720232,0.0069586834870278835,0.0007493249722756445,0.003515453077852726
0.006159154698252678,0.0005385141121223569,-0.010686401277780533,0.007203451357781887,0.0009401017450727522,0.003759438404813409
0.005925129167735577,0.0005453339545056224,-0.010305712930858135,0.007576889358460903,0.0009939923183992505,0.0038467200938612223
0.006557329557836056,0.0005279569886624813,-0.0097708310931921,0.007031726185232401,0.0009830284398049116,0.004257177468389273
0.006857536733150482,0.0006466939230449498,-0.010502893477678299,0.006896727718412876,0.0009718005312606692,0.004193810746073723
0.0063566360622644424,0.0006597205647267401,-0.010763812810182571,0.006676702294498682,0.000976614304818213,0.004034793470054865
0.006311443634331226,0.0006199909839779139,-0.010115464217960835,0.007254903670400381,0.0009614982991479337,0.0038256244733929634
0.006339313928037882,0.0006479166331700981,-0.010798563249409199,0.007312626112252474,0.0009164391667582095,0.003718988038599491
0.006272485945373774,0.0006691156886518002,-0.010470811277627945,0.007018424570560455,0.0008534892112948,0.0036846045404672623
0.0069772955030202866,0.0007516031619161367,-0.009864669293165207,0.0067573171108961105,0.000854944228194654,0.004201888106763363
0.006605194881558418,0.0008243737975135446,-0.010233390145003796,0.00660893227905035,0.0008213517139665782,0.0040978421457111835
0.006679336540400982,0.0008353168959729373,-0.010764723643660545,0.006537987384945154,0.0008189481450244784,0.004226895049214363
0.005960091948509216,0.0008186657214537263,-0.01029935572296381,0.0064629982225596905,0.0007983672549016774,0.004197606351226568
0.006628900300711393,0.0007648434257134795,-0.010470909997820854,0.006507432088255882,0.0007566083804704249,0.004279813729226589
0.006736195180565119,0.0008414376061409712,-0.009907813742756844,0.005696492735296488,0.0007684382726438344,0.004025776870548725
0.006730746477842331,0.0008519460679963231,-0.010307956486940384,0.0067108809016644955,0.0008211079984903336,0.003940354101359844
0.006315393839031458,0.000863357912749052,-0.010071721859276295,0.00659398315474391,0.0009168649557977915,0.004290190525352955
0.0066216737031936646,0.000923316809348762,-0.010603799484670162,0.006210521794855595,0.001019070390611887,0.004330459050834179
0.006880886387079954,0.0010392775293439627,-0.010318043641746044,0.006083084736019373,0.001100159832276404,0.004484545439481735
0.006866930518299341,0.0010509248822927475,-0.009849421679973602,0.006697089411318302,0.001071822945959866,0.004261859692633152
0.006705626379698515,0.001215870026499033,-0.010386885143816471,0.006981430109590292,0.0010463644284754992,0.004052156116813421
0.00628633564338088,0.0011789356358349323,-0.010937104932963848,0.006447891239076853,0.0009414888336323202,0.004069386515766382
0.0067035784013569355,0.001238018274307251,-0.01009011548012495,0.006201373413205147,0.0008812444866634905,0.0039988295175135136
0.0066798594780266285,0.0012280404334887862,-0.01032638642936945,0.006486676633358002,0.0007480090716853738,0.004384621512144804
0.006643263623118401,0.00121433159802109,-0.010001123882830143,0.0067474511452019215,0.0007516407058574259,0.004229399375617504
0.006643263623118401,0.00121433159802109,-0.010001123882830143,0.0067474511452019215,0.0007516407058574259,0.004229399375617504
0.006846208591014147,0.0012686264235526323,-0.010250872932374477,0.006308404728770256,0.000726356462109834,0.004534791223704815
0.007404129020869732,0.00129646435379982,-0.010217370465397835,0.006220076233148575,0.0006949009257368743,0.0047106873244047165
0.007674384396523237,0.0012761537218466401,-0.00994079653173685,0.0064475396648049355,0.0006943489424884319,0.004566981457173824
0.006763624493032694,0.001209565089084208,-0.00981688778847456,0.006839311216026545,0.0006542978808283806,0.004235665313899517
0.006545644719153643,0.0011781137436628342,-0.01046551764011383,0.006738241296261549,0.0005956595414318144,0.00436047138646245
0.007141824811697006,0.001215206691995263,-0.009721247479319572,0.006262782961130142,0.0006252708844840527,0.0045557282865047455
0.006960416212677956,0.0012796618975698948,-0.009918580763041973,0.0064242840744555,0.0006536858854815364,0.004228520672768354
0.007236775942146778,0.001692656776867807,-0.01004122942686081,0.006899860687553883,0.0006770369363948703,0.004389952402561903
0.00698062963783741,0.0018412413774058223,-0.009873748756945133,0.00695743877440691,0.0009684478864073753,0.004156146664172411
0.007403832860291004,0.0026403232477605343,-0.0096409497782588,0.006506619043648243,0.0010319266002625227,0.00396681996062398
0.007328061852604151,0.002512577222660184,-0.010224332101643085,0.006167721003293991,0.0010349053191021085,0.004153130110353231
0.007300086319446564,0.0022336472757160664,-0.010192139074206352,0.006348337046802044,0.0011110523482784629,0.004480286035686731
0.007424427196383476,0.0019348900532349944,-0.009435441344976425,0.0064245727844536304,0.0010883754584938288,0.004694254603236914
0.007684272713959217,0.001711985212750733,-0.009965816512703896,0.006333273369818926,0.001056819804944098,0.004540674388408661
0.007709200959652662,0.001953359227627516,-0.010357883758842945,0.0061157769523561,0.0010335526894778013,0.004407783504575491
0.007106946315616369,0.0020421145018190145,-0.009978363290429115,0.005861370358616114,0.0009791238699108362,0.004097171127796173
0.0072514209896326065,0.0027087496127933264,-0.009426807053387165,0.00628109322860837,0.000961615180131048,0.004087942186743021
0.007541663013398647,0.0024276631884276867,-0.009430942125618458,0.005767433904111385,0.0009224025998264551,0.0044099148362874985
0.007423838134855032,0.0021183162461966276,-0.010187140665948391,0.005751203745603561,0.0009579173056408763,0.004569404758512974
0.00708243390545249,0.002083730883896351,-0.010268358513712883,0.005380745977163315,0.0010202840203419328,0.004429691471159458
0.00708243390545249,0.002083730883896351,-0.010268358513712883,0.005380745977163315,0.0010202840203419328,0.004429691471159458
0.007357420399785042,0.002424942795187235,-0.00944457110017538,0.005902387201786041,0.0010156647767871618,0.004589082207530737
0.008147166110575199,0.0031610189471393824,-0.009828858077526093,0.005537303164601326,0.0010002373019233346,0.004616936668753624
0.00764553714543581,0.0032213658560067415,-0.01041437592357397,0.00538254389539361,0.001056567532941699,0.004590960219502449
0.006948976311832666,0.003019871888682246,-0.009440786205232143,0.005643866024911404,0.0010448928223922849,0.004562303423881531
0.00800403207540512,0.002962654223665595,-0.00987277366220951,0.00557325966656208,0.0010220209369435906,0.004424042068421841
0.007844805717468262,0.0027772861067205667,-0.01035499107092619,0.005509843118488789,0.0009959805756807327,0.0045908112078905106
0.008154137060046196,0.0032196699175983667,-0.009952619671821594,0.00582040986046195,0.0010290098143741488,0.004653641022741795
0.007892066612839699,0.0032180745620280504,-0.009918604977428913,0.005884274374693632,0.00105551746673882,0.00497591495513916
0.007884451188147068,0.0035351193509995937,-0.009585777297616005,0.005501468200236559,0.0010673513170331717,0.004979756660759449
0.007718617562204599,0.0036935103125870228,-0.010965367779135704,0.005555647891014814,0.0014149191556498408,0.004410421010106802
0.007894029840826988,0.003368623787537217,-0.01037380751222372,0.0054747117683291435,0.0013546966947615147,0.004315824247896671
0.007793433498591185,0.003291575936600566,-0.009419376030564308,0.005769012030214071,0.0012993068667128682,0.004711892455816269
0.007890035398304462,0.0033615396823734045,-0.010181358084082603,0.006008632015436888,0.0013417761074379086,0.0046617682091891766
0.008170506916940212,0.0033813987392932177,-0.00999455526471138,0.005881932098418474,0.0012840803246945143,0.004636185709387064
0.007693171501159668,0.0034994008019566536,-0.009889545850455761,0.005624636076390743,0.0012196114985272288,0.0044526210986077785
0.008321571163833141,0.0037271350156515837,-0.009999881498515606,0.005181454587727785,0.0011253079865127802,0.00433797761797905
0.008054113946855068,0.004022258799523115,-0.01030533853918314,0.005814012140035629,0.0010622801491990685,0.004077865742146969
0.008128135465085506,0.003941364586353302,-0.009610052220523357,0.0055479081347584724,0.001033327542245388,0.004385698586702347
0.007710094563663006,0.0037996945902705193,-0.009914685972034931,0.005249940324574709,0.0010137645294889808,0.004892788361757994
0.008105170913040638,0.004339936655014753,-0.01006336696445942,0.0053052171133458614,0.0009678560891188681,0.005041043274104595
0.008801483549177647,0.004134183283895254,-0.009664583019912243,0.005120065063238144,0.0009850856149569154,0.005611731670796871
0.008167721331119537,0.004488836973905563,-0.009707501158118248,0.005249593406915665,0.0009795696241781116,0.004512538202106953
0.008687419816851616,0.004649964161217213,-0.009406459517776966,0.005315660033375025,0.001194461015984416,0.004396035335958004
0.008558705449104309,0.004207169637084007,-0.009731057099997997,0.005055931396782398,0.0011540099512785673,0.004570130258798599
0.008118699304759502,0.003945479169487953,-0.009661480784416199,0.004808188881725073,0.0010781537275761366,0.00518384063616395
0.008361724205315113,0.004182419739663601,-0.009416685439646244,0.004725385457277298,0.0010592147009447217,0.005506846122443676
0.008361724205315113,0.004182419739663601,-0.009416685439646244,0.004725385457277298,0.0010592147009447217,0.005506846122443676
0.00898429099470377,0.004594017285853624,-0.009742505848407745,0.004398317541927099,0.00108343455940485,0.005152404308319092
0.008614076301455498,0.004649306647479534,-0.009729729034006596,0.004733088426291943,0.0011391853913664818,0.00472384924069047
0.008825382217764854,0.00486024608835578,-0.009509077295660973,0.005044343415647745,0.001334411557763815,0.004569557029753923
0.008706829510629177,0.004566321615129709,-0.009856609627604485,0.0048474534414708614,0.001428284216672182,0.0047081890515983105
0.008749744854867458,0.004288497380912304,-0.009644214063882828,0.004371035378426313,0.001380880014039576,0.0051321061328053474
0.009012688882648945,0.004479181487113237,-0.009404925629496574,0.0043365624733269215,0.00131510803475976,0.005287718493491411
0.008594769053161144,0.004676029086112976,-0.009761124849319458,0.004573342390358448,0.001355785527266562,0.005304104182869196
0.009279480203986168,0.0048490650951862335,-0.009736618958413601,0.00467712851241231,0.0013206553412601352,0.004935258533805609
0.008601305074989796,0.005390147678554058,-0.009542376734316349,0.005129075143486261,0.0012187366373836994,0.004664026666432619
0.008917160332202911,0.0055643050000071526,-0.009925930760800838,0.004941980820149183,0.0012883550953119993,0.00464565260335803
0.009321823716163635,0.005044770892709494,-0.009617703966796398,0.0043961843475699425,0.0012794036883860826,0.005022258032113314
0.008698238991200924,0.004953704308718443,-0.009313142858445644,0.003992529585957527,0.0012449435889720917,0.005082041956484318
0.00891933124512434,0.005407980177551508,-0.009840239770710468,0.004344996064901352,0.0012332844780758023,0.004974059760570526
0.009222808293998241,0.005239360500127077,-0.009715300053358078,0.004341441672295332,0.001196194556541741,0.004766127094626427
0.009740281850099564,0.0054311794228851795,-0.009272719733417034,0.004769911058247089,0.0011596856638789177,0.00474071130156517
0.008849933743476868,0.005124553572386503,-0.009594300761818886,0.004818934481590986,0.0010754312388598919,0.005032455548644066
0.009033574722707272,0.005093167535960674,-0.009882577694952488,0.004848300013691187,0.0011295676231384277,0.005324664060026407
0.009301798418164253,0.005308155901730061,-0.009389218874275684,0.004354129545390606,0.0011346907122060657,0.005493972450494766
0.009216348640620708,0.00545509485527873,-0.009567025117576122,0.0038310575764626265,0.001310641528107226,0.0048932041972875595
0.009832359850406647,0.005238417536020279,-0.009159290231764317,0.004094345029443502,0.001283424673601985,0.004683429375290871
0.009431635029613972,0.005094816908240318,-0.00993588101118803,0.004031369928270578,0.0015160131733864546,0.004885093308985233
0.009276242926716805,0.005364427343010902,-0.010765383951365948,0.004333575256168842,0.0015591878909617662,0.004864571150392294
0.009518813341856003,0.005337498616427183,-0.009419855661690235,0.004616195801645517,0.0014812600566074252,0.005071043502539396
0.009488066658377647,0.005787844769656658,-0.009693815372884274,0.00445340434089303,0.0013690729392692447,0.005806323140859604
0.009488066658377647,0.005787844769656658,-0.009693815372884274,0.00445340434089303,0.0013690729392692447,0.005806323140859604
0.009967859834432602,0.005742777604609728,-0.009908966720104218,0.0034444446209818125,0.0012974280398339033,0.0054460493847727776
0.009967859834432602,0.005742777604609728,-0.009908966720104218,0.0034444446209818125,0.0012974280398339033,0.0054460493847727776
0.009626837447285652,0.005439662840217352,-0.010200589895248413,0.0039630066603422165,0.001298605347983539,0.0050088935531675816
0.009626837447285652,0.005439662840217352,-0.010200589895248413,0.0039630066603422165,0.001298605347983539,0.0050088935531675816
0.009755151346325874,0.005804858170449734,-0.009086690843105316,0.004264645278453827,0.001275575952604413,0.005697307642549276
0.009706186130642891,0.005898159928619862,-0.009747221134603024,0.004467765334993601,0.0012208608677610755,0.005866671446710825
0.010028569027781487,0.006158027332276106,-0.010923190042376518,0.004116970580071211,0.0011739127803593874,0.005780557636171579
0.010365759953856468,0.005313741508871317,-0.009564590640366077,0.003448328236117959,0.0011456726351752877,0.0053870584815740585
0.009668420068919659,0.005435761995613575,-0.009626544080674648,0.003491711802780628,0.0011743676150217652,0.00504264747723937
0.009638511575758457,0.005335293710231781,-0.009688583202660084,0.003746590344235301,0.0011627193307504058,0.005208092276006937
0.010398104786872864,0.0057302252389490604,-0.00949785951524973,0.003876126604154706,0.0012885697651654482,0.005519116297364235
0.009773657657206059,0.005169415380805731,-0.00984144676476717,0.003914437722414732,0.0014444723492488265,0.005253579467535019
0.01013259869068861,0.003596964990720153,-0.009606079198420048,0.0034658052027225494,0.0014338608598336577,0.0056692324578762054
0.010271457955241203,0.002663471968844533,-0.009313787333667278,0.00347700621932745,0.0016397928120568395,0.005435878876596689
0.010334227234125137,0.002078654943034053,-0.009830144234001637,0.003919836599379778,0.0017047810833901167,0.005724630318582058
0.0110962875187397,0.003180147148668766,-0.009710695594549179,0.004277377389371395,0.0017178693087771535,0.005880552809685469
0.010238571092486382,0.004493526183068752,-0.009395682252943516,0.004109612666070461,0.0016226954758167267,0.0056888144463300705
0.00963385310024023,0.004501844756305218,-0.010058906860649586,0.003515729447826743,0.001529222703538835,0.005541177000850439
0.01017407514154911,0.004002512898296118,-0.010691010393202305,0.003219079226255417,0.0015251035802066326,0.005610496737062931
0.01065742876380682,0.0033350959420204163,-0.009736153297126293,0.0031786903273314238,0.0014199449215084314,0.0052728429436683655
0.0101217245683074,0.0031035460997372866,-0.010050917975604534,0.003422647016122937,0.001434285775758326,0.005811398383229971
0.010153827257454395,0.0038075174670666456,-0.009723235853016376,0.003287821775302291,0.0015080528100952506,0.005628910847008228
0.010101615451276302,0.003802049206569791,-0.01010653655976057,0.0030195889994502068,0.0018443347653374076,0.005451476201415062
0.010129598900675774,0.0037329925689846277,-0.010001291520893574,0.0027789983432739973,0.0017435208428651094,0.005556048825383186
0.010469023138284683,0.0033578122965991497,-0.010134419426321983,0.0026761924382299185,0.0019022320630028844,0.005729809869080782
0.009937146678566933,0.0033342663664370775,-0.011235841549932957,0.002735152142122388,0.0017813086742535233,0.0060110813938081264
0.010157276876270771,0.003445215756073594,-0.010306000709533691,0.002790274564176798,0.0016275659436360002,0.005434857681393623
0.010293153114616871,0.0036257347092032433,-0.009579979814589024,0.0026720298919826746,0.0015169689431786537,0.005452187731862068
0.010293153114616871,0.0036257347092032433,-0.009579979814589024,0.0026720298919826746,0.0015169689431786537,0.005452187731862068
0.010368462651968002,0.003731783712282777,-0.010594232007861137,0.002326743444427848,0.0013725538738071918,0.0055030337534844875
0.009855398908257484,0.0037142946384847164,-0.009844750165939331,0.0022488939575850964,0.0013332043308764696,0.005661617498844862
0.009855398908257484,0.0037142946384847164,-0.009844750165939331,0.0022488939575850964,0.0013332043308764696,0.005661617498844862
0.010165571235120296,0.0037923078052699566,-0.010209050960838795,0.002315654419362545,0.0014803524827584624,0.005948955658823252
0.010818284004926682,0.00442773150280118,-0.010119767859578133,0.0022046100348234177,0.0016108164563775063,0.005253975745290518
0.010229865089058876,0.004148310981690884,-0.010225119069218636,0.002210938138887286,0.0016000315081328154,0.005789174232631922
0.010731824673712254,0.0043875048868358135,-0.01139360386878252,0.002208078745752573,0.0018652320140972733,0.0064923809841275215
0.010731269605457783,0.004460039548575878,-0.010336868464946747,0.002486267825588584,0.0017595237586647272,0.006081223022192717
0.010165754705667496,0.004310734570026398,-0.009643800556659698,0.0027724425308406353,0.0017144562443718314,0.005616186186671257
0.010429387912154198,0.004003600217401981,-0.009982439689338207,0.0028405876364558935,0.0016815707786008716,0.005376558285206556
0.01036824844777584,0.00411954615265131,-0.0107248080894351,0.0026753325946629047,0.0015223805094137788,0.005394198931753635
0.010236716829240322,0.004111694637686014,-0.010209182277321815,0.002581286244094372,0.0016008515376597643,0.005445803515613079
0.01116457860916853,0.004368536174297333,-0.01057861465960741,0.002303557936102152,0.0015058047138154507,0.006010018289089203
0.010195006616413593,0.004134113900363445,-0.009236338548362255,0.0023274726700037718,0.0016474390868097544,0.005675293505191803
0.00982737634330988,0.004508154932409525,-0.00956942979246378,0.002586786635220051,0.0016583043616265059,0.005342651624232531
0.010318816639482975,0.00468359375372529,-0.010533713735640049,0.002823448972776532,0.001772145857103169,0.0052611734718084335
0.01009887270629406,0.0046389284543693066,-0.00959126465022564,0.0027231290005147457,0.0017414097674190998,0.005500762723386288
0.009994286112487316,0.004733995534479618,-0.010505551472306252,0.0023497273214161396,0.0017823550151661038,0.005699466913938522
0.010560397990047932,0.004783017095178366,-0.010016804561018944,0.002182356547564268,0.0016670131590217352,0.005914304405450821
0.010012095794081688,0.00485402625054121,-0.009539530612528324,0.00191866559907794,0.001582476426847279,0.005787351168692112
0.009691662155091763,0.005216611083596945,-0.011222532019019127,0.001869641593657434,0.001605864381417632,0.005329624749720097
0.012121811509132385,0.0048482115380465984,-0.009993459098041058,0.0018723381217569113,0.0017551945056766272,0.005651004146784544
0.012990727089345455,0.004761917050927877,-0.00981850828975439,0.0019020892214030027,0.00174113514367491,0.006350669544190168
0.012026728130877018,0.005126540549099445,-0.010051781311631203,0.001910288236103952,0.0018207896500825882,0.006221991963684559
0.01225143950432539,0.005425517912954092,-0.01073803286999464,0.0017594345845282078,0.001833165530115366,0.006331521086394787
0.011952148750424385,0.00555154075846076,-0.011185990646481514,0.0018195828888565302,0.001608900260180235,0.005914047360420227
0.012098010629415512,0.005416158586740494,-0.01007461454719305,0.0016243909485638142,0.001626376062631607,0.0059683844447135925
0.012432238087058067,0.005534932017326355,-0.009569448418915272,0.001507883658632636,0.0015130179235711694,0.006046535912901163
0.012432238087058067,0.005534932017326355,-0.009569448418915272,0.001507883658632636,0.0015130179235711694,0.006046535912901163
0.012277842499315739,0.005357195157557726,-0.01053005363792181,0.0015565564390271902,0.001624522265046835,0.005698437336832285
0.012772783637046814,0.005128482822328806,-0.010570908896625042,0.0017745272489264607,0.0016053076833486557,0.006054913625121117
0.012246573343873024,0.005939037539064884,-0.011197094805538654,0.0018460573628544807,0.002020260551944375,0.00638345442712307
0.012828640639781952,0.005717615131288767,-0.01021860633045435,0.0017192980740219355,0.0019203843548893929,0.006225612945854664
0.012654127553105354,0.005602183286100626,-0.009152757935225964,0.0017940320540219545,0.0021401867270469666,0.006217268295586109
0.01330400537699461,0.005172237288206816,-0.010092547163367271,0.0016390748787671328,0.0023424760438501835,0.00593243632465601
0.012824027799069881,0.00567872729152441,-0.010839175432920456,0.0015193915460258722,0.0023427822161465883,0.006074742879718542
0.012891341932117939,0.005451289936900139,-0.010850788094103336,0.00137809244915843,0.002421970246359706,0.006470185704529285
0.012925989925861359,0.005939648952335119,-0.010058333165943623,0.0012860947754234076,0.0020921879913657904,0.006557836197316647
0.012641020119190216,0.005851414520293474,-0.009771723300218582,0.0011622674064710736,0.0017841134686022997,0.006415320560336113
0.012868136167526245,0.005619806237518787,-0.009902672842144966,0.0010361932218074799,0.001759503036737442,0.006016689818352461
0.012369615025818348,0.005764325615018606,-0.011409751139581203,0.0009338591480627656,0.0016144204419106245,0.006101095583289862
0.012688988819718361,0.0058903819881379604,-0.010635829530656338,0.000914156436920166,0.001685726922005415,0.006056100595742464
0.012405160814523697,0.006073920056223869,-0.00967477262020111,0.000867243914399296,0.001738056424073875,0.006379068363457918
0.012350916862487793,0.005942965392023325,-0.009945294819772243,0.0008187518105842173,0.0018594145076349378,0.0063194530084729195
0.012755106203258038,0.006076183635741472,-0.010387120768427849,0.0007639910909347236,0.002072087721899152,0.006893926300108433
0.012919213622808456,0.006055099423974752,-0.010730275884270668,0.0007441889028996229,0.002113746013492346,0.006699712947010994
0.012919213622808456,0.006055099423974752,-0.010730275884270668,0.0007441889028996229,0.002113746013492346,0.006699712947010994
0.012964628636837006,0.006397326942533255,-0.0096722561866045,0.0007206729496829212,0.0020200686994940042,0.006391536444425583
0.012638455256819725,0.005789936985820532,-0.010229203850030899,0.0007271346403285861,0.002056922297924757,0.006146382540464401
0.012856791727244854,0.0064757270738482475,-0.010675188153982162,0.0006823070580139756,0.002372929360717535,0.006243384908884764
0.01309660542756319,0.007307474967092276,-0.00997041817754507,0.0005960408598184586,0.002311158459633589,0.006530090235173702
0.012852850370109081,0.007073888089507818,-0.010532957501709461,0.0005768836126662791,0.002257197629660368,0.00644888449460268
0.012852850370109081,0.007073888089507818,-0.010532957501709461,0.0005768836126662791,0.002257197629660368,0.00644888449460268
0.013181641697883606,0.006382558029145002,-0.009746850468218327,0.000561887864023447,0.002033037366345525,0.00619662506505847
0.012617557309567928,0.0063949162140488625,-0.010076120495796204,0.0005115659441798925,0.0019521188223734498,0.00642474927008152
0.013353360816836357,0.0068544563837349415,-0.011070827022194862,0.0004674284136854112,0.0018574614077806473,0.006573508959263563
0.012732488103210926,0.006954332813620567,-0.010238016955554485,0.0004301679728087038,0.001875563757494092,0.006759569048881531
0.013182414695620537,0.0065503730438649654,-0.010253755375742912,0.0004471849533729255,0.0018440814455971122,0.0062807113863527775
0.013163558207452297,0.006133503746241331,-0.010030977427959442,0.00043170081335119903,0.0020378166809678078,0.0065667834132909775
0.012882326729595661,0.006259540095925331,-0.009786843322217464,0.0004049304116051644,0.002184757264330983,0.006827266421169043
0.01329049002379179,0.006213492713868618,-0.009908732958137989,0.0003805242304224521,0.002136706141754985,0.007355210371315479
0.012933208607137203,0.0076249646954238415,-0.010513032786548138,0.00035884539829567075,0.0020206684712320566,0.00752396322786808
0.013288724236190319,0.006392293609678745,-0.009828892536461353,0.00037526452797465026,0.002034115605056286,0.006751427426934242
0.012985605746507645,0.006773489993065596,-0.009988289326429367,0.0003673229948617518,0.0020684057381004095,0.006476016249507666
0.013469167053699493,0.0066351331770420074,-0.00992374587804079,0.00035019099595956504,0.002100239973515272,0.006799479480832815
0.013007968664169312,0.007122304290533066,-0.010265765711665154,0.00033399247331544757,0.0024515886325389147,0.007314042188227177
0.01335209421813488,0.00697789853438735,-0.010426769033074379,0.00031918412423692644,0.0027817473746836185,0.0073324888944625854
0.013040022924542427,0.006860353052616119,-0.010071702301502228,0.000305632856907323,0.002502443501725793,0.00732684088870883
0.013308667577803135,0.006916885729879141,-0.009523843415081501,0.00029318430460989475,0.0023718522861599922,0.006919301580637693
0.013058400712907314,0.006173333153128624,-0.009910110384225845,0.00028171250596642494,0.0021237111650407314,0.007332151290029287
0.013140227645635605,0.006432818248867989,-0.010366849601268768,0.00027110319933854043,0.00217369943857193,0.007470846176147461
0.01332853827625513,0.006647068541496992,-0.009973365813493729,0.00026126435841433704,0.002157141687348485,0.007584752049297094
0.013111934997141361,0.00637564342468977,-0.010611267760396004,0.00025211446336470544,0.002160480711609125,0.0070265200920403
0.013498839922249317,0.006170895416289568,-0.009697356261312962,0.00024358447990380228,0.002337950048968196,0.006975800730288029
0.013617867603898048,0.006748305633664131,-0.010579470545053482,0.00022814575640950352,0.00226902449503541,0.006876716390252113
0.013275666162371635,0.0066886474378407,-0.010508417151868343,0.00022113842715043575,0.0020797329489141703,0.007116648368537426
0.013644646853208542,0.006443904712796211,-0.011033297516405582,0.00021454799571074545,0.002024169312790036,0.007090892642736435
0.01333589106798172,0.006558789871633053,-0.010445978492498398,0.00020833953749388456,0.001918867346830666,0.007315339986234903
0.013904565945267677,0.0071432217955589294,-0.009710462763905525,0.00020247978682164103,0.0020866431295871735,0.006990225985646248
0.013487731106579304,0.007012959569692612,-0.010281696915626526,0.00019694131333380938,0.002443950157612562,0.006498632486909628
0.01334322802722454,0.00614000391215086,-0.010952449403703213,0.00019169742881786078,0.0024666585959494114,0.007033242844045162
0.01332226861268282,0.006529851350933313,-0.010015647858381271,0.0001867258979473263,0.002695157891139388,0.007343173027038574
0.014113608747720718,0.007274601608514786,-0.009746993891894817,0.00018200514023192227,0.0026014852337539196,0.007266715168952942
0.013806487433612347,0.0069542257115244865,-0.010639823041856289,0.00017751780978869647,0.0024206165689975023,0.00703105004504323
0.014125735498964787,0.006754888687282801,-0.010388178750872612,0.00017324616783298552,0.002490019192919135,0.006807376630604267
0.014125735498964787,0.006754888687282801,-0.010388178750872612,0.00017324616783298552,0.002490019192919135,0.006807376630604267
0.014355103485286236,0.007116312626749277,-0.010615428909659386,0.0001587812730576843,0.002410579239949584,0.007240050006657839
0.01433537621051073,0.0070722671225667,-0.010283246636390686,0.00014533204375766218,0.002307493006810546,0.007324262522161007
0.01420049648731947,0.007346293888986111,-0.010310671292245388,0.0001414301514159888,0.0022596351336687803,0.007331319153308868
0.014345168136060238,0.007348841987550259,-0.011249530129134655,0.00013828379451297224,0.00218691467307508,0.007092352025210857
0.014796918258070946,0.007499052677303553,-0.010593459010124207,0.0001353108382318169,0.0023207298945635557,0.00733906077221036
0.015010861679911613,0.006680137477815151,-0.010616512969136238,0.0001324658078374341,0.0022032849956303835,0.00791504792869091
0.014695468358695507,0.007036694325506687,-0.010990631766617298,0.0001298927963944152,0.002220881637185812,0.007501303683966398
0.015085091814398766,0.006991526111960411,-0.010076507925987244,4.659936166717671e-05,0.0026176022365689278,0.007224272005259991
0.01489030010998249,0.007134589366614819,-0.010510469786822796,4.0316390368388966e-05,0.0026697092689573765,0.007245320361107588
0.015254789963364601,0.007121452130377293,-0.011003108695149422,3.909835504600778e-05,0.0029701832681894302,0.0070709846913814545
0.014709805138409138,0.007423453498631716,-0.010613411664962769,2.039903665718157e-05,0.002846888964995742,0.007675627246499062
0.014829383231699467,0.006903231609612703,-0.01107887364923954,1.880737727333326e-05,0.002809791825711727,0.007832612842321396
0.01463380642235279,0.007179878652095795,-0.01071933563798666,1.8347802324569784e-05,0.0026261629536747932,0.007902638986706734
0.015314891003072262,0.0074974303133785725,-0.009829438291490078,1.1979802820860641e-06,0.0024803858250379562,0.00751900440081954
0.015331203117966652,0.007550286594778299,-0.01079387217760086,7.82195499482441e-08,0.0024450202472507954,0.00740621006116271
0.01580723747611046,0.007524386513978243,-0.010881761088967323,5.107177791785489e-09,0.002192753367125988,0.007621500175446272
0.015450552105903625,0.007082129362970591,-0.010787845589220524,3.3346223005104036e-10,0.0021517612040042877,0.008077259175479412
0.015710873529314995,0.007651000749319792,-0.010332438163459301,1.4216016601745207e-12,0.002320885192602873,0.008044393733143806
0.015799494460225105,0.007828360423445702,-0.011213819496333599,9.282043178775873e-14,0.002802205039188266,0.007969758473336697
0.01587698422372341,0.007417794317007065,-0.011207223869860172,-0.0009490316733717918,0.003046120051294565,0.00753686111420393
0.015904175117611885,0.007274985313415527,-0.010992207564413548,-0.0011851903982460499,0.003052567597478628,0.007767343893647194
0.01634710654616356,0.007800505496561527,-0.011244953610002995,-0.0014560437994077802,0.0029670242220163345,0.007857858203351498
0.015948163345456123,0.0072837937623262405,-0.010240267962217331,-0.0016688929172232747,0.002905162051320076,0.0074087693355977535
0.016634047031402588,0.007640670984983444,-0.010209066793322563,-0.0015842776047065854,0.0028109487611800432,0.007788334973156452
0.016344103962183,0.00765530439093709,-0.010710698552429676,-0.0016380867455154657,0.0028781394939869642,0.0084501001983881
0.016347337514162064,0.008523291908204556,-0.010523362085223198,-0.002334441989660263,0.0028189844451844692,0.008085248060524464
0.016519563272595406,0.008507019840180874,-0.010655887424945831,-0.002628847025334835,0.002889750525355339,0.008003436960279942
0.01651163585484028,0.007941924966871738,-0.010763755068182945,-0.003138927510008216,0.002842830028384924,0.007756482344120741
0.01681990548968315,0.007771593518555164,-0.009922737255692482,-0.0033744312822818756,0.0026013485621660948,0.00790316890925169
0.01655696891248226,0.008133730851113796,-0.010685177519917488,-0.0032771574333310127,0.0026254369877278805,0.007830672897398472
0.017104949802160263,0.008180470205843449,-0.010872934013605118,-0.0034103875514119864,0.0026281168684363365,0.00803963840007782
0.017104949802160263,0.008180470205843449,-0.010872934013605118,-0.0034103875514119864,0.0026281168684363365,0.00803963840007782
0.016821762546896935,0.008493348024785519,-0.01006754208356142,-0.003654556116089225,0.0027953856624662876,0.00816301442682743
0.01696283556520939,0.008727451786398888,-0.01058740634471178,-0.004367185290902853,0.0027596454601734877,0.008234952576458454
0.017147621139883995,0.00824837014079094,-0.009816658683121204,-0.004161089658737183,0.0028304436709731817,0.008470749482512474
0.01692340336740017,0.007882287725806236,-0.009672184474766254,-0.004169429186731577,0.0026311816181987524,0.008254279382526875
0.017504706978797913,0.008133837953209877,-0.010826514102518559,-0.0040727462619543076,0.0024801515974104404,0.008241861127316952
0.01722642034292221,0.00870340783149004,-0.010694736614823341,-0.00398822408169508,0.002455352572724223,0.007852020673453808
0.017110297456383705,0.007781591732054949,-0.009702296927571297,-0.004384543746709824,0.002229358535259962,0.00798034854233265
0.017472632229328156,0.007793840952217579,-0.010145743377506733,-0.004090671427547932,0.0023535864893347025,0.008075692690908909
0.017079049721360207,0.00815435592085123,-0.00985924806445837,-0.003910335246473551,0.002316592028364539,0.008110076189041138
0.01758202724158764,0.008554311469197273,-0.010336906649172306,-0.004323060158640146,0.0023153105285018682,0.00844211783260107
0.017536243423819542,0.00852147676050663,-0.010220992378890514,-0.004583711735904217,0.0023745240177959204,0.008094516582787037
0.017491264268755913,0.007958976551890373,-0.009804768487811089,-0.004681538324803114,0.0024655102752149105,0.008182688616216183
0.017658086493611336,0.008160916157066822,-0.009874043054878712,-0.004698896314948797,0.002448873594403267,0.008054290898144245
0.017394186928868294,0.008020943030714989,-0.01084863767027855,-0.0043197209015488625,0.0026895746123045683,0.008218810893595219
0.018086887896060944,0.007845423184335232,-0.01011926494538784,-0.004318658262491226,0.0025985431857407093,0.008403931744396687
0.0180962011218071,0.00889210868626833,-0.009943961165845394,-0.004625479690730572,0.0026158655527979136,0.008101320825517178
0.017774643376469612,0.008429824374616146,-0.010492783039808273,-0.004539726302027702,0.0028536838945001364,0.008329840376973152
0.018209941685199738,0.00791984237730503,-0.009735304862260818,-0.004627156537026167,0.0027163063641637564,0.008547664619982243
0.017971603199839592,0.008799291215837002,-0.010369800962507725,-0.005033919587731361,0.0024572620168328285,0.008052876219153404
0.018851080909371376,0.008397304452955723,-0.009889194741845131,-0.005237047094851732,0.002485017292201519,0.00823288131505251
0.01811186596751213,0.00828222744166851,-0.010079734027385712,-0.005263296887278557,0.002446163445711136,0.008216524496674538
0.018752118572592735,0.008399253711104393,-0.00975753366947174,-0.0050056930631399155,0.002590011805295944,0.008734162896871567
0.018312042579054832,0.008681364357471466,-0.009640255011618137,-0.004827740136533976,0.0026599487755447626,0.008485989645123482
0.016436927020549774,0.008578306995332241,-0.010366757400333881,-0.0049377866089344025,0.003295706119388342,0.008522793650627136
0.016436927020549774,0.008578306995332241,-0.010366757400333881,-0.0049377866089344025,0.003295706119388342,0.008522793650627136
0.019233670085668564,0.00894111767411232,-0.010392110794782639,-0.005542175378650427,0.0033428864553570747,0.009014517068862915
0.01915080100297928,0.008817129768431187,-0.009627173654735088,-0.005962406285107136,0.003420165041461587,0.00891919806599617
0.018385574221611023,0.008816034533083439,-0.01029955130070448,-0.005793738644570112,0.0036003224086016417,0.008898395113646984
0.018553268164396286,0.00857608113437891,-0.00983024388551712,-0.005191895179450512,0.0032478843349963427,0.008517445996403694
0.018984084948897362,0.008227286860346794,-0.009874489158391953,-0.004984039347618818,0.0031309069599956274,0.00881193671375513
0.01923498325049877,0.008526674471795559,-0.01108243316411972,-0.0055883219465613365,0.002945705782622099,0.009149777702987194
0.019338972866535187,0.00918244756758213,-0.010070037096738815,-0.005899511743336916,0.0029639655258506536,0.008436634205281734
0.0192094836384058,0.008165073581039906,-0.009176726453006268,-0.005958777852356434,0.003386687720194459,0.008334039710462093
0.019249266013503075,0.00869251973927021,-0.010716790333390236,-0.005297623574733734,0.003091969760134816,0.008852429687976837
0.019409390166401863,0.008632773533463478,-0.009523439221084118,-0.005409406963735819,0.002867512172088027,0.009168725460767746
0.018529709428548813,0.008543642237782478,-0.009425593540072441,-0.005225693341344595,0.00265396642498672,0.008807981386780739
0.018582360818982124,0.008929690346121788,-0.010753234848380089,-0.005877221003174782,0.0031302340794354677,0.008608764037489891
0.01921149343252182,0.009345010854303837,-0.009740883484482765,-0.0055388882756233215,0.003129074117168784,0.009514530189335346
0.019447114318609238,0.008379684761166573,-0.009206881746649742,-0.005946505349129438,0.0033372153993695974,0.00880180299282074
0.019389107823371887,0.008672121912240982,-0.009808318689465523,-0.005576889030635357,0.003236643271520734,0.008780174888670444
0.019314303994178772,0.009045355021953583,-0.009916848503053188,-0.005928513593971729,0.003285568905994296,0.009125931188464165
0.019259287044405937,0.008505569770932198,-0.00951492227613926,-0.006478514522314072,0.003350623184815049,0.009000892750918865
0.01908077672123909,0.008723095059394836,-0.01001653727144003,-0.006721494719386101,0.002838950837031007,0.008909652009606361
0.019533449783921242,0.00921454094350338,-0.00965423509478569,-0.006548101548105478,0.0027871651109308004,0.009131738916039467
0.01932680979371071,0.008957304991781712,-0.009555771015584469,-0.005712701007723808,0.002682791557163,0.009225709363818169
0.019227975979447365,0.008616266772150993,-0.010062539018690586,-0.005798300728201866,0.003126411233097315,0.00947272777557373
0.01976027525961399,0.008961695246398449,-0.009625897742807865,-0.006571727804839611,0.003208005102351308,0.009394615888595581
0.019629985094070435,0.009002509526908398,-0.0109518738463521,-0.007082735188305378,0.0031005959026515484,0.009516553953289986
0.020088687539100647,0.009319816716015339,-0.010101486928761005,-0.006575757171958685,0.003315586829558015,0.009179794229567051
0.019955988973379135,0.009440314024686813,-0.00951471459120512,-0.007018128409981728,0.003520791884511709,0.009493951685726643
0.019312452524900436,0.008799047209322453,-0.010186667554080486,-0.007376080844551325,0.0034721470437943935,0.009328264743089676
0.020152973011136055,0.009003201499581337,-0.009813900105655193,-0.007444669492542744,0.0033444042783230543,0.009377584792673588
0.020127687603235245,0.009870334528386593,-0.009519210085272789,-0.006791651714593172,0.0033656288869678974,0.009613702073693275
0.019878482446074486,0.009660430252552032,-0.010258528403937817,-0.007033525034785271,0.003309311345219612,0.009518543258309364
0.020085804164409637,0.009660543873906136,-0.01045915950089693,-0.007494933903217316,0.0033395597711205482,0.009338214062154293
0.020116310566663742,0.010072344914078712,-0.009653646498918533,-0.007813937030732632,0.0035299945157021284,0.009381791576743126
0.01989642158150673,0.009252610616385937,-0.010016776621341705,-0.006984957493841648,0.00331131718121469,0.009395886212587357
0.01989642158150673,0.009252610616385937,-0.010016776621341705,-0.006984957493841648,0.00331131718121469,0.009395886212587357
0.019790921360254288,0.009379192255437374,-0.009852061048150063,-0.006674887612462044,0.0030745628755539656,0.009351309388875961
0.02028336375951767,0.010378334671258926,-0.010965925641357899,-0.00711092259734869,0.0028888287488371134,0.01001834962517023
0.019942132756114006,0.009552652016282082,-0.010552034713327885,-0.007714223116636276,0.003284869249910116,0.009626093320548534
0.020133089274168015,0.009691760875284672,-0.009880096651613712,-0.007440780755132437,0.0036790543235838413,0.009252338670194149
0.02037019096314907,0.010342157445847988,-0.010093912482261658,-0.0069564334116876125,0.003419373882934451,0.008447736501693726
0.020174989476799965,0.010135672986507416,-0.010407155379652977,-0.007382252253592014,0.0031609481666237116,0.00967620499432087
0.019915800541639328,0.009458710439503193,-0.010554254986345768,-0.007095803041011095,0.0030863613355904818,0.009955313056707382
0.020307794213294983,0.009865330532193184,-0.010123982094228268,-0.006753962952643633,0.003159430343657732,0.010448835790157318
0.020689582452178,0.009812239557504654,-0.010254157707095146,-0.006643828935921192,0.0030114497058093548,0.009390262886881828
0.020171279087662697,0.010524957440793514,-0.010326160117983818,-0.006740835029631853,0.0033569317311048508,0.00943735335022211
0.02005905658006668,0.010094871744513512,-0.010739950463175774,-0.007034295238554478,0.003305822378024459,0.009725229814648628
0.02089283987879753,0.009676425717771053,-0.010413344949483871,-0.007090705446898937,0.0035033675376325846,0.009435884654521942
0.020746834576129913,0.009894012473523617,-0.00933887716382742,-0.007188975811004639,0.0036078954581171274,0.009139105677604675
0.020373625680804253,0.010820350609719753,-0.010863162577152252,-0.007018424570560455,0.0037121956702321768,0.009595784358680248
0.02044600248336792,0.010047610849142075,-0.010911370627582073,-0.00727168470621109,0.004210971295833588,0.009780358523130417
0.019714802503585815,0.009925011545419693,-0.010024301707744598,-0.0073252408765256405,0.0036483933217823505,0.009068225510418415
0.020823251456022263,0.010547793470323086,-0.010367857292294502,-0.006928885821253061,0.003640934359282255,0.009216335602104664
0.02092481404542923,0.010173805058002472,-0.010741493664681911,-0.00725551275536418,0.003815026953816414,0.009503019973635674
0.020968077704310417,0.010065614245831966,-0.010927250608801842,-0.0070965527556836605,0.003572181798517704,0.009681844152510166
0.02091803029179573,0.009947426617145538,-0.010425440035760403,-0.006921887397766113,0.0034390841610729694,0.009552276693284512
0.021198024973273277,0.010546882636845112,-0.010899893008172512,-0.007416690234094858,0.0034119829069823027,0.0094923609867692
0.020856792107224464,0.010109081864356995,-0.010829145088791847,-0.007594929076731205,0.003394581377506256,0.009693149477243423
0.020308583974838257,0.010432234965264797,-0.010837743990123272,-0.0073913573287427425,0.0035956886131316423,0.010054963640868664
0.02095324918627739,0.010550163686275482,-0.01120267529040575,-0.00726335821673274,0.004031735472381115,0.010091040283441544
0.02187458612024784,0.010717087425291538,-0.010331141762435436,-0.007533008698374033,0.003706722054630518,0.009683110751211643
0.02187458612024784,0.010717087425291538,-0.010331141762435436,-0.007533008698374033,0.003706722054630518,0.009683110751211643
0.02089378610253334,0.010775510221719742,-0.010739448480308056,-0.007631147280335426,0.0032799632754176855,0.009473076090216637
0.02089378610253334,0.010775510221719742,-0.010739448480308056,-0.007631147280335426,0.0032799632754176855,0.009473076090216637
0.02143513597548008,0.010263640433549881,-0.010435015894472599,-0.007717660162597895,0.00344281573779881,0.010507337749004364
0.022654682397842407,0.01056201197206974,-0.010583206079900265,-0.008466293103992939,0.0034007448703050613,0.010461153462529182
0.02157996967434883,0.010664221830666065,-0.010777648538351059,-0.00858877319842577,0.0033788823056966066,0.010285002179443836
0.021528000012040138,0.010703840292990208,-0.010099312290549278,-0.007824570871889591,0.0035720267333090305,0.01019961666315794
0.021622341126203537,0.011053536087274551,-0.010742364451289177,-0.007883628830313683,0.004047167021781206,0.010748915374279022
0.021371470764279366,0.010928097181022167,-0.010715152136981487,-0.00831987988203764,0.004202981013804674,0.010105959139764309
0.02140244096517563,0.011290831491351128,-0.009722520597279072,-0.008326366543769836,0.003687406424432993,0.01001670304685831
0.021827785298228264,0.0115295285359025,-0.010923340916633606,-0.008292673155665398,0.003416843945160508,0.01010530162602663
0.021960267797112465,0.011277698911726475,-0.010279840789735317,-0.007986839860677719,0.0036538487765938044,0.010234089568257332
0.022043880075216293,0.011420674622058868,-0.010020590387284756,-0.008599117398262024,0.0044387453235685825,0.010027196258306503
0.022208016365766525,0.011490954086184502,-0.011056574992835522,-0.008447324857115746,0.004246339201927185,0.010425277054309845
0.02197842486202717,0.011227814480662346,-0.010778102092444897,-0.0076771206222474575,0.003975326661020517,0.010100815445184708
0.02210661955177784,0.011333972215652466,-0.010291261598467827,-0.008951669558882713,0.004049288108944893,0.01021377183496952
0.021962981671094894,0.010393459349870682,-0.010805518366396427,-0.009432169608771801,0.0037379979621618986,0.010202965699136257
0.022446811199188232,0.010364999994635582,-0.01065797172486782,-0.008487976156175137,0.0036037627141922712,0.009942037984728813
0.021956300362944603,0.010238591581583023,-0.010781818069517612,-0.008910192176699638,0.0037504490464925766,0.010233808308839798
0.021764015778899193,0.010040942579507828,-0.010237160138785839,-0.008961135521531105,0.0037844576872885227,0.010302008129656315
0.02192484214901924,0.010670811869204044,-0.01029464416205883,-0.008661937899887562,0.003837810829281807,0.010595837607979774
0.022094381973147392,0.01037110760807991,-0.010164381004869938,-0.009123633615672588,0.003824858460575342,0.010426204651594162
0.02190561778843403,0.01089682336896658,-0.010308245196938515,-0.009171579033136368,0.004174024797976017,0.010704891756176949
0.021868228912353516,0.010350661352276802,-0.010438557714223862,-0.009248548187315464,0.004183565732091665,0.009946581907570362
0.022610347718000412,0.0102303521707654,-0.010425928048789501,-0.009610853157937527,0.004017083439975977,0.00980384647846222
0.022657383233308792,0.010304893366992474,-0.010159722529351711,-0.009441547095775604,0.0038345763459801674,0.01010153815150261
0.022657383233308792,0.010304893366992474,-0.010159722529351711,-0.009441547095775604,0.0038345763459801674,0.01010153815150261
0.021383099257946014,0.010424989275634289,-0.01087539829313755,-0.009000679478049278,0.0037003406323492527,0.010388912633061409
0.02307637594640255,0.010836830362677574,-0.01021202839910984,-0.009825065732002258,0.0039090560749173164,0.010057907551527023
0.02307637594640255,0.010836830362677574,-0.01021202839910984,-0.009825065732002258,0.0039090560749173164,0.010057907551527023
0.023077478632330894,0.01034622360020876,-0.0110390055924654,-0.009070704691112041,0.004529365338385105,0.010468601249158382
0.023077478632330894,0.01034622360020876,-0.0110390055924654,-0.009070704691112041,0.004529365338385105,0.010468601249158382
0.023248953744769096,0.011811811476945877,-0.011405528523027897,-0.008974194526672363,0.004151222761720419,0.010900542140007019
0.02344096265733242,0.01036487240344286,-0.011198397725820541,-0.008567786775529385,0.003506740089505911,0.010719801299273968
0.023050278425216675,0.01020445954054594,-0.010210924781858921,-0.00891583226621151,0.0032993589993566275,0.010837281122803688
0.023906460031867027,0.011407610960304737,-0.010892744176089764,-0.009504619985818863,0.003517440753057599,0.009798313491046429
0.024768201634287834,0.010040374472737312,-0.010892997495830059,-0.009554972872138023,0.004297023173421621,0.010396640747785568
0.024395916610956192,0.010320452973246574,-0.010715627111494541,-0.00987955741584301,0.004609749186784029,0.011008668690919876
0.024129025638103485,0.010880469344556332,-0.011096776463091373,-0.010209012776613235,0.004225485026836395,0.010977728292346
0.023086288943886757,0.010208677500486374,-0.010679015889763832,-0.009667153470218182,0.004388709086924791,0.010584184899926186
0.023843666538596153,0.010931207798421383,-0.010841386392712593,-0.010318871587514877,0.004133779555559158,0.01053160522133112
0.024445464834570885,0.011042434722185135,-0.011030351743102074,-0.010306273587048054,0.003931350540369749,0.010705520398914814
0.024638041853904724,0.010234832763671875,-0.010243101976811886,-0.009761126711964607,0.003833689261227846,0.011061002500355244
0.024394148960709572,0.010900396853685379,-0.010933530516922474,-0.009907505474984646,0.0037219845689833164,0.011106821708381176
0.02465931884944439,0.01040085218846798,-0.010841533541679382,-0.01054496131837368,0.004086770582944155,0.0109332874417305
0.025036679580807686,0.009790907613933086,-0.010452072136104107,-0.009870943613350391,0.0045238216407597065,0.01116962730884552
0.025042235851287842,0.010568083263933659,-0.010823752731084824,-0.009731545113027096,0.004223555792123079,0.01096128486096859
0.024631327018141747,0.010374297387897968,-0.010423731058835983,-0.010043920949101448,0.004307757131755352,0.010767072439193726
0.024524936452507973,0.010897664353251457,-0.010476730763912201,-0.009774862788617611,0.00368939945474267,0.010870201513171196
0.025608688592910767,0.010463100858032703,-0.010835213586688042,-0.010157370008528233,0.003667280310764909,0.010840215720236301
0.025802845135331154,0.010803397744894028,-0.011522206477820873,-0.009961821138858795,0.004122972954064608,0.010825678706169128
0.025533033534884453,0.010996540077030659,-0.011295495554804802,-0.009921458549797535,0.004362161736935377,0.010711322538554668
0.025262847542762756,0.010528972372412682,-0.010353341698646545,-0.010160555131733418,0.004560435656458139,0.01099158264696598
0.025606613606214523,0.011036683805286884,-0.010771434754133224,-0.009862297214567661,0.0044063241221010685,0.01088013593107462
0.025606613606214523,0.011036683805286884,-0.010771434754133224,-0.009862297214567661,0.0044063241221010685,0.01088013593107462
0.025137104094028473,0.010856050997972488,-0.010580684058368206,-0.010398626327514648,0.00413489481434226,0.010706627741456032
0.025657910853624344,0.010968180373311043,-0.010169127024710178,-0.010808330029249191,0.003907958976924419,0.010923951864242554
0.026522114872932434,0.011579676531255245,-0.010662194341421127,-0.010715187527239323,0.004346650559455156,0.011113902553915977
0.02720390446484089,0.011848464608192444,-0.010720266960561275,-0.01071080844849348,0.004713065922260284,0.011054121889173985
0.02720390446484089,0.011848464608192444,-0.010720266960561275,-0.01071080844849348,0.004713065922260284,0.011054121889173985
0.02649874985218048,0.012321481481194496,-0.01103685051202774,-0.009864390827715397,0.004765817895531654,0.010861064307391644
0.026760747656226158,0.012079906649887562,-0.010547849349677563,-0.010097309947013855,0.00469233887270093,0.011198900640010834
0.02696179784834385,0.012094488367438316,-0.010746890679001808,-0.011321943253278732,0.004098629113286734,0.011707549914717674
0.02696179784834385,0.012094488367438316,-0.010746890679001808,-0.011321943253278732,0.004098629113286734,0.011707549914717674
0.026838429272174835,0.012242307886481285,-0.010348773561418056,-0.010546627454459667,0.0035533697810024023,0.011809458024799824
0.02694755792617798,0.012084213085472584,-0.010967353358864784,-0.010089114308357239,0.003242351347580552,0.011502644047141075
0.02745838463306427,0.012658145278692245,-0.011024635285139084,-0.011083695106208324,0.003739390056580305,0.0115298917517066
0.026932459324598312,0.012401162646710873,-0.010885758325457573,-0.011307412758469582,0.004145388957113028,0.011285909451544285
0.027269240468740463,0.012169236317276955,-0.01088925264775753,-0.01022094301879406,0.004407089669257402,0.011439459398388863
0.027381926774978638,0.012884408235549927,-0.010377712547779083,-0.0106569305062294,0.004602604545652866,0.01203844789415598
0.0270751491189003,0.012676811777055264,-0.010993012227118015,-0.010559506714344025,0.004714611917734146,0.011784464120864868
0.027435490861535072,0.014249277301132679,-0.010947633534669876,-0.010270040482282639,0.004727248568087816,0.012012955732643604
0.02762456238269806,0.012875852175056934,-0.010539446957409382,-0.010950881987810135,0.004200154449790716,0.012017401866614819
0.027630453929305077,0.012728394940495491,-0.011204542592167854,-0.010347647592425346,0.00430282624438405,0.01184847578406334
0.027905356138944626,0.013108818791806698,-0.010982256382703781,-0.01065248902887106,0.004519664216786623,0.011858945712447166
0.027920963242650032,0.013121944852173328,-0.010755411349236965,-0.011676717549562454,0.004715189337730408,0.011681998148560524
0.028421973809599876,0.013177415356040001,-0.011169249191880226,-0.011203479953110218,0.00458100950345397,0.012431940995156765
0.028576845303177834,0.01290271058678627,-0.010824375785887241,-0.011369346641004086,0.004435837268829346,0.011884234845638275
0.028473343700170517,0.013354623690247536,-0.01177813671529293,-0.011793162673711777,0.004902618937194347,0.012186843901872635
0.028520751744508743,0.012853475287556648,-0.011463677510619164,-0.011480716057121754,0.004440003074705601,0.012456998229026794
0.02881144918501377,0.013532189652323723,-0.010920582339167595,-0.011821845546364784,0.003987261559814215,0.012070289812982082
0.02985820174217224,0.01321600005030632,-0.011494072154164314,-0.011776357889175415,0.004285530652850866,0.012336140498518944
0.027035314589738846,0.012967247515916824,-0.01171068660914898,-0.011560890823602676,0.004691145848482847,0.01235951017588377
0.029001515358686447,0.013355344533920288,-0.011563912034034729,-0.01144681591540575,0.004970322363078594,0.011945441365242004
0.030017994344234467,0.01295145507901907,-0.010871374979615211,-0.011831788346171379,0.004558095708489418,0.011992114596068859
0.029019242152571678,0.013208200223743916,-0.011908703483641148,-0.011486634612083435,0.00455076340585947,0.011683234944939613
0.029288122430443764,0.013372314162552357,-0.01155538484454155,-0.011925770901143551,0.004315837752074003,0.011785201728343964
0.029759984463453293,0.013429434970021248,-0.012036110274493694,-0.012205185368657112,0.004466115962713957,0.012403769418597221
0.029870886355638504,0.0134568577632308,-0.011933733709156513,-0.012017505243420601,0.004871592856943607,0.012486224062740803
0.028922980651259422,0.013477166183292866,-0.011579344980418682,-0.011904424987733364,0.005060367286205292,0.012810176238417625
0.028493238613009453,0.014034596271812916,-0.0125295240432024,-0.011275513097643852,0.005011233501136303,0.012373490259051323
0.02950042113661766,0.013768182136118412,-0.011954453773796558,-0.011807603761553764,0.004875777754932642,0.012159949168562889
0.03004034049808979,0.013834604062139988,-0.012254216708242893,-0.012271513231098652,0.004706508945673704,0.012433625757694244
0.0297204852104187,0.01326755527406931,-0.012473630718886852,-0.01226282399147749,0.004728992935270071,0.012476855888962746
0.02959275431931019,0.014261461794376373,-0.01220254972577095,-0.012526070699095726,0.005032646935433149,0.012733819894492626
0.02959275431931019,0.014261461794376373,-0.01220254972577095,-0.012526070699095726,0.005032646935433149,0.012733819894492626
0.029887525364756584,0.013546662405133247,-0.012101495638489723,-0.012752202339470387,0.00487968884408474,0.013033680617809296
0.029205581173300743,0.014038595370948315,-0.011716142296791077,-0.013401861302554607,0.004855538252741098,0.012514526024460793
0.02918100915849209,0.01368972472846508,-0.012628314085304737,-0.012351376935839653,0.004760445561259985,0.012307045049965382
0.029095644131302834,0.014024724252521992,-0.012084336951375008,-0.012547303922474384,0.004901184234768152,0.012527904473245144
0.029448730871081352,0.013262532651424408,-0.010702206753194332,-0.01251937821507454,0.004835433326661587,0.012407614849507809
0.02945980615913868,0.013916244730353355,-0.011393610388040543,-0.012847013771533966,0.0045563033781945705,0.012446274049580097
0.029328767210245132,0.01357050146907568,-0.011569738388061523,-0.012699090875685215,0.004550857935100794,0.012676257640123367
0.029374826699495316,0.013848831877112389,-0.012393217533826828,-0.013054434210062027,0.004970168694853783,0.012474063783884048
0.02954392321407795,0.013170361518859863,-0.011457922868430614,-0.013242916204035282,0.004868983291089535,0.012336346320807934
0.029886018484830856,0.013886728323996067,-0.012014782987535,-0.012553670443594456,0.004733346402645111,0.012205871753394604
0.029521290212869644,0.013640505261719227,-0.011913474649190903,-0.012582408264279366,0.004465787205845118,0.012823020108044147
0.029543932527303696,0.013630611822009087,-0.011010863818228245,-0.012362859211862087,0.004461492411792278,0.012982076033949852
0.028887970373034477,0.014461805112659931,-0.012013409286737442,-0.01270367857068777,0.004506335593760014,0.012787599116563797
0.030308017507195473,0.013747223652899265,-0.011825349181890488,-0.012231218628585339,0.004369335249066353,0.01332139503210783
0.03100566565990448,0.014122567139565945,-0.012039916589856148,-0.0132559509947896,0.004562390502542257,0.012709067203104496
0.03075730986893177,0.014040332287549973,-0.012225586920976639,-0.013528047129511833,0.004610555712133646,0.012961852364242077
0.02948537841439247,0.013144013471901417,-0.011791935190558434,-0.012970915995538235,0.0048841629177331924,0.012858233414590359
0.02948537841439247,0.013144013471901417,-0.011791935190558434,-0.012970915995538235,0.0048841629177331924,0.012858233414590359
0.03064967319369316,0.013394255191087723,-0.012401536107063293,-0.013588428497314453,0.004927577450871468,0.012632854282855988
0.03050152212381363,0.014391651377081871,-0.011930253356695175,-0.013025402091443539,0.005547134205698967,0.013041067868471146
0.03099243715405464,0.013715327717363834,-0.011670676991343498,-0.013729062862694263,0.005100593902170658,0.012672051787376404
0.030605297535657883,0.01398614700883627,-0.012175998650491238,-0.013723762705922127,0.004696736112236977,0.013089710846543312
0.030349349603056908,0.013551060110330582,-0.011591380462050438,-0.014336837455630302,0.004725383594632149,0.01269966084510088
0.030275212600827217,0.014070895500481129,-0.012176173739135265,-0.013780212961137295,0.005023148842155933,0.012982231564819813
0.030580570921301842,0.013803251087665558,-0.011950863525271416,-0.014097122475504875,0.004872176330536604,0.013327416963875294
0.030688239261507988,0.014145278371870518,-0.012230155058205128,-0.01370847225189209,0.004786153323948383,0.012137243524193764
0.03097926825284958,0.013705451041460037,-0.012005019001662731,-0.014186070300638676,0.004757522139698267,0.013738018460571766
0.031220875680446625,0.01402328535914421,-0.011723962612450123,-0.014356049709022045,0.004888090770691633,0.013942057266831398
0.030994247645139694,0.013660093769431114,-0.012446525506675243,-0.014656617306172848,0.004727495834231377,0.013543504290282726
0.030994247645139694,0.013660093769431114,-0.012446525506675243,-0.014656617306172848,0.004727495834231377,0.013543504290282726
0.031259506940841675,0.013824887573719025,-0.012300088070333004,-0.014761064201593399,0.004725847393274307,0.013394955545663834
0.031259506940841675,0.013824887573719025,-0.012300088070333004,-0.014761064201593399,0.004725847393274307,0.013394955545663834
0.031178582459688187,0.014302005060017109,-0.012228669598698616,-0.014569335617125034,0.004935804754495621,0.013479175977408886
0.03114386834204197,0.01435034442692995,-0.011594552546739578,-0.015112647786736488,0.00457294937223196,0.013469955883920193
0.031314004212617874,0.014656588435173035,-0.01216145046055317,-0.014727613888680935,0.004909955896437168,0.013317085802555084
0.030968094244599342,0.014357145875692368,-0.01191798411309719,-0.01517845131456852,0.005491192918270826,0.013455938547849655
0.031208781525492668,0.01461748406291008,-0.012098202481865883,-0.014649593271315098,0.005201095249503851,0.013257229700684547
0.03126448020339012,0.013909644447267056,-0.011678401380777359,-0.01487752329558134,0.004677394405007362,0.013114625588059425
0.030925733968615532,0.014177544042468071,-0.01187867484986782,-0.014325727708637714,0.00500714173540473,0.013296011835336685
0.031557243317365646,0.01408375147730112,-0.012242790311574936,-0.014724882319569588,0.005083340220153332,0.013744095340371132
0.03168424218893051,0.014657683670520782,-0.01193212065845728,-0.014374783262610435,0.005424383096396923,0.013788148760795593
0.03124404139816761,0.014159445650875568,-0.01271282322704792,-0.014577405527234077,0.005272874608635902,0.013836829923093319
0.03180575743317604,0.014625725336372852,-0.012120742350816727,-0.01425491739064455,0.005082302261143923,0.013785645365715027
0.03199119120836258,0.014463593252003193,-0.012409154325723648,-0.014427128247916698,0.005198508035391569,0.014049057848751545
0.03173716738820076,0.014830204658210278,-0.012307961471378803,-0.014106331393122673,0.005090680904686451,0.013961362652480602
0.03171200305223465,0.014351947233080864,-0.011700790375471115,-0.014617301523685455,0.0053005702793598175,0.013843243941664696
0.03188569098711014,0.014686067588627338,-0.012073575519025326,-0.014240856282413006,0.005740358028560877,0.013742557726800442
0.031426530331373215,0.014505921863019466,-0.011789410375058651,-0.01454361341893673,0.005554965231567621,0.013773455284535885
0.031993281096220016,0.014201194047927856,-0.01169329322874546,-0.015155903063714504,0.005134672857820988,0.013515468686819077
0.03220508620142937,0.014551207423210144,-0.01155464444309473,-0.014660035260021687,0.005518341902643442,0.013679641298949718
0.03165942057967186,0.014326920732855797,-0.011891388334333897,-0.015149598009884357,0.0051667760126292706,0.013713217340409756
0.03204866126179695,0.014982801862061024,-0.01180692482739687,-0.015068751759827137,0.0048857880756258965,0.01408232282847166
0.0324600487947464,0.014801514334976673,-0.011935848742723465,-0.015701744705438614,0.005386549513787031,0.013782637193799019
0.033334843814373016,0.014734377153217793,-0.011896624229848385,-0.015528705902397633,0.005378799978643656,0.013686135411262512
0.03293222934007645,0.014372600242495537,-0.01163945347070694,-0.015559718944132328,0.005770908202975988,0.01323628518730402
0.031202590093016624,0.014937044121325016,-0.012024221941828728,-0.015538468956947327,0.005454570986330509,0.013815905898809433
0.032177381217479706,0.015198266133666039,-0.011276226490736008,-0.015456045977771282,0.004883715882897377,0.01396290771663189
0.032177381217479706,0.015198266133666039,-0.011276226490736008,-0.015456045977771282,0.004883715882897377,0.01396290771663189
0.03349390625953674,0.014274380169808865,-0.012022584676742554,-0.01558477059006691,0.005274620372802019,0.014415278099477291
0.03318776562809944,0.014223677106201649,-0.011727421544492245,-0.015431140549480915,0.00534430518746376,0.014144940301775932
0.03411150351166725,0.015243818052113056,-0.011794153600931168,-0.01577223651111126,0.005333639215677977,0.014389578253030777
0.03341077268123627,0.014646687544882298,-0.012197397649288177,-0.015880892053246498,0.005390729755163193,0.014304175041615963
0.03264208883047104,0.015236876904964447,-0.011913335882127285,-0.01620260812342167,0.005309589207172394,0.013550158590078354
0.03242047503590584,0.014741839841008186,-0.012601472437381744,-0.015819020569324493,0.005768744274973869,0.0142396604642272
0.033498357981443405,0.015225294046103954,-0.011868872679769993,-0.01650390215218067,0.005534769501537085,0.014941427856683731
0.03435768559575081,0.014866586774587631,-0.012408636510372162,-0.016489975154399872,0.005393961910158396,0.014530500397086143
0.03346267715096474,0.015330187045037746,-0.012176645919680595,-0.016611963510513306,0.005127659998834133,0.014426186680793762
0.03453807160258293,0.014599807560443878,-0.012196939438581467,-0.0168188214302063,0.0057882340624928474,0.014451440423727036
0.033804453909397125,0.015024339780211449,-0.012766188941895962,-0.01644292287528515,0.005482949782162905,0.01453922875225544
0.033427558839321136,0.014318599365651608,-0.011670983396470547,-0.01694829948246479,0.005157895386219025,0.014189621433615685
0.03447281941771507,0.014759567566215992,-0.012245884165167809,-0.01658518798649311,0.0052358172833919525,0.014548210427165031
0.03487589582800865,0.014467671513557434,-0.012680301442742348,-0.016696490347385406,0.00516241742298007,0.014282459393143654
0.03371035307645798,0.014920895919203758,-0.01240123063325882,-0.016794582828879356,0.004934673197567463,0.014310822822153568
0.03421063348650932,0.014747576788067818,-0.012634949758648872,-0.016527019441127777,0.005350342486053705,0.014101565815508366
0.03467947244644165,0.015068295411765575,-0.011974415741860867,-0.016424331814050674,0.005322540644556284,0.014425119385123253
0.0344700962305069,0.014847205020487309,-0.0125944335013628,-0.016646211966872215,0.00528754573315382,0.014586691744625568
0.03470611944794655,0.014978739432990551,-0.012496871873736382,-0.017131604254245758,0.005606312770396471,0.0146364476531744
0.03590114042162895,0.01458298321813345,-0.012233222834765911,-0.01675364561378956,0.005628956947475672,0.01460779644548893
0.03498343378305435,0.014630232937633991,-0.01220746524631977,-0.016676856204867363,0.0055660707876086235,0.014401025138795376
0.033922307193279266,0.01488372590392828,-0.012426871806383133,-0.016381973400712013,0.0054616788402199745,0.014665588736534119
0.03582412749528885,0.015337236225605011,-0.012400579638779163,-0.016803046688437462,0.005601666867733002,0.014875938184559345
0.035493262112140656,0.015114654786884785,-0.012939780950546265,-0.016208341345191002,0.005424210801720619,0.015602902509272099
0.03556501120328903,0.01526976004242897,-0.012710283510386944,-0.016648471355438232,0.005629631690680981,0.01516456063836813
0.0362117625772953,0.014658601023256779,-0.013239751569926739,-0.01637406088411808,0.005508380942046642,0.014714029617607594
0.036731477826833725,0.015346352010965347,-0.011997795663774014,-0.016797427088022232,0.005940563045442104,0.0148388110101223
0.036731477826833725,0.015346352010965347,-0.011997795663774014,-0.016797427088022232,0.005940563045442104,0.0148388110101223
0.03476198762655258,0.014799840748310089,-0.01284465380012989,-0.016834242269396782,0.005502181593328714,0.014574192464351654
0.036290861666202545,0.01625227741897106,-0.012672865763306618,-0.016984159126877785,0.005527270957827568,0.014973994344472885
0.036290861666202545,0.01625227741897106,-0.012672865763306618,-0.016984159126877785,0.005527270957827568,0.014973994344472885
0.03623916581273079,0.015935080125927925,-0.012379646301269531,-0.01701081357896328,0.005885344929993153,0.015069590881466866
0.035622261464595795,0.015408208593726158,-0.011919607408344746,-0.017342466861009598,0.005931678228080273,0.014993804506957531
0.03535506874322891,0.016149893403053284,-0.013127480633556843,-0.017428088933229446,0.006238972302526236,0.015329698100686073
0.03609482944011688,0.016100309789180756,-0.012625083327293396,-0.01688019186258316,0.006288573145866394,0.015387079678475857
0.03622182458639145,0.01596536673605442,-0.012654634192585945,-0.01733691431581974,0.0056505948305130005,0.015335788950324059
0.03610020503401756,0.016313303261995316,-0.012223687954246998,-0.017002364620566368,0.005875994451344013,0.015200513415038586
0.03617848828434944,0.016064001247286797,-0.013115652836859226,-0.017241599038243294,0.005968350451439619,0.015167858451604843
0.03616328909993172,0.016479449346661568,-0.012601601891219616,-0.01777155138552189,0.006213079672306776,0.014414031989872456
0.0368756502866745,0.015832414850592613,-0.012023299001157284,-0.01783100701868534,0.006294941995292902,0.015889078378677368
0.036900680512189865,0.016339892521500587,-0.012746444903314114,-0.018133722245693207,0.005773010663688183,0.015771063044667244
0.036726705729961395,0.016200141981244087,-0.013092517852783203,-0.017544737085700035,0.005649305880069733,0.015567449852824211
0.03706176206469536,0.01643749698996544,-0.013188011944293976,-0.017613470554351807,0.005248811095952988,0.01551760919392109
0.03640509396791458,0.016904564574360847,-0.01267689373344183,-0.01770549640059471,0.005865222308784723,0.015701184049248695
0.03622036054730415,0.016585273668169975,-0.013198859989643097,-0.017557773739099503,0.005900207906961441,0.01524129044264555
0.0370907299220562,0.016721634194254875,-0.012894107960164547,-0.017912544310092926,0.005701003596186638,0.015350351110100746
0.036344945430755615,0.016911225393414497,-0.012729684822261333,-0.016446296125650406,0.005665021948516369,0.01569323055446148
0.03612035512924194,0.01685453951358795,-0.012514828704297543,-0.018360599875450134,0.006208239123225212,0.015653954818844795
0.03647186607122421,0.016882766038179398,-0.012756775133311749,-0.018946366384625435,0.00656424555927515,0.01544543169438839
0.03668319806456566,0.017123179510235786,-0.012134291231632233,-0.018276920542120934,0.006329909898340702,0.015420441515743732
0.036811474710702896,0.016759229823946953,-0.01290572714060545,-0.018331428989768028,0.005840796511620283,0.015371976420283318
0.036393918097019196,0.016783971339464188,-0.012549560517072678,-0.01807616837322712,0.006008671596646309,0.015855906531214714
0.036393918097019196,0.016783971339464188,-0.012549560517072678,-0.01807616837322712,0.006008671596646309,0.015855906531214714
0.03643921762704849,0.016940275207161903,-0.013043276034295559,-0.018551930785179138,0.006267228163778782,0.015512664802372456
0.03596486151218414,0.017295636236667633,-0.0129206208512187,-0.01870029792189598,0.006134930998086929,0.0156014459207654
0.036514442414045334,0.0175255686044693,-0.012563304044306278,-0.018541688099503517,0.005983468145132065,0.01553099974989891
0.03733251616358757,0.01698889769613743,-0.012886044569313526,-0.01913645677268505,0.006340869702398777,0.015877515077590942
0.03653091564774513,0.01762014999985695,-0.012164182029664516,-0.01869944855570793,0.005834368057549,0.01580224186182022
