davideferrari95/blind_handover_controller/data/Test 155 - [2024-02-08 -- 10-59-27]/joint_states_data.csv
shoulder_pan_joint,shoulder_lift_joint,elbow_joint,wrist_1_joint,wrist_2_joint,wrist_3_joint
0.0036161281168460846,0.0010585805866867304,-0.0044110920280218124,0.0016061702044680715,0.0,0.0034968333784490824
0.0035782151389867067,0.001134191988967359,-0.004353705793619156,0.0015400326810777187,0.0,0.0033124478068202734
0.0035782151389867067,0.001134191988967359,-0.004353705793619156,0.0015400326810777187,0.0,0.0033124478068202734
0.0036749013233929873,0.0010320687433704734,-0.004298049490898848,0.0014510001055896282,0.0,0.003511738032102585
0.0038065798580646515,0.001165696419775486,-0.004368030000478029,0.0014571790816262364,0.0,0.0037007771898061037
0.003888835897669196,0.00111846171785146,-0.004517779685556889,0.0014777873875573277,0.0,0.0037470171228051186
0.0034044815693050623,0.0011166485492140055,-0.004611074924468994,0.0016306292964145541,0.0,0.004187838174402714
0.0034516998566687107,0.0011013165349140763,-0.004321390297263861,0.0017761299386620522,0.0,0.00364077091217041
0.003641394665464759,0.0011948910541832447,-0.004425030667334795,0.0020799494814127684,0.0,0.0031741203274577856
0.0037305972073227167,0.0011966454330831766,-0.00449345912784338,0.0020968206226825714,0.0,0.003336214227601886
0.0036773320753127337,0.0016185641288757324,-0.0046543944627046585,0.0018468413036316633,0.0,0.003860080847516656
0.0035250242799520493,0.0017434812616556883,-0.004257151857018471,0.001598582835868001,0.0,0.0034169608261436224
0.0035250242799520493,0.0017434812616556883,-0.004257151857018471,0.001598582835868001,0.0,0.0034169608261436224
0.0034825128968805075,0.001593692577444017,-0.004179688170552254,0.0013674013316631317,0.0,0.003323009004816413
0.003622105810791254,0.0014673351543024182,-0.004184534773230553,0.001391927246004343,-0.00011536962119862437,0.003267454681918025
0.003757342929020524,0.00138835737016052,-0.004848193842917681,0.0013598274672403932,-0.00012455361138563603,0.0034804167225956917
0.0042276764288544655,0.0014709411188960075,-0.004520648159086704,0.0013429737882688642,-0.0001219855694216676,0.0033155514393001795
0.003677703905850649,0.0017846005503088236,-0.00458166841417551,0.001357548637315631,-0.00011880616511916742,0.003496418707072735
0.003353389212861657,0.0018249040003865957,-0.004572458099573851,0.001359962043352425,-0.00011576343240449205,0.0033247307874262333
0.0034879182931035757,0.001979792257770896,-0.004561071749776602,0.0014049862511456013,-0.00011286069639027119,0.0034862614702433348
0.00379746500402689,0.0017715477151796222,-0.004488511476665735,0.0013600080274045467,-0.00011009923764504492,0.0033292120788246393
0.004254351835697889,0.0016190714668482542,-0.004245589952915907,0.0014537788229063153,-0.00010746977204689756,0.0032709678635001183
0.003621093463152647,0.0015087167266756296,-0.004446312319487333,0.0014357035979628563,-0.00010496302274987102,0.003204585984349251
0.0033531258814036846,0.0015249428106471896,-0.004560781642794609,0.0013496843166649342,-0.00010257035319227725,0.003392669837921858
0.003171041840687394,0.0016845845384523273,-0.004643393214792013,0.0014461175305768847,-0.00011515852384036407,0.0032615221571177244
0.003453585086390376,0.0017857544589787722,-0.004605536814779043,0.0014598144916817546,-0.00011737949535017833,0.0031036417931318283
0.003441921668127179,0.002018655650317669,-0.004579390399158001,0.0013290581991896033,-0.00011518433166202158,0.003321143100038171
0.0034788716584444046,0.0019712643697857857,-0.004405413754284382,0.0013728020712733269,-0.00011279845784883946,0.003247640561312437
0.0036435117945075035,0.0018775808857753873,-0.004459274001419544,0.001384876435622573,-0.00011049153545172885,0.0032732628751546144
0.0033368614967912436,0.0018648189725354314,-0.004605328198522329,0.0013351350789889693,-0.00010827617370523512,0.00321358535438776
0.0034745100419968367,0.0017163192387670279,-0.004733100533485413,0.001287344959564507,-0.00010614783241180703,0.0030530139338225126
0.0031439000740647316,0.0018978159641847014,-0.004735064227133989,0.001334993401542306,-0.00010410140384919941,0.0028789862990379333
0.0032601349521428347,0.0020779618062078953,-0.0041963947005569935,0.0013857672456651926,-0.00010213255154667422,0.0032034635078161955
0.0034500621259212494,0.0020917998626828194,-0.003989185206592083,0.0014918390661478043,-0.00010023669892689213,0.0033215933945029974
0.003526262706145644,0.0021487963385879993,-0.003976300358772278,0.00141240528319031,-0.00010647675662767142,0.003299106378108263
0.003323534270748496,0.00205794139765203,-0.003914586268365383,0.0015268514398485422,-0.00011221239401493222,0.0031900457106530666
0.0034034200944006443,0.0019788744393736124,-0.003865615464746952,0.001426934846676886,-0.00011073849600506946,0.0030667062383145094
0.0034034200944006443,0.0019788744393736124,-0.003865615464746952,0.001426934846676886,-0.00011073849600506946,0.0030667062383145094
0.0036274411249905825,0.0019346579210832715,-0.004343257751315832,0.00132992141880095,-0.00010885750089073554,0.0030592710245400667
0.003380177542567253,0.0021745197009295225,-0.004470013547688723,0.001297326642088592,-0.0001070107173291035,0.003200516803190112
0.003227751236408949,0.002227154793217778,-0.0035459380596876144,0.0012315924977883697,-0.00010349495278205723,0.0027870500925928354
0.0033384249545633793,0.0023661155719310045,-0.003936345223337412,0.0013232718920335174,-0.00010182232654187828,0.0034250966273248196
0.003453100100159645,0.00228154007345438,-0.004208946600556374,0.0013045818777754903,-0.00010020271292887628,0.003469963790848851
0.0033849680330604315,0.002177918329834938,-0.0040781511925160885,0.0012582127237692475,-9.863399463938549e-05,0.0035829355474561453
0.003196220612153411,0.002163525205105543,-0.004342432599514723,0.0012992857955396175,-9.71134941210039e-05,0.003311535809189081
0.003384434385225177,0.0022802287712693214,-0.00417791772633791,0.0012805648148059845,-9.563939966028556e-05,0.003058923874050379
0.003621682059019804,0.002428964478895068,-0.00411248067393899,0.0012179636396467686,-9.42091501201503e-05,0.002867870032787323
0.0037592307198792696,0.0023772497661411762,-0.00393369235098362,0.0013033851282671094,-9.282105747843161e-05,0.0030284973327070475
0.003365778364241123,0.002498883055523038,-0.003826573258265853,0.0013147348072379827,-9.147336095338687e-05,0.0029739118181169033
0.003518664976581931,0.0025352714583277702,-0.0038847203832119703,0.0014614092651754618,-9.01643288671039e-05,0.0028280054684728384
0.0032046593260020018,0.0024438078980892897,-0.0038576386868953705,0.00148936512414366,-8.889204764273018e-05,0.002697210991755128
0.003334898967295885,0.00275505892932415,-0.004271028097718954,0.0013698306865990162,-8.765536040300503e-05,0.0029367199167609215
0.0034510374534875154,0.002943979110568762,-0.004184024408459663,0.0013053057482466102,-8.645240450277925e-05,0.003276459639891982
0.0034017323050647974,0.002605217043310404,-0.004305297043174505,0.0012229438871145248,-9.128583769779652e-05,0.0032269530929625034
0.0034911225084215403,0.002621734282001853,-0.0042426325380802155,0.0012041385052725673,-9.576010779710487e-05,0.0030348319560289383
0.0036287177354097366,0.0026915695052593946,-0.004060512874275446,0.0011760786874219775,-9.4869828899391e-05,0.002867531729862094
0.0038169061299413443,0.002836777362972498,-0.0040131076239049435,0.0013449242105707526,-9.366004087496549e-05,0.0031136649195104837
0.003848543157801032,0.0027186868246644735,-0.0043144733645021915,0.0014381943037733436,-9.245887486031279e-05,0.00327199324965477
0.0034674254711717367,0.0029727094806730747,-0.004164751619100571,0.0013686014572158456,-9.128678357228637e-05,0.00314693758264184
0.0035233786329627037,0.0029490580782294273,-0.0039044739678502083,0.0013836439466103911,-9.014385432237759e-05,0.0027197529561817646
0.0037314726505428553,0.0029022993985563517,-0.0040487321093678474,0.0013271183706820011,-8.902916306396946e-05,0.0026329646352678537
0.003717770567163825,0.0027680261991918087,-0.00401619216427207,0.0011931236367672682,-8.79418512340635e-05,0.002654268639162183
0.003705237992107868,0.003088831901550293,-0.003882904537022114,0.0010805372148752213,-8.688070374773815e-05,0.002769013401120901
0.004160792101174593,0.003287052270025015,-0.004259653389453888,0.0010521112708374858,-8.584484021412209e-05,0.002888336079195142
0.004160792101174593,0.003287052270025015,-0.004259653389453888,0.0010521112708374858,-8.584484021412209e-05,0.002888336079195142
0.004188435152173042,0.003088620724156499,-0.004071092698723078,0.0008414802141487598,-8.483341662213206e-05,0.0029683478642255068
0.003550552763044834,0.0028825162444263697,-0.0044050198048353195,0.0008330178679898381,-8.384552347706631e-05,0.0029040721710771322
0.0035992630291730165,0.0032767215743660927,-0.004143331199884415,0.0008986846078187227,-8.288035314762965e-05,0.002878527157008648
0.003800279926508665,0.0031513331923633814,-0.004417669493705034,0.0010233629727736115,-8.193714893423021e-05,0.002806147327646613
0.004149002954363823,0.0032013412564992905,-0.004601515829563141,0.001190139795653522,-8.011380850803107e-05,0.003050882136449218
0.004231522791087627,0.0030418073292821646,-0.004151448141783476,0.001104053808376193,-4.0161678043659776e-05,0.003055654000490904
0.004072912503033876,0.0033762750681489706,-0.004456678871065378,0.0011529454495757818,-2.622270585561637e-06,0.002972193295136094
0.0039609200321137905,0.0032765688374638557,-0.00420237984508276,0.0010298807173967361,-1.7121553241850052e-07,0.002752695931121707
0.0034862030297517776,0.0034181401133537292,-0.004367961548268795,0.0009935226989910007,-1.1179150938289695e-08,0.0026278626173734665
0.0036064228042960167,0.0030036598909646273,-0.004338814411312342,0.0009320461540482938,-7.299186810527658e-10,0.002668114611878991
0.00417753029614687,0.003040052019059658,-0.0040510669350624084,0.0008725280640646815,-4.7658474389145056e-11,0.002578528830781579
0.004203474149107933,0.003043015021830797,-0.0038108795415610075,0.0007598866941407323,-3.111758030069356e-12,0.002722403733059764
0.0035102854017168283,0.0034090217668563128,-0.00399716617539525,0.0007594467024318874,-2.0317557044343543e-13,0.002782800467684865
0.003548460779711604,0.0032968749292194843,-0.004015633836388588,0.0007610585307702422,-1.3265912382541632e-14,0.002738227369263768
0.003701674984768033,0.0031291234772652388,-0.00438593327999115,0.0007755919941700995,-8.661692744173471e-16,0.002830577315762639
0.0038012689910829067,0.0031137082260102034,-0.0045839035883545876,0.0009174839942716062,-5.655466273505062e-17,0.002889601280912757
0.00409982493147254,0.0032015221659094095,-0.004449887201189995,0.0009411820792593062,-3.692615318136746e-18,0.0026799864135682583
0.003899794304743409,0.003413092577829957,-0.00457498524338007,0.0008356234757229686,-2.4110138336933977e-19,0.0024884927552193403
0.0039115906693041325,0.0032043280079960823,-0.004279768094420433,0.0008375191246159375,-1.5742197022118846e-20,0.0024614238645881414
0.0036679585464298725,0.003074072068557143,-0.00402682414278388,0.000823336245957762,-1.0278529933764191e-21,0.0026606456376612186
0.003570460481569171,0.002886946778744459,-0.004177700728178024,0.0007604890270158648,-6.711145798746373e-23,0.0027073905803263187
0.004222175106406212,0.0031405878253281116,-0.004051544237881899,0.0006975167198106647,-4.381898292005638e-24,0.0028533281292766333
0.004114181734621525,0.003299652598798275,-0.004334799014031887,0.0006163595826365054,-2.8610663690349853e-25,0.0027579711750149727
0.003957583103328943,0.003632302861660719,-0.004567673895508051,0.0006359423277899623,-1.8680717732955367e-26,0.0024471778888255358
0.0038708720821887255,0.003343049203976989,-0.004361359402537346,0.0005801795050501823,-1.2197173375381885e-27,0.002498242538422346
0.0039745173417031765,0.0035399363841861486,-0.004086985252797604,0.0005666993674822152,-7.963882820380278e-29,0.0025158075150102377
0.003999747801572084,0.003754355711862445,-0.003950154408812523,0.0005548548651859164,-5.199846468715518e-30,0.0024654080625623465
0.0039501795545220375,0.0033468485344201326,-0.004440421238541603,0.0005122059374116361,-3.3951283766297067e-31,0.002685882616788149
0.003801286220550537,0.003032427979633212,-0.004444006830453873,0.00047381510375998914,-2.2167763402658526e-32,0.002450075699016452
0.003800655249506235,0.0030487654730677605,-0.004196680150926113,0.00048694308497942984,-1.4473965715785485e-33,0.0024429578334093094
0.003800655249506235,0.0030487654730677605,-0.004196680150926113,0.00048694308497942984,-1.4473965715785485e-33,0.0024429578334093094
0.004013641271740198,0.00330050359480083,-0.004460419062525034,0.00046958192251622677,-9.450465467579366e-35,0.002445462392643094
0.003929063677787781,0.0033794560004025698,-0.004169967956840992,0.0004417052259668708,-6.170478644322018e-36,0.002476787893101573
0.0037478781305253506,0.002633531577885151,-0.0044029513373970985,0.00041622237768024206,-4.02888151046719e-37,0.002536895452067256
0.003748562652617693,0.002339351223781705,-0.004490884020924568,0.0003827078908216208,-2.6305712870915767e-38,0.0027534461114555597
0.00429498078301549,0.0028088006656616926,-0.004322495777159929,0.0003196089528501034,-1.121459160999151e-40,0.002344446023926139
0.003989654593169689,0.00294326595030725,-0.004613752942532301,0.00029836688190698624,-7.321784476097169e-42,0.0022143663372844458
0.0038202793803066015,0.0032637249678373337,-0.004782659932971001,0.0003070226521231234,-4.778427763347626e-43,0.002404027385637164
0.004138892982155085,0.0029089355375617743,-0.0047418116591870785,0.0003142242203466594,-3.0828566215145976e-44,0.0024360029492527246
0.004238714464008808,0.002599980216473341,-0.0044057173654437065,0.0002984896709676832,-1.401298464324817e-45,0.002573077566921711
0.004063791129738092,0.0025423194747418165,-0.004275160375982523,0.0002829516597557813,-0.0,0.002339533995836973
0.004438356496393681,0.002744966885074973,-0.004287786781787872,0.0002688658132683486,-0.0,0.0022207850124686956
0.0044753095135092735,0.0029801172204315662,-0.0044152578338980675,0.0002561109431553632,-0.0,0.002013908699154854
0.0042153638787567616,0.0029504208359867334,-0.004584218375384808,0.00024451108765788376,-0.0,0.0018838306423276663
0.00436488538980484,0.003249155357480049,-0.00474745687097311,0.00023391758440993726,-0.0,0.0019064330263063312
0.004074566066265106,0.0030562791507691145,-0.004409602843225002,0.00022420292953029275,-0.0,0.002155562164261937
0.004369213245809078,0.0024979966692626476,-0.004091893322765827,0.00021526387718040496,-0.0,0.002605058252811432
0.004469286184757948,0.0023970031179487705,-0.004531874321401119,0.0002070107002509758,-0.0,0.002502486342564225
0.004346955567598343,0.0027570975944399834,-0.004731005523353815,0.00019936631724704057,-0.0,0.0023378997575491667
0.004441358149051666,0.003194181015715003,-0.0047377366572618484,0.0001922673254739493,-0.0,0.002061794511973858
0.00453608063980937,0.003136389423161745,-0.004443254321813583,0.0001856564631452784,-0.0,0.0019521825015544891
0.004160058218985796,0.002664298750460148,-0.004474959801882505,0.00017948455933947116,-0.0,0.0018544341437518597
0.004467707592993975,0.00236435211263597,-0.004520440008491278,0.000173710155650042,-0.0,0.002000734442844987
0.004546036012470722,0.002357880584895611,-0.004569619428366423,0.00016829614469315857,-0.0,0.0021330483723431826
0.004516866989433765,0.0023238365538418293,-0.004398781340569258,0.00016320895520038903,-0.0,0.0022048773244023323
0.0047570341266691685,0.0027887565083801746,-0.00455789128318429,0.00015842034190427512,-0.0,0.00239376537501812
0.004310245160013437,0.0029503824189305305,-0.004148403648287058,0.00015390526095870882,-0.0,0.002244464820250869
0.004461892880499363,0.0029641606379300356,-0.0042613809928298,0.00014963997818995267,-0.0,0.0021507530473172665
0.004461892880499363,0.0029641606379300356,-0.0042613809928298,0.00014963997818995267,-0.0,0.0021507530473172665
0.004442574921995401,0.0028545227833092213,-0.004488465376198292,0.0001456051686545834,-0.0,0.0019332688534632325
0.004074919503182173,0.0028128433041274548,-0.004557483363896608,0.00014178181299939752,-0.0,0.0017279484309256077
0.00484322477132082,0.0028670860920101404,-0.004325418267399073,0.0001347078214166686,-0.0,0.0017226506024599075
0.0048958370462059975,0.0029300260357558727,-0.004374450538307428,0.0001314288965659216,-0.0,0.001753610442392528
0.004702387843281031,0.0030057483818382025,-0.004251249600201845,0.00012830612831749022,-0.0,0.001956913387402892
0.004697737749665976,0.0031258799135684967,-0.0044157239608466625,0.00012532816617749631,-0.0,0.0019505320815369487
0.004694199655205011,0.003009179839864373,-0.004564375150948763,0.00012248544953763485,-0.0,0.00169599917717278
0.004331515170633793,0.0029606304597109556,-0.004629906732589006,0.0001011402127915062,-0.0,0.0015131670515984297
0.004483761265873909,0.003317020135000348,-0.004560764413326979,9.772869088919833e-05,-0.0,0.0014708128292113543
0.004638094920665026,0.0037145011592656374,-0.004746302496641874,9.557355951983482e-05,-0.0,0.0013043074868619442
0.004990972578525543,0.0032581326086074114,-0.004316119477152824,9.358095121569932e-05,-0.0,0.0013690502382814884
0.004933531396090984,0.003135901177302003,-0.004488898441195488,9.167401731247082e-05,-0.0,0.001985967857763171
0.004398829769343138,0.0031048315577208996,-0.004662760067731142,8.984379383036867e-05,-0.0,0.0021663918159902096
0.004386299289762974,0.003351314226165414,-0.004520530346781015,7.164135604398325e-05,-0.0,0.0024294378235936165
0.00461586844176054,0.003197470447048545,-0.0045888409949839115,6.919184670550749e-05,-0.0,0.002103988314047456
0.0050824531354010105,0.0030184942297637463,-0.004723125137388706,6.781826232327148e-05,-0.0,0.0016409250674769282
0.0048713767901062965,0.0030499971471726894,-0.004777221940457821,5.837052231072448e-05,-0.0,0.00154372479300946
0.004922366235405207,0.0032033498864620924,-0.004425711464136839,4.956524571753107e-05,-1.923720628838055e-05,0.0014609054196625948
0.0048574842512607574,0.0035584173165261745,-0.004433305934071541,4.823134440812282e-05,-1.2560523146021296e-06,0.0014692916302010417
0.004974793642759323,0.0037280928809195757,-0.004609011113643646,-3.405916504561901e-05,-8.201124757079015e-08,0.001555084716528654
0.0047911787405610085,0.0037067646626383066,-0.004608299117535353,-3.862712765112519e-05,-5.354748644492702e-09,0.002310195006430149
0.00479482114315033,0.0033406177535653114,-0.004380343481898308,-5.5970565881580114e-05,-3.496267997338265e-10,0.00222037429921329
0.005253720562905073,0.003455931320786476,-0.004551068414002657,-6.518860027426854e-05,-2.282813348075674e-11,0.0021596020087599754
0.004936186131089926,0.0036804508417844772,-0.004428177140653133,-7.262516737682745e-05,-1.4905139839385684e-12,0.001897920505143702
0.004967740271240473,0.0035248014610260725,-0.004378640558570623,-8.854193583829328e-05,-9.731991823741862e-14,0.0014335501473397017
0.005219314247369766,0.003470923053100705,-0.0048911659978330135,-0.0006745551945641637,-6.354294633601886e-15,0.0012422124855220318
0.005072060972452164,0.0036577905993908644,-0.004493840038776398,-0.0007632162305526435,-4.1489002539451636e-16,0.0011275687720626593
0.005072060972452164,0.0036577905993908644,-0.004493840038776398,-0.0007632162305526435,-4.1489002539451636e-16,0.0011275687720626593
0.00533260079100728,0.003788826521486044,-0.004026263486593962,-0.0007573728216812015,-2.7089354424111354e-17,0.0010873068822547793
0.005219344515353441,0.0037848649080842733,-0.004291541874408722,-0.0009254042524844408,-1.7687412786680504e-18,0.0010488545522093773
0.0049789962358772755,0.0032754659187048674,-0.004407287109643221,-0.001088339602574706,-1.1548616206204033e-19,0.0011532398639246821
0.005215066485106945,0.0033156531862914562,-0.004387646447867155,-0.001241352641955018,-4.923355882824767e-22,0.002075178548693657
0.004958488047122955,0.003640769049525261,-0.004655156284570694,-0.0014259401941671968,-3.214599669077847e-23,0.002098974073305726
0.005256085190922022,0.003824660088866949,-0.00468465406447649,-0.0014109773328527808,-2.098904066720726e-24,0.0018259265925735235
0.005236905533820391,0.0038510295562446117,-0.004246262833476067,-0.0017469602171331644,-1.370434432750812e-25,0.001616688328795135
0.005264167208224535,0.0034609027206897736,-0.004192613530904055,-0.0017209041398018599,-8.947958344028562e-27,0.0013397919246926904
0.005306773353368044,0.004045309964567423,-0.004200827796012163,-0.0023231394588947296,-5.842377338294192e-28,0.0009834374068304896
0.00501628965139389,0.004144378937780857,-0.004394556395709515,-0.002696133218705654,-3.8146551352206637e-29,0.0009078689035959542
0.005393715109676123,0.003552483394742012,-0.004556802101433277,-0.002763568190857768,0.0008670774986967444,0.0009202761575579643
0.006169453728944063,0.0035086828283965588,-0.004638786893337965,-0.0028602671809494495,0.0009534358978271484,0.0009400469716638327
0.005546280648559332,0.003710781689733267,-0.004439297132194042,-0.002978959819301963,0.0009513714467175305,0.0011029319139197469
0.005370904691517353,0.004240695852786303,-0.004587186966091394,-0.002658611861988902,0.0008918156963773072,0.0012034439714625478
0.0055250562727451324,0.004186147358268499,-0.004735117312520742,-0.002483634976670146,0.0009367816965095699,0.0015004182932898402
0.005263763014227152,0.004053881391882896,-0.0048160734586417675,-0.002716963877901435,0.0009444664465263486,0.0015112545806914568
0.00541967898607254,0.0039816261269152164,-0.004534893669188023,-0.003325200406834483,0.0009291663300246,0.0013531059958040714
0.005488173570483923,0.0038964194245636463,-0.0050505115650594234,-0.0037273068446666002,0.0009395137312822044,0.001203046995215118
0.0054765548557043076,0.003808775218203664,-0.004963135812431574,-0.0037423106841742992,0.0010859931353479624,0.0010168609442189336
0.005633234977722168,0.004043952561914921,-0.0042641907930374146,-0.0036971853114664555,0.001159538747742772,0.0008303679642267525
0.005367808509618044,0.004091978073120117,-0.004364817403256893,-0.00330148171633482,0.0012786779552698135,0.0008018731023184955
0.005158712156116962,0.004265577998012304,-0.004516289569437504,-0.0034022775944322348,0.0014632417587563396,0.0007245963206514716
0.005720269400626421,0.004020296037197113,-0.004698403645306826,-0.003277355805039406,0.0014256746508181095,0.000739333569072187
0.005240623839199543,0.003905841615051031,-0.0046094926074147224,-0.003124583512544632,0.001607279060408473,0.0007495196769014001
0.004999253433197737,0.0039000757969915867,-0.004292029421776533,-0.0031922871712595224,0.0016768876230344176,0.0007265433087013662
0.005169791169464588,0.004255922045558691,-0.003964315168559551,-0.0036390931345522404,0.0019233990460634232,0.0007503771921619773
0.004992454778403044,0.0042198458686470985,-0.003833434311673045,-0.00397818349301815,0.0019300876883789897,0.0007544150575995445
0.005726493429392576,0.003970465622842312,-0.003861796110868454,-0.004106216598302126,0.001997867366299033,0.0006968393572606146
0.005503193940967321,0.0037932328414171934,-0.004371157381683588,-0.004044834524393082,0.0019684319850057364,0.0006945729837752879
0.005937675945460796,0.004148548934608698,-0.0042261527851223946,-0.0036560874432325363,0.0018837775569409132,0.0006519553135149181
0.005413598380982876,0.0041847010143101215,-0.003919871058315039,-0.0038134746719151735,0.0018564389320090413,0.00059899763436988
0.005413598380982876,0.0041847010143101215,-0.003919871058315039,-0.0038134746719151735,0.0018564389320090413,0.00059899763436988
0.005547814071178436,0.0041640750132501125,-0.004109229892492294,-0.004400403238832951,0.0019017761806026101,0.0005206529167480767
0.006173080764710903,0.00439713429659605,-0.0044280351139605045,-0.004632194526493549,0.0018726637354120612,0.0004764260083902627
0.005664951168000698,0.004232007544487715,-0.004147407598793507,-0.004965528380125761,0.0017553095240145922,0.0004730033688247204
0.005839337129145861,0.004383967723697424,-0.00394346471875906,-0.004854306112974882,0.001693980535492301,0.0004694903618656099
0.005422656890004873,0.004252525046467781,-0.003904259530827403,-0.004504658281803131,0.0017585252644494176,0.000469223246909678
0.005766910035163164,0.004500271752476692,-0.003907333593815565,-0.004263893235474825,0.0019820397719740868,0.0004665592568926513
0.005846984218806028,0.004279242362827063,-0.00426480220630765,-0.004745927173644304,0.002065839944407344,0.00043633190216496587
0.006186499260365963,0.004278978332877159,-0.004643754567950964,-0.0050303335301578045,0.002473869128152728,0.0004081841907463968
0.005639070179313421,0.004579257220029831,-0.004392804577946663,-0.005011678207665682,0.0024192743003368378,0.0003833411610685289
0.005869346670806408,0.004760804120451212,-0.004030311014503241,-0.0052302065305411816,0.0021085315383970737,0.0003993839491158724
0.005486184265464544,0.004933632910251617,-0.0038639626000076532,-0.005031839478760958,0.0019419308518990874,0.00038967037107795477
0.005841451231390238,0.004562587942928076,-0.004085408989340067,-0.004992573522031307,0.0017167589394375682,0.0003703963302541524
0.006427076645195484,0.004441000055521727,-0.004070664290338755,-0.00511813024058938,0.0015135094290599227,0.00035231781657785177
0.006071676034480333,0.004870639182627201,-0.003935778979212046,-0.005070216953754425,0.0011792024597525597,0.0003358810499776155
0.005782602820545435,0.00494184996932745,-0.004272403661161661,-0.005335240159183741,0.001135891885496676,0.00032090669265016913
0.0057206107303500175,0.004764451179653406,-0.004571697674691677,-0.005740401800721884,0.001275427988730371,0.0003072121471632272
0.006307774223387241,0.004747593309730291,-0.004202795214951038,-0.005274821072816849,0.0013283160515129566,0.0002946371678262949
0.006186413113027811,0.004740178119391203,-0.00428989389911294,-0.0051163057796657085,0.001349186641164124,0.0002830524172168225
0.0058869109489023685,0.004874367732554674,-0.004361383616924286,-0.005062878597527742,0.0012087166542187333,0.00027234345907345414
0.005875241011381149,0.005073847249150276,-0.004445009399205446,-0.005080200731754303,0.0010945083340629935,0.0002624167827889323
0.005887430626899004,0.004865454509854317,-0.004660974256694317,-0.00556798605248332,0.0010460729245096445,0.00025318763800896704
0.005956818349659443,0.0044719805009663105,-0.004862429108470678,-0.00548953702673316,0.001020998926833272,0.0002445854479447007
0.006078463513404131,0.0045870281755924225,-0.0046603442169725895,-0.005338042043149471,0.001012404914945364,0.00023654958931729198
0.006122307386249304,0.004704514518380165,-0.004373174626380205,-0.005234436132013798,0.0010464077349752188,0.0002290238335262984
0.006122307386249304,0.004704514518380165,-0.004373174626380205,-0.005234436132013798,0.0010464077349752188,0.0002290238335262984
0.006104491651058197,0.00492781400680542,-0.004277758300304413,-0.00535725150257349,0.0010667105671018362,0.00021532425307668746
0.006314514204859734,0.00432697543874383,-0.004620060324668884,-0.006277778185904026,0.0012247470440343022,0.00020317161397542804
0.006087681278586388,0.004912521690130234,-0.004723075777292252,-0.005359817761927843,0.0011009018635377288,0.00019759511633310467
0.006019826512783766,0.0051148198544979095,-0.004553485661745071,-0.004753847606480122,0.0010660458356142044,0.00019231741316616535
0.006019826512783766,0.0051148198544979095,-0.004553485661745071,-0.004753847606480122,0.0010660458356142044,0.00019231741316616535
0.006455382332205772,0.004933603573590517,-0.004655301105231047,-0.004632001277059317,0.0009508194634690881,0.00018731360614765435
0.006843803450465202,0.0052390494383871555,-0.004651764873415232,-0.005742465145885944,0.0009318985394202173,0.00018256399198435247
0.00636783754453063,0.004527817014604807,-0.0044033341109752655,-0.0064719608053565025,0.000926355307456106,0.00017804915842134506
0.006391615141183138,0.00450990442186594,-0.004619559273123741,-0.006422530859708786,0.000907513196580112,0.00017375209426973015
0.006304486189037561,0.004555953666567802,-0.005135921761393547,-0.005902861710637808,0.0009529593517072499,0.00016965805843938142
0.006128673441708088,0.0050890459679067135,-0.004873690661042929,-0.005542442202568054,0.0010591867612674832,0.0001657519896980375
0.006443528924137354,0.005129070952534676,-0.004850370343774557,-0.006071614567190409,0.0010772239184007049,0.0001431219425285235
0.006687850691378117,0.004978206008672714,-0.004432993475347757,-0.006166532635688782,0.001211194903589785,0.00013873747957404703
0.006199865601956844,0.004720628727227449,-0.004375808406621218,-0.006340788211673498,0.001204939093440771,0.00013566938287112862
0.006112427916377783,0.0046239509247243404,-0.004446874372661114,-0.006139571312814951,0.0012427876936271787,0.00013280403800308704
0.006506649777293205,0.004635040648281574,-0.004668417386710644,-0.006324731279164553,0.001224567531608045,0.00013006188964936882
0.006537020672112703,0.004736590664833784,-0.00502817053347826,-0.006756957154721022,0.0013283065054565668,0.00012743088882416487
0.006456953473389149,0.004977620672434568,-0.0049475920386612415,-0.006935093551874161,0.0013138161739334464,0.00012490457447711378
0.006490491330623627,0.005278278607875109,-0.004716306459158659,-0.006373269949108362,0.0014877807116135955,5.238191442913376e-05
0.006612630560994148,0.00503957737237215,-0.0048535484820604324,-0.0064581516198813915,0.001475948840379715,4.155335409450345e-05
0.006900979205965996,0.004753281362354755,-0.004790766630321741,-0.0066652665846049786,0.0013940210919827223,4.000127228209749e-05
0.006808415055274963,0.004684524144977331,-0.0052253324538469315,-0.006604614667594433,0.0012743886327371001,3.9091384678613394e-05
0.006412296090275049,0.004768645856529474,-0.0052637383341789246,-0.00672371918335557,0.0011997739784419537,2.0405133909662254e-05
0.006412296090275049,0.004768645856529474,-0.0052637383341789246,-0.00672371918335557,0.0011997739784419537,2.0405133909662254e-05
0.006488393992185593,0.005677719600498676,-0.004978102631866932,-0.006574403028935194,0.0011445649433881044,1.8814071154338308e-05
0.007351871579885483,0.005370073486119509,-0.004675969481468201,-0.007069632411003113,0.0009628569823689759,8.020733588409712e-08
0.007351871579885483,0.005370073486119509,-0.004675969481468201,-0.007069632411003113,0.0009628569823689759,8.020733588409712e-08
0.0069456761702895164,0.005004441365599632,-0.004657704848796129,-0.0074151260778307915,0.0009210665011778474,5.236965527899429e-09
0.006371027790009975,0.005169111769646406,-0.005247246939688921,-0.007015550043433905,0.000998619943857193,3.419364236201261e-10
0.006472647190093994,0.0050024427473545074,-0.005553240887820721,-0.006838976871222258,0.0012949634110555053,2.2326003892847446e-11
0.006610998883843422,0.006021810229867697,-0.004484725184738636,-0.006901656277477741,0.0014008590951561928,9.517925591553608e-14
0.006249871104955673,0.0054000867530703545,-0.004378096666187048,-0.00705342460423708,0.001468928181566298,6.214525726975454e-15
0.006201589480042458,0.004896530415862799,-0.004617233294993639,-0.006994557101279497,0.001444890396669507,4.0576409242079853e-16
0.006707430351525545,0.004650764167308807,-0.004758109338581562,-0.007440970744937658,0.0014882562682032585,2.6493496524220006e-17
0.006907266564667225,0.004785112105309963,-0.0047561065293848515,-0.007153238169848919,0.0015626257518306375,-0.0004485353420022875
0.006514832377433777,0.005720060784369707,-0.004776876885443926,-0.0077800690196454525,0.0015365558210760355,-0.000658601347822696
0.006377352401614189,0.005751702934503555,-0.004690179601311684,-0.007222290150821209,0.0017070295289158821,-0.0006457840208895504
0.0067996312864124775,0.005707407835870981,-0.004758714232593775,-0.007270935922861099,0.0016500878846272826,-0.0005806023254990578
0.007490749470889568,0.005193173419684172,-0.004775736480951309,-0.007902896963059902,0.0014920716639608145,-0.0005883422563783824
0.0070677888579666615,0.004940998740494251,-0.004640514496713877,-0.00782392080873251,0.0015046109911054373,-0.0005560877034440637
0.006681513506919146,0.005185736808925867,-0.004551935475319624,-0.0070627471432089806,0.001461033127270639,-0.0005752468132413924
0.006592907477170229,0.005619200877845287,-0.004914502613246441,-0.007262266706675291,0.0015610052505508065,-0.0006004569004289806
0.007014698814600706,0.006017360370606184,-0.004736218135803938,-0.00807432271540165,0.0015768470475450158,-0.0006451697554439306
0.006985259708017111,0.005392260849475861,-0.00435713492333889,-0.00783968809992075,0.0017085265135392547,-0.0006735823699273169
0.006984522566199303,0.005210789851844311,-0.004859020933508873,-0.007349155843257904,0.0016308441990986466,-0.0007072958396747708
0.00730860885232687,0.005141382105648518,-0.004553874023258686,-0.007949800230562687,0.0015085310442373157,-0.0011468861484900117
0.0070425765588879585,0.00590722868219018,-0.0045824539847671986,-0.008116737939417362,0.0013080742210149765,-0.0012410860508680344
0.008016163483262062,0.006078518461436033,-0.004540702793747187,-0.007707646582275629,0.0013746552867814898,-0.0012949518859386444
0.007169707212597132,0.005909760948270559,-0.004786644130945206,-0.007437880150973797,0.0013309669448062778,-0.0013422040501609445
0.0072638727724552155,0.005555002950131893,-0.004709259606897831,-0.008641901426017284,0.0014801048673689365,-0.0012610136764124036
0.006863974034786224,0.00594113115221262,-0.004592418670654297,-0.008817771449685097,0.0015034887474030256,-0.0012105037458240986
0.007193311583250761,0.005728416610509157,-0.004536911379545927,-0.00828678347170353,0.0014806499239057302,-0.0012134751304984093
0.008095327764749527,0.005876755807548761,-0.004619519226253033,-0.007585544604808092,0.0015551828546449542,-0.001207072869874537
0.007200427353382111,0.005986243020743132,-0.004618974402546883,-0.008584107272326946,0.0015040736179798841,-0.0013724390882998705
0.007200427353382111,0.005986243020743132,-0.004618974402546883,-0.008584107272326946,0.0015040736179798841,-0.0013724390882998705
0.006754735484719276,0.005672551691532135,-0.004655127413570881,-0.00820682942867279,0.0016769925132393837,-0.001599911949597299
0.007298054173588753,0.005646102596074343,-0.004496337845921516,-0.00792054831981659,0.0015883678570389748,-0.0017541514243930578
0.0069755492731928825,0.005487472750246525,-0.0046521807089447975,-0.008492212742567062,0.0015217795735225081,-0.001732264063321054
0.007068658247590065,0.005721710156649351,-0.004308951552957296,-0.00836518220603466,0.0014012277824804187,-0.0016006340738385916
0.008236083202064037,0.005673320032656193,-0.004431571811437607,-0.008183763362467289,0.00135758426040411,-0.00149820139631629
0.008236083202064037,0.005673320032656193,-0.004431571811437607,-0.008183763362467289,0.00135758426040411,-0.00149820139631629
0.007729463744908571,0.0056360624730587006,-0.005290121305733919,-0.00897686555981636,0.0014827210688963532,-0.001586462021805346
0.008032149635255337,0.005986514501273632,-0.004558320622891188,-0.008538172580301762,0.0016953436424955726,-0.0015186496311798692
0.008234108798205853,0.006495882757008076,-0.004509362392127514,-0.009328306652605534,0.0017798932967707515,-0.001689622295089066
0.008054761216044426,0.0057755038142204285,-0.004450493026524782,-0.009947512298822403,0.0019045622320845723,-0.0017906923312693834
0.008108261041343212,0.006010767072439194,-0.0048805843107402325,-0.009465977549552917,0.0017331750132143497,-0.0021718486677855253
0.008791929110884666,0.006275150924921036,-0.004937388468533754,-0.00996299460530281,0.0016862194752320647,-0.0025676095392555
0.00861419178545475,0.006468539591878653,-0.004857889376580715,-0.010004877112805843,0.0016243442660197616,-0.0025369683280587196
0.008514723740518093,0.006052343174815178,-0.005018402822315693,-0.009580464102327824,0.001507743145339191,-0.0026765819638967514
0.008304435759782791,0.006550599820911884,-0.004868985619395971,-0.009579544886946678,0.0015618116594851017,-0.002459969837218523
0.00891151838004589,0.006195367779582739,-0.004919800907373428,-0.009776679798960686,0.001500710379332304,-0.0023987984750419855
0.008873521350324154,0.005884431768208742,-0.004466785583645105,-0.009785563684999943,0.0017253574915230274,-0.0024732425808906555
0.008812625892460346,0.0062864357605576515,-0.004933923948556185,-0.010347779840230942,0.0019171317107975483,-0.0026475335471332073
0.008621002547442913,0.006401563994586468,-0.005399077199399471,-0.009589370340108871,0.0022261471021920443,-0.002719102893024683
0.008581825532019138,0.005946971941739321,-0.0046790544874966145,-0.009410497732460499,0.0020132840145379305,-0.0027663642540574074
0.00865088403224945,0.0060842097736895084,-0.004423544276505709,-0.009629719890654087,0.0019396429415792227,-0.0024984488263726234
0.008564109914004803,0.0061358120292425156,-0.004523242358118296,-0.010006926953792572,0.0017647106433287263,-0.002366994973272085
0.008781887590885162,0.006294481921941042,-0.0050284406170248985,-0.00984277855604887,0.0017145875608548522,-0.002260446548461914
0.008789217099547386,0.006525321863591671,-0.004915799014270306,-0.009748883545398712,0.001645730808377266,-0.0021674535237252712
0.008386515080928802,0.006580469664186239,-0.005469727795571089,-0.00975803378969431,0.0019251854391768575,-0.0022896884474903345
0.008454266004264355,0.006332461256533861,-0.004604428540915251,-0.009463822469115257,0.0018202158389613032,-0.0022978989873081446
0.008789089508354664,0.006494257133454084,-0.0045292992144823074,-0.01039169356226921,0.0018562226323410869,-0.0022118117194622755
0.008531413041055202,0.006668466608971357,-0.004683373961597681,-0.010777699761092663,0.0018110100645571947,-0.0025628628209233284
0.00869207177311182,0.006635697558522224,-0.005078484304249287,-0.010217269882559776,0.0016966044204309583,-0.0033954393584281206
0.00869207177311182,0.006635697558522224,-0.005078484304249287,-0.010217269882559776,0.0016966044204309583,-0.0033954393584281206
0.009279913268983364,0.006343534681946039,-0.004887708928436041,-0.010367990471422672,0.0017195739783346653,-0.004114564973860979
0.008614561520516872,0.00642290199175477,-0.004775257781147957,-0.010642731562256813,0.001863070297986269,-0.004174728412181139
0.009119191206991673,0.006319497711956501,-0.005042641423642635,-0.01104444544762373,0.0019999926444143057,-0.003448203671723604
0.009119191206991673,0.006319497711956501,-0.005042641423642635,-0.01104444544762373,0.0019999926444143057,-0.003448203671723604
0.009315039031207561,0.006455069873481989,-0.004879849962890148,-0.010637231171131134,0.002081995364278555,-0.003200054867193103
0.008614376187324524,0.006609929259866476,-0.004793642088770866,-0.010434071533381939,0.0020834060851484537,-0.0035300864838063717
0.009186782874166965,0.006716292817145586,-0.005099996458739042,-0.010718291625380516,0.001831356785260141,-0.0041387081146240234
0.009120405651628971,0.006362372078001499,-0.005442391615360975,-0.010721680708229542,0.0018754308111965656,-0.004179650451987982
0.009321200661361217,0.0065859355963766575,-0.005024983547627926,-0.010731283575296402,0.0022396324202418327,-0.003847668645903468
0.009184599854052067,0.006728787906467915,-0.00481839943677187,-0.009894181042909622,0.0022441537585109472,-0.003422387642785907
0.009027560241520405,0.00720770750194788,-0.005125324707478285,-0.010697492398321629,0.0022379017900675535,-0.003183564404025674
0.009865708649158478,0.007121505681425333,-0.0049729011952877045,-0.011389613151550293,0.0020436171907931566,-0.003361321520060301
0.009459150955080986,0.006977264303714037,-0.0056668054312467575,-0.010173921473324299,0.0019786416087299585,-0.0036930565256625414
0.008958456106483936,0.006507853977382183,-0.0053942278027534485,-0.009964317083358765,0.0018614211585372686,-0.003921512980014086
0.009228145703673363,0.0071076899766922,-0.004787258803844452,-0.010923863388597965,0.0018615993903949857,-0.004036686383187771
0.009595515206456184,0.006786169018596411,-0.004883060231804848,-0.010247445665299892,0.0018913380336016417,-0.004080727696418762
0.009391210041940212,0.006740466225892305,-0.005290704779326916,-0.011069231666624546,0.001974687213078141,-0.0035913235042244196
0.009302705526351929,0.006619839929044247,-0.004989719484001398,-0.011264987289905548,0.0019291769713163376,-0.0038570298347622156
0.009511759504675865,0.006418857257813215,-0.0054389964789152145,-0.010571896098554134,0.001950032077729702,-0.004486180376261473
0.009070727042853832,0.007067466154694557,-0.005231608636677265,-0.010541274212300777,0.0018506307387724519,-0.004483244847506285
0.009366540238261223,0.006834026426076889,-0.004828563891351223,-0.010560017079114914,0.0018643897492438555,-0.00440684799104929
0.009473026730120182,0.006814205553382635,-0.004739619791507721,-0.011062406934797764,0.0018520597368478775,-0.0040988256223499775
0.009644625708460808,0.007064833305776119,-0.005122240167111158,-0.010774756781756878,0.002047797432169318,-0.0038056769408285618
0.009066776372492313,0.007557059172540903,-0.004954697098582983,-0.010613887570798397,0.0022569678258150816,-0.003708088770508766
0.009537741541862488,0.007204278837889433,-0.005605003796517849,-0.01154593750834465,0.0022004961501806974,-0.004143696278333664
0.00957430899143219,0.0064854007214307785,-0.005239487159997225,-0.011801389046013355,0.002308144234120846,-0.004189242143183947
0.00957430899143219,0.0064854007214307785,-0.005239487159997225,-0.011801389046013355,0.002308144234120846,-0.004189242143183947
0.009319144301116467,0.007171235512942076,-0.004823246970772743,-0.011724958196282387,0.0021095096599310637,-0.004456760827451944
0.009976898320019245,0.007975682616233826,-0.00504017248749733,-0.01201922632753849,0.0020732153207063675,-0.004128139931708574
0.00969124585390091,0.00725882314145565,-0.005094561260193586,-0.01180502213537693,0.0019071769202128053,-0.004360480699688196
0.009245568886399269,0.0068979146890342236,-0.004898746032267809,-0.012186190113425255,0.0019486922537907958,-0.004265857860445976
0.009526344947516918,0.007013340946286917,-0.005299996584653854,-0.011491385288536549,0.0018536613788455725,-0.004194342996925116
0.009579929523169994,0.007604728452861309,-0.00508663197979331,-0.011751599609851837,0.0021130952518433332,-0.004198034759610891
0.009950448758900166,0.007563483435660601,-0.005363535601645708,-0.013342848047614098,0.0022451782133430243,-0.004922460298985243
0.009602132253348827,0.007381212431937456,-0.005037093069404364,-0.012624603696167469,0.0021122870966792107,-0.005023541860282421
0.009372010827064514,0.008291107602417469,-0.004954408388584852,-0.012321424670517445,0.0019127358682453632,-0.005188671872019768
0.009951109997928143,0.007822367362678051,-0.005521757993847132,-0.012898489832878113,0.0017400904325768352,-0.004637033212929964
0.009859012439846992,0.007531656883656979,-0.0055679213255643845,-0.01304749958217144,0.001687149633653462,-0.004577889107167721
0.00960079301148653,0.007748930715024471,-0.005086035002022982,-0.012923292815685272,0.0016489253612235188,-0.004609154537320137
0.010206960141658783,0.008048342540860176,-0.0048079644329845905,-0.013466945849359035,0.0021234629675745964,-0.00500100664794445
0.010013584047555923,0.00787277426570654,-0.0047217258252203465,-0.013000743463635445,0.0027037120889872313,-0.005142513662576675
0.009872091002762318,0.007825490087270737,-0.005015826318413019,-0.013071663677692413,0.0028518482577055693,-0.005195204634219408
0.010030586272478104,0.007894057780504227,-0.005317051894962788,-0.01304805651307106,0.0027021293062716722,-0.004879982676357031
0.010414003394544125,0.007942458614706993,-0.005011345259845257,-0.013404850848019123,0.0025946174282580614,-0.0047101425006985664
0.00958533026278019,0.007522935979068279,-0.0047470699064433575,-0.012797929346561432,0.002359153237193823,-0.0047490536235272884
0.010249062441289425,0.007310628890991211,-0.004656577482819557,-0.013141742907464504,0.002207810990512371,-0.004948832094669342
0.009875127114355564,0.007404902018606663,-0.004570917692035437,-0.013203372247517109,0.002201599068939686,-0.004625356290489435
0.009530026465654373,0.00814923644065857,-0.005280377808958292,-0.013919781893491745,0.002132745459675789,-0.004940457176417112
0.010429143905639648,0.007820900529623032,-0.0052698892541229725,-0.014041665941476822,0.002104339888319373,-0.00556324003264308
0.009894602000713348,0.0075076729990541935,-0.004932957235723734,-0.013822470791637897,0.002121964003890753,-0.005172422621399164
0.009570932947099209,0.007435213308781385,-0.004620885942131281,-0.01362183503806591,0.002299271523952484,-0.00508244801312685
0.010148067027330399,0.008180839940905571,-0.005102128721773624,-0.013936649076640606,0.0021716721821576357,-0.005029704421758652
0.009975917637348175,0.008098519407212734,-0.004998756572604179,-0.01462396327406168,0.002441654447466135,-0.005274646915495396
0.009827838279306889,0.007436694577336311,-0.004993024282157421,-0.014200378209352493,0.0023564312141388655,-0.005711955484002829
0.01022321917116642,0.007432134356349707,-0.005275039467960596,-0.014019118621945381,0.0023118355311453342,-0.0053538307547569275
0.009983384050428867,0.008800745941698551,-0.00489813694730401,-0.01460040919482708,0.00209948536939919,-0.005298623815178871
0.00971392821520567,0.008058503270149231,-0.005000094883143902,-0.014923355542123318,0.002016565529629588,-0.005320491269230843
0.00971392821520567,0.008058503270149231,-0.005000094883143902,-0.014923355542123318,0.002016565529629588,-0.005320491269230843
0.010572983883321285,0.007876480929553509,-0.005293580703437328,-0.01532538328319788,0.00215197098441422,-0.005506725981831551
0.009894332848489285,0.007999258115887642,-0.004955660086125135,-0.014708539471030235,0.002574887592345476,-0.0056768483482301235
0.009846951812505722,0.008039393462240696,-0.005424881353974342,-0.014583108015358448,0.002678975695744157,-0.005720885004848242
0.011011488735675812,0.008215704001486301,-0.005360226146876812,-0.014551900327205658,0.0028063845820724964,-0.005325156729668379
0.009614274837076664,0.00820994470268488,-0.004655669443309307,-0.014421970583498478,0.0028014229610562325,-0.005302065052092075
0.010305170901119709,0.008348587900400162,-0.005044047255069017,-0.014598611742258072,0.0027999712619930506,-0.005138784181326628
0.010787195526063442,0.008587958291172981,-0.005083675030618906,-0.01452111266553402,0.002926541492342949,-0.005973612889647484
0.010183307342231274,0.008632746525108814,-0.005282277707010508,-0.014743744395673275,0.0028869882225990295,-0.005741434637457132
0.009948667138814926,0.008167632855474949,-0.005148195195943117,-0.01460978202521801,0.0025030134711414576,-0.005676602479070425
0.009992402046918869,0.007945707067847252,-0.004901691805571318,-0.01498914323747158,0.0022894716821610928,-0.005779247265309095
0.010534940287470818,0.007910327054560184,-0.005101609975099564,-0.014712932519614697,0.0022911387495696545,-0.005822316277772188
0.010646718554198742,0.008440005593001842,-0.0050483448430895805,-0.015254969708621502,0.0023130036424845457,-0.005648597609251738
0.009915214031934738,0.008391648530960083,-0.004793510772287846,-0.014799881726503372,0.0028193285688757896,-0.005854515824466944
0.010466613806784153,0.007653864100575447,-0.0049248323775827885,-0.015041060745716095,0.00271233799867332,-0.005626751575618982
0.0103562967851758,0.007674022577702999,-0.005469529889523983,-0.014888203702867031,0.0024640492629259825,-0.005802802741527557
0.009945837780833244,0.008633004501461983,-0.005552602466195822,-0.015618771314620972,0.00233857287093997,-0.005552954506129026
0.010450195521116257,0.008357382379472256,-0.0050841993652284145,-0.015495874918997288,0.002067101188004017,-0.005701694171875715
0.009955606423318386,0.008370418101549149,-0.00483391247689724,-0.01588769257068634,0.0018599010072648525,-0.005944149103015661
0.008312639780342579,0.008053052239120007,-0.005293137859553099,-0.015884732827544212,0.001847448293119669,-0.005916140042245388
0.010516024194657803,0.008529509417712688,-0.00530392536893487,-0.01611776277422905,0.002137507777661085,-0.006285832729190588
0.010560763068497181,0.008434626273810863,-0.0058391098864376545,-0.016172442585229874,0.0024737766943871975,-0.006210681051015854
0.010843180119991302,0.008441315032541752,-0.0052510215900838375,-0.016110295429825783,0.0025956137105822563,-0.006167534738779068
0.010334094054996967,0.008653121069073677,-0.0047354502603411674,-0.016734382137656212,0.002812097780406475,-0.006313015706837177
0.010056005790829659,0.008120924234390259,-0.005227616988122463,-0.01636309176683426,0.0027620114851742983,-0.005947359837591648
0.010334729216992855,0.007693827617913485,-0.00520700216293335,-0.016942737624049187,0.0028156342450529337,-0.006006723735481501
0.010022614151239395,0.008208663202822208,-0.005410139914602041,-0.016380904242396355,0.002767313737422228,-0.005896023008972406
0.00993778184056282,0.008659813553094864,-0.005655087996274233,-0.0160745307803154,0.003184886882081628,-0.005709121935069561
0.00993778184056282,0.008659813553094864,-0.005655087996274233,-0.0160745307803154,0.003184886882081628,-0.005709121935069561
0.010393328033387661,0.008661450818181038,-0.005159877240657806,-0.016110859811306,0.0033736065961420536,-0.006091057788580656
0.010042469017207623,0.008529656566679478,-0.005236676428467035,-0.016419939696788788,0.003054696833714843,-0.006136704236268997
0.009693645872175694,0.00875041726976633,-0.005379823036491871,-0.017066653817892075,0.0026060203090310097,-0.006231026258319616
0.010972127318382263,0.008815363980829716,-0.005614526104182005,-0.01661595143377781,0.0025441907346248627,-0.006414709612727165
0.01029577199369669,0.008697640150785446,-0.005292294546961784,-0.016780268400907516,0.002782959258183837,-0.006953660864382982
0.010264188051223755,0.009449631907045841,-0.005391205660998821,-0.017097339034080505,0.0028226368594914675,-0.006468323990702629
0.010424824431538582,0.008777693845331669,-0.005193425342440605,-0.01799987070262432,0.0030457377433776855,-0.0065830121748149395
0.009996444918215275,0.008755921386182308,-0.005331371910870075,-0.01717214100062847,0.002947885310277343,-0.006889783311635256
0.010855349712073803,0.009167918004095554,-0.00519027141854167,-0.017656315118074417,0.002846225630491972,-0.007081215735524893
0.01032518595457077,0.008784112520515919,-0.006017585750669241,-0.01740163192152977,0.00318012828938663,-0.006807314697653055
0.00980876013636589,0.008709670044481754,-0.005403993185609579,-0.016779346391558647,0.0029909962322562933,-0.007408670149743557
0.010447082109749317,0.009410638362169266,-0.004990258254110813,-0.017191603779792786,0.0030267180409282446,-0.0068895574659109116
0.009985425509512424,0.00964247528463602,-0.005722671281546354,-0.017220456153154373,0.0027591001708060503,-0.0069068800657987595
0.010697423480451107,0.008847169578075409,-0.0054832627065479755,-0.018342601135373116,0.0026927811559289694,-0.0066763246431946754
0.01024190429598093,0.009830196388065815,-0.005370730068534613,-0.01793154887855053,0.0027904959861189127,-0.0069025661796331406
0.009999558329582214,0.00930892862379551,-0.005005370359867811,-0.017516659572720528,0.003021908923983574,-0.007394467480480671
0.010611612349748611,0.009442289359867573,-0.004883738234639168,-0.018386317417025566,0.003068069228902459,-0.007052560802549124
0.010521856136620045,0.009470207616686821,-0.0056839510798454285,-0.01824810914695263,0.003038286231458187,-0.006794932298362255
0.010265839286148548,0.009056350216269493,-0.005252206698060036,-0.018816867843270302,0.003053641878068447,-0.00667419983074069
0.010793865658342838,0.008982340805232525,-0.005365042481571436,-0.01905214972794056,0.0031700325198471546,-0.007213340140879154
0.010966808535158634,0.009298623539507389,-0.005319401156157255,-0.01822587475180626,0.003426159964874387,-0.007513538468629122
0.010979189537465572,0.009592029266059399,-0.005461780354380608,-0.018288327381014824,0.0034824348986148834,-0.007480047643184662
0.011354800313711166,0.009206583723425865,-0.005677173845469952,-0.017672739923000336,0.003392800921574235,-0.006864418275654316
0.010648669674992561,0.009144163690507412,-0.005227064248174429,-0.017789781093597412,0.0031361477449536324,-0.00690891407430172
0.010502619668841362,0.00958139356225729,-0.005153123755007982,-0.01881423592567444,0.0029615960083901882,-0.0072373575530946255
0.010984753258526325,0.009854351170361042,-0.0055101290345191956,-0.019272388890385628,0.0027402013074606657,-0.007847484201192856
0.010950449854135513,0.011187417432665825,-0.006279018707573414,-0.019174451008439064,0.0026125479489564896,-0.0076431650668382645
0.010950449854135513,0.011187417432665825,-0.006279018707573414,-0.019174451008439064,0.0026125479489564896,-0.0076431650668382645
0.011160059832036495,0.011611709371209145,-0.005476035643368959,-0.01967828907072544,0.002662783255800605,-0.007431335747241974
0.01200332585722208,0.01166763436049223,-0.005229605827480555,-0.019530946388840675,0.002589414594694972,-0.007760200183838606
0.012429325841367245,0.011695727705955505,-0.005179751198738813,-0.01960914582014084,0.002963867038488388,-0.007703904993832111
0.013166872784495354,0.011103304103016853,-0.006131265312433243,-0.0203274916857481,0.003143920795992017,-0.007307840045541525
0.012468245811760426,0.010999499820172787,-0.0059049795381724834,-0.02037576213479042,0.0031450719106942415,-0.006930071394890547
0.012728134170174599,0.010492281056940556,-0.005245643202215433,-0.019692284986376762,0.002729042898863554,-0.0069300951436161995
0.013003266416490078,0.01101347804069519,-0.00509167555719614,-0.020081238821148872,0.002520274603739381,-0.00678410055115819
0.01322057843208313,0.011314298026263714,-0.005606376100331545,-0.02035953477025032,0.0028156922198832035,-0.0073250662535429
0.013281977735459805,0.010710231028497219,-0.005883165635168552,-0.020303111523389816,0.002832300029695034,-0.007875622250139713
0.013074935413897038,0.011265714652836323,-0.0058683729730546474,-0.02046097069978714,0.0032970320899039507,-0.007883488200604916
0.012745216488838196,0.011177132837474346,-0.005245237145572901,-0.020441560074687004,0.003321245778352022,-0.007657319772988558
0.013150273822247982,0.010794943198561668,-0.00567987933754921,-0.020178841426968575,0.0030786111019551754,-0.007717154920101166
0.013186424039304256,0.011225246824324131,-0.005387839861214161,-0.020665498450398445,0.00331472372636199,-0.007493952289223671
0.013588475994765759,0.010590107180178165,-0.005368003621697426,-0.020998742431402206,0.0037526872474700212,-0.007474988233298063
0.013184892013669014,0.011144468560814857,-0.005852608475834131,-0.020735085010528564,0.0035256287083029747,-0.007531808223575354
0.013463961891829967,0.010945246554911137,-0.006067854352295399,-0.020369742065668106,0.0035127620212733746,-0.007779005914926529
0.013378382660448551,0.010859506204724312,-0.005442038644105196,-0.020877866074442863,0.003129559801891446,-0.00752313993871212
0.013103347271680832,0.011868144385516644,-0.0056206239387393,-0.020906701683998108,0.0029596497770398855,-0.007144652772694826
0.01332918368279934,0.012085702270269394,-0.005452751647680998,-0.02111177146434784,0.0027092962991446257,-0.0075323693454265594
0.013156316243112087,0.011562373489141464,-0.006072510499507189,-0.021277276799082756,0.0026741311885416508,-0.007937999442219734
0.013156128115952015,0.011256188154220581,-0.005581500008702278,-0.021409589797258377,0.0027903912123292685,-0.00808404479175806
0.013071408495306969,0.011217966675758362,-0.005519287195056677,-0.021291766315698624,0.0028347570914775133,-0.008164816536009312
0.013292723335325718,0.011540972627699375,-0.005473246797919273,-0.0214932169765234,0.0028721473645418882,-0.00828959047794342
0.0127908019348979,0.010995914228260517,-0.005751137621700764,-0.022020192816853523,0.0030935087706893682,-0.00811608787626028
0.013140907511115074,0.010452606715261936,-0.00633865874260664,-0.02223750203847885,0.0031979975756257772,-0.008026691153645515
0.013070621527731419,0.011292875744402409,-0.005654658190906048,-0.023551227524876595,0.0032729702070355415,-0.008558140136301517
0.013316856697201729,0.010882080532610416,-0.005323832388967276,-0.021858762949705124,0.003455730387941003,-0.008360185660421848
0.013316856697201729,0.010882080532610416,-0.005323832388967276,-0.021858762949705124,0.003455730387941003,-0.008360185660421848
0.013151865452528,0.011028571054339409,-0.0056297024711966515,-0.021711958572268486,0.0035611113999038935,-0.00847309548407793
0.013188051991164684,0.011678916402161121,-0.006024093832820654,-0.02296072617173195,0.0034597970079630613,-0.008441717363893986
0.013261066749691963,0.010554181411862373,-0.005802311468869448,-0.024061253294348717,0.0035378371831029654,-0.00857488438487053
0.013518350198864937,0.011346361599862576,-0.00552560668438673,-0.022717446088790894,0.0038508442230522633,-0.008767780847847462
0.01360221765935421,0.010909880511462688,-0.006129853893071413,-0.02221393585205078,0.003929453901946545,-0.008403543382883072
0.013879216276109219,0.011284557171165943,-0.005751476623117924,-0.022811274975538254,0.003934872802346945,-0.008342519402503967
0.01342831738293171,0.011691028252243996,-0.00604516314342618,-0.023506518453359604,0.003907387610524893,-0.008812622167170048
0.013695284724235535,0.01164356991648674,-0.006379308179020882,-0.02385466732084751,0.003471431788057089,-0.008620035834610462
0.013415129855275154,0.011514212004840374,-0.005646602716296911,-0.023136422038078308,0.003156242659315467,-0.007571257650852203
0.014113426208496094,0.011547551490366459,-0.005845998879522085,-0.023456832394003868,0.003354479093104601,-0.008563107810914516
0.013518543913960457,0.011616901494562626,-0.0054804421961307526,-0.02406579814851284,0.0036273845471441746,-0.008799399249255657
0.013947208411991596,0.011301579885184765,-0.005773401353508234,-0.02430582046508789,0.0037755602970719337,-0.008359716273844242
0.013518257066607475,0.010404746979475021,-0.006158112082630396,-0.02367561124265194,0.003506347304210067,-0.008374959230422974
0.013886542990803719,0.01097089983522892,-0.005998001899570227,-0.022789370268583298,0.0033839144743978977,-0.00867339875549078
0.013633402064442635,0.011781211942434311,-0.005564610008150339,-0.023027217015624046,0.0034866775386035442,-0.008492670021951199
0.01392880268394947,0.011640548706054688,-0.005752688739448786,-0.023894265294075012,0.0036090719513595104,-0.00924264919012785
0.013621505349874496,0.011220283806324005,-0.0066096787340939045,-0.024394068866968155,0.0037643497344106436,-0.00913273449987173
0.014441520906984806,0.011041106656193733,-0.0062150973826646805,-0.024376748129725456,0.0039048667531460524,-0.008870644494891167
0.014086820185184479,0.011555980890989304,-0.005777289159595966,-0.02476969175040722,0.0042055887170135975,-0.008657827973365784
0.014259140007197857,0.01143717486411333,-0.005285057704895735,-0.02476525492966175,0.004062159452587366,-0.008908156305551529
0.013892541639506817,0.011455469764769077,-0.0059039355255663395,-0.024950211867690086,0.004002613481134176,-0.009241396561264992
0.014256924390792847,0.011552180163562298,-0.006253397557884455,-0.025048809126019478,0.0036789390724152327,-0.009359708987176418
0.014061220921576023,0.011062473058700562,-0.006476189941167831,-0.025013253092765808,0.003542188322171569,-0.009477796964347363
0.014852460473775864,0.011846095323562622,-0.005919307004660368,-0.025128062814474106,0.0035247900523245335,-0.009548945352435112
0.014348612166941166,0.01119768712669611,-0.005565740168094635,-0.025203803554177284,0.0036147453356534243,-0.00900556705892086
0.014252695254981518,0.011347691528499126,-0.005852803122252226,-0.02483648806810379,0.003708039177581668,-0.009352179244160652
0.013838266022503376,0.0118577741086483,-0.006623310036957264,-0.024850189685821533,0.004186130594462156,-0.009729230776429176
0.014270168729126453,0.01180886011570692,-0.006123333238065243,-0.02470928616821766,0.004121807869523764,-0.009552927687764168
0.014270168729126453,0.01180886011570692,-0.006123333238065243,-0.02470928616821766,0.004121807869523764,-0.009552927687764168
0.014453533105552197,0.012081688269972801,-0.005772942211478949,-0.02417096495628357,0.003930756822228432,-0.009439871646463871
0.014588698744773865,0.011683407239615917,-0.006127213593572378,-0.024307632818818092,0.0037898330483585596,-0.0093298414722085
0.014739285223186016,0.011959380470216274,-0.005938379094004631,-0.02514304779469967,0.004162909463047981,-0.009467566385865211
0.014405361376702785,0.011587655171751976,-0.0064420853741467,-0.025359205901622772,0.0036416519433259964,-0.009524911642074585
0.014980286359786987,0.012304006144404411,-0.006033195182681084,-0.02518828585743904,0.0035802386701107025,-0.00912468135356903
0.01490642037242651,0.012111661024391651,-0.005883239209651947,-0.02535264752805233,0.003634663298726082,-0.009942077100276947
0.01529187522828579,0.012337701395154,-0.005783292464911938,-0.025620371103286743,0.004034729674458504,-0.010062300600111485
0.014978205785155296,0.01233687810599804,-0.00627498421818018,-0.025783652439713478,0.004214200656861067,-0.009813121519982815
0.015125160105526447,0.011654650792479515,-0.00653091398999095,-0.025841236114501953,0.0045150937512516975,-0.010075358673930168
0.014960884116590023,0.012312744744122028,-0.005980780813843012,-0.026119444519281387,0.004207238554954529,-0.01004323735833168
0.015956902876496315,0.012223005294799805,-0.006068142130970955,-0.02632792852818966,0.004297835752367973,-0.009997318498790264
0.015289774164557457,0.012589835561811924,-0.00595271959900856,-0.026077162474393845,0.0045631942339241505,-0.009980550967156887
0.015197446569800377,0.012140093371272087,-0.0061469124630093575,-0.026123905554413795,0.0045011709444224834,-0.010284988209605217
0.015222516842186451,0.012691052630543709,-0.0066373045556247234,-0.02589546889066696,0.00461937440559268,-0.009190286509692669
0.015462704002857208,0.012303108349442482,-0.006363711319863796,-0.026212353259325027,0.004430767148733139,-0.009624892845749855
0.015601365827023983,0.012169401161372662,-0.005849179811775684,-0.02661493979394436,0.004377008881419897,-0.010003800503909588
0.015659907832741737,0.012309461832046509,-0.006392581854015589,-0.026865383610129356,0.00402806606143713,-0.009871634654700756
0.015596559271216393,0.012068362906575203,-0.006730399094521999,-0.027410736307501793,0.0037702887784689665,-0.009786427952349186
0.01526990719139576,0.012805086560547352,-0.006517490372061729,-0.027603017166256905,0.0035447762347757816,-0.01060218270868063
0.015632767230272293,0.012445318512618542,-0.0060791270807385445,-0.026698419824242592,0.003503359155729413,-0.010291370563209057
0.015426321886479855,0.013297305442392826,-0.006061083637177944,-0.02631579339504242,0.003791534574702382,-0.010042236186563969
0.01581997610628605,0.013414167799055576,-0.005469900090247393,-0.027647415176033974,0.004198118112981319,-0.010416529141366482
0.015432297252118587,0.012934038415551186,-0.006683295127004385,-0.028486590832471848,0.004862976726144552,-0.010188494808971882
0.015974123030900955,0.012988404370844364,-0.0068968371488153934,-0.028034856542944908,0.004568594042211771,-0.010342627763748169
0.015583895146846771,0.012762223370373249,-0.005779443774372339,-0.02887222170829773,0.0044560967944562435,-0.010791566222906113
0.016109883785247803,0.01345130242407322,-0.005768961273133755,-0.029282834380865097,0.004212379455566406,-0.011052343994379044
0.0158467385917902,0.012934389524161816,-0.005394222680479288,-0.028905656188726425,0.0044083124957978725,-0.01110888086259365
0.01588183082640171,0.013420036062598228,-0.006698447745293379,-0.02800462208688259,0.005041071679443121,-0.010502016171813011
0.01588183082640171,0.013420036062598228,-0.006698447745293379,-0.02800462208688259,0.005041071679443121,-0.010502016171813011
0.015992894768714905,0.013515587896108627,-0.0056488411501049995,-0.02945365384221077,0.004469759296625853,-0.010077587328851223
0.015992894768714905,0.013515587896108627,-0.0056488411501049995,-0.02945365384221077,0.004469759296625853,-0.010077587328851223
0.01570047251880169,0.013727497309446335,-0.0058096786960959435,-0.029488414525985718,0.004352156072854996,-0.010345709510147572
0.016341378912329674,0.013816322200000286,-0.006283275783061981,-0.029583346098661423,0.004166954196989536,-0.010751931928098202
0.015988245606422424,0.013903161510825157,-0.006181525532156229,-0.02982066012918949,0.0040532066486775875,-0.011015035212039948
0.016176853328943253,0.013600040227174759,-0.006219832226634026,-0.0297845471650362,0.004479396156966686,-0.011167313903570175
0.016209114342927933,0.014143106527626514,-0.005623658187687397,-0.029888032004237175,0.004703638609498739,-0.011174513958394527
0.016624536365270615,0.014082656241953373,-0.005708606913685799,-0.030250318348407745,0.004726836457848549,-0.010431969538331032
0.016446875408291817,0.014251039363443851,-0.006610450800508261,-0.03010413981974125,0.004734580405056477,-0.010806987062096596
0.016030246391892433,0.014497551135718822,-0.006361261010169983,-0.03011159598827362,0.0045818910002708435,-0.011214308440685272
0.016226036474108696,0.0142254289239645,-0.00565802538767457,-0.030480947345495224,0.004298470914363861,-0.011082321405410767
0.017204415053129196,0.014584395103156567,-0.005366186611354351,-0.030622754245996475,0.0045067197643220425,-0.011816293932497501
0.017087649554014206,0.014300928451120853,-0.005575606133788824,-0.03075263276696205,0.004677520599216223,-0.011454190127551556
0.016421450302004814,0.013877138495445251,-0.005693994928151369,-0.03077000379562378,0.005022388882935047,-0.0110863596200943
0.016738779842853546,0.014012472704052925,-0.006256675347685814,-0.03132590651512146,0.004981027916073799,-0.011039423756301403
0.016916600987315178,0.013930917717516422,-0.0055478340946137905,-0.031470052897930145,0.0046866280026733875,-0.011162248440086842
0.016809072345495224,0.01396691333502531,-0.005330937914550304,-0.03195881098508835,0.004327750764787197,-0.011652546003460884
0.01755797490477562,0.014296650886535645,-0.0054678525775671005,-0.03172168880701065,0.004380061756819487,-0.011682151816785336
0.01692822389304638,0.014371884055435658,-0.00607390096411109,-0.031730469316244125,0.004986817482858896,-0.011959891766309738
0.017020652070641518,0.014134302735328674,-0.005828033667057753,-0.03274645283818245,0.005197162739932537,-0.011616409756243229
0.017448030412197113,0.014167113229632378,-0.005894951988011599,-0.03321395441889763,0.005310713779181242,-0.01176196988672018
0.017851611599326134,0.014781086705625057,-0.005346585065126419,-0.032828934490680695,0.005074821878224611,-0.012003452517092228
0.018176009878516197,0.01456911489367485,-0.005689712241292,-0.03220969811081886,0.004414085764437914,-0.011575673706829548
0.017475798726081848,0.01501557882875204,-0.0065273684449493885,-0.03296298161149025,0.00443137576803565,-0.011787102557718754
0.01796262152493,0.014799276366829872,-0.00623914273455739,-0.033224720507860184,0.0049632699228823185,-0.012520242482423782
0.017644181847572327,0.01481972262263298,-0.005734567530453205,-0.03333297744393349,0.005120071582496166,-0.012391810305416584
0.017354626208543777,0.015067149884998798,-0.0055396948009729385,-0.03485989198088646,0.005002103745937347,-0.011965773068368435
0.018495896831154823,0.014997231774032116,-0.005665403790771961,-0.03456958383321762,0.005183322820812464,-0.012106635607779026
0.018495896831154823,0.014997231774032116,-0.005665403790771961,-0.03456958383321762,0.005183322820812464,-0.012106635607779026
0.01822776347398758,0.015072548761963844,-0.005685331765562296,-0.03317718580365181,0.005065530072897673,-0.012590786442160606
0.018041793256998062,0.014689813368022442,-0.006208320148289204,-0.03302547708153725,0.00482354499399662,-0.012916543520987034
0.018229316920042038,0.015556895174086094,-0.0063253468833863735,-0.03402438387274742,0.005063206423074007,-0.012793288566172123
0.01817934773862362,0.015262197703123093,-0.005735920276492834,-0.03398571535944939,0.004987791646271944,-0.012693569995462894
0.019249627366662025,0.014994064345955849,-0.006029506213963032,-0.03499019145965576,0.004911093041300774,-0.011971247382462025
0.019168224185705185,0.01544835977256298,-0.006293636746704578,-0.03439633548259735,0.0050551388412714005,-0.01274570357054472
0.019223881885409355,0.015083303675055504,-0.006024621427059174,-0.03364371508359909,0.00487437192350626,-0.013383669778704643
0.019829925149679184,0.015681909397244453,-0.006059335079044104,-0.03393235430121422,0.004843172151595354,-0.012983119115233421
0.018745653331279755,0.015225808136165142,-0.0062794252298772335,-0.03418777510523796,0.005264969542622566,-0.012936596758663654
0.01883699558675289,0.015773842111229897,-0.006784433964639902,-0.03441546857357025,0.005422681104391813,-0.012961512431502342
0.019261348992586136,0.015594610013067722,-0.006444667465984821,-0.03459225967526436,0.005994598381221294,-0.01311742328107357
0.019244670867919922,0.015516200102865696,-0.006062143947929144,-0.03423766419291496,0.005154070910066366,-0.012956817634403706
0.019434109330177307,0.015460521914064884,-0.006250056903809309,-0.03429783135652542,0.00465471250936389,-0.013222103007137775
0.01976165920495987,0.015892503783106804,-0.006747204344719648,-0.03476538881659508,0.0046885195188224316,-0.012893707491457462
0.019646380096673965,0.01617855578660965,-0.007386382203549147,-0.03547557070851326,0.005211053416132927,-0.012983572669327259
0.019586272537708282,0.015859318897128105,-0.006952016614377499,-0.03583930432796478,0.005338342860341072,-0.013351683504879475
0.01998305507004261,0.015973543748259544,-0.00624776491895318,-0.03618696331977844,0.005341490264981985,-0.01370689645409584
0.01995694264769554,0.015671342611312866,-0.0064492858946323395,-0.036436695605516434,0.00533590791746974,-0.013973349705338478
0.019688919186592102,0.016246294602751732,-0.006968911271542311,-0.03695249184966087,0.005492604803293943,-0.013702034950256348
0.01998836360871792,0.015761764720082283,-0.0068791708908975124,-0.037349168211221695,0.005181250162422657,-0.013790109194815159
0.020142555236816406,0.01636618562042713,-0.0061261276714503765,-0.03744884580373764,0.005820049438625574,-0.013875789009034634
0.0186021625995636,0.016353018581867218,-0.0063258204609155655,-0.03815430402755737,0.005523880012333393,-0.01432798895984888
0.020756563171744347,0.01629852131009102,-0.006907481234520674,-0.03818041458725929,0.005375998560339212,-0.014247721992433071
0.020792018622159958,0.0166541188955307,-0.007428925018757582,-0.03890419006347656,0.005672152619808912,-0.014227994717657566
0.020312391221523285,0.01650518737733364,-0.006873802747577429,-0.039565857499837875,0.005521819926798344,-0.014015374705195427
0.020668355748057365,0.0166937168687582,-0.006182109471410513,-0.038153935223817825,0.005693226121366024,-0.014252635650336742
0.02133503369987011,0.01625431701540947,-0.00648823007941246,-0.03696543350815773,0.005351945757865906,-0.01423728372901678
0.02107839472591877,0.01667971909046173,-0.007150396704673767,-0.038530778139829636,0.005639285314828157,-0.014581063762307167
0.02107839472591877,0.01667971909046173,-0.007150396704673767,-0.038530778139829636,0.005639285314828157,-0.014581063762307167
0.0207135658711195,0.01697230152785778,-0.007054044399410486,-0.03842449188232422,0.005560648161917925,-0.0144632114097476
0.020837245509028435,0.017070842906832695,-0.0059854392893612385,-0.03920937702059746,0.005868617910891771,-0.014551105909049511
0.021466869860887527,0.01756218820810318,-0.006030096206814051,-0.04031103104352951,0.005596448201686144,-0.014403500594198704
0.02144094929099083,0.016846472397446632,-0.006841603666543961,-0.038357242941856384,0.005770706105977297,-0.014484219253063202
0.02127564139664173,0.01707935892045498,-0.00653464999049902,-0.039921559393405914,0.005903951823711395,-0.014460860751569271
0.021550621837377548,0.017237801104784012,-0.006188065744936466,-0.0398598276078701,0.006161419674754143,-0.014629569835960865
0.021672198548913002,0.017034439370036125,-0.006181962322443724,-0.03993704169988632,0.005979444831609726,-0.014938751235604286
0.0216545257717371,0.01706841215491295,-0.006798138841986656,-0.04064328223466873,0.006045109126716852,-0.0145667539909482
0.021416444331407547,0.017685173079371452,-0.00693860836327076,-0.0406322181224823,0.005719712004065514,-0.014657973311841488
0.02212347835302353,0.018243888393044472,-0.0064851283095777035,-0.040847666561603546,0.005846579559147358,-0.014488855376839638
0.022112879902124405,0.017619051039218903,-0.006151710636913776,-0.04054299741983414,0.006303747650235891,-0.015078962780535221
0.021813562139868736,0.018014466390013695,-0.006504630669951439,-0.04000967741012573,0.006204116623848677,-0.015098968520760536
0.021806757897138596,0.01725873164832592,-0.007253679912537336,-0.04042411223053932,0.0062147751450538635,-0.015447382815182209
0.022438861429691315,0.01773100718855858,-0.00740037951618433,-0.040132075548172,0.005713933147490025,-0.015342709608376026
0.022096896544098854,0.017857689410448074,-0.006854664534330368,-0.04009513929486275,0.00573701411485672,-0.015205852687358856
0.02208675816655159,0.017269808799028397,-0.006251061335206032,-0.03867310285568237,0.005822883918881416,-0.014932889491319656
0.0224729236215353,0.01803123578429222,-0.0068510789424180984,-0.039952293038368225,0.005987745709717274,-0.015515821054577827
0.02258376032114029,0.01798286847770214,-0.007310977205634117,-0.04262181371450424,0.0063607171177864075,-0.015643542632460594
0.022289948537945747,0.017521684989333153,-0.0067910063080489635,-0.04113707318902016,0.005839627701789141,-0.015533467754721642
0.02262638509273529,0.017865704372525215,-0.00635877437889576,-0.03942173346877098,0.005939261056482792,-0.015259847044944763
0.022466881200671196,0.017675526440143585,-0.007122890558093786,-0.04012390971183777,0.005725399125367403,-0.015296371653676033
0.022328514605760574,0.018686702474951744,-0.007665804121643305,-0.040771257132291794,0.006021769251674414,-0.015257969498634338
0.023414883762598038,0.01833971031010151,-0.006777680944651365,-0.04139776527881622,0.006243056617677212,-0.015662482008337975
0.02338848076760769,0.01717415265738964,-0.0061944699846208096,-0.04153431951999664,0.005929999984800816,-0.016406569629907608
0.022426510229706764,0.018348881974816322,-0.00616511981934309,-0.040126122534275055,0.005637824069708586,-0.016161540523171425
0.021219130605459213,0.01776578091084957,-0.007219271268695593,-0.039989158511161804,0.0056477440521121025,-0.01568775810301304
0.023564746603369713,0.01795026659965515,-0.0074753062799572945,-0.041946034878492355,0.005994183477014303,-0.015270997770130634
0.023564746603369713,0.01795026659965515,-0.0074753062799572945,-0.041946034878492355,0.005994183477014303,-0.015270997770130634
0.02360561303794384,0.018439918756484985,-0.006619641557335854,-0.04126251861453056,0.006391854025423527,-0.016258327290415764
0.0230749249458313,0.018342752009630203,-0.006419487297534943,-0.041234612464904785,0.005909176077693701,-0.01603582873940468
0.02262020856142044,0.018663179129362106,-0.007011852227151394,-0.04154279828071594,0.005868644919246435,-0.015632735565304756
0.023243092000484467,0.018549209460616112,-0.007151510566473007,-0.04194853454828262,0.0059034256264567375,-0.01587804965674877
0.0238073468208313,0.018711796030402184,-0.007053518667817116,-0.04258844628930092,0.005798602011054754,-0.016559019684791565
0.023970579728484154,0.018796857446432114,-0.006597126834094524,-0.04330843687057495,0.005821677856147289,-0.01711384207010269
0.022974207997322083,0.0187320988625288,-0.007250944152474403,-0.04328908026218414,0.005595639813691378,-0.016743503510951996
0.02290968783199787,0.019083773717284203,-0.007143945898860693,-0.04387104883790016,0.005974612198770046,-0.016300572082400322
0.023643366992473602,0.018781153485178947,-0.006642257794737816,-0.043481502681970596,0.006154640112072229,-0.01654941774904728
0.023857349529862404,0.01888659968972206,-0.006647239904850721,-0.043229617178440094,0.006211038678884506,-0.017140811309218407
0.023523859679698944,0.019021354615688324,-0.007427863776683807,-0.04383116587996483,0.006041446700692177,-0.017018107697367668
0.02397841587662697,0.019067546352744102,-0.007693884428590536,-0.04381769895553589,0.005439856089651585,-0.01713528484106064
0.023734325543045998,0.019031323492527008,-0.007035398855805397,-0.04457617923617363,0.006011603865772486,-0.0168582983314991
0.023850131779909134,0.019477784633636475,-0.007330195512622595,-0.044499993324279785,0.0060929604806005955,-0.017205780372023582
0.0236061941832304,0.018914222717285156,-0.007765165530145168,-0.04416684806346893,0.006322858855128288,-0.01647920161485672
0.024024052545428276,0.018947357311844826,-0.007612200453877449,-0.04413558542728424,0.006196178030222654,-0.01689041219651699
0.024206258356571198,0.019215503707528114,-0.0076912771910429,-0.04437699541449547,0.006304723210632801,-0.01748320460319519
0.024190034717321396,0.019162610173225403,-0.006956834811717272,-0.04549919441342354,0.0059369332157075405,-0.017660222947597504
0.023795422166585922,0.018738841637969017,-0.00811376329511404,-0.04600300267338753,0.0061075142584741116,-0.017702430486679077
0.02393013797700405,0.019459672272205353,-0.007657108828425407,-0.04467612877488136,0.006206295918673277,-0.01761787198483944
0.024131925776600838,0.018924979493021965,-0.007255584932863712,-0.04471162334084511,0.006336056161671877,-0.0173862986266613
0.024228455498814583,0.018909698352217674,-0.007465976756066084,-0.045750319957733154,0.00623660534620285,-0.01798521727323532
0.024287180975079536,0.019427528604865074,-0.007990298792719841,-0.0473598912358284,0.0064447433687746525,-0.017611637711524963
0.024005234241485596,0.019045209512114525,-0.007760284934192896,-0.04839364439249039,0.006585074122995138,-0.017512276768684387
0.02402355708181858,0.01893034391105175,-0.007555009331554174,-0.045391377061605453,0.006229586899280548,-0.017913976684212685
0.02426307462155819,0.019412335008382797,-0.007020675111562014,-0.04665443301200867,0.006169264670461416,-0.018016573041677475
0.024125423282384872,0.01946328580379486,-0.008039121516048908,-0.04735546186566353,0.006557965185493231,-0.01798708550632
0.024125423282384872,0.01946328580379486,-0.008039121516048908,-0.04735546186566353,0.006557965185493231,-0.01798708550632
0.024375537410378456,0.019130559638142586,-0.008362826891243458,-0.046954743564128876,0.007077207788825035,-0.018020497635006905
0.024422109127044678,0.019454101100564003,-0.007184072397649288,-0.04644329845905304,0.006569676101207733,-0.01789514534175396
0.025182045996189117,0.01941837929189205,-0.007268786430358887,-0.04644845426082611,0.00650171609595418,-0.018003253266215324
0.025223124772310257,0.019514184445142746,-0.007747027091681957,-0.046893347054719925,0.006783260963857174,-0.017748132348060608
0.025061553344130516,0.019180044531822205,-0.007553259842097759,-0.04681970551609993,0.0068267653696238995,-0.0178883858025074
0.024089282378554344,0.01931178756058216,-0.007583075203001499,-0.04674810916185379,0.006711496505886316,-0.01822456531226635
0.024948908016085625,0.019502749666571617,-0.00841393694281578,-0.04585244506597519,0.0065333000384271145,-0.018267687410116196
0.025945860892534256,0.019390912726521492,-0.008041533641517162,-0.04653647541999817,0.006929583847522736,-0.018275903537869453
0.026028312742710114,0.019177407026290894,-0.007647535763680935,-0.04776495695114136,0.006982386577874422,-0.018034975975751877
0.025265119969844818,0.01982768066227436,-0.007654106244444847,-0.04587415233254433,0.0072656492702662945,-0.018238097429275513
0.025772009044885635,0.01920034922659397,-0.007967859506607056,-0.045864783227443695,0.006801472045481205,-0.018298795446753502
0.025718068704009056,0.018883442506194115,-0.007896637544035912,-0.046994708478450775,0.006597765721380711,-0.01849033497273922
0.025456445291638374,0.019235868006944656,-0.007550162263214588,-0.048422377556562424,0.00661100260913372,-0.01832067221403122
0.02521505393087864,0.019280854612588882,-0.007090771105140448,-0.047965098172426224,0.006859463639557362,-0.018356280401349068
0.02540808916091919,0.019389573484659195,-0.007895669899880886,-0.04723164066672325,0.00669318251311779,-0.018641510978341103
0.025464439764618874,0.01965852826833725,-0.0075458441860973835,-0.04864417016506195,0.006512701977044344,-0.01836683228611946
0.02591264806687832,0.019976403564214706,-0.007134987041354179,-0.04947340488433838,0.006643793545663357,-0.018468447029590607
0.026008956134319305,0.01976197399199009,-0.007026948966085911,-0.04925759881734848,0.006816563196480274,-0.018669493496418
0.025663431733846664,0.02024446800351143,-0.007693497464060783,-0.048988454043865204,0.007069206330925226,-0.018473446369171143
0.025937775149941444,0.020219970494508743,-0.008050988428294659,-0.049364183098077774,0.006755036301910877,-0.01861218363046646
0.025961004197597504,0.019464099779725075,-0.007566587533801794,-0.04941575229167938,0.007108199875801802,-0.01875488832592964
0.025348162278532982,0.019881663843989372,-0.007719302549958229,-0.04971489682793617,0.0070604984648525715,-0.019208962097764015
0.025390543043613434,0.020497456192970276,-0.007889213971793652,-0.04896051436662674,0.007327022030949593,-0.019594941288232803
0.02569773606956005,0.02026207186281681,-0.007508084177970886,-0.049628086388111115,0.006805292330682278,-0.01940695010125637
0.025884198024868965,0.019920211285352707,-0.007418627850711346,-0.05008087679743767,0.006650654599070549,-0.019946398213505745
0.02584032528102398,0.02076636627316475,-0.007498088292777538,-0.05073050782084465,0.00669182650744915,-0.019470468163490295
0.026320436969399452,0.021063178777694702,-0.008260635659098625,-0.05045688897371292,0.007129326928406954,-0.018725519999861717
0.02622402273118496,0.02086835727095604,-0.007874518632888794,-0.051084090024232864,0.007017984986305237,-0.018192369490861893
0.02648545242846012,0.020250048488378525,-0.007357971277087927,-0.05007519945502281,0.007345637306571007,-0.018819458782672882
0.02648545242846012,0.020250048488378525,-0.007357971277087927,-0.05007519945502281,0.007345637306571007,-0.018819458782672882
0.026686951518058777,0.02069851942360401,-0.0074455165304243565,-0.05133252963423729,0.006861887406557798,-0.01966286264359951
0.02676435559988022,0.020804882049560547,-0.00751442601904273,-0.05098511278629303,0.007371298968791962,-0.019400233402848244
0.02676435559988022,0.020804882049560547,-0.00751442601904273,-0.05098511278629303,0.007371298968791962,-0.019400233402848244
0.026550417765975,0.021472902968525887,-0.006881649140268564,-0.052543364465236664,0.007323057856410742,-0.01966402307152748
0.02607947587966919,0.021165871992707253,-0.008077754639089108,-0.05291514843702316,0.008070364594459534,-0.0201420858502388
0.026242559775710106,0.02067534439265728,-0.0070993611589074135,-0.05039969086647034,0.007630246691405773,-0.019911475479602814
0.026749931275844574,0.021290769800543785,-0.0069849868305027485,-0.05073840171098709,0.00736794900149107,-0.019464878365397453
0.026895804330706596,0.02150435745716095,-0.007220921106636524,-0.052263494580984116,0.007468978874385357,-0.01918140985071659
0.026738714426755905,0.02099629119038582,-0.007658481132239103,-0.05253492668271065,0.007489203009754419,-0.019039351493120193
0.026725715026259422,0.021353088319301605,-0.007337830029428005,-0.04949510097503662,0.007945584133267403,-0.019327137619256973
0.02711145021021366,0.02203308418393135,-0.007271336857229471,-0.04962998628616333,0.007729283068329096,-0.019597021862864494
0.02712937630712986,0.02155509777367115,-0.007310749497264624,-0.05049328878521919,0.007706644479185343,-0.019695186987519264
0.02718626707792282,0.021219806745648384,-0.008031455799937248,-0.050945743918418884,0.007703671231865883,-0.01965990848839283
0.027143431827425957,0.021581461653113365,-0.007528938818722963,-0.05073520541191101,0.007918878458440304,-0.019139626994729042
0.027095941826701164,0.021642042323946953,-0.007372470106929541,-0.05156248062849045,0.007671710103750229,-0.019211165606975555
0.026640694588422775,0.021382834762334824,-0.0075295185670256615,-0.05105622112751007,0.007045113015919924,-0.019187329337000847
0.026899993419647217,0.021657127887010574,-0.0082014761865139,-0.05104298144578934,0.00742294592782855,-0.01921558380126953
0.026935415342450142,0.021791614592075348,-0.00786394439637661,-0.050798628479242325,0.007788634393364191,-0.019197002053260803
0.026784855872392654,0.022161783650517464,-0.007067881524562836,-0.05202995985746384,0.006924905348569155,-0.019594209268689156
0.02712150104343891,0.021806566044688225,-0.007863429374992847,-0.053744975477457047,0.00652420474216342,-0.019375847652554512
0.02741275355219841,0.021679170429706573,-0.00801040604710579,-0.05153999850153923,0.006683500483632088,-0.019467061385512352
0.027851367369294167,0.02231503091752529,-0.007569789886474609,-0.0515468530356884,0.007288526743650436,-0.01974429190158844
0.02693411149084568,0.021703563630580902,-0.007503885310143232,-0.052854567766189575,0.007604442071169615,-0.019742866978049278
0.02720639295876026,0.022877782583236694,-0.007657838985323906,-0.05405523255467415,0.00719417305663228,-0.019802788272500038
0.028002876788377762,0.022342592477798462,-0.008000275120139122,-0.05115429684519768,0.007106324192136526,-0.01984751597046852
0.02763081155717373,0.021891238167881966,-0.007624066900461912,-0.052055612206459045,0.007466426584869623,-0.01986699365079403
0.027915576472878456,0.022358352318406105,-0.007372379768639803,-0.0529693141579628,0.008000406436622143,-0.02014222927391529
0.02868792973458767,0.023651111871004105,-0.007906585931777954,-0.053641196340322495,0.007874635048210621,-0.020387064665555954
0.02795509248971939,0.02363497018814087,-0.007841171696782112,-0.053353697061538696,0.0074489908292889595,-0.019962128251791
0.027766447514295578,0.02212957851588726,-0.00734664173796773,-0.05394989997148514,0.007548252120614052,-0.021275976672768593
0.027766447514295578,0.02212957851588726,-0.00734664173796773,-0.05394989997148514,0.007548252120614052,-0.021275976672768593
0.027643734589219093,0.0227188877761364,-0.008149874396622181,-0.05418277904391289,0.007475733757019043,-0.019815469160676003
0.028506387025117874,0.023558776825666428,-0.00817900151014328,-0.054200876504182816,0.007484619040042162,-0.01963319629430771
0.02899053692817688,0.023792026564478874,-0.0071097020991146564,-0.054630495607852936,0.007571339141577482,-0.02054990641772747
0.02723051980137825,0.02279779687523842,-0.007314900401979685,-0.0534309484064579,0.007715854328125715,-0.020581651479005814
0.029170479625463486,0.022992702201008797,-0.008361319079995155,-0.05488546937704086,0.007758088409900665,-0.02030606009066105
0.028787018731236458,0.024234432727098465,-0.007782301865518093,-0.05561620742082596,0.007491348776966333,-0.0204846803098917
0.02874179556965828,0.023547209799289703,-0.007638564333319664,-0.05544830113649368,0.007410709280520678,-0.02067708969116211
0.028612405061721802,0.023187166079878807,-0.007168704178184271,-0.055355750024318695,0.008507189340889454,-0.020727157592773438
0.029066747054457664,0.022854682058095932,-0.007880885154008865,-0.055493637919425964,0.007941236719489098,-0.02066922001540661
0.029257094487547874,0.02271992526948452,-0.007493774406611919,-0.05554460734128952,0.007793346419930458,-0.020929336547851562
0.02865089476108551,0.022899094969034195,-0.007261413149535656,-0.05574258416891098,0.007790010888129473,-0.021065471693873405
0.0290217287838459,0.02363896556198597,-0.00734498118981719,-0.05437814071774483,0.007690408267080784,-0.020781870931386948
0.02947687916457653,0.023290053009986877,-0.00798040721565485,-0.05592712014913559,0.0076151578687131405,-0.020710844546556473
0.029417311772704124,0.02268359251320362,-0.007428476121276617,-0.05482829362154007,0.007574995048344135,-0.02092205174267292
0.029155941680073738,0.023121973499655724,-0.007185480557382107,-0.053426507860422134,0.007432741578668356,-0.02110639400780201
0.029338784515857697,0.023570755496621132,-0.007348412182182074,-0.054295700043439865,0.007919562049210072,-0.021074604243040085
0.029364103451371193,0.023421047255396843,-0.008421001024544239,-0.05642582103610039,0.007818135432898998,-0.020983051508665085
0.030510878190398216,0.023691868409514427,-0.007712444290518761,-0.05478896573185921,0.007567699067294598,-0.020791728049516678
0.030603593215346336,0.023611264303326607,-0.007466643117368221,-0.05311127379536629,0.007436905987560749,-0.020986419171094894
0.02905927784740925,0.023240335285663605,-0.007616621442139149,-0.05608399957418442,0.007917217910289764,-0.02163511887192726
0.02968626655638218,0.02374449372291565,-0.00838299561291933,-0.056853312999010086,0.007951672188937664,-0.021752262488007545
0.030691731721162796,0.024224966764450073,-0.007793803233653307,-0.05626634880900383,0.007811425719410181,-0.021183231845498085
0.029867399483919144,0.023783084005117416,-0.007051767781376839,-0.05545108765363693,0.007612854707986116,-0.020785478875041008
0.029680456966161728,0.023829443380236626,-0.006570083554834127,-0.05539148300886154,0.0080467090010643,-0.020564697682857513
0.030720267444849014,0.023610025644302368,-0.007786134723573923,-0.057826410979032516,0.008000269532203674,-0.021360283717513084
0.030720267444849014,0.023610025644302368,-0.007786134723573923,-0.057826410979032516,0.008000269532203674,-0.021360283717513084
0.030720267444849014,0.023610025644302368,-0.007786134723573923,-0.057826410979032516,0.008000269532203674,-0.021360283717513084
0.030390271916985512,0.024538755416870117,-0.007951711304485798,-0.0570339635014534,0.007993203587830067,-0.021466290578246117
0.030390271916985512,0.024538755416870117,-0.007951711304485798,-0.0570339635014534,0.007993203587830067,-0.021466290578246117
0.03082478605210781,0.024383313953876495,-0.007825707085430622,-0.05991402640938759,0.007882916368544102,-0.022235754877328873
0.03050706908106804,0.02432440221309662,-0.007552331779152155,-0.056989263743162155,0.00858258455991745,-0.021909870207309723
0.02999124489724636,0.02426748536527157,-0.008011792786419392,-0.05729715898633003,0.00845746323466301,-0.02140098065137863
0.030833277851343155,0.024314701557159424,-0.008234193548560143,-0.05818614736199379,0.00872675608843565,-0.021151315420866013
0.030660787597298622,0.024985790252685547,-0.007604783866554499,-0.06028328463435173,0.008874020539224148,-0.020754452794790268
0.031312741339206696,0.025021642446517944,-0.00802613701671362,-0.059739913791418076,0.008231188170611858,-0.020850790664553642
0.03097791038453579,0.025026293471455574,-0.008252646774053574,-0.059404853731393814,0.008150089532136917,-0.02147446572780609
0.0309867262840271,0.025253664702177048,-0.008369159884750843,-0.05943342670798302,0.008151957765221596,-0.022375352680683136
0.03081565350294113,0.02495366521179676,-0.007783141452819109,-0.05941656231880188,0.008027350530028343,-0.022274766117334366
0.031037919223308563,0.02507968433201313,-0.008890001103281975,-0.05935081094503403,0.008091944269835949,-0.0221700519323349
0.031230971217155457,0.025290347635746002,-0.00951185543090105,-0.0598202608525753,0.008218128234148026,-0.022226257249712944
0.03149127587676048,0.025322390720248222,-0.008931165561079979,-0.05941580608487129,0.008544753305613995,-0.022262781858444214
0.031382035464048386,0.025343885645270348,-0.008409207686781883,-0.05816993489861488,0.008304739370942116,-0.022569406777620316
0.031064627692103386,0.02535351738333702,-0.009148350916802883,-0.058025065809488297,0.00822902750223875,-0.022658655419945717
0.031245937570929527,0.02559547685086727,-0.008570707403123379,-0.05816883593797684,0.008050218224525452,-0.02263708785176277
0.03130444139242172,0.02564745582640171,-0.008300387300550938,-0.05788285657763481,0.008142565377056599,-0.02272762730717659
0.030083123594522476,0.02545134350657463,-0.009680009447038174,-0.05719056352972984,0.00825254525989294,-0.022859157994389534
0.031844619661569595,0.02571745030581951,-0.008886465802788734,-0.05841711908578873,0.008099238388240337,-0.022822370752692223
0.032007332891225815,0.026253730058670044,-0.008676079101860523,-0.058522649109363556,0.008753245696425438,-0.022660434246063232
0.032007332891225815,0.026253730058670044,-0.008676079101860523,-0.058522649109363556,0.008753245696425438,-0.022660434246063232
0.03156908601522446,0.026136307045817375,-0.009247984737157822,-0.060201749205589294,0.009026195853948593,-0.02277659811079502
0.03156908601522446,0.026136307045817375,-0.009247984737157822,-0.060201749205589294,0.009026195853948593,-0.02277659811079502
0.031044144183397293,0.025546064600348473,-0.008465100079774857,-0.05787057802081108,0.008421909995377064,-0.022981049492955208
0.031044144183397293,0.025546064600348473,-0.008465100079774857,-0.05787057802081108,0.008421909995377064,-0.022981049492955208
0.03156181797385216,0.02673482894897461,-0.009028224274516106,-0.06040296331048012,0.008650816045701504,-0.022912079468369484
0.031496427953243256,0.026358239352703094,-0.008266916498541832,-0.05862463638186455,0.008859554305672646,-0.023231495171785355
0.031614821404218674,0.026720693334937096,-0.0089640524238348,-0.060271646827459335,0.008446721360087395,-0.023200757801532745
0.0315130352973938,0.026650387793779373,-0.00898977555334568,-0.06049777567386627,0.00807001069188118,-0.023508373647928238
0.031118303537368774,0.026310844346880913,-0.008590111508965492,-0.06045196205377579,0.008605903014540672,-0.02337248995900154
0.031475625932216644,0.02652130089700222,-0.008794785477221012,-0.05976511538028717,0.00838310457766056,-0.023411132395267487
0.03251495584845543,0.02560461312532425,-0.009278329089283943,-0.060979634523391724,0.008265835233032703,-0.02379670925438404
0.03216511011123657,0.026082629337906837,-0.009088953956961632,-0.06342924386262894,0.008327853865921497,-0.02418043650686741
0.030583631247282028,0.02705640159547329,-0.008312435820698738,-0.060405731201171875,0.008737165480852127,-0.02415536157786846
0.030248304829001427,0.02665085531771183,-0.008769650012254715,-0.060783207416534424,0.008453695103526115,-0.02338271588087082
0.03183819726109505,0.026900598779320717,-0.008768011815845966,-0.06350170075893402,0.008141499012708664,-0.022299017757177353
0.03136662393808365,0.0269247405230999,-0.008799531497061253,-0.06270123273134232,0.00861307978630066,-0.023028114810585976
0.031990356743335724,0.026832768693566322,-0.009440077468752861,-0.06076100841164589,0.008831413462758064,-0.024432167410850525
0.033020589500665665,0.02736872434616089,-0.008679766207933426,-0.06252434104681015,0.008676049299538136,-0.0241957176476717
0.032564908266067505,0.02673524059355259,-0.008518051356077194,-0.06246086210012436,0.009274125099182129,-0.02345866896212101
0.031172337010502815,0.026952169835567474,-0.008901202119886875,-0.06216882914304733,0.00873725488781929,-0.024177605286240578
0.03130175918340683,0.02678155153989792,-0.009331198409199715,-0.06198079511523247,0.00843268446624279,-0.02509813942015171
0.03267825022339821,0.026752894744277,-0.009052135050296783,-0.061776302754879,0.009023122489452362,-0.024305187165737152
0.03233959525823593,0.026779672130942345,-0.008508139289915562,-0.06145353242754936,0.008862454444169998,-0.023318149149417877
0.03231846168637276,0.027081577107310295,-0.00903667788952589,-0.06201428547501564,0.008700242266058922,-0.023610293865203857
0.03211964666843414,0.026398921385407448,-0.00878740195184946,-0.06173365190625191,0.008613811805844307,-0.02415602281689644
0.03255055099725723,0.026939397677779198,-0.00864283088594675,-0.06134631484746933,0.009117956273257732,-0.02465401589870453
0.032794974744319916,0.02716256119310856,-0.00930316187441349,-0.061841171234846115,0.00924267154186964,-0.024065952748060226
0.032794974744319916,0.02716256119310856,-0.00930316187441349,-0.061841171234846115,0.00924267154186964,-0.024065952748060226
0.032857879996299744,0.026463013142347336,-0.008955906145274639,-0.06210286542773247,0.008454062044620514,-0.02382776327431202
0.032824911177158356,0.026792703196406364,-0.009004386141896248,-0.06220778822898865,0.00861471239477396,-0.02423144318163395
0.03247055038809776,0.027954045683145523,-0.009438659064471722,-0.06239661946892738,0.009088970720767975,-0.023970089852809906
0.03292025998234749,0.02699253335595131,-0.009367458522319794,-0.06325941532850266,0.009037455543875694,-0.024494199082255363
0.03232240304350853,0.02640405297279358,-0.008775010704994202,-0.06288641691207886,0.008973869495093822,-0.02441839501261711
0.03406592085957527,0.027183370664715767,-0.009305686689913273,-0.06302618235349655,0.009243247099220753,-0.024359414353966713
0.03395502269268036,0.02763116918504238,-0.009379520080983639,-0.06448713690042496,0.008947818540036678,-0.024360276758670807
0.032549772411584854,0.026955561712384224,-0.008593953214585781,-0.06221780180931091,0.009639792144298553,-0.024725422263145447
0.03260033205151558,0.026859797537326813,-0.009266752749681473,-0.06372618675231934,0.009279116988182068,-0.02485979162156582
0.03376453369855881,0.028272876515984535,-0.008645626716315746,-0.06612087041139603,0.00937665719538927,-0.02463698200881481
0.03320423141121864,0.027277743443846703,-0.008621424436569214,-0.06559623777866364,0.009620466269552708,-0.02459801360964775
0.03445260226726532,0.02668897435069084,-0.009277105331420898,-0.06434067338705063,0.009358394891023636,-0.024759184569120407
0.03488115221261978,0.026399249210953712,-0.009260167367756367,-0.06505831331014633,0.009174773469567299,-0.024847544729709625
0.03361798822879791,0.027097754180431366,-0.008796990849077702,-0.06533616036176682,0.009131873026490211,-0.0249050110578537
0.032648999243974686,0.027338048443198204,-0.008451489731669426,-0.0640861839056015,0.009322253987193108,-0.0247814804315567
0.03427717834711075,0.027330908924341202,-0.009694352746009827,-0.06609899550676346,0.009063689969480038,-0.025148384273052216
0.03476015850901604,0.027611441910266876,-0.00916293729096651,-0.06556946039199829,0.009176409803330898,-0.024723343551158905
0.03472442924976349,0.02712840773165226,-0.008861844427883625,-0.06454375386238098,0.009490936994552612,-0.02443692460656166
0.034156639128923416,0.02726186439394951,-0.009404117241501808,-0.06477628648281097,0.009327203035354614,-0.024740595370531082
0.03418242931365967,0.02749563194811344,-0.009656988084316254,-0.06657381355762482,0.008952640928328037,-0.02455027960240841
0.03443055972456932,0.02744218148291111,-0.008874727413058281,-0.06383971869945526,0.009851010516285896,-0.024719152599573135
0.034808266907930374,0.027658231556415558,-0.009867191314697266,-0.06430477648973465,0.009236758574843407,-0.024570172652602196
0.035293255001306534,0.027893979102373123,-0.009530514478683472,-0.06497713923454285,0.009028464555740356,-0.024693701416254044
0.034702811390161514,0.0279572531580925,-0.009316680952906609,-0.06408663094043732,0.008733849041163921,-0.024790342897176743
0.034809358417987823,0.02798624336719513,-0.009112383238971233,-0.06524059176445007,0.00901118479669094,-0.025024792179465294
0.03465370088815689,0.027876559644937515,-0.00974372960627079,-0.06561288982629776,0.008883066475391388,-0.02482074312865734
0.03530004248023033,0.02859070897102356,-0.009095177054405212,-0.06509052217006683,0.009251285344362259,-0.024842219427227974
0.035522304475307465,0.028550369665026665,-0.009676679968833923,-0.06542189419269562,0.009449842385947704,-0.024830225855112076
0.03513273969292641,0.02831384912133217,-0.009518161416053772,-0.06557267159223557,0.009191099554300308,-0.02453192137181759
0.03520600125193596,0.02847110666334629,-0.008954508230090141,-0.06523290276527405,0.00878883432596922,-0.024557920172810555
0.03520600125193596,0.02847110666334629,-0.008954508230090141,-0.06523290276527405,0.00878883432596922,-0.024557920172810555
0.035684987902641296,0.02893109992146492,-0.00890649389475584,-0.06548859924077988,0.008720445446670055,-0.02473563700914383
0.035051025450229645,0.029728686437010765,-0.009055787697434425,-0.06685800850391388,0.009565230458974838,-0.025506123900413513
0.03518947213888168,0.029495494440197945,-0.008922216482460499,-0.06689219176769257,0.009328790940344334,-0.025254856795072556
0.035288602113723755,0.02920648641884327,-0.009286696091294289,-0.06770874559879303,0.009471271187067032,-0.025226281955838203
