davideferrari95/blind_handover_controller/data/Test 296 - [2024-02-08 -- 14-02-19]/joint_states_data.csv
shoulder_pan_joint,shoulder_lift_joint,elbow_joint,wrist_1_joint,wrist_2_joint,wrist_3_joint
0.004856104496866465,0.00887104868888855,-0.01120748370885849,0.0036735180765390396,0.00021997744624968618,0.00610006507486105
0.005035554990172386,0.008895104750990868,-0.010712134651839733,0.0036227325908839703,0.00021350364841055125,0.005905955098569393
0.005035554990172386,0.008895104750990868,-0.010712134651839733,0.0036227325908839703,0.00021350364841055125,0.005905955098569393
0.00493016978725791,0.010006913915276527,-0.01120426133275032,0.0034370182547718287,0.00022841004829388112,0.006007945165038109
0.004783089272677898,0.00943765603005886,-0.01089219655841589,0.0031440695747733116,0.00022808440553490072,0.005836647469550371
0.005117284134030342,0.009335179813206196,-0.010627896524965763,0.0031952899880707264,0.00022151804296299815,0.005971471779048443
0.005091169849038124,0.009177204221487045,-0.010811544954776764,0.003250473877415061,0.0003233667812310159,0.005318627692759037
0.005025493446737528,0.00961566437035799,-0.010607229545712471,0.003051692619919777,0.00033455746597610414,0.005216412246227264
0.005224442575126886,0.00910355057567358,-0.011155076324939728,0.0031357579864561558,0.00031354502425529063,0.0051188999786973
0.005216408520936966,0.00929216668009758,-0.010889953002333641,0.003175817197188735,0.0003229173016734421,0.005537152290344238
0.004967298358678818,0.008921308442950249,-0.011207293719053268,0.0035084509290754795,0.00031083187786862254,0.005621504038572311
0.00485679367557168,0.008259081281721592,-0.011021630838513374,0.0033048586919903755,0.00029431006987579167,0.005134225357323885
0.005296336021274328,0.00892050750553608,-0.010868039913475513,0.003483331063762307,0.00027911996585316956,0.004846586380153894
0.005571711342781782,0.00875050388276577,-0.011065001599490643,0.003192832227796316,0.00030369972228072584,0.004818198271095753
0.00512823136523366,0.00897764042019844,-0.010981516912579536,0.0030764692928642035,0.0002947360335383564,0.004869427531957626
0.00512823136523366,0.00897764042019844,-0.010981516912579536,0.0030764692928642035,0.0002947360335383564,0.004869427531957626
0.005092045292258263,0.0093096774071455,-0.011814506724476814,0.0029661839362233877,0.0002818892535287887,0.005113397724926472
0.005047544836997986,0.009311774745583534,-0.011037752963602543,0.0028804622124880552,0.000305752590065822,0.0050655389204621315
0.005015951581299305,0.008898679167032242,-0.01063842698931694,0.0028202603571116924,0.00029554447974078357,0.00517268106341362
0.00539651233702898,0.008875732310116291,-0.01124846562743187,0.0029950160533189774,0.0002840363886207342,0.00498619582504034
0.005272566806524992,0.008492295630276203,-0.010997479781508446,0.003275797702372074,0.0002919234975706786,0.005309997126460075
0.005018212832510471,0.008425549603998661,-0.011154880747199059,0.0034941998310387135,0.0002912025956902653,0.005337032955139875
0.005196239799261093,0.00841950997710228,-0.011856489814817905,0.003226417815312743,0.0002746148675214499,0.005134618375450373
0.0049270326271653175,0.008860988542437553,-0.011306250467896461,0.0030788264703005552,0.0002841081586666405,0.005075968336313963
0.005010006949305534,0.008349982090294361,-0.011505957692861557,0.0028559002093970776,0.0002920303086284548,0.005020040087401867
0.005460868589580059,0.007927266880869865,-0.011259065009653568,0.002837202977389097,0.00027848902391269803,0.0047987038269639015
0.005162798333913088,0.008342048153281212,-0.011141963303089142,0.002852666424587369,0.0002649214584380388,0.0053369575180113316
0.005262876395136118,0.008459145203232765,-0.011382830329239368,0.0030391416512429714,0.0002525360032450408,0.005459608510136604
0.005150162149220705,0.008400526829063892,-0.011083624325692654,0.0031769282650202513,0.00027094956021755934,0.005696087144315243
0.005018935538828373,0.007979568094015121,-0.01148947048932314,0.0029179269913583994,0.0002687337691895664,0.00527980737388134
0.005304944235831499,0.008706791326403618,-0.011854098178446293,0.003008704399690032,0.00025832370738498867,0.00493926927447319
0.005244756583124399,0.007970583625137806,-0.011314471252262592,0.003035204252228141,0.0002481853007338941,0.005136226769536734
0.005254356190562248,0.008056122809648514,-0.0115414559841156,0.003084405791014433,0.00023877929197624326,0.005174952559173107
0.004972721450030804,0.008443476632237434,-0.011007551103830338,0.002987933112308383,0.0002461572003085166,0.00582147017121315
0.004739218857139349,0.008702950552105904,-0.0110639538615942,0.0029617224354296923,0.00025256574735976756,0.005415620282292366
0.005038208328187466,0.00777838472276926,-0.011370446532964706,0.002919975435361266,0.0002449554158374667,0.004784700460731983
0.005131894256919622,0.008040070533752441,-0.011408036574721336,0.0029082929249852896,0.00023695689742453396,0.004886781796813011
0.0053987158462405205,0.008022931404411793,-0.011935621500015259,0.002932074246928096,0.00022245287254918367,0.005235499702394009
0.004991528578102589,0.007936807349324226,-0.012035856023430824,0.0032475260086357594,0.000232926759053953,0.005282116588205099
0.005153920501470566,0.007928979583084583,-0.011746135540306568,0.0033875780645757914,0.0002228285011369735,0.005090523976832628
0.005152616649866104,0.008658775128424168,-0.011417868547141552,0.003608232131227851,0.00021240230125840753,0.004814586602151394
0.005486235022544861,0.008502868935465813,-0.0122441491112113,0.0036592925898730755,0.00022265783627517521,0.004933786112815142
0.005523288622498512,0.007922565564513206,-0.011332197114825249,0.003727641422301531,0.00023154505470301956,0.0049783894792199135
0.005297872703522444,0.008223175071179867,-0.011443343944847584,0.0033827105071395636,0.00022317863476928324,0.005333255976438522
0.00531285535544157,0.008783768862485886,-0.011460847221314907,0.0031111871358007193,0.00021439572446979582,0.005772667471319437
0.00531285535544157,0.008783768862485886,-0.011460847221314907,0.0031111871358007193,0.00021439572446979582,0.005772667471319437
0.005024616606533527,0.00856295507401228,-0.010949984192848206,0.002888138871639967,0.00020621181465685368,0.005519056227058172
0.004925600253045559,0.007849812507629395,-0.011786824092268944,0.002960041631013155,0.00022311224893201143,0.005548834800720215
0.00577352661639452,0.008306516334414482,-0.011053250171244144,0.0033304444514214993,0.00022294538212008774,0.005106284283101559
0.005461875814944506,0.00879060011357069,-0.011133106425404549,0.0034023842308670282,0.00021581260079983622,0.005172396544367075
0.005387198645621538,0.008632930926978588,-0.010434376075863838,0.003516867058351636,0.0002086958847939968,0.005230253096669912
0.005322644021362066,0.008163956925272942,-0.011732794344425201,0.003621933748945594,0.00020200545259285718,0.0051977504044771194
0.005508620757609606,0.008487370796501637,-0.01185834500938654,0.0033092775847762823,0.00019572900782804936,0.00519028352573514
0.005317526403814554,0.008600403554737568,-0.011054426431655884,0.003121874528005719,0.0001898307673400268,0.005121340975165367
0.005812122020870447,0.008630000986158848,-0.01115838810801506,0.003143250709399581,0.000184277756488882,0.005179059226065874
0.0057346029207110405,0.008402535691857338,-0.011198592372238636,0.0032988479360938072,0.00020289832900743932,0.005394315347075462
0.0056708506308496,0.008411205373704433,-0.010835591703653336,0.0031931509729474783,0.00019885013171005994,0.00518671702593565
0.005223588552325964,0.008377972058951855,-0.01188528910279274,0.0031925339717417955,0.00019360466103535146,0.0051954654045403
0.005522874183952808,0.00847917515784502,-0.011795176193118095,0.003059911774471402,0.00018854171503335238,0.00501256762072444
0.005857700016349554,0.008679751306772232,-0.01079832948744297,0.0029143805149942636,0.00018373022612649947,0.0051544480957090855
0.005923123564571142,0.008336917497217655,-0.01149109099060297,0.0030615106225013733,0.0001791582617443055,0.005027072969824076
0.005609295796602964,0.008287746459245682,-0.011498579755425453,0.0033019448164850473,0.00017480847600381821,0.005171101074665785
0.005011414643377066,0.008540602400898933,-0.011484124697744846,0.003218781901523471,0.0001864856167230755,0.005476478487253189
0.004724316764622927,0.008897162042558193,-0.011742725968360901,0.0030692871659994125,0.0001814417337300256,0.005287742707878351
0.005288703832775354,0.00816887803375721,-0.011966775171458721,0.002920902334153652,0.0001680539280641824,0.004907415248453617
0.005445058457553387,0.008584600873291492,-0.011434413492679596,0.0028541097417473793,0.00016200411482714117,0.005341777577996254
0.005004150327295065,0.008562623523175716,-0.011576790362596512,0.0028015971183776855,0.0001563735568197444,0.005592846777290106
0.005246562417596579,0.008609880693256855,-0.011360984295606613,0.003201526589691639,0.00015112121764104813,0.0058017391711473465
0.005147296003997326,0.00836221780627966,-0.01040944829583168,0.003617699258029461,0.00014621089212596416,0.005314221605658531
0.005453524645417929,0.008351247757673264,-0.011044316925108433,0.003728082636371255,0.00014160916907712817,0.005020170006901026
0.005589286796748638,0.008640033192932606,-0.011869014240801334,0.0033339622896164656,0.00013728855992667377,0.005045721307396889
0.005180652253329754,0.008674551732838154,-0.011513524688780308,0.00326793291606009,0.00013322367158252746,0.005162524525076151
0.005180652253329754,0.008674551732838154,-0.011513524688780308,0.00326793291606009,0.00013322367158252746,0.005162524525076151
0.005074839107692242,0.008728774264454842,-0.011698461137712002,0.003290283726528287,0.00015353129128925502,0.005601732060313225
0.0049334424547851086,0.008721143007278442,-0.010610806755721569,0.003563008038327098,0.00015081714082043618,0.005913818720728159
0.004867367912083864,0.008463935926556587,-0.011018987745046616,0.003392894985154271,0.00014681933680549264,0.005387557670474052
0.0052347672171890736,0.008619816042482853,-0.011710050515830517,0.0035701855085790157,0.00014293973799794912,0.004941960796713829
0.005049222148954868,0.008162976242601871,-0.011331413872539997,0.0033080873545259237,0.00013925370876677334,0.005536198616027832
0.005800779443234205,0.007725547067821026,-0.011581159196794033,0.0031703279819339514,0.00013575295452028513,0.005788542330265045
0.005390654783695936,0.008176017552614212,-0.010427434928715229,0.0030887830071151257,0.00013242351997178048,0.005432229023426771
0.005060937255620956,0.008544011041522026,-0.010378029197454453,0.003133694641292095,0.0001292538217967376,0.005445711314678192
0.005659245420247316,0.00850040651857853,-0.011035936884582043,0.0031205876730382442,0.00014450479648075998,0.005085207521915436
0.005385335069149733,0.008431628346443176,-0.010757292620837688,0.0030119630973786116,0.00014372607984114438,0.005392758175730705
0.00525962607935071,0.008648080751299858,-0.010398144833743572,0.0028065750375390053,0.00014068101882003248,0.005674715153872967
0.005060212220996618,0.008467948995530605,-0.010602077469229698,0.002911739982664585,0.00013761872833129019,0.006245408207178116
0.005213908851146698,0.008149292320013046,-0.010343929752707481,0.0029405513778328896,0.00013467736425809562,0.006369674578309059
0.005318866576999426,0.008453259244561195,-0.0104654086753726,0.002971244975924492,0.0001318585273111239,0.005560851190239191
0.005292487796396017,0.008456459268927574,-0.010459989309310913,0.0030432685744017363,0.00012915549450553954,0.005012087989598513
0.00576386321336031,0.008066142909228802,-0.009954020380973816,0.0031332175713032484,0.00012656064063776284,0.0052399905398488045
0.00526863569393754,0.00802564062178135,-0.010955420322716236,0.0032336425501853228,0.0001240681012859568,0.00525157805532217
0.0054984791204333305,0.008511839434504509,-0.010672552511096,0.003002224490046501,0.000121671924716793,0.005560851190239191
0.005986484698951244,0.00770841259509325,-0.010971775278449059,0.002869692863896489,0.00013276870595291257,0.0051943776197731495
0.005585579201579094,0.00790474284440279,-0.010200739838182926,0.00291744084097445,0.00013136547931935638,0.005124973598867655
0.005585579201579094,0.00790474284440279,-0.010200739838182926,0.00291744084097445,0.00013136547931935638,0.005124973598867655
0.005431045312434435,0.00841288361698389,-0.010030512697994709,0.003106802934780717,0.0001290769432671368,0.00514198886230588
0.005692303646355867,0.008294729515910149,-0.010655386373400688,0.002802526578307152,0.00012680796498898417,0.005812050309032202
0.005580971948802471,0.007823553867638111,-0.010349683463573456,0.0026921015232801437,0.00012461349251680076,0.006188514176756144
0.005772373639047146,0.008301276713609695,-0.011237556114792824,0.0027843350544571877,0.00012249351129867136,0.0058960444293916225
0.005718238186091185,0.008424990810453892,-0.010504588484764099,0.003061579307541251,0.00012044433242408559,0.005342025775462389
0.005632353946566582,0.008206796832382679,-0.010363282635807991,0.003091261489316821,0.00011846279085148126,0.005285695195198059
0.006051308009773493,0.008383097127079964,-0.010237048380076885,0.0034934007562696934,0.00011654521222226322,0.005195076111704111
0.005415930412709713,0.008617706596851349,-0.010042773559689522,0.0033220313489437103,0.00011468864977359772,0.005836988799273968
0.00544037064537406,0.00813234318047762,-0.010564632713794708,0.003106548450887203,0.00011289042595308274,0.005935580004006624
0.005921361036598682,0.007804755121469498,-0.011464088223874569,0.002870297059416771,0.00011114773951703683,0.005962914787232876
0.006469691172242165,0.008069541305303574,-0.010383847169578075,0.002808507764711976,0.00010945802932837978,0.0055722519755363464
0.005772202275693417,0.0088660242035985,-0.010002758353948593,0.002838499378412962,0.00010781901073642075,0.005322716664522886
0.005862398538738489,0.00828630942851305,-0.010943103581666946,0.0027820852119475603,0.00010158527584280819,0.005130489356815815
0.0055107674561440945,0.008125163614749908,-0.01028717402368784,0.002822380280122161,9.878336277324706e-05,0.005705880466848612
0.005928175989538431,0.009143296629190445,-0.010092165321111679,0.002892229240387678,9.662477532401681e-05,0.005853213369846344
0.006407259497791529,0.008228611201047897,-0.010599585250020027,0.0032997869420796633,9.459124703425914e-05,0.005608174949884415
0.005741402041167021,0.00792374461889267,-0.01068841852247715,0.0029106074944138527,9.264372056350112e-05,0.005165552720427513
0.005878951866179705,0.007961463183164597,-0.011559953913092613,0.0028825229965150356,9.077481081476435e-05,0.0057599605061113834
0.005343534518033266,0.008632910437881947,-0.010476461611688137,0.0028115669265389442,8.897987572709098e-05,0.0059510753490030766
0.006044931709766388,0.008546254597604275,-0.009860256686806679,0.002721260068938136,8.725453517399728e-05,0.006139441393315792
0.005699261091649532,0.007940754294395447,-0.010855510830879211,0.0027177613228559494,8.559483103454113e-05,0.005764109082520008
0.005699261091649532,0.007940754294395447,-0.010855510830879211,0.0027177613228559494,8.559483103454113e-05,0.005764109082520008
0.005851763766258955,0.008364835754036903,-0.009940076619386673,0.0031448944937437773,8.245795470429584e-05,0.0051022483967244625
0.005851763766258955,0.008364835754036903,-0.009940076619386673,0.0031448944937437773,8.245795470429584e-05,0.0051022483967244625
0.0064776865765452385,0.00808192603290081,-0.01072236243635416,0.0033717453479766846,7.954280590638518e-05,0.005510624032467604
0.006508619524538517,0.008447633124887943,-0.009950857609510422,0.003545524086803198,7.816321158315986e-05,0.005787564907222986
0.006169644184410572,0.008279284462332726,-0.01065614353865385,0.003407347947359085,7.682687282795087e-05,0.005658275447785854
0.006156053859740496,0.008296105079352856,-0.010571615770459175,0.0033165649510920048,7.553718751296401e-05,0.005508843809366226
0.005746349226683378,0.007853400893509388,-0.010525444522500038,0.002975050825625658,7.429009565385059e-05,0.0052840495482087135
0.006266341544687748,0.008099538274109364,-0.01061965525150299,0.0030435004737228155,7.308358181035146e-05,0.005716206040233374
0.0066702766343951225,0.008098974823951721,-0.010177946649491787,0.0031275106593966484,7.191601616796106e-05,0.005729286000132561
0.006370427552610636,0.007618453819304705,-0.010571613907814026,0.0033462755382061005,7.078648923197761e-05,0.005655215587466955
0.006254260428249836,0.008190853521227837,-0.01086598914116621,0.003199131228029728,8.270161924883723e-05,0.005173436366021633
0.006263550370931625,0.00816051010042429,-0.010407201945781708,0.0030773889739066362,8.229014929383993e-05,0.005703851114958525
0.0068627833388745785,0.007611991371959448,-0.010967880487442017,0.00314715807326138,8.111006900435314e-05,0.0055573685094714165
0.0063177309930324554,0.007899063639342785,-0.010400439612567425,0.0032566015142947435,7.991341408342123e-05,0.005368852522224188
0.006049209274351597,0.008228002116084099,-0.011074223555624485,0.0031589437276124954,7.874950097175315e-05,0.005564369261264801
0.005845423322170973,0.008198944851756096,-0.01133363414555788,0.0030570351518690586,7.761645974824205e-05,0.00556890619918704
0.006099920254200697,0.007866243831813335,-0.010210917331278324,0.002933969022706151,7.651617488591e-05,0.005542798433452845
0.006591699551790953,0.008283082395792007,-0.010432968847453594,0.002919979626312852,7.544903928646818e-05,0.005805945489555597
0.006306353956460953,0.007889590226113796,-0.010973806492984295,0.0030163165647536516,7.440913032041863e-05,0.0058226571418344975
0.006434950977563858,0.007623913232237101,-0.010067402385175228,0.0032025794498622417,7.339810690609738e-05,0.005486810579895973
0.005884432699531317,0.007439493667334318,-0.0105579299852252,0.003133495571091771,7.241247658384964e-05,0.0055576516315341
0.00590191874653101,0.007644501514732838,-0.010821112431585789,0.0034063311759382486,7.145560812205076e-05,0.005472459830343723
0.006583681330084801,0.007979859597980976,-0.010328358970582485,0.0031888815574347973,7.05224956618622e-05,0.005719438660889864
0.006537665147334337,0.007486430928111076,-0.009834066033363342,0.0033009541220963,6.961335748201236e-05,0.006123779807239771
0.006131074391305447,0.008022716268897057,-0.010425840504467487,0.0032797176390886307,6.872704398119822e-05,0.005682334303855896
0.006241707131266594,0.008502373471856117,-0.010862139984965324,0.0031549192499369383,6.786370795452967e-05,0.005788587033748627
0.006808843929320574,0.00798057671636343,-0.010889959521591663,0.002923649502918124,6.702141399728134e-05,0.005500494036823511
0.0067999097518622875,0.007660438306629658,-0.010611146688461304,0.0026852998416870832,6.619979831157252e-05,0.005714625585824251
0.007091552950441837,0.007820100523531437,-0.010439438745379448,0.0028792819939553738,6.539811874972656e-05,0.005751808639615774
0.007091552950441837,0.007820100523531437,-0.010439438745379448,0.0028792819939553738,6.539811874972656e-05,0.005751808639615774
0.006450740620493889,0.007127430289983749,-0.010571949183940887,0.003080932889133692,6.385154847521335e-05,0.005530713591724634
0.0070756482891738415,0.007214555516839027,-0.011072230525314808,0.0032014937605708838,7.292772352229804e-05,0.005544348619878292
0.006981757469475269,0.007463371846824884,-0.010642008855938911,0.003231634618714452,7.272715447470546e-05,0.005560217425227165
0.006308946758508682,0.008339748717844486,-0.009668275713920593,0.0032617596443742514,7.193731289589778e-05,0.006073273252695799
0.0062011172994971275,0.00797619204968214,-0.010276599787175655,0.003337043570354581,7.112901221262291e-05,0.005677723791450262
0.006724325008690357,0.0070073590613901615,-0.010665792971849442,0.003323654644191265,7.033512520138174e-05,0.005823585670441389
0.006644621957093477,0.007377198431640863,-0.011213952675461769,0.003134992439299822,6.955861317692325e-05,0.005622949916869402
0.006613174919039011,0.007645825855433941,-0.010731162503361702,0.003036519279703498,4.5416804823616985e-06,0.005363156087696552
0.006604285910725594,0.007391207851469517,-0.010458134114742279,0.003266064217314124,2.9653926958417287e-07,0.005495788995176554
0.006620949599891901,0.007369275204837322,-0.010273243300616741,0.0030796590726822615,1.9361895198244383e-08,0.006007779855281115
0.006561947520822287,0.007608998566865921,-0.010669758543372154,0.0032932148315012455,1.2641934166168767e-09,0.005707807373255491
0.006922928616404533,0.007924119010567665,-0.00998570304363966,0.0033090508077293634,8.2542798984786e-11,0.005822618957608938
0.006694339215755463,0.006916860118508339,-0.010465591214597225,0.0032041645608842373,5.389454507676028e-12,0.005425722803920507
0.006716965232044458,0.006924483925104141,-0.010770471766591072,0.00331204105168581,3.518928583853137e-13,0.005668577738106251
0.006715564988553524,0.006893321871757507,-0.01016114093363285,0.0031873625703155994,2.297608548459517e-14,0.0058211698196828365
0.00676735769957304,0.007336581591516733,-0.01099594309926033,0.003418671665713191,1.500174229530579e-15,0.005906932521611452
0.006619354244321585,0.007326365914195776,-0.010815411806106567,0.0032998849637806416,9.795066502736068e-17,0.006380893290042877
0.00650285929441452,0.006959742866456509,-0.010438518598675728,0.003282726975157857,6.395478841261436e-18,0.006098000332713127
0.006401040591299534,0.0069237276911735535,-0.011010665446519852,0.0032099850941449404,4.1757904873842696e-19,0.006038048304617405
0.0071305278688669205,0.007297759409993887,-0.010089712217450142,0.003502829931676388,2.726492635255909e-20,0.006108842324465513
0.006689451634883881,0.007588052656501532,-0.010162531398236752,0.0033825947903096676,1.780204961519921e-21,0.006744900718331337
0.006941373459994793,0.006953048054128885,-0.010723568499088287,0.003428821451961994,1.162346659035793e-22,0.0062118577770888805
0.006483998615294695,0.007202677894383669,-0.010507645085453987,0.0031969540286809206,7.589293925524825e-24,0.00526910275220871
0.006797368172556162,0.007570039480924606,-0.010814640671014786,0.003456077305600047,4.955266260962652e-25,0.005679567344486713
0.007488818373531103,0.007516523823142052,-0.010660842061042786,0.0032316658180207014,3.23543473297104e-26,0.006665417458862066
0.006437440402805805,0.006893259938806295,-0.010341850109398365,0.0036696100141853094,1.3793166001723824e-28,0.006701463367789984
0.00654766708612442,0.006800094619393349,-0.010642987675964832,0.003627487225458026,9.005952355774063e-30,0.006330249365419149
0.006854134611785412,0.007230992428958416,-0.010105499066412449,0.0034950736444443464,5.880244510186157e-31,0.00607921602204442
0.006854134611785412,0.007230992428958416,-0.010105499066412449,0.0034950736444443464,5.880244510186157e-31,0.00607921602204442
0.007048335392028093,0.006999428849667311,-0.0108229024335742,0.0033514860551804304,3.8393796652517915e-32,0.0064315879717469215
0.006944193504750729,0.00707108061760664,-0.010534785687923431,0.0035158637911081314,2.5068407017933864e-33,0.006655429489910603
0.00682698143646121,0.007072471082210541,-0.01025785319507122,0.0038316969294101,1.6367878362380939e-34,0.006436803378164768
0.006662383675575256,0.0073646483942866325,-0.010762917809188366,0.003591685788705945,1.0687055247629273e-35,0.006273339502513409
0.007111803628504276,0.007085880264639854,-0.010304957628250122,0.003519209334626794,6.977882515345413e-37,0.00634642643854022
0.007166481111198664,0.006892452947795391,-0.01096180360764265,0.0036750957369804382,4.5560585126408496e-38,0.006524386815726757
0.006687501911073923,0.007417625747621059,-0.01111561805009842,0.0035563278943300247,2.974780076155082e-39,0.006722582504153252
0.006839376874268055,0.008243497461080551,-0.010995058342814445,0.0034004792105406523,1.9423257884159857e-40,0.007184113375842571
0.007129102014005184,0.008010839112102985,-0.011385819874703884,0.003583228914067149,1.2681751102139594e-41,0.006866354960948229
0.00690089724957943,0.00714265787974,-0.010549647733569145,0.0039022297132760286,8.281673924159669e-43,0.00699520343914628
0.00716145895421505,0.006628111470490694,-0.010607367381453514,0.003565039951354265,5.465064010866787e-44,0.006726245395839214
0.00674555916339159,0.007279532495886087,-0.01201110053807497,0.003510782727971673,4.203895392974451e-45,0.006766228936612606
0.007109199650585651,0.007361806463450193,-0.011469196528196335,0.0034645511768758297,0.0,0.0061392150819301605
0.007231432478874922,0.006989208981394768,-0.010507854633033276,0.0033059262204915285,0.0,0.006263616029173136
0.007062174379825592,0.006968723610043526,-0.010696426033973694,0.0034994296729564667,0.0,0.007158290129154921
0.006730101071298122,0.007073973771184683,-0.01070001907646656,0.0036807700525969267,0.0,0.0069343517534434795
0.00693837646394968,0.007488518487662077,-0.011187815107405186,0.0032870403956621885,0.0,0.00677519291639328
0.007330495398491621,0.006807711906731129,-0.01045933086425066,0.0031708995811641216,4.8704394430387765e-05,0.006425740662962198
0.0069931200705468655,0.007120324764400721,-0.01026113796979189,0.003961102105677128,5.1131315558450297e-05,0.006473311223089695
0.007482278626412153,0.007497282233089209,-0.010969286784529686,0.004119479563087225,5.0749356887536123e-05,0.006864483002573252
0.006956835743039846,0.007139108143746853,-0.010486417450010777,0.0038513222243636847,5.0195943913422525e-05,0.006867999676615
0.007090982049703598,0.0066720712929964066,-0.010721154510974884,0.00360247609205544,2.5164061298710294e-05,0.006532234605401754
0.006672205403447151,0.007916613481938839,-0.010684018023312092,0.0035118430387228727,1.0727833910095796e-07,0.006644594017416239
0.006672205403447151,0.007916613481938839,-0.010684018023312092,0.0035118430387228727,1.0727833910095796e-07,0.006644594017416239
0.007098251488059759,0.007210289128124714,-0.010610148310661316,0.003677685745060444,7.004508972840995e-09,0.0069309319369494915
0.007270293775945902,0.006715926341712475,-0.010721555911004543,0.003976746462285519,4.5734435683009167e-10,0.006970807909965515
0.007109624333679676,0.00678293639793992,-0.010400807484984398,0.004122628830373287,2.986131827920069e-11,0.006750245112925768
0.007058827206492424,0.007284782826900482,-0.011138630099594593,0.003814210882410407,1.9497307414406695e-12,0.0068215979263186455
0.0075406236574053764,0.00748554477468133,-0.010983403772115707,0.003469372633844614,1.273034818836602e-13,0.006659985985606909
0.007666503079235554,0.0069990442134439945,-0.010605997405946255,0.003205263754352927,8.31200800327286e-15,0.006806712131947279
0.0075889332219958305,0.007035162299871445,-0.010796133428812027,0.0033793107140809298,5.42714761613038e-16,0.006787248887121677
0.006944150663912296,0.006908767390996218,-0.0106298653408885,0.003922921139746904,3.543539173781214e-17,0.007351941429078579
0.007414513733237982,0.007463713176548481,-0.011354610323905945,0.0042206463403999805,2.3136781468457875e-18,0.006779543124139309
0.007644234225153923,0.0073804836720228195,-0.01100570522248745,0.00405512098222971,1.5106665110206405e-19,0.00683779688552022
0.00767822889611125,0.006763281300663948,-0.010902127251029015,0.0038988159503787756,9.863573042720796e-21,0.006756860297173262
0.006654882337898016,0.006721454672515392,-0.011514809913933277,0.003499767044559121,6.440208428513468e-22,0.0070468587800860405
0.006718290504068136,0.0072939712554216385,-0.010962608270347118,0.004000142682343721,4.204995918465464e-23,0.006612170021981001
0.007441343739628792,0.007431902922689915,-0.010619168169796467,0.004106322303414345,2.7455619469382037e-24,0.0070257303304970264
0.007792466785758734,0.006749303545802832,-0.011137467809021473,0.003681605914607644,1.792655838754672e-25,0.006645615678280592
0.007385422475636005,0.006853463593870401,-0.0110755180940032,0.0035696395207196474,1.1704760659071695e-26,0.006855009589344263
0.00691719027236104,0.007453688886016607,-0.011603024788200855,0.003615259425714612,7.642372649547891e-28,0.00694642448797822
0.007529874797910452,0.007118958048522472,-0.011706465855240822,0.0039526838809251785,4.9899231892744857e-29,0.007283669896423817
0.007605957332998514,0.007150490768253803,-0.010884743183851242,0.004229918587952852,3.258063337315352e-30,0.00719119468703866
0.007306896615773439,0.006792882923036814,-0.011242817156016827,0.004063774831593037,2.127282487629417e-31,0.006990864872932434
0.00710140960291028,0.006789627484977245,-0.010904188267886639,0.003839596640318632,1.3889633902476457e-32,0.0068851495161652565
0.007893577218055725,0.00705045647919178,-0.012033814564347267,0.0037018409930169582,9.068937998238987e-34,0.007061545271426439
0.00825647171586752,0.006908357609063387,-0.011366070248186588,0.0033736235927790403,5.921368547303106e-35,0.007517854683101177
0.00752532621845603,0.006560392677783966,-0.01187831535935402,0.0040989825502038,2.5243721453626247e-37,0.0065069361589848995
0.008154559880495071,0.007224531844258308,-0.011527162976562977,0.004152854438871145,1.6482347191887506e-38,0.006801854353398085
0.007900919765233994,0.006873709615319967,-0.011544500477612019,0.004280177876353264,1.0761790037214233e-39,0.0068407743237912655
0.0076361848041415215,0.00678723631426692,-0.01131895836442709,0.0041298228316009045,7.026671019510363e-41,0.007321598473936319
0.0076361848041415215,0.00678723631426692,-0.01131895836442709,0.0041298228316009045,7.026671019510363e-41,0.007321598473936319
0.007702825125306845,0.006712388712912798,-0.011646117083728313,0.003904537297785282,4.587851172199451e-42,0.0076984078623354435
0.008006474934518337,0.007014112081378698,-0.01193893514573574,0.004134228453040123,2.9987787136551085e-43,0.007812208496034145
0.007872543297708035,0.007221997249871492,-0.011607285588979721,0.004110842477530241,1.961817850054744e-44,0.007226129993796349
0.007501459214836359,0.0068732877261936665,-0.011602401733398438,0.004011265933513641,1.401298464324817e-45,0.007768944837152958
0.007557210512459278,0.007259542588144541,-0.012016912922263145,0.003979702480137348,0.0,0.007998427376151085
0.007549375761300325,0.0070783887058496475,-0.011379888281226158,0.004253290593624115,0.0,0.007646958343684673
0.008078628219664097,0.007483679335564375,-0.012110002338886261,0.004263430368155241,0.0,0.007722557056695223
0.008288816548883915,0.007610864005982876,-0.011582275852560997,0.003975605126470327,0.0,0.00782307144254446
0.008121946826577187,0.0067887501791119576,-0.01131753996014595,0.0037880728486925364,0.0,0.007968208752572536
0.00811645295470953,0.006693826988339424,-0.011688224971294403,0.0037794390227645636,0.0,0.007484303787350655
0.007938145659863949,0.0075937118381261826,-0.011065646074712276,0.003399812849238515,0.0,0.0070018707774579525
0.008357997983694077,0.007523488253355026,-0.01177699863910675,0.0035366301890462637,0.0,0.007306717336177826
0.008482291363179684,0.006996258161962032,-0.011728759855031967,0.0037683837581425905,0.0,0.008787776343524456
0.008090585470199585,0.006893142592161894,-0.01160016655921936,0.0044183507561683655,0.0,0.007938024587929249
0.00800838228315115,0.007281394209712744,-0.01194928027689457,0.004706275649368763,0.0,0.006787923164665699
0.008916748687624931,0.006969761569052935,-0.011285803280770779,0.004513707011938095,0.0,0.006997693795710802
0.008771167136728764,0.0067406632006168365,-0.011596073396503925,0.004312805365771055,0.0,0.008021933026611805
0.00790754146873951,0.0065598515793681145,-0.011365312151610851,0.003991060424596071,0.0,0.007893632166087627
0.00807866733521223,0.006838907487690449,-0.010529359802603722,0.003774554468691349,0.0,0.00798873696476221
0.008763572201132774,0.007092182990163565,-0.011458070017397404,0.004589259158819914,0.0,0.007859552279114723
0.008763572201132774,0.007092182990163565,-0.011458070017397404,0.004589259158819914,0.0,0.007859552279114723
0.007894700393080711,0.0066393413580954075,-0.011405035853385925,0.005041887052357197,0.0,0.007718217093497515
0.00874162744730711,0.007323918864130974,-0.01067708432674408,0.004884819965809584,0.0,0.007840807549655437
0.00874162744730711,0.007323918864130974,-0.01067708432674408,0.004884819965809584,0.0,0.007840807549655437
0.00874162744730711,0.007323918864130974,-0.01067708432674408,0.004884819965809584,0.0,0.007840807549655437
0.008002789691090584,0.006881583482027054,-0.011752848513424397,0.004399403464049101,0.0,0.0075968788005411625
0.008089504204690456,0.006833340041339397,-0.011731341481208801,0.004269785713404417,0.0,0.00801028124988079
0.00848892331123352,0.0072174095548689365,-0.011575264856219292,0.00440258951857686,0.0,0.008575153537094593
0.008369208313524723,0.007015522103756666,-0.01088731549680233,0.004578476306051016,0.0,0.008126825094223022
0.00847146287560463,0.007118623238056898,-0.011401181109249592,0.004640787374228239,0.0,0.007863829843699932
0.00872020423412323,0.007158075459301472,-0.011254575103521347,0.004564396105706692,0.0,0.007567239459604025
0.008272255770862103,0.00705484114587307,-0.010854787193238735,0.004626457579433918,0.0,0.007796306628733873
0.008187488652765751,0.007145777344703674,-0.011204980313777924,0.004603369627147913,0.0,0.007801506668329239
0.009020870551466942,0.0069414046593010426,-0.010954798199236393,0.004921949002891779,0.0,0.008123599924147129
0.008657361380755901,0.007443568669259548,-0.011957823298871517,0.004930055234581232,0.0,0.008395441807806492
0.008234480395913124,0.008212489075958729,-0.01147022657096386,0.0048260800540447235,0.0,0.00812898762524128
0.009226919151842594,0.007224063389003277,-0.01121088769286871,0.0048284512013196945,0.0,0.00817470345646143
0.009076545014977455,0.007219742983579636,-0.011567959561944008,0.004785917233675718,0.0,0.008272800594568253
0.008830973878502846,0.006704919505864382,-0.011146505363285542,0.0044237845577299595,0.0,0.008954419754445553
0.009122200310230255,0.007266519125550985,-0.011437632143497467,0.00487365061417222,0.0,0.008539113216102123
0.009276260621845722,0.006627595517784357,-0.011936213821172714,0.005065833684056997,0.0,0.008431576192378998
0.009276260621845722,0.006627595517784357,-0.011936213821172714,0.005065833684056997,0.0,0.008431576192378998
0.00849247258156538,0.006757676135748625,-0.011798241175711155,0.0047459970228374004,0.0,0.008428147062659264
0.00877528265118599,0.007268503308296204,-0.01139672752469778,0.004766316153109074,0.0,0.00814465805888176
0.008532966487109661,0.006897671613842249,-0.012268906459212303,0.004898790270090103,0.0,0.008469609543681145
0.008532966487109661,0.006897671613842249,-0.012268906459212303,0.004898790270090103,0.0,0.008469609543681145
0.009275463409721851,0.0071164388209581375,-0.011464683338999748,0.004849374759942293,0.0,0.008293019607663155
0.008972248062491417,0.007499999366700649,-0.011602427810430527,0.004796695429831743,0.0,0.008187122642993927
0.008846690878272057,0.007514075841754675,-0.011096062138676643,0.0047658151015639305,0.0,0.008218001574277878
0.008984044194221497,0.006766973063349724,-0.011508919298648834,0.004772195592522621,0.0,0.008891965262591839
0.009965936653316021,0.006657385732978582,-0.011940696276724339,0.004612769931554794,0.0,0.008342893794178963
0.009006349369883537,0.006613716017454863,-0.011946924962103367,0.004577638115733862,0.0,0.008502905257046223
0.009933662600815296,0.007011472713202238,-0.011706212535500526,0.004671956412494183,0.0,0.008993556722998619
0.009278452955186367,0.006832946091890335,-0.011433327570557594,0.004872697405517101,0.0,0.008511665277183056
0.00858340598642826,0.007241859100759029,-0.011933608911931515,0.005216535180807114,0.0,0.008620570413768291
0.009595909155905247,0.006623328197747469,-0.01165207102894783,0.005007962696254253,0.0,0.008934924378991127
0.009699556045234203,0.0067080119624733925,-0.011667641811072826,0.004778739996254444,0.0,0.008913149125874043
0.009275640361011028,0.006843526381999254,-0.011804182082414627,0.004717754665762186,0.0,0.009277550503611565
0.008984613232314587,0.006391566712409258,-0.01150969136506319,0.005099533591419458,0.0,0.009020308032631874
0.009933847934007645,0.006430214736610651,-0.01165983360260725,0.004905526526272297,0.0,0.009655481204390526
0.009877369739115238,0.00658944807946682,-0.012199309654533863,0.004702427424490452,0.0,0.008873960934579372
0.009516420774161816,0.0068802013993263245,-0.011733652092516422,0.004974383395165205,0.0,0.009153567254543304
0.00969924870878458,0.0065992167219519615,-0.012161883525550365,0.005001975689083338,0.0,0.008889983408153057
0.009681539610028267,0.006543982774019241,-0.011574228294193745,0.004829379264265299,0.0,0.008605798706412315
0.00954435020685196,0.006453887093812227,-0.011904611252248287,0.00523846922442317,0.0,0.008541456423699856
0.009826676920056343,0.006806389894336462,-0.011164208874106407,0.005245192442089319,0.0,0.008604549802839756
0.00980499666184187,0.007126535288989544,-0.011214273050427437,0.005259812343865633,0.0,0.008955406956374645
0.00944546889513731,0.006731100380420685,-0.01178842131048441,0.005215148441493511,9.170120165435947e-07,0.00885058008134365
0.00944546889513731,0.006731100380420685,-0.01178842131048441,0.005215148441493511,9.170120165435947e-07,0.00885058008134365
0.009877011179924011,0.0072723631747066975,-0.012093298137187958,0.004475734196603298,3.909365720033975e-09,0.009396837092936039
0.009669812396168709,0.007128047291189432,-0.012175225652754307,0.004920433275401592,2.5525367930434584e-10,0.008770699612796307
0.01010060403496027,0.006454756949096918,-0.012418856844305992,0.005088704638183117,1.666624130369776e-11,0.008688144385814667
0.009974151849746704,0.00675727566704154,-0.011841419152915478,0.005223697982728481,1.0881863986289542e-12,0.009124168194830418
0.009247985668480396,0.0068175396881997585,-0.011097535490989685,0.005542389117181301,7.105079735279449e-14,0.01014923956245184
0.010058675892651081,0.007097037509083748,-0.012102984823286533,0.00510344747453928,4.639108819586447e-15,0.00896616093814373
0.010015403851866722,0.006854562554508448,-0.01174299418926239,0.004871126729995012,3.029007024738119e-16,0.009103386662900448
0.009654008783400059,0.006657938007265329,-0.011671256273984909,0.005056256894022226,1.977724986271e-17,0.009427875280380249
0.010044556111097336,0.007258383557200432,-0.011968028731644154,0.004893219098448753,1.2913131018226035e-18,0.009934584610164165
0.009825607761740685,0.0069964611902832985,-0.011723978444933891,0.004809052217751741,8.431351171115856e-20,0.009843782521784306
0.009592501446604729,0.006688515190035105,-0.01215934008359909,0.004941806197166443,5.505069537886529e-21,0.009325518272817135
0.010185465216636658,0.00646444084122777,-0.01159631833434105,0.00496250344440341,3.5944170729534213e-22,0.009080489166080952
0.009725574404001236,0.006350518669933081,-0.011844152584671974,0.0056692385114729404,2.3468976384063313e-23,0.009226582013070583
0.010172923095524311,0.007215819787234068,-0.012103007175028324,0.006019114051014185,1.5323564905426394e-24,0.009639534167945385
0.009774596430361271,0.006855230312794447,-0.011467221193015575,0.0060057262890040874,1.0005193118842464e-25,0.00953318178653717
0.009530897252261639,0.006377430632710457,-0.01212767418473959,0.005832514725625515,6.532675793419773e-27,0.00944443978369236
0.009295335970818996,0.006614332087337971,-0.011971591971814632,0.0058021522127091885,4.265370529344022e-28,0.00966345239430666
0.009898560121655464,0.006673990283161402,-0.012654295191168785,0.005564645864069462,2.784981968284548e-29,0.009826299734413624
0.009780541062355042,0.006743393372744322,-0.011859905906021595,0.005775016266852617,1.818394216541244e-30,0.009565318003296852
0.009610096924006939,0.00685219606384635,-0.011463204398751259,0.00596958352252841,1.187281502875723e-31,0.00959024392068386
0.010229860432446003,0.006640892941504717,-0.013090831227600574,0.005720644257962704,7.752099451608942e-33,0.009488529525697231
0.00982605293393135,0.006755325943231583,-0.011888503096997738,0.005586944054812193,5.061567094512938e-34,0.009894892573356628
0.01004299707710743,0.006993384566158056,-0.012400402687489986,0.005275603383779526,3.304841239334731e-35,0.009820903651416302
0.011402211152017117,0.007221602369099855,-0.012209621258080006,0.005530494265258312,2.157824932378074e-36,0.009554342366755009
0.01132473349571228,0.006922380067408085,-0.012396776117384434,0.005969166290014982,9.199146067707056e-39,0.009488863870501518
0.01132473349571228,0.006922380067408085,-0.012396776117384434,0.005969166290014982,9.199146067707056e-39,0.009488863870501518
0.011203854344785213,0.006521095056086779,-0.012080301530659199,0.005628563463687897,6.0063856076354634e-40,0.009550372138619423
0.010793128982186317,0.0069907964207232,-0.012839567847549915,0.005769365932792425,3.921673882259433e-41,0.009636844508349895
0.011327705346047878,0.00664627505466342,-0.012033328413963318,0.005998288281261921,2.5601722943214408e-42,0.01041387114673853
0.011521910317242146,0.006667956244200468,-0.013033214956521988,0.006188619416207075,-0.00010978959471685812,0.010054131969809532
0.011198720894753933,0.006642431486397982,-0.012497857213020325,0.006033431738615036,-0.00013600740930996835,0.01011995505541563
0.011674776673316956,0.007426667958498001,-0.012849394232034683,0.006114606745541096,-0.00013389019295573235,0.010648136027157307
0.01177776325494051,0.006980282720178366,-0.012246677652001381,0.0060308692045509815,-0.00013014388969168067,0.010045665316283703
0.011451240628957748,0.006761766970157623,-0.011995647102594376,0.00618718983605504,-0.00015009254275355488,0.010335084050893784
0.011478048749268055,0.006736386567354202,-0.012617780826985836,0.006181408651173115,-0.00014753140567336231,0.010415338911116123
0.011696103028953075,0.007213030941784382,-0.012266323901712894,0.005931492894887924,-0.0001437056780559942,0.010412936098873615
0.012044290080666542,0.00720570981502533,-0.012628328986465931,0.00578402541577816,-0.00015727755089756101,0.010325022041797638
0.011620631441473961,0.0070030870847404,-0.012499235570430756,0.005735218059271574,-0.0001587969163665548,0.010317577980458736
0.011764593422412872,0.006818992085754871,-0.012864815071225166,0.006090563256293535,-0.00015524217451456934,0.010706095024943352
0.011815984733402729,0.0072488607838749886,-0.012501103803515434,0.006020636763423681,-0.00016216872609220445,0.010497618466615677
0.011585278436541557,0.00689342338591814,-0.012630011886358261,0.006236912216991186,-0.00016839370073284954,0.010134208016097546
0.012117578648030758,0.006641908548772335,-0.012171873822808266,0.005974235478788614,-0.0002592736855149269,0.010140455327928066
0.011404218152165413,0.006516688037663698,-0.01205459889024496,0.0058187562972307205,-0.0003281744720879942,0.01030705962330103
0.011783215217292309,0.006931152194738388,-0.013028722256422043,0.006378891412168741,-0.000357054581400007,0.010595669038593769
0.011600159108638763,0.006999982986599207,-0.012464373372495174,0.006325204856693745,-0.0003486486675683409,0.009966232813894749
0.01182618923485279,0.006686452776193619,-0.012621571309864521,0.0064674182794988155,-0.0003687120333779603,0.00997538585215807
0.01177272666245699,0.006575091276317835,-0.012391915544867516,0.006287029478698969,-0.00036028382601216435,0.010184257291257381
0.011542140506207943,0.006585749797523022,-0.012379581108689308,0.0064636822789907455,-0.0003838044940494001,0.010079163126647472
0.011792393401265144,0.006925686728209257,-0.012262208387255669,0.006493282970041037,-0.0003699152439367026,0.010701571591198444
0.012164213694632053,0.006902328692376614,-0.012478681281208992,0.006586621515452862,-0.00048758613411337137,0.010029449127614498
0.012504497542977333,0.006229538936167955,-0.012220220640301704,0.00659877248108387,-0.0005188839859329164,0.010480214841663837
0.01250180508941412,0.006254055071622133,-0.012772238813340664,0.006695891730487347,-0.00048298531328327954,0.01030025165528059
0.01250180508941412,0.006254055071622133,-0.012772238813340664,0.006695891730487347,-0.00048298531328327954,0.01030025165528059
0.012514153495430946,0.007193888537585735,-0.012467983178794384,0.006803573574870825,-0.0004439327458385378,0.010559952817857265
0.012417604215443134,0.007000845856964588,-0.012494238093495369,0.006810944993048906,-0.0004433557332959026,0.010108338668942451
0.012597016990184784,0.00656348979100585,-0.012330234982073307,0.006745475344359875,-0.00044248264748603106,0.010435536503791809
0.012058312073349953,0.006356747820973396,-0.011805547401309013,0.007027353160083294,-0.0004152856708969921,0.01203184574842453
0.011909921653568745,0.006983076222240925,-0.012301579117774963,0.006965324282646179,-0.00038971181493252516,0.009836506098508835
0.012202405370771885,0.007065430749207735,-0.012221960350871086,0.0066511803306639194,-0.0003925355267710984,0.010217919014394283
0.012202149257063866,0.006666938774287701,-0.012970213778316975,0.006355773191899061,-0.0003945821663364768,0.011323655024170876
0.012668034993112087,0.006292738486081362,-0.012543425895273685,0.006507668644189835,-0.0003755377256311476,0.011425521224737167
0.012306748889386654,0.00650752754881978,-0.01256759837269783,0.00674804300069809,-0.0003570120607037097,0.010542560368776321
0.012725832872092724,0.007103906944394112,-0.012706782668828964,0.006698214914649725,-0.0003372965147718787,0.010682972148060799
0.012952379882335663,0.0069738226011395454,-0.012613407336175442,0.006627555005252361,-0.00031238081282936037,0.010507752187550068
0.012391490861773491,0.006179698742926121,-0.012346613220870495,0.006391795352101326,-0.00032038515200838447,0.010685089975595474
0.012553413398563862,0.006108780391514301,-0.011738798581063747,0.006060718093067408,-0.0003270710585638881,0.010938013903796673
0.01260546687990427,0.006724141538143158,-0.012574819847941399,0.006439667660742998,-0.0003351715859025717,0.01085860189050436
0.012873944826424122,0.0069971210323274136,-0.012595128268003464,0.006648652721196413,-0.0003404140006750822,0.011594663374125957
0.012340588495135307,0.006736087147146463,-0.012714739888906479,0.0067895203828811646,-0.0003244100953452289,0.011202847585082054
0.012832495383918285,0.006389705464243889,-0.01270263735204935,0.006705661304295063,-0.0003086127107962966,0.010951077565550804
0.012839075177907944,0.006372394505888224,-0.012143071740865707,0.0066200802102684975,-0.0003333545464556664,0.011722724884748459
0.01340549997985363,0.006763421464711428,-0.01277464721351862,0.007281063124537468,-0.0003210403665434569,0.011450964957475662
0.013141877949237823,0.006584533490240574,-0.011881018988788128,0.007206932175904512,-0.0003089992969762534,0.01145659014582634
0.013103900477290154,0.006266836076974869,-0.01205886248499155,0.00666870828717947,-0.00039546546759083867,0.011478868313133717
0.013449836522340775,0.006494134198874235,-0.011860009282827377,0.006571565754711628,-0.00037035654531791806,0.011374583467841148
0.013017154298722744,0.0067045195028185844,-0.011797681450843811,0.0067091332748532295,-0.00034262609551660717,0.011423539370298386
0.012933166697621346,0.00715359253808856,-0.012070072814822197,0.006624937057495117,-0.00029734676354564726,0.01136851403862238
0.013569306582212448,0.00654315110296011,-0.012493204325437546,0.006652066018432379,-0.00033080519642680883,0.011319897137582302
0.013569306582212448,0.00654315110296011,-0.012493204325437546,0.006652066018432379,-0.00033080519642680883,0.011319897137582302
0.01358881313353777,0.00645756209269166,-0.01191174890846014,0.007278521545231342,-0.00031489369575865567,0.011500261723995209
0.013794509693980217,0.0070743984542787075,-0.012416131794452667,0.007064115721732378,-0.0002977457770612091,0.011471224017441273
0.013104715384542942,0.006488853134214878,-0.012371516786515713,0.007085440680384636,-0.0003051334642805159,0.011586494743824005
0.013152613304555416,0.006398928817361593,-0.01202766690403223,0.0068604545667767525,-0.0003112991398666054,0.011534796096384525
0.013448101468384266,0.0061300345696508884,-0.012914777733385563,0.007545424159616232,-0.00029796260059811175,0.012017549946904182
0.013824383728206158,0.005799314938485622,-0.012025944888591766,0.007885531522333622,-0.0003146168601233512,0.011925391852855682
0.013680394738912582,0.00536404550075531,-0.012443453073501587,0.00699288584291935,-0.00031049747485667467,0.011836225166916847
0.013656646944582462,0.005057213362306356,-0.012254117988049984,0.006480003707110882,-0.00029825232923030853,0.011973779648542404
0.01393208745867014,0.005918229930102825,-0.012200555764138699,0.006613548379391432,-0.00028642528923228383,0.011539733037352562
0.013745652511715889,0.006059654057025909,-0.011881156824529171,0.0073705133982002735,-0.00028034072602167726,0.011231030337512493
0.013551107607781887,0.005887307226657867,-0.012322143651545048,0.007568086497485638,-0.00026509305462241173,0.01140204630792141
0.013837546110153198,0.006232583429664373,-0.012762444093823433,0.007067087106406689,-0.000250418292125687,0.011732872575521469
0.014414350502192974,0.005581302102655172,-0.012448846362531185,0.0065168943256139755,-0.0002372180751990527,0.011826416477560997
0.014004450291395187,0.005854158196598291,-0.012703567743301392,0.00679637398570776,-0.000247328745899722,0.01191388163715601
0.013986851088702679,0.005723984446376562,-0.01276441104710102,0.007093294523656368,-0.00025599825312383473,0.011758537963032722
0.01401685830205679,0.005721685476601124,-0.012823449447751045,0.007164976559579372,-0.00024568321532569826,0.01160373818129301
0.014443263411521912,0.005844674073159695,-0.012726446613669395,0.0071014235727488995,-0.00023507216246798635,0.01233754400163889
0.014083354733884335,0.005934386979788542,-0.012634241953492165,0.007068921811878681,-0.00022526952670887113,0.012150445953011513
0.014434140175580978,0.0053031304851174355,-0.012891612015664577,0.007306825835257769,-0.0002474880020599812,0.012274348177015781
0.014331701211631298,0.005417510401457548,-0.012541781179606915,0.007428266108036041,-0.0002422588731860742,0.01238185353577137
0.014471306465566158,0.005172910634428263,-0.013054455630481243,0.007426801137626171,-0.0002335565659450367,0.011987302452325821
0.014202063903212547,0.0057587516494095325,-0.01141280960291624,0.0077711427584290504,-0.0002252247795695439,0.012284672819077969
0.014467373490333557,0.005417807959020138,-0.013672267086803913,0.0077240425162017345,-0.0002443956909701228,0.01213806588202715
0.014467373490333557,0.005417807959020138,-0.013672267086803913,0.0077240425162017345,-0.0002443956909701228,0.01213806588202715
0.014483636245131493,0.0052909282967448235,-0.012813606299459934,0.00793758686631918,-0.00022519283811561763,0.012739993631839752
0.014483636245131493,0.0052909282967448235,-0.012813606299459934,0.00793758686631918,-0.00022519283811561763,0.012739993631839752
0.015004637651145458,0.00514158746227622,-0.013791235163807869,0.007718516979366541,-0.00024483673041686416,0.011846693232655525
0.014675546437501907,0.0058250511065125465,-0.013550867326557636,0.007645851466804743,-0.0002408311265753582,0.011786098591983318
0.014697736129164696,0.005683711729943752,-0.013352446258068085,0.007158012595027685,-0.00022915925364941359,0.012254299595952034
0.014699837192893028,0.00555721390992403,-0.013566720299422741,0.00761741679161787,-0.0002180883166147396,0.012811972759664059
0.014737988822162151,0.005284809973090887,-0.013067621737718582,0.007601929362863302,-0.00020800743368454278,0.012897186912596226
0.014755303040146828,0.005366568453609943,-0.013350972905755043,0.007505682297050953,-0.00023326539667323232,0.012961338274180889
0.01515971776098013,0.005559511017054319,-0.01304833497852087,0.007495168596506119,-0.00022813437681179494,0.012730668298900127
0.01491450984030962,0.00615687295794487,-0.013739820569753647,0.007697512395679951,-0.00021918225684203207,0.012784961611032486
0.014690212905406952,0.005558746866881847,-0.013410796411335468,0.0074991811998188496,-0.0002106504689436406,0.012953430414199829
0.015253659337759018,0.0055359648540616035,-0.01366252452135086,0.0075381724163889885,-0.0002027419686783105,0.013119883835315704
0.015064463950693607,0.005536412820219994,-0.013065366074442863,0.00794866681098938,-0.0002257649612147361,0.013303899206221104
0.015043294057250023,0.005708899814635515,-0.01333460584282875,0.008581423200666904,-0.00021986564388498664,0.013262396678328514
0.014990780502557755,0.006161687895655632,-0.012854689732193947,0.007965420372784138,-0.00021257477055769414,0.012891432270407677
0.015116921626031399,0.0059894537553191185,-0.013657256960868835,0.007396342698484659,-0.0002056439407169819,0.012769394554197788
0.014645942486822605,0.005460136570036411,-0.01338772289454937,0.007939408533275127,-0.00019914339645765722,0.012347235344350338
0.014828387647867203,0.005587121471762657,-0.013356218114495277,0.008018432185053825,-0.0002169716899516061,0.012424315325915813
0.014991514384746552,0.0061357151716947556,-0.013921830803155899,0.008323147892951965,-0.00021382006525527686,0.01261154469102621
0.01535231526941061,0.006350915413349867,-0.013227952644228935,0.007954773493111134,-0.00020786210370715708,0.012598108500242233
0.015308123081922531,0.0059090228751301765,-0.013435504399240017,0.008230333216488361,-0.00023331755073741078,0.012891558930277824
0.01570429466664791,0.005458909086883068,-0.013158085756003857,0.008264015428721905,-0.00023193852393887937,0.012770905159413815
0.014654030092060566,0.005634558852761984,-0.013510854914784431,0.007668272592127323,-0.0002212289982708171,0.012866196222603321
0.015590103343129158,0.006174799054861069,-0.012418423779308796,0.007653807755559683,-0.0002474370412528515,0.013060782104730606
0.015368251129984856,0.006403980776667595,-0.013572795316576958,0.007183765526860952,-0.00024138527805916965,0.013561611995100975
0.01455667894333601,0.005881439428776503,-0.013334231451153755,0.008676468394696712,-0.0002575747494120151,0.013627626933157444
0.01645648665726185,0.006408055312931538,-0.013156224973499775,0.00826465617865324,-0.00024856114760041237,0.013717885129153728
0.016079837456345558,0.00618881918489933,-0.01372441928833723,0.008542750962078571,-0.0002710494154598564,0.013436338864266872
0.01563936099410057,0.0065080104395747185,-0.013434904627501965,0.008838380686938763,-0.00026322127087041736,0.013522752560675144
0.01563936099410057,0.0065080104395747185,-0.013434904627501965,0.008838380686938763,-0.00026322127087041736,0.013522752560675144
0.015585576184093952,0.006339200772345066,-0.013930823653936386,0.008144444786012173,-0.00038773397682234645,0.013295343145728111
0.015250836499035358,0.005416479893028736,-0.01360761746764183,0.008177492767572403,-0.00039715689490549266,0.013189832679927349
0.016202423721551895,0.006005927454680204,-0.013209107331931591,0.00814079213887453,-0.0003675601619761437,0.012972555123269558
0.015710867941379547,0.005876192823052406,-0.013361525721848011,0.007806739769876003,-0.00038989027962088585,0.013631454668939114
0.016240853816270828,0.006779434625059366,-0.013200785033404827,0.008027572184801102,-0.0003781078848987818,0.013675054535269737
0.015789004042744637,0.006352317985147238,-0.013858570717275143,0.007928606122732162,-0.00035430522984825075,0.013722061179578304
0.01613631285727024,0.0059178718365728855,-0.013393571600317955,0.007919692434370518,-0.0003325410361867398,0.013413646258413792
0.01594894379377365,0.005969254765659571,-0.013809002004563808,0.007870858535170555,-0.00035171350464224815,0.014110274612903595
0.015718651935458183,0.006543345283716917,-0.012913349084556103,0.0077450149692595005,-0.00034451112151145935,0.013774069957435131
0.015573233366012573,0.006501485593616962,-0.013379106298089027,0.007725873962044716,-0.0003273898037150502,0.014137382619082928
0.01558398362249136,0.006197646260261536,-0.013267048634588718,0.0081012062728405,-0.0003112619451712817,0.014003493823111057
0.01620473712682724,0.0061804186552762985,-0.013673648238182068,0.008156859315931797,-0.00029660624568350613,0.014245540834963322
0.01607830636203289,0.006002585869282484,-0.01354776881635189,0.008640814572572708,-0.00032096696668304503,0.013995310291647911
0.016317669302225113,0.006354002747684717,-0.013662289828062057,0.008043261244893074,-0.00030961964512243867,0.013914771378040314
0.01591801829636097,0.00625392934307456,-0.013520082458853722,0.007976414635777473,-0.00029732059920206666,0.014019904658198357
0.016398366540670395,0.006023156922310591,-0.013926681131124496,0.00823904573917389,-0.0002932824136223644,0.014197953045368195
0.016282159835100174,0.006040430162101984,-0.013698290102183819,0.00875846203416586,-0.0002762740186881274,0.01429408136755228
0.016374440863728523,0.006320024840533733,-0.013658665120601654,0.008685942739248276,-0.00030881009297445416,0.013639220967888832
0.016366319730877876,0.006360236555337906,-0.013944417238235474,0.008633095771074295,-0.00029509401065297425,0.013951072469353676
0.01616220362484455,0.0064243776723742485,-0.013713913038372993,0.00868698675185442,-0.00031442116596736014,0.014370061457157135
0.016772108152508736,0.006075513083487749,-0.014088255353271961,0.008915089070796967,-0.00030976947164162993,0.014475557021796703
0.016810592263936996,0.005851740948855877,-0.01388712227344513,0.008939571678638458,-0.0002959231205750257,0.014365337789058685
0.017322402447462082,0.006332626566290855,-0.013982214964926243,0.008808854036033154,-0.0003176728496327996,0.014601005241274834
0.017298320308327675,0.0063057830557227135,-0.014169159345328808,0.009206083603203297,-0.0002967421314679086,0.014635426923632622
0.01731894537806511,0.006083809304982424,-0.01367269642651081,0.00896016787737608,-0.0004066757101099938,0.014758962206542492
0.017236752435564995,0.0060740928165614605,-0.014360781759023666,0.008861852809786797,-0.0003811894857790321,0.01465559285134077
0.017236752435564995,0.0060740928165614605,-0.014360781759023666,0.008861852809786797,-0.0003811894857790321,0.01465559285134077
0.017379069700837135,0.0061288271099328995,-0.01371491327881813,0.009305146522819996,-0.00040361302671954036,0.014664331451058388
0.017657041549682617,0.006287708878517151,-0.014287779107689857,0.009057000279426575,-0.0003904920013155788,0.014723350293934345
0.017388813197612762,0.0064527918584644794,-0.013571827672421932,0.010064958594739437,-0.0003651292063295841,0.014743641018867493
0.01772315613925457,0.005861295852810144,-0.014215147122740746,0.009398792870342731,-0.00039509066846221685,0.014860417693853378
0.017503393813967705,0.0059089153073728085,-0.013948977924883366,0.009441299363970757,-0.00037502654595300555,0.015013848431408405
0.01761169731616974,0.006198951043188572,-0.01448257826268673,0.009914654307067394,-0.0003914529224857688,0.014962837100028992
0.017826955765485764,0.005500486586242914,-0.014044439420104027,0.010146470740437508,-0.0003823522129096091,0.01511524710804224
0.017884990200400352,0.005279005039483309,-0.014806997962296009,0.009347816929221153,-0.0003637924382928759,0.014968886971473694
0.017916571348905563,0.005419962573796511,-0.01404488179832697,0.009119023568928242,-0.0004059929051436484,0.01517560612410307
0.01768382079899311,0.0054550617933273315,-0.015201957896351814,0.009347088634967804,-0.00038120278622955084,0.015196883119642735
0.017912277951836586,0.005651132669299841,-0.014359420165419579,0.009151559323072433,-0.0004174114146735519,0.015389173291623592
0.018062636256217957,0.005859465803951025,-0.014624831266701221,0.009136860258877277,-0.0004231170751154423,0.015065384097397327
0.01776616834104061,0.005836047697812319,-0.01398513000458479,0.009307918138802052,-0.00042391486931592226,0.015442023985087872
0.017906760796904564,0.005158709827810526,-0.014933996833860874,0.009156044572591782,-0.00045201712055131793,0.015778860077261925
0.018099728971719742,0.005254250951111317,-0.01465513464063406,0.008545749820768833,-0.0006072963587939739,0.01571042649447918
0.017693709582090378,0.005197465885430574,-0.015161549672484398,0.009253098629415035,-0.0006445777835324407,0.015219016000628471
0.018132280558347702,0.005846576299518347,-0.01497606746852398,0.008935997262597084,-0.0006241622031666338,0.015471432358026505
0.018469413742423058,0.0053762588649988174,-0.014983007684350014,0.008927706629037857,-0.0005626074853353202,0.01480812206864357
0.018581314012408257,0.004853382240980864,-0.015031817369163036,0.009666421450674534,-0.0005828014691360295,0.014905252493917942
0.018320921808481216,0.004686058033257723,-0.015747716650366783,0.009919439442455769,-0.0005425174604170024,0.015201738104224205
0.017930742353200912,0.0052613974548876286,-0.015807466581463814,0.00911340955644846,-0.0005664455820806324,0.015124845318496227
0.018490727990865707,0.004992165137082338,-0.016078244894742966,0.009417069144546986,-0.0005333147128112614,0.015468554571270943
0.018153049051761627,0.005347823724150658,-0.015381339006125927,0.009211510419845581,-0.0005722497589886189,0.015494856052100658
0.018254201859235764,0.004949092399328947,-0.01589498110115528,0.009681877680122852,-0.0005867111613042653,0.01493400614708662
0.018876096233725548,0.004763167817145586,-0.015211669728159904,0.009619349613785744,-0.0005934477667324245,0.01532743964344263
0.01823369786143303,0.004678281024098396,-0.01592365652322769,0.009410928934812546,-0.0005816491902805865,0.015274819917976856
0.0193166583776474,0.004897354636341333,-0.01517968624830246,0.009587214328348637,-0.000720186741091311,0.015352881513535976
0.018918614834547043,0.004908920731395483,-0.015806689858436584,0.010021749883890152,-0.0007655168883502483,0.015562822110950947
0.018842477351427078,0.0051422701217234135,-0.015557178296148777,0.009558841586112976,-0.0007759714499115944,0.015388047322630882
0.01922472007572651,0.00484610628336668,-0.015705982223153114,0.009943952783942223,-0.0007763763424009085,0.015238639898598194
0.01922472007572651,0.00484610628336668,-0.015705982223153114,0.009943952783942223,-0.0007763763424009085,0.015238639898598194
0.019323574379086494,0.004710524342954159,-0.015596967190504074,0.010290264151990414,-0.0007218386745080352,0.015245381742715836
0.018942004069685936,0.004943906795233488,-0.01566733419895172,0.00973011925816536,-0.0007623903220519423,0.015186785720288754
0.018787315115332603,0.00528319925069809,-0.01580854132771492,0.010260499082505703,-0.0007826517685316503,0.016183873638510704
0.01826697215437889,0.004910893738269806,-0.015429805964231491,0.010555039159953594,-0.0007536172051914036,0.015437524765729904
0.018847119063138962,0.004987405613064766,-0.016013938933610916,0.009589273482561111,-0.0007181070395745337,0.015235490165650845
0.019488172605633736,0.0048484206199646,-0.015518700703978539,0.009600021876394749,-0.000647513777948916,0.01645197719335556
0.01918092556297779,0.004745867103338242,-0.015961961820721626,0.010338429361581802,-0.0006651474977843463,0.01633959263563156
0.018768100067973137,0.005053133703768253,-0.015161273069679737,0.009875764138996601,-0.0006135109579190612,0.016583260148763657
0.019687341526150703,0.004975853953510523,-0.015857746824622154,0.010193112306296825,-0.0005758829647675157,0.016156310215592384
0.019399477168917656,0.0047813705168664455,-0.015321698971092701,0.009975227527320385,-0.000591826974414289,0.016251234337687492
0.019585758447647095,0.004888578318059444,-0.01587778516113758,0.010598750784993172,-0.0005545197636820376,0.016290467232465744
0.019524654373526573,0.00561302388086915,-0.015588389709591866,0.010415568016469479,-0.0005042204284109175,0.016280334442853928
0.019329413771629333,0.005316208116710186,-0.01564798317849636,0.010419624857604504,-0.0004612090124282986,0.01622985303401947
0.019123315811157227,0.005341182462871075,-0.01598447561264038,0.01011307630687952,-0.00048598271678201854,0.016192380338907242
0.019687535241246223,0.005141472909599543,-0.015685956925153732,0.010281584225594997,-0.0004588863521348685,0.016321957111358643
0.019717054441571236,0.005025186110287905,-0.015991007909178734,0.010303143411874771,-0.00042821982060559094,0.01621982455253601
0.019285842776298523,0.005730382166802883,-0.01541344728320837,0.010266443714499474,-0.00044314732076600194,0.016541186720132828
0.019828900694847107,0.005213734693825245,-0.014965612441301346,0.010104479268193245,-0.0004064348468091339,0.01657048612833023
0.019580494612455368,0.0049822391010820866,-0.015781011432409286,0.01043962687253952,-0.0003861070144921541,0.017057085409760475
0.019580494612455368,0.0049822391010820866,-0.015781011432409286,0.01043962687253952,-0.0003861070144921541,0.017057085409760475
0.02003537490963936,0.0053432113490998745,-0.016005678102374077,0.010388737544417381,-0.00036300107603892684,0.016826367005705833
0.019615914672613144,0.0057365139946341515,-0.01593201979994774,0.010416979901492596,-0.00033637508749961853,0.017192084342241287
0.019678190350532532,0.005601504817605019,-0.015436985529959202,0.010840142145752907,-0.00036706155515275896,0.01680806651711464
0.020093249157071114,0.005566314794123173,-0.015771355479955673,0.011013085022568703,-0.0003506010980345309,0.017049826681613922
0.02007082663476467,0.005118407309055328,-0.01607247069478035,0.010405578650534153,-0.00037718145176768303,0.017059069126844406
0.020044095814228058,0.00549709377810359,-0.015842188149690628,0.010745498351752758,-0.00038724628393538296,0.017133433371782303
0.019883960485458374,0.005318520125001669,-0.01612892560660839,0.010642141103744507,-0.0003899829462170601,0.01733574829995632
0.020469799637794495,0.005518337711691856,-0.015524890273809433,0.010831412859261036,-0.0005407803109847009,0.01697813905775547
0.01992759108543396,0.0056644342839717865,-0.01588713563978672,0.010983300395309925,-0.0005929686012677848,0.01725655235350132
0.01967976801097393,0.005314970854669809,-0.015578043647110462,0.010238231159746647,-0.0005464224959723651,0.017056073993444443
0.020430749282240868,0.005648186430335045,-0.015934422612190247,0.010416394099593163,-0.0005738421459682286,0.017404705286026
0.02042335830628872,0.005412295460700989,-0.015584024600684643,0.010284137912094593,-0.0005305507802404463,0.01729768142104149
0.02037709765136242,0.005874129943549633,-0.015732908621430397,0.010488904081285,-0.0005499649560078979,0.017217522487044334
0.020714493468403816,0.005658330861479044,-0.015629447996616364,0.010175288654863834,-0.0005185764748603106,0.017696859315037727
0.020668428391218185,0.0056402795016765594,-0.015771731734275818,0.009938627481460571,-0.0005570181529037654,0.017574265599250793
0.018977265805006027,0.005336735397577286,-0.016309862956404686,0.00983978621661663,-0.0005196597194299102,0.017343910411000252
0.02086159773170948,0.005317878443747759,-0.01560996100306511,0.009959304705262184,-0.0005356823094189167,0.017560025677084923
0.021422654390335083,0.005367943085730076,-0.015952713787555695,0.010014155879616737,-0.0005065052537247539,0.01751752384006977
0.020982593297958374,0.005642448551952839,-0.015250646509230137,0.009836658835411072,-0.0005017030634917319,0.017522411420941353
0.02085879258811474,0.005634799599647522,-0.015783153474330902,0.010512805543839931,-0.0004962423699907959,0.01744825206696987
0.020795878022909164,0.0055056242272257805,-0.015567529015243053,0.010706743225455284,-0.0004620592517312616,0.01759428344666958
0.021276313811540604,0.005401263013482094,-0.015964722260832787,0.010671381838619709,-0.0004878066247329116,0.01789764314889908
0.02127988077700138,0.005240987986326218,-0.01614762470126152,0.010929404757916927,-0.0004816642904188484,0.017993321642279625
0.02127988077700138,0.005240987986326218,-0.01614762470126152,0.010929404757916927,-0.0004816642904188484,0.017993321642279625
0.022000497207045555,0.005913218483328819,-0.01600671000778675,0.01113859936594963,-0.000503503018990159,0.018443968147039413
0.022444583475589752,0.005535931792110205,-0.0157781895250082,0.01146133802831173,-0.0004789278900716454,0.01795049011707306
0.022260483354330063,0.005820545367896557,-0.016233330592513084,0.011214853264391422,-0.000504503317642957,0.018351079896092415
0.02184923179447651,0.005428466945886612,-0.01577170006930828,0.011830585077404976,-0.0004751486121676862,0.018653808161616325
0.02077353373169899,0.005817248485982418,-0.016296671703457832,0.012087658978998661,-0.0004969125147908926,0.01828848570585251
0.021727070212364197,0.005727275740355253,-0.015565218403935432,0.011344671249389648,-0.00047276640543714166,0.018164735287427902
0.022250289097428322,0.005685784388333559,-0.015974033623933792,0.011217164807021618,-0.000566566304769367,0.018430862575769424
0.02225898951292038,0.005216540303081274,-0.0160356555134058,0.011248634196817875,-0.000512130034621805,0.018397314473986626
0.021679606288671494,0.005454761441797018,-0.016284529119729996,0.011695359833538532,-0.0005456976941786706,0.018665606155991554
0.02231532707810402,0.005749877076596022,-0.017215033993124962,0.011290444061160088,-0.0005006716237403452,0.017871856689453125
0.022367872297763824,0.006208572071045637,-0.01609775610268116,0.011435147374868393,-0.0005294497241266072,0.018172169104218483
0.022832369431853294,0.005433470942080021,-0.016595186665654182,0.011163922958076,-0.0004926698165945709,0.019185425713658333
0.02219477668404579,0.005337214563041925,-0.016147779300808907,0.010918686166405678,-0.0005179147119633853,0.01896941289305687
0.022566581144928932,0.005672437138855457,-0.016753843054175377,0.01179163996130228,-0.0004901719512417912,0.018976744264364243
0.022266779094934464,0.0055943685583770275,-0.015842296183109283,0.011306907050311565,-0.0005062182899564505,0.01833883859217167
0.022669367492198944,0.005849896464496851,-0.01629408448934555,0.010954019613564014,-0.000526351563166827,0.017725041136145592
0.022594338282942772,0.005886325612664223,-0.016472887247800827,0.011319026350975037,-0.0004986724816262722,0.01819983683526516
0.022896554321050644,0.005534264259040356,-0.01697622425854206,0.011202034540474415,-0.0005136774852871895,0.018915433436632156
0.02313161827623844,0.005463708192110062,-0.016802700236439705,0.011384121142327785,-0.0004910307470709085,0.019501272588968277
0.023404883220791817,0.005501364357769489,-0.015909625217318535,0.01167496107518673,-0.0005128838820382953,0.01928338035941124
0.023358715698122978,0.006118003744632006,-0.016658402979373932,0.01145313959568739,-0.00048600463196635246,0.0189426951110363
0.02281782403588295,0.005819758400321007,-0.016348203644156456,0.011846993118524551,-0.0005481078987941146,0.018781468272209167
0.02290133759379387,0.005778423510491848,-0.017144788056612015,0.011571000330150127,-0.0005024076090194285,0.0199197456240654
0.023359281942248344,0.00537754874676466,-0.01697319559752941,0.01192410197108984,-0.0005368025740608573,0.020374057814478874
0.02317650057375431,0.005956779699772596,-0.016265861690044403,0.012184903025627136,-0.000532976002432406,0.01928265579044819
0.02409134991466999,0.006055629346519709,-0.016321226954460144,0.012554631568491459,-0.00048668996896594763,0.018372515216469765
0.02342291548848152,0.005714872851967812,-0.016610031947493553,0.01195228099822998,-0.0005119280540384352,0.018480854108929634
0.023366406559944153,0.005572232883423567,-0.016034692525863647,0.012053973972797394,-0.0005354781169444323,0.019453341141343117
0.023366406559944153,0.005572232883423567,-0.016034692525863647,0.012053973972797394,-0.0005354781169444323,0.019453341141343117
0.02391052059829235,0.005464331712573767,-0.016705632209777832,0.012078266590833664,-0.0005262081394903362,0.02024228498339653
0.023808550089597702,0.005881133023649454,-0.017176462337374687,0.012304055504500866,-0.0005621605669148266,0.02007799968123436
0.02370183728635311,0.0063588726334273815,-0.016625862568616867,0.012033450417220592,-0.000514519982971251,0.01982639729976654
0.023973511531949043,0.005564479622989893,-0.016955768689513206,0.011743854731321335,-0.0005428176373243332,0.019886327907443047
0.023837760090827942,0.005262947175651789,-0.016268236562609673,0.0126515943557024,-0.000539006432518363,0.019900545477867126
0.024297432973980904,0.005486534908413887,-0.016691677272319794,0.012009077705442905,-0.0005313313449732959,0.0199188981205225
0.024386977776885033,0.0056566037237644196,-0.01688467711210251,0.012159816920757294,-0.0004987740539945662,0.02019745297729969
0.02432294189929962,0.005910838022828102,-0.01711522974073887,0.012196061201393604,-0.0005457352381199598,0.019887447357177734
0.024394050240516663,0.005468243267387152,-0.01723318174481392,0.011710022576153278,-0.0004929654533043504,0.019795319065451622
0.024407297372817993,0.004826168529689312,-0.016471583396196365,0.012019656598567963,-0.0005211723037064075,0.020382696762681007
0.02424638345837593,0.004778630565851927,-0.016922447830438614,0.011772774159908295,-0.0004847599775530398,0.019992036744952202
0.024436311796307564,0.004577170126140118,-0.016701312735676765,0.012189756147563457,-0.0005143818561919034,0.019608672708272934
0.024534285068511963,0.00493627181276679,-0.016770409420132637,0.012071406468749046,-0.0004797285655513406,0.01954813301563263
0.02479972504079342,0.005380605347454548,-0.017096908763051033,0.011945659294724464,-0.00044603899004869163,0.02006261609494686
0.0252438485622406,0.0049643004313111305,-0.016453664749860764,0.012098507955670357,-0.0004679666890297085,0.020024077966809273
0.025128694251179695,0.004503113683313131,-0.016867490485310555,0.011806090362370014,-0.000445988611318171,0.020116692408919334
0.02470330521464348,0.0048337965272367,-0.016364989802241325,0.01237109862267971,-0.00042039708932861686,0.02006724290549755
0.024892613291740417,0.0048745060339570045,-0.017074277624487877,0.011509912088513374,-0.0004106809792574495,0.01995040662586689
0.02515382319688797,0.004572694189846516,-0.01671149954199791,0.011873207055032253,-0.0003793833311647177,0.020414819940924644
0.02527019754052162,0.004976105410605669,-0.016842946410179138,0.012415853329002857,-0.0004151209141127765,0.020239248871803284
0.025339704006910324,0.005347068887203932,-0.01714685931801796,0.011976203881204128,-0.0004209380713291466,0.020216509699821472
0.0257115475833416,0.004918340127915144,-0.016723770648241043,0.011511377990245819,-0.0004218747781123966,0.020313257351517677
0.02616424672305584,0.004852859769016504,-0.01704084500670433,0.011498373001813889,-0.000424778409069404,0.020416080951690674
0.02662506513297558,0.0047800601460039616,-0.01661699451506138,0.012208950705826283,-0.00042521487921476364,0.02053290233016014
0.025569163262844086,0.004406129475682974,-0.01718301512300968,0.012271215207874775,-0.0004934147582389414,0.020124344155192375
0.024404674768447876,0.004496813751757145,-0.017355065792798996,0.012106982991099358,-0.0005220051971264184,0.020255660638213158
0.026331035420298576,0.0049912817776203156,-0.01728496141731739,0.011860107071697712,-0.0005128486081957817,0.021048741415143013
0.025484731420874596,0.004464143421500921,-0.017054608091711998,0.012425059452652931,-0.0005067774909548461,0.02113935351371765
0.025484731420874596,0.004464143421500921,-0.017054608091711998,0.012425059452652931,-0.0005067774909548461,0.02113935351371765
0.02644132450222969,0.004526482429355383,-0.017428327351808548,0.012407010421156883,-0.0005008239531889558,0.02116103284060955
0.027307569980621338,0.004553589038550854,-0.017214560881257057,0.012437483295798302,-0.00046600474161095917,0.02062523551285267
0.027456937357783318,0.004646649584174156,-0.01701309159398079,0.012465975247323513,-0.0004796221910510212,0.02024363912642002
0.02711859531700611,0.005244126543402672,-0.017473267391324043,0.012140866369009018,-0.0004629805625882,0.01998894289135933
0.02564389631152153,0.005023565609008074,-0.017996137961745262,0.013411273248493671,-0.00043587267282418907,0.020671607926487923
0.025994647294282913,0.0049191806465387344,-0.017915742471814156,0.012464355677366257,-0.000426037993747741,0.021197080612182617
0.027131229639053345,0.0047872671857476234,-0.018045436590909958,0.012965689413249493,-0.000403001467930153,0.02098509855568409
0.02679898403584957,0.004879648331552744,-0.01740371622145176,0.012940810061991215,-0.00037075969157740474,0.02142118290066719
0.026283105835318565,0.004663169849663973,-0.017203953117132187,0.01336787361651659,-0.0003425769100431353,0.021780764684081078
0.026711147278547287,0.004922079388052225,-0.016982601955533028,0.013108253479003906,-0.00037752024945802987,0.021870560944080353
0.02673102356493473,0.004857802297919989,-0.01805891841650009,0.012232767418026924,-0.0003564506769180298,0.021774500608444214
0.025859875604510307,0.004667116329073906,-0.01836453005671501,0.012403793632984161,-0.00038649304769933224,0.021508242934942245
0.02635229006409645,0.0045379349030554295,-0.017505008727312088,0.012559126131236553,-0.0004060401115566492,0.020983733236789703
0.026664435863494873,0.00508358096703887,-0.017363106831908226,0.013479454442858696,-0.00039602749166078866,0.020904211327433586
0.026845937594771385,0.004967863205820322,-0.017753275111317635,0.013455159962177277,-0.00042740473872981966,0.021357819437980652
0.026913953945040703,0.004502444993704557,-0.01795933209359646,0.01277528703212738,-0.00043681456008926034,0.02235223725438118
0.02698362246155739,0.005101785995066166,-0.01895826682448387,0.013819217681884766,-0.00043994729639962316,0.022493522614240646
0.02668002061545849,0.004981790669262409,-0.01775820180773735,0.014051257632672787,-0.0004395100404508412,0.022405605763196945
0.026994379237294197,0.004669496323913336,-0.017882851883769035,0.013450476340949535,-0.0004415691364556551,0.022092005237936974
0.027000680565834045,0.004488821607083082,-0.01874384470283985,0.013685840182006359,-0.000440977601101622,0.02220187708735466
0.027258897200226784,0.0046973698772490025,-0.017971539869904518,0.013392942026257515,-0.0004650923074223101,0.022152915596961975
0.027067024260759354,0.004678152035921812,-0.01771746575832367,0.013548740185797215,-0.0004435422597452998,0.022409692406654358
0.026849014684557915,0.004844471346586943,-0.018101472407579422,0.0134489256888628,-0.0005398855428211391,0.022212916985154152
0.025594526901841164,0.004647455178201199,-0.018000822514295578,0.01333262212574482,-0.0004992639296688139,0.022279173135757446
0.02788800373673439,0.004980358760803938,-0.018591852858662605,0.013473942875862122,-0.0005340577918104827,0.022274572402238846
0.02818898670375347,0.0049699353985488415,-0.018281634896993637,0.013716897927224636,-0.0005509732291102409,0.022479329258203506
0.027374371886253357,0.004356291610747576,-0.018283076584339142,0.013557006604969501,-0.0005516309756785631,0.022514263167977333
0.027374371886253357,0.004356291610747576,-0.018283076584339142,0.013557006604969501,-0.0005516309756785631,0.022514263167977333
0.026475029066205025,0.0043221269734203815,-0.017801161855459213,0.013857041485607624,-0.0006568183889612556,0.022719867527484894
0.02756711281836033,0.004748070612549782,-0.018384836614131927,0.013555479235947132,-0.0006954293930903077,0.022617708891630173
0.028341704979538918,0.005188447423279285,-0.01853267289698124,0.013632601127028465,-0.0006295486818999052,0.02385919913649559
0.02736138552427292,0.004637870471924543,-0.017968744039535522,0.01308759767562151,-0.0006333535420708358,0.022143026813864708
0.02791699580848217,0.00449736462906003,-0.018326064571738243,0.013740882277488708,-0.0005947020254097879,0.0221316609531641
0.028773928061127663,0.004554105922579765,-0.018149131909012794,0.013983267359435558,-0.0005631141248159111,0.023342840373516083
0.028773928061127663,0.004554105922579765,-0.018149131909012794,0.013983267359435558,-0.0005631141248159111,0.023342840373516083
0.02870449610054493,0.004713077563792467,-0.01851232722401619,0.013714493252336979,-0.0005300522316247225,0.02299996092915535
0.0278642475605011,0.00506034679710865,-0.018195947632193565,0.014453679323196411,-0.0005105446325615048,0.02293960377573967
0.027757681906223297,0.005290971137583256,-0.018261974677443504,0.014029261656105518,-0.0004655042430385947,0.02300533466041088
0.028528552502393723,0.004968670196831226,-0.018636327236890793,0.014800581149756908,-0.0005006546853110194,0.02319115400314331
0.02891594171524048,0.0049224901013076305,-0.018216852098703384,0.014414067380130291,-0.0004628552997019142,0.023403193801641464
0.028645657002925873,0.004766833037137985,-0.018489830195903778,0.014530880376696587,-0.00048793331370688975,0.02333422750234604
0.02895820327103138,0.004736016504466534,-0.018639225512742996,0.013767325319349766,-0.00046061439206823707,0.02299598418176174
0.028881849721074104,0.005270264111459255,-0.01799556240439415,0.01452173013240099,-0.00047487602569162846,0.022924121469259262
0.028547435998916626,0.005018624477088451,-0.01859978958964348,0.014111526310443878,-0.00045871513430029154,0.023095447570085526
0.028909999877214432,0.004778122063726187,-0.01880708709359169,0.014643104746937752,-0.0005046458099968731,0.023194199427962303
0.028905877843499184,0.005020547192543745,-0.01810825616121292,0.014129361137747765,-0.0005226777284406126,0.022983066737651825
0.029163016006350517,0.004848840646445751,-0.018472252413630486,0.014713870361447334,-0.0005157592822797596,0.02289353683590889
0.029291708022356033,0.004902748856693506,-0.018242724239826202,0.014322873204946518,-0.0005311639397405088,0.02332608960568905
0.029355673119425774,0.004788748919963837,-0.018394803628325462,0.014498784206807613,-0.0005065067089162767,0.0234043188393116
0.029792319983243942,0.004684834275394678,-0.019040577113628387,0.013872897252440453,-0.0005192006938159466,0.02368415705859661
0.029558472335338593,0.0046987384557724,-0.018234288319945335,0.014607335440814495,-0.0004986337153241038,0.02412289008498192
0.02948913909494877,0.004800877999514341,-0.018310731276869774,0.014383077621459961,-0.00046798831317573786,0.024096570909023285
0.0299624502658844,0.004588513169437647,-0.01872916892170906,0.014746285043656826,-0.0005256253061816096,0.023814423009753227
0.029515709728002548,0.004899677820503712,-0.018305618315935135,0.014594139531254768,-0.0005593631649389863,0.022864503785967827
0.029500475153326988,0.004711434710770845,-0.018546098843216896,0.014658527448773384,-0.0005486528389155865,0.0234858226031065
0.029500475153326988,0.004711434710770845,-0.018546098843216896,0.014658527448773384,-0.0005486528389155865,0.0234858226031065
0.029851585626602173,0.004610596224665642,-0.018170077353715897,0.01474708691239357,-0.0005601420998573303,0.024002576246857643
0.030201010406017303,0.004918327089399099,-0.018953394144773483,0.014089120551943779,-0.0005351388826966286,0.02378271147608757
0.029976479709148407,0.004975148476660252,-0.019169684499502182,0.014891447499394417,-0.000573274097405374,0.023962903767824173
0.030501602217555046,0.004438977222889662,-0.01834106259047985,0.014556584879755974,-0.0005729111144319177,0.025167591869831085
0.0305735282599926,0.004957704804837704,-0.018753480166196823,0.01494600623846054,-0.0006073612603358924,0.02477244660258293
0.03068605251610279,0.004860169719904661,-0.018939731642603874,0.014548041857779026,-0.0005517505924217403,0.02426777221262455
0.030864441767334938,0.004845898598432541,-0.018496230244636536,0.015050796791911125,-0.0005784123786725104,0.023425979539752007
0.031109096482396126,0.004774801433086395,-0.019006092101335526,0.014821318909525871,-0.0006002465379424393,0.02422313578426838
0.03095165640115738,0.004688615910708904,-0.018672004342079163,0.014718628488481045,-0.0005666154902428389,0.024530857801437378
0.030555862933397293,0.004633702337741852,-0.01869678869843483,0.014308792538940907,-0.0006244773976504803,0.024655262008309364
0.030687784776091576,0.00472573796287179,-0.019474461674690247,0.014585867524147034,-0.0006592783611267805,0.024243062362074852
0.031163910403847694,0.004593317862600088,-0.02029339224100113,0.01461772434413433,-0.000679129152558744,0.02393871732056141
0.03168733790516853,0.004302600398659706,-0.01950042136013508,0.015418685041368008,-0.0006667966954410076,0.024298762902617455
0.0317121222615242,0.004375819116830826,-0.01920868456363678,0.01510873157531023,-0.0006492259562946856,0.024227533489465714
0.029956383630633354,0.004588211886584759,-0.018778130412101746,0.015260400250554085,-0.0007443648064509034,0.024492306634783745
0.030818738043308258,0.00466556940227747,-0.0188875924795866,0.014913881197571754,-0.0007614045753143728,0.024252694100141525
0.03147503361105919,0.0046675256453454494,-0.019367385655641556,0.014742397703230381,-0.0007354239351116121,0.02411915920674801
0.03149028867483139,0.004970830865204334,-0.019184261560440063,0.014094744808971882,-0.0007026618695817888,0.02451333962380886
0.032319582998752594,0.004754757042974234,-0.019531190395355225,0.014598497189581394,-0.0007130568847060204,0.024653220549225807
0.032097380608320236,0.00439173961058259,-0.01925704814493656,0.014868495054543018,-0.0006636877078562975,0.024654727429151535
0.03134458139538765,0.0042958869598805904,-0.019134800881147385,0.015406251884996891,-0.0006525502540171146,0.02446768619120121
0.031242968514561653,0.004253010731190443,-0.019412873312830925,0.015997346490621567,-0.0006732625188305974,0.024763328954577446
0.031306952238082886,0.004370308015495539,-0.019877053797245026,0.015662355348467827,-0.0006106963264755905,0.024596786126494408
0.0320931039750576,0.0045895869843661785,-0.019803868606686592,0.01589726284146309,-0.0006281317328102887,0.02498088777065277
0.031524043530225754,0.0045520537532866,-0.020023444667458534,0.01618756726384163,-0.0005882299155928195,0.025562357157468796
0.03215179964900017,0.00419762684032321,-0.01942383497953415,0.01586015895009041,-0.0005597833078354597,0.025365440174937248
0.032249897718429565,0.0043112412095069885,-0.01907436177134514,0.015722697600722313,-0.0005596692208200693,0.02582324855029583
0.032249897718429565,0.0043112412095069885,-0.01907436177134514,0.015722697600722313,-0.0005596692208200693,0.02582324855029583
0.031990230083465576,0.004083139356225729,-0.01897023431956768,0.015516014769673347,-0.0005915911751799285,0.02554496005177498
0.032365813851356506,0.004425411578267813,-0.020189529284834862,0.015950990840792656,-0.0006223434465937316,0.025471767410635948
0.03212731331586838,0.004694759380072355,-0.019552169367671013,0.016201114282011986,-0.0006371483323164284,0.025331823155283928
0.031755734235048294,0.004495576955378056,-0.019388940185308456,0.01606806367635727,-0.0006036101840436459,0.025102587416768074
0.03211699053645134,0.004193028900772333,-0.019884629175066948,0.016552915796637535,-0.0007735391845926642,0.025575334206223488
0.0324602946639061,0.0038777790032327175,-0.01968025043606758,0.015870291739702225,-0.0008003719849511981,0.026586394757032394
0.032116521149873734,0.0038534130435436964,-0.019817618653178215,0.016178572550415993,-0.0008138380362652242,0.026411371305584908
0.03234833851456642,0.004357381258159876,-0.02002030797302723,0.015415148809552193,-0.0008167263003997505,0.025867599993944168
0.03229113295674324,0.004486321937292814,-0.019512757658958435,0.015951810404658318,-0.0007447306998074055,0.025126095861196518
0.033581048250198364,0.004315891303122044,-0.019597461447119713,0.015815947204828262,-0.0007619158714078367,0.025338225066661835
0.033319052308797836,0.00406792713329196,-0.019661759957671165,0.01600528322160244,-0.0006661565857939422,0.026187598705291748
0.03181189298629761,0.004391160327941179,-0.019358733668923378,0.015706097707152367,-0.0006655146135017276,0.025751737877726555
0.032182104885578156,0.004171405918896198,-0.01973661594092846,0.01588105596601963,-0.0006153646390885115,0.026060519739985466
0.03336791694164276,0.004097370430827141,-0.020054323598742485,0.016139093786478043,-0.0006332576158456504,0.0266707856208086
0.03273840993642807,0.0038916587363928556,-0.01997312717139721,0.01565392129123211,-0.0006256290944293141,0.026670847088098526
0.03385910019278526,0.0038081782404333353,-0.019837582483887672,0.015892595052719116,-0.0006098769954405725,0.026107443496584892
0.03397362306714058,0.003884381614625454,-0.01993340253829956,0.015804627910256386,-0.000565197435207665,0.025955794379115105
0.03395339846611023,0.004401274025440216,-0.01986527629196644,0.01639261096715927,-0.0005252960836514831,0.025854263454675674
0.032158687710762024,0.004142367746680975,-0.01943652518093586,0.016396526247262955,-0.0005407918361015618,0.027012595906853676
0.03313237056136131,0.003913708962500095,-0.019757848232984543,0.016553478315472603,-0.0005108743789605796,0.027648402377963066
0.033626262098550797,0.0038628242909908295,-0.0196257121860981,0.016006093472242355,-0.0005640253075398505,0.026466039940714836
0.033626262098550797,0.0038628242909908295,-0.0196257121860981,0.016006093472242355,-0.0005640253075398505,0.026466039940714836
0.03377407416701317,0.0038647090550512075,-0.020412355661392212,0.016135066747665405,-0.0007535371114499867,0.026275644078850746
0.03377407416701317,0.0038647090550512075,-0.020412355661392212,0.016135066747665405,-0.0007535371114499867,0.026275644078850746
0.03381766378879547,0.004345218185335398,-0.019695157185196877,0.016955621540546417,-0.0007773293182253838,0.02633272483944893
0.03373250737786293,0.0041414895094931126,-0.01970457099378109,0.01667913980782032,-0.000791720871347934,0.02676100842654705
0.03385641425848007,0.003918868489563465,-0.019912421703338623,0.01668219082057476,-0.0007355387788265944,0.027167117223143578
0.03386612981557846,0.0038538582157343626,-0.020097248256206512,0.016812428832054138,-0.0008332642028108239,0.02714713290333748
0.03421573340892792,0.0038651335053145885,-0.01979445107281208,0.016276080161333084,-0.0008615241968072951,0.02713507041335106
0.03425665572285652,0.004345552995800972,-0.019783714786171913,0.01661398634314537,-0.0008593475795350969,0.027381444349884987
0.03448714688420296,0.004260920453816652,-0.020284049212932587,0.016460729762911797,-0.0008220382151193917,0.027285918593406677
0.03443014621734619,0.0042826514691114426,-0.0202696081250906,0.01726464554667473,-0.0007807143847458065,0.027143610641360283
0.034741584211587906,0.004515394102782011,-0.020525582134723663,0.016720253974199295,-0.0007452614954672754,0.027673792093992233
0.035263676196336746,0.004169154446572065,-0.02044197916984558,0.01666359417140484,-0.0007701072026975453,0.027644723653793335
0.034648701548576355,0.00395706482231617,-0.019945336505770683,0.01733059249818325,-0.0007872753194533288,0.027754852548241615
0.03435372933745384,0.003891760716214776,-0.01976766251027584,0.016815003007650375,-0.0007246900931932032,0.02789284475147724
0.03566138446331024,0.004284469876438379,-0.02033305913209915,0.01711459457874298,-0.000737787049729377,0.02773001603782177
0.03554369509220123,0.00427964935079217,-0.020198224112391472,0.01659373939037323,-0.0006743682315573096,0.027213167399168015
0.03508758544921875,0.003959376830607653,-0.020654043182730675,0.01686352863907814,-0.0007033864385448396,0.027841560542583466
0.03462889418005943,0.004269465338438749,-0.020507000386714935,0.01700521633028984,-0.0006815451779402792,0.027824047952890396
0.03530668839812279,0.0041731600649654865,-0.020337140187621117,0.01716638170182705,-0.0006526053766719997,0.027918880805373192
0.035829104483127594,0.004061076790094376,-0.019993029534816742,0.01747913844883442,-0.0006691527087241411,0.027723561972379684
0.035840313881635666,0.003990920260548592,-0.02141960710287094,0.01789628341794014,-0.0006577215972356498,0.028763605281710625
0.035738278180360794,0.003960894886404276,-0.021114854142069817,0.01746814139187336,-0.0006384068983606994,0.029097016900777817
0.035512715578079224,0.00439778296276927,-0.0204888004809618,0.01711426116526127,-0.0006636262987740338,0.028958173468708992
0.035474635660648346,0.004211256746202707,-0.020723456516861916,0.01680057682096958,-0.0006767318118363619,0.029925893992185593
0.03593355417251587,0.004484032280743122,-0.020834757015109062,0.017246989533305168,-0.0006754895439371467,0.030078377574682236
0.03711835294961929,0.00469058146700263,-0.02103179693222046,0.01685151644051075,-0.0007205290021374822,0.029037078842520714
0.03711835294961929,0.00469058146700263,-0.02103179693222046,0.01685151644051075,-0.0007205290021374822,0.029037078842520714
0.036154989153146744,0.004153962712734938,-0.021428240463137627,0.017135435715317726,-0.0008110724156722426,0.029466940090060234
0.036097537726163864,0.004473626147955656,-0.02114560268819332,0.018011201173067093,-0.0007994312327355146,0.029057122766971588
0.036097537726163864,0.004473626147955656,-0.02114560268819332,0.018011201173067093,-0.0007994312327355146,0.029057122766971588
0.03653169795870781,0.004082552157342434,-0.020802147686481476,0.01813790574669838,-0.0007331520318984985,0.029477039352059364
0.03800871968269348,0.0043091014958918095,-0.021586677059531212,0.018544547259807587,-0.0007453907746821642,0.030023815110325813
0.03719986230134964,0.00433659553527832,-0.021405335515737534,0.019103066995739937,-0.0007157461368478835,0.029864680022001266
0.03531642630696297,0.0040567959658801556,-0.021033134311437607,0.018934540450572968,-0.0006502428441308439,0.02914487197995186
0.03604420647025108,0.004210915882140398,-0.02090277522802353,0.01869923807680607,-0.0006679544458165765,0.02828221209347248
0.03759516030550003,0.004283120855689049,-0.020841218531131744,0.018725527450442314,-0.0006931627867743373,0.02894953265786171
0.03710205852985382,0.0043077850714325905,-0.021047130227088928,0.01794230192899704,-0.0006795649533160031,0.02980264276266098
0.037408068776130676,0.004182663280516863,-0.02081291936337948,0.018259761855006218,-0.0006577136227861047,0.030115477740764618
0.03734173625707626,0.0044760326854884624,-0.020972199738025665,0.018125129863619804,-0.0006619244231842458,0.03005785122513771
0.036796364933252335,0.0041940719820559025,-0.020863359794020653,0.017827071249485016,-0.0007176170474849641,0.030147571116685867
0.03725538030266762,0.004331672098487616,-0.02136373519897461,0.018685005605220795,-0.0007416274165734649,0.029910041019320488
0.03703658655285835,0.004242816008627415,-0.02119307965040207,0.018724024295806885,-0.0007591361063532531,0.029883045703172684
0.03747354820370674,0.0044549740850925446,-0.020852886140346527,0.018522821366786957,-0.0008710849797353148,0.029896995052695274
0.03705724701285362,0.004437995608896017,-0.02125837840139866,0.01863199658691883,-0.0009835060918703675,0.02975020557641983
0.03703634440898895,0.004296779632568359,-0.021626215428113937,0.018259622156620026,-0.0008719086181372404,0.029659882187843323
0.03840373456478119,0.004417750984430313,-0.020933035761117935,0.018500465899705887,-0.0008441352983936667,0.029790958389639854
0.03839245066046715,0.004499342292547226,-0.021291762590408325,0.018641319125890732,-0.000768769474234432,0.03016437217593193
0.03636591136455536,0.004294763784855604,-0.02151137962937355,0.01838223822414875,-0.0007709614583291113,0.03044532611966133
0.03639603778719902,0.004451884422451258,-0.021258465945720673,0.018557554110884666,-0.0007132536848075688,0.028710894286632538
0.03785206004977226,0.004452581983059645,-0.02092893235385418,0.018922310322523117,-0.0007130269077606499,0.030485592782497406
0.0372740812599659,0.0047236038371920586,-0.02138892002403736,0.018602266907691956,-0.0007068341947160661,0.030680499970912933
0.038589172065258026,0.0043141706846654415,-0.021586494520306587,0.01877579465508461,-0.0006790937623009086,0.030285218730568886
0.038109730929136276,0.0045345621183514595,-0.021361907944083214,0.0187783595174551,-0.0006974621210247278,0.030770596116781235
0.03767470270395279,0.004251656122505665,-0.021146226674318314,0.018725667148828506,-0.0009031276567839086,0.0310526043176651
0.03872106969356537,0.004348050337284803,-0.02151588350534439,0.018633944913744926,-0.0009084790945053101,0.03046729974448681
0.03872106969356537,0.004348050337284803,-0.02151588350534439,0.018633944913744926,-0.0009084790945053101,0.03046729974448681
0.03845791146159172,0.004528386984020472,-0.021148234605789185,0.01838473603129387,-0.0008607435738667846,0.03076092153787613
0.03795035928487778,0.004678946454077959,-0.021476566791534424,0.018648704513907433,-0.0009511375683359802,0.03221089765429497
0.0382220633327961,0.004210630431771278,-0.021585267037153244,0.01820826344192028,-0.0009472613455727696,0.03203072398900986
0.038485173135995865,0.0044509959407150745,-0.02140624262392521,0.018739817664027214,-0.0009309062152169645,0.03080248087644577
0.038965363055467606,0.00460346695035696,-0.02153065614402294,0.01948067918419838,-0.0009261947125196457,0.03050430677831173
0.03861476108431816,0.004583515226840973,-0.021813655272126198,0.019208405166864395,-0.0008752417052164674,0.0313199907541275
0.038662198930978775,0.0045740632340312,-0.0223533995449543,0.019265739247202873,-0.0008439865778200328,0.03159067779779434
0.03869614750146866,0.004611991345882416,-0.022255172953009605,0.019668806344270706,-0.0007872228161431849,0.031787335872650146
0.039271920919418335,0.0045830546878278255,-0.022149836644530296,0.019256925210356712,-0.0007893999572843313,0.03292323276400566
0.03921325132250786,0.004814172629266977,-0.02140357717871666,0.018970323726534843,-0.0007624413701705635,0.03208902105689049
0.03887765109539032,0.004840738605707884,-0.021712062880396843,0.019080525264143944,-0.000729789084289223,0.03095773234963417
0.039831362664699554,0.004810853861272335,-0.022443657740950584,0.018772434443235397,-0.000715410802513361,0.03106357716023922
0.039707381278276443,0.004584728740155697,-0.022469662129878998,0.01868312433362007,-0.0007346879574470222,0.03250503912568092
0.03969045355916023,0.004598854575306177,-0.02132437936961651,0.0190066397190094,-0.0007545258849859238,0.03272980451583862
0.0400092676281929,0.00471154460683465,-0.022232240065932274,0.019349675625562668,-0.0007576585630886257,0.032050877809524536
0.039875540882349014,0.004926836583763361,-0.022868657484650612,0.019803931936621666,-0.0008290893165394664,0.03306443244218826
0.04045797139406204,0.004837610758841038,-0.02261154167354107,0.020769217982888222,-0.0008798753842711449,0.03274551406502724
0.04002269357442856,0.0047944397665560246,-0.021755138412117958,0.020113328471779823,-0.0008857013890519738,0.03196565806865692
0.040460143238306046,0.004218589048832655,-0.02150377444922924,0.019590742886066437,-0.0008309169206768274,0.03210141882300377
0.04031021147966385,0.004424909129738808,-0.021860036998987198,0.019352072849869728,-0.0008280337788164616,0.03225215524435043
0.040366191416978836,0.0047206268645823,-0.022280991077423096,0.019241662696003914,-0.0008423830149695277,0.032646454870700836
0.0410565622150898,0.004355415236204863,-0.02205277979373932,0.019867872819304466,-0.0008469260646961629,0.03301658108830452
0.0410565622150898,0.004355415236204863,-0.02205277979373932,0.019867872819304466,-0.0008469260646961629,0.03301658108830452
0.040759097784757614,0.005190928000956774,-0.022377334535121918,0.020843056961894035,-0.0008300426416099072,0.033000245690345764
0.04166078194975853,0.004464597906917334,-0.022639017552137375,0.02111656405031681,-0.0009048937354236841,0.03325185552239418
0.0396750383079052,0.004380819853395224,-0.02210104651749134,0.02110339142382145,-0.000838644162286073,0.03307590261101723
0.04133929684758186,0.004595300182700157,-0.022084297612309456,0.02034466527402401,-0.000842445413582027,0.033178552985191345
0.04133929684758186,0.004595300182700157,-0.022084297612309456,0.02034466527402401,-0.000842445413582027,0.033178552985191345
0.04181990399956703,0.004612211603671312,-0.02231399528682232,0.019624928012490273,-0.0008277397137135267,0.03324154019355774
0.04215065762400627,0.0048156981356441975,-0.022871991619467735,0.01997442916035652,-0.0007641411502845585,0.033395785838365555
0.04351743310689926,0.004830231424421072,-0.022726502269506454,0.019891375675797462,-0.0007313790847547352,0.03362070769071579
0.04029187560081482,0.005145688075572252,-0.022601770237088203,0.019399521872401237,-0.0007552027818746865,0.03377537801861763
0.041924986988306046,0.004900864325463772,-0.02305298112332821,0.019903933629393578,-0.0007731163641437888,0.03216521069407463
0.042072247713804245,0.004494494292885065,-0.023252472281455994,0.020560238510370255,-0.000795628409832716,0.03401597589254379
0.0422653928399086,0.004498690832406282,-0.02281305193901062,0.020110618323087692,-0.0010780818993225694,0.035225626081228256
0.042097270488739014,0.005149071104824543,-0.02278316207230091,0.020130563527345657,-0.0010644013527780771,0.03556111827492714
0.042163439095020294,0.005227050743997097,-0.022608065977692604,0.02019914798438549,-0.0009430950740352273,0.033123888075351715
0.042168259620666504,0.004473444074392319,-0.022592904046177864,0.02002314291894436,-0.0009228628478012979,0.0333435945212841
