davideferrari95/blind_handover_controller/data/Test 100 - [2024-02-07 -- 16-16-22]/joint_states_data.csv
shoulder_pan_joint,shoulder_lift_joint,elbow_joint,wrist_1_joint,wrist_2_joint,wrist_3_joint
0.0025190056767314672,0.00025462909252382815,-0.002550157019868493,0.00034526654053479433,0.00032159427064470947,0.002178947441279888
0.0025190056767314672,0.00025462909252382815,-0.002550157019868493,0.00034526654053479433,0.00032159427064470947,0.002178947441279888
0.0025190056767314672,0.00025462909252382815,-0.002550157019868493,0.00034526654053479433,0.00032159427064470947,0.002178947441279888
0.0022543722297996283,0.0002326790854567662,-0.0025144945830106735,0.00037724198773503304,0.00030663658981211483,0.00207134778611362
0.002149958163499832,0.00021421258861664683,-0.0024622001219540834,0.0003597497125156224,0.00029035937041044235,0.002095745876431465
0.0023221371229737997,0.0002416727365925908,-0.0023646929766982794,0.0003864052123390138,0.0003094338171649724,0.0021409448236227036
0.0022557610645890236,0.000246185518335551,-0.0027513704262673855,0.00037036521825939417,0.0003050795348826796,0.0025726144667714834
0.0024924424942582846,0.00023069158487487584,-0.003032056149095297,0.000396780640585348,0.0003224171232432127,0.0027098951395601034
0.002583929570391774,0.0003326343430671841,-0.0026584200095385313,0.0004954825853928924,0.00030506280018016696,0.002245000097900629
0.00258343992754817,0.0003678393259178847,-0.0026175074744969606,0.0005330053390935063,0.0002933256037067622,0.002053454052656889
0.0025270588230341673,0.0003408156044315547,-0.002640130463987589,0.000505393894854933,0.00036870731855742633,0.0022291310597211123
0.002436605514958501,0.0003168272669427097,-0.00320752477273345,0.0005300360498949885,0.00034680019598454237,0.0024595819413661957
0.002747501712292433,0.0003543295606505126,-0.0029634698294103146,0.0005317709292285144,0.0003697561623994261,0.002453256631270051
0.0029293044935911894,0.0003332440392114222,-0.003061163006350398,0.0005249987589195371,0.0003598803887143731,0.002507598139345646
0.002998877316713333,0.0003599551855586469,-0.002983350306749344,0.0006436191615648568,0.00033829265157692134,0.0022064775694161654
0.0027540980372577906,0.00034599396167322993,-0.00301434681750834,0.0006853353697806597,0.0003642936935648322,0.0020699857268482447
0.0025590993463993073,0.00035875337198376656,-0.0031746425665915012,0.0007176920771598816,0.0003503102925606072,0.001898639602586627
0.002580984029918909,0.00035614511580206454,-0.003134960075840354,0.000740020361263305,0.0003553888527676463,0.0018831933848559856
0.002466991078108549,0.0004366548964753747,-0.002909247297793627,0.0010636062361299992,0.00035911769373342395,0.0021763767581433058
0.0028647910803556442,0.00048120177234523,-0.0027893749065697193,0.0010536605259403586,0.00034426653292030096,0.0023326720111072063
0.00304990541189909,0.0005077449604868889,-0.0027581192553043365,0.0010313477832823992,0.0004078170459251851,0.002699764911085367
0.002902878914028406,0.000521926034707576,-0.002859527710825205,0.000957470154389739,0.0003796143864747137,0.0024658276233822107
0.0027579767629504204,0.0005069471662864089,-0.003151756478473544,0.00092350720660761,0.0004155643982812762,0.0023715640418231487
0.0027824025601148605,0.0007379876333288848,-0.003234711941331625,0.0009907830972224474,0.0003898235154338181,0.002155573572963476
0.002553248777985573,0.0007496940088458359,-0.003349818754941225,0.0010152645409107208,0.00039327889680862427,0.0020580010022968054
0.002470620209351182,0.000693950685672462,-0.0031839010771363974,0.0011025866260752082,0.0003956379950977862,0.001964161405339837
0.002662624465301633,0.0007135050254873931,-0.0030245103407651186,0.0011063194833695889,0.00037391853402368724,0.0019289426272735
0.0027553634718060493,0.0006443929742090404,-0.0031664539128541946,0.0011581556173041463,0.0003967080847360194,0.002125099068507552
0.002563473070040345,0.0006669021095149219,-0.003227277658879757,0.0011906520230695605,0.00038165159639902413,0.0022954887244850397
0.002705393126234412,0.0006750298198312521,-0.0030448813922703266,0.0013253727229312062,0.0003628046251833439,0.002513709245249629
0.002705393126234412,0.0006750298198312521,-0.0030448813922703266,0.0013253727229312062,0.0003628046251833439,0.002513709245249629
0.0028758130501955748,0.0007237090030685067,-0.003255053423345089,0.001331231789663434,0.00037930122925899923,0.002120114164426923
0.002753543434664607,0.0007496890029869974,-0.0029841300565749407,0.001390277175232768,0.00035035648033954203,0.0017616726690903306
0.002817160915583372,0.0009798810351639986,-0.0031444330234080553,0.0013053537113592029,0.0003250682493671775,0.0017105544684454799
0.002817160915583372,0.0009798810351639986,-0.0031444330234080553,0.0013053537113592029,0.0003250682493671775,0.0017105544684454799
0.0030729479622095823,0.0009978734888136387,-0.003379810368642211,0.001233514049090445,0.0003326083824504167,0.002139289630576968
0.0030608673114329576,0.0009714005282148719,-0.003220489714294672,0.0012083150213584304,0.0003387790056876838,0.0025352139491587877
0.0026607715990394354,0.0008585462346673012,-0.003086961107328534,0.0012681341031566262,0.00030259150662459433,0.0023949253372848034
0.002723728772252798,0.0008005143608897924,-0.0031378455460071564,0.0014041912509128451,0.00028653681511059403,0.002063650405034423
0.0028516550082713366,0.0008141535799950361,-0.0031770006753504276,0.0013640050310641527,0.00027209409745410085,0.0017934015486389399
0.00270738173276186,0.0008256267174147069,-0.002969317603856325,0.0013141443487256765,0.0002909069007728249,0.0016722602304071188
0.003017393872141838,0.0008344227098859847,-0.002960194367915392,0.001248399494215846,0.0002876355720218271,0.0016365222400054336
0.0030487447511404753,0.0009921727469190955,-0.0032666788902133703,0.0012763447593897581,0.0002757002948783338,0.002088317181915045
0.0028756284154951572,0.0010010086698457599,-0.003085516393184662,0.001245102845132351,0.0002641793980728835,0.00240524229593575
0.002736086258664727,0.00098537711892277,-0.0031899844761937857,0.0012342249974608421,0.00025354805984534323,0.002571085235103965
0.0028104668017476797,0.0009737089276313782,-0.003234152216464281,0.0013100934447720647,0.00024373678024858236,0.002453804248943925
0.002886157250031829,0.0009647140977904201,-0.0035290441010147333,0.0013223615242168307,0.00023465686535928398,0.002128646243363619
0.003003789111971855,0.0009828237816691399,-0.0033370160963386297,0.0014341456117108464,0.000226229167310521,0.002002399181947112
0.0032580133993178606,0.000970284512732178,-0.003193045035004616,0.0013676754897460341,0.0002183857432100922,0.0018950573867186904
0.0030150332022458315,0.0009329377789981663,-0.0032883717212826014,0.0013019194593653083,0.00021106848726049066,0.0020825103856623173
0.0032135802321135998,0.0009700496448203921,-0.0032252126839011908,0.001323077012784779,0.00020422552188392729,0.0022904439829289913
0.0033224443905055523,0.00099598104134202,-0.0032608320470899343,0.0012932821409776807,0.00019781224546022713,0.0023342021740972996
0.0031714439392089844,0.0009928978979587555,-0.0033664912916719913,0.0012181628262624145,0.00019178968796040863,0.002414218382909894
0.0030694857705384493,0.0009962460026144981,-0.003348379163071513,0.0012689755531027913,0.00018612314306665212,0.0021557575091719627
0.0034981186036020517,0.0012709262082353234,-0.0035178549587726593,0.0012722838437184691,0.00018078184803016484,0.002225026022642851
0.0032139031682163477,0.00132970220874995,-0.003449847688898444,0.0014616284752264619,0.0001975315681193024,0.0021365410648286343
0.0032139031682163477,0.00132970220874995,-0.003449847688898444,0.0014616284752264619,0.0001975315681193024,0.0021365410648286343
0.0032490219455212355,0.0011978562688454986,-0.0034427386708557606,0.0013967057457193732,0.00019517673354130238,0.0020639568101614714
0.0031288997270166874,0.0012361181434243917,-0.0023580966517329216,0.0015485519543290138,0.00018533223192207515,0.002051684772595763
0.003067783545702696,0.001180152059532702,-0.0017826523398980498,0.0015130136162042618,0.00018068209465127438,0.0020340976770967245
0.003067783545702696,0.001180152059532702,-0.0017826523398980498,0.0015130136162042618,0.00018068209465127438,0.0020340976770967245
0.003477343125268817,0.0010721845319494605,-0.0013893145369365811,0.0015731247840449214,0.00017625873442739248,0.0019871729891747236
0.003287326078861952,0.0010417259763926268,-0.0012929325457662344,0.0013345899060368538,0.00017204679897986352,0.0018770768074318767
0.0032565060537308455,0.0010305101750418544,-0.0009611648274585605,0.0011608066270127892,0.00016803116886876523,0.001849105698056519
0.0031978676561266184,0.001026667538098991,-0.0010775858536362648,0.0010025699157267809,0.0001641991111682728,0.0019847771618515253
0.003188466653227806,0.0012392794014886022,-0.001939068897627294,0.0010333021637052298,0.00016053792205639184,0.002027350477874279
0.003469361225143075,0.0013072710717096925,-0.0019304660381749272,0.0011059450916945934,0.00015703622193541378,0.002329241018742323
0.0033435558434575796,0.001550832879729569,-0.0012326453579589725,0.00248055555857718,0.00015047227498143911,0.00240666838362813
0.0030140553135424852,0.0014381057117134333,-0.0011517885141074657,0.0023277802392840385,0.00014739188191015273,0.0021745131816715
0.003143229754641652,0.0013051111018285155,-0.0011069143656641245,0.001806052285246551,0.00014443500549532473,0.0020594021771103144
0.003326252568513155,0.001348174992017448,-0.0010625423165038228,0.0014789741253480315,0.0001415944134350866,0.0018677213229238987
0.003230293979868293,0.0013191981706768274,-0.0011373200686648488,0.001343830139376223,0.00013886352826375514,0.0018826094456017017
0.003387901932001114,0.0014513753121718764,-0.0017124137375503778,0.0013063160004094243,0.00011331708810757846,0.0021003156434744596
0.0032247959170490503,0.0015600990736857057,-0.0021665373351424932,0.0012361541157588363,0.00010344257316319272,0.0019583958201110363
0.0030695984605699778,0.0020731380209326744,-0.0022582043893635273,0.0013333786046132445,0.00010065372043754905,0.0020377368200570345
0.0031920194160193205,0.0018599537434056401,-0.0019456688314676285,0.001584357232786715,9.842126746661961e-05,0.0020641274750232697
0.0032167739700526,0.001729171141050756,-0.0017632452072575688,0.0017040701350197196,9.631265129428357e-05,0.002253384329378605
0.003000708995386958,0.0015768167795613408,-0.0017102902056649327,0.0016814424889162183,9.429419878870249e-05,0.0022775910329073668
0.0029633764643222094,0.0015435842797160149,-0.001943831448443234,0.0017196760745719075,9.235888865077868e-05,0.002184648532420397
0.002798344474285841,0.0015751883620396256,-0.0022529836278408766,0.0015795151703059673,9.050138760358095e-05,0.0020583190489560366
0.0031788425985723734,0.0018482129089534283,-0.0024318427313119173,0.0015385245205834508,8.871716272551566e-05,0.001994968857616186
0.0033586579374969006,0.0019767486955970526,-0.0022710764314979315,0.0015292724128812551,8.700190664967522e-05,0.0021114512346684933
0.0030843382701277733,0.0019525752868503332,-0.002027788432314992,0.0017642813036218286,8.535165397915989e-05,0.0020135703962296247
0.0029325636569410563,0.0019060769118368626,-0.0018986177165061235,0.0018418198451399803,8.376291225431487e-05,0.00221987534314394
0.0029325636569410563,0.0019060769118368626,-0.0018986177165061235,0.0018418198451399803,8.376291225431487e-05,0.00221987534314394
0.0029338242020457983,0.0017345421947538853,-0.0018153074197471142,0.002064919099211693,8.223218901548535e-05,0.0023700923193246126
0.0030163342598825693,0.001630044193007052,-0.0018157984595745802,0.002003723056986928,8.075642836047336e-05,0.002252117032185197
0.0031524598598480225,0.001613555708900094,-0.0020742786582559347,0.0016280383570119739,7.933267625048757e-05,0.001879847259260714
0.003140766639262438,0.001501855324022472,-0.0020903474651277065,0.001597199821844697,7.795831334078684e-05,0.001743145752698183
0.003317049937322736,0.001612189575098455,-0.002410469576716423,0.0015088508371263742,7.66307712183334e-05,0.001608095713891089
0.0032112363260239363,0.0015371161280199885,-0.002520452020689845,0.0016117353225126863,7.534762698924169e-05,0.0015462754527106881
0.0034524966031312943,0.001807505963370204,-0.0023119221441447735,0.0016283818986266851,7.410678517771885e-05,0.001600784482434392
0.0036559428554028273,0.0019343147287145257,-0.0021853346843272448,0.0014822317752987146,7.290618668776006e-05,0.002084015868604183
0.0032148282043635845,0.001990984193980694,-0.002153297420591116,0.0014803194208070636,8.514048386132345e-05,0.0019627874717116356
0.003261686535552144,0.0018158372258767486,-0.0023585797753185034,0.001416901359334588,8.467934094369411e-05,0.002110871020704508
0.0031687566079199314,0.001750927185639739,-0.002367425011470914,0.0015120008029043674,8.216249261749908e-05,0.0017258139559999108
0.0030209291726350784,0.0019218975212424994,-0.002401089295744896,0.0018408565083518624,8.093133510556072e-05,0.0017870549345389009
0.003347294172272086,0.002049138071015477,-0.00216758088208735,0.0020051386673003435,7.973635365488008e-05,0.0021911023650318384
0.003683083690702915,0.0020879432559013367,-0.0023899825755506754,0.002104669576510787,7.85760348662734e-05,0.002500248607248068
0.0033278116025030613,0.0019778551068156958,-0.0027728017885237932,0.002046875422820449,7.744910544715822e-05,0.0025634265039116144
0.003327092621475458,0.001963189570233226,-0.0026369974948465824,0.0018310497980564833,7.635400834260508e-05,0.002375603886321187
0.0032404332887381315,0.00186754553578794,-0.0027609665412455797,0.0016634397907182574,7.528943388024345e-05,0.0020977314561605453
0.003542277729138732,0.0020522670820355415,-0.002680716337636113,0.0018955603009089828,7.42541451472789e-05,0.0016696294769644737
0.003311444539576769,0.0021622106432914734,-0.0026647537015378475,0.0019268110627308488,7.324695616262034e-05,0.001396920531988144
0.003136789659038186,0.002084573497995734,-0.0024854098446667194,0.0020341190975159407,8.121269638650119e-05,0.0013109782012179494
0.0033916831016540527,0.001829127548262477,-0.0026390471030026674,0.0020212307572364807,8.29954442451708e-05,0.0013463743962347507
0.0031327828764915466,0.0010939157800748944,-0.00264466879889369,0.0019576100166887045,8.210015948861837e-05,0.00162547267973423
0.0033189011737704277,0.0006231109146028757,-0.0028011181857436895,0.001809725072234869,8.105601591523737e-05,0.0021292262244969606
0.0034590531140565872,-0.0003847315674647689,-0.002906512701883912,0.001728591974824667,8.00271809566766e-05,0.0022381336893886328
0.0034168416168540716,-0.000225958923692815,-0.003100392874330282,0.0017761975759640336,7.902345532784238e-05,0.0021107010543346405
0.0032230715733021498,-3.0315272852021735e-06,-0.003042146796360612,0.002051878720521927,7.804449705872685e-05,0.0019204802811145782
0.0033328498248010874,-4.067181080813498e-08,-0.0030217047315090895,0.002051820745691657,7.708954944973812e-05,0.0016067479737102985
0.003680499969050288,-5.456642360179842e-10,-0.002940497826784849,0.0022110887803137302,7.61576447985135e-05,0.0013008773094043136
0.003680499969050288,-5.456642360179842e-10,-0.002940497826784849,0.0022110887803137302,7.61576447985135e-05,0.0013008773094043136
0.0038934480398893356,0.0013957935152575374,-0.003116694977506995,0.0021268557757139206,7.52480118535459e-05,0.0012472148519009352
0.00338821136392653,0.0010927224066108465,-0.0032035401090979576,0.002005977090448141,8.359826460946351e-05,0.0015565627254545689
0.0037229214794933796,0.00044353498378768563,-0.00300534232519567,0.0018981181783601642,8.301695925183594e-05,0.002569912699982524
0.0038887851405888796,0.0003791536146309227,-0.003216654062271118,0.0018813037313520908,8.207606879295781e-05,0.00267203850671649
0.0038887851405888796,0.0003791536146309227,-0.003216654062271118,0.0018813037313520908,8.207606879295781e-05,0.00267203850671649
0.003859200980514288,0.00043838369310833514,-0.00357272126711905,0.0019313429947942495,8.115137461572886e-05,0.0024356641806662083
0.0039001302793622017,0.0003999810141976923,-0.003102618968114257,0.0019593166653066874,8.024692215258256e-05,0.0019185768906027079
0.0034319281112402678,0.00012140128819737583,-0.003022481920197606,0.0021619084291160107,4.02286859753076e-05,0.001494605210609734
0.003396805375814438,0.00010424650099594146,-0.0029817938338965178,0.001971740275621414,2.62664548245084e-06,0.001398453488945961
0.0036239305045455694,0.00016875901201274246,-0.0034334275405853987,0.0018254737369716167,1.1197803573281817e-08,0.0014041329268366098
0.0036880560219287872,0.00015464736497960985,-0.0031188286375254393,0.001821979763917625,7.311365401996284e-10,0.0014050101162865758
0.0037512253038585186,0.00014241418102756143,-0.0032377156894654036,0.001874365727417171,4.773799064383688e-11,0.0019696063827723265
0.0037253014743328094,0.00013196966028772295,-0.003331966931000352,0.0020996101666241884,3.11694984059252e-12,0.0018658378394320607
0.0036303584929555655,0.0001631382037885487,-0.003181459615007043,0.0020962879061698914,2.0351454625266302e-13,0.001819079858250916
0.0036941247526556253,0.00017234946426469833,-0.0032191246282309294,0.0022691753692924976,5.747175600845367e-05,0.0016257393872365355
0.0037392619997262955,0.00016225475701503456,-0.0033419067040085793,0.0023857506457716227,7.685250602662563e-05,0.0015222036745399237
0.0035702544264495373,0.00020197797857690603,-0.003153514815494418,0.0023643046151846647,7.686925528105348e-05,0.0013821455650031567
0.0036128463689237833,0.00019310075731482357,-0.003284027334302664,0.002624292392283678,7.566361455246806e-05,0.0014295738656073809
0.0039217788726091385,0.00028842975734733045,-0.0034596524201333523,0.002600097330287099,7.441794878104702e-05,0.001671806094236672
0.004071728326380253,0.00031933514401316643,-0.003457240294665098,0.0025003321934491396,7.320765871554613e-05,0.0017690759850665927
0.0038977134972810745,0.00033789195003919303,-0.0033769779838621616,0.0024160612374544144,7.203577843029052e-05,0.0021124277263879776
0.0036314339376986027,0.00033598230220377445,-0.003115398110821843,0.002438005991280079,7.090077269822359e-05,0.001990596065297723
0.0036510739009827375,0.00031654100166633725,-0.0034795666579157114,0.0023779196199029684,6.980103353271261e-05,0.0020437806379050016
0.0038544535636901855,0.0003467995848041028,-0.0037371001671999693,0.002421471057459712,6.873487291159108e-05,0.001876465743407607
0.00428397161886096,0.0003305177087895572,-0.003360630478709936,0.0022053667344152927,7.775477570248768e-05,0.0017283172346651554
0.004589136689901352,0.00035709323128685355,-0.0035073827020823956,0.00236841500736773,7.980920054251328e-05,0.0016671314369887114
0.0041480958461761475,0.0003418611886445433,-0.0037616612389683723,0.0023351586423814297,7.885297964094207e-05,0.001739953993819654
0.004390861839056015,0.0004669375775847584,-0.0038444853853434324,0.002357121091336012,7.773160905344412e-05,0.0016750998329371214
0.004088583402335644,0.000439900322817266,-0.00374265993013978,0.0027000519912689924,7.662943244213238e-05,0.0016830976819619536
0.004088583402335644,0.000439900322817266,-0.00374265993013978,0.0027000519912689924,7.662943244213238e-05,0.0016830976819619536
0.004271782469004393,0.00040094228461384773,-0.0033558725845068693,0.0024991158861666918,7.555727643193677e-05,0.0017885583220049739
0.0046831597574055195,0.00044068164424970746,-0.003322642296552658,0.002506340155377984,7.451471174135804e-05,0.0016323929885402322
0.00420320313423872,0.0004083297972101718,-0.003475636476650834,0.0025207095313817263,7.350045052589849e-05,0.0015229051932692528
0.004464034456759691,0.0004419869219418615,-0.0036000225227326155,0.0022076787427067757,7.251347415149212e-05,0.0014702677726745605
0.004481712356209755,0.00044147076550871134,-0.003688047407194972,0.001908398699015379,7.061689393594861e-05,0.0015783790731802583
0.004481712356209755,0.00044147076550871134,-0.003688047407194972,0.001908398699015379,7.061689393594861e-05,0.0015783790731802583
0.004267805255949497,0.0005386982811614871,-0.0035414553713053465,0.002291470766067505,7.990185258677229e-05,0.0016537528717890382
0.004267805255949497,0.0005386982811614871,-0.0035414553713053465,0.002291470766067505,7.990185258677229e-05,0.0016537528717890382
0.004204674623906612,0.0005507299792952836,-0.0035555996000766754,0.0026529147289693356,7.828947127563879e-05,0.0014422954991459846
0.004357298836112022,0.0005761432112194598,-0.003885088488459587,0.0024392863269895315,7.732999074505642e-05,0.0014196713455021381
0.004272473510354757,0.0005360105424188077,-0.003758930368348956,0.002259303815662861,7.639242539880797e-05,0.0013144169934093952
0.004521094262599945,0.0007011599955148995,-0.0035067242570221424,0.0021686959080398083,7.54772117943503e-05,0.0012616459280252457
0.004377540200948715,0.0006941488827578723,-0.003628405509516597,0.0021943713072687387,7.458364416379482e-05,0.0013078429037705064
0.004164522979408503,0.0006483399192802608,-0.003951577469706535,0.0026757156010717154,7.371106767095625e-05,0.0013498576590791345
0.00489386823028326,0.0006639807834289968,-0.003992685582488775,0.002932146890088916,7.285855099326e-05,0.0014009933220222592
0.005001490470021963,0.0006669047870673239,-0.003893324639648199,0.0027859120164066553,7.20256648492068e-05,0.001421182183548808
0.00454308046028018,0.00063545280136168,-0.003967198543250561,0.002566127572208643,8.071272895904258e-05,0.0013328571803867817
0.0045153358951210976,0.0006568428361788392,-0.0038760399911552668,0.002457690192386508,8.043106208788231e-05,0.0012462027370929718
0.005102751776576042,0.0006868770578876138,-0.003680032677948475,0.0025769562926143408,7.958255446283147e-05,0.0010822725016623735
0.005201129708439112,0.0007110648439265788,-0.0034698271192610264,0.002544156974181533,5.196172423893586e-06,0.0010354366386309266
0.004491761326789856,0.0007303249440155923,-0.003767073154449463,0.0026095882058143616,3.3927292975022283e-07,0.0010225081350654364
0.004384138155728579,0.0009116696892306209,-0.004153179004788399,0.002360403770580888,2.215209882194813e-08,0.00101941404864192
0.0045627411454916,0.0009236723999492824,-0.0044110300950706005,0.002333796815946698,1.4463739095305073e-09,0.0011758300242945552
0.0045627411454916,0.0009236723999492824,-0.0044110300950706005,0.002333796815946698,1.4463739095305073e-09,0.0011758300242945552
0.005152246914803982,0.0008032427867874503,-0.004076431505382061,0.0023059467785060406,9.443788112628582e-11,0.001250363071449101
0.004967890679836273,0.0007222212734632194,-0.003503393614664674,0.0027680720668286085,4.0260348765745746e-13,0.0011256795842200518
0.0048290123231709,0.0007391325780190527,-0.004164719954133034,0.0028070909902453423,2.6287132193214546e-14,0.0010818936862051487
0.0048290123231709,0.0007391325780190527,-0.004164719954133034,0.0028070909902453423,2.6287132193214546e-14,0.0010818936862051487
0.004751886241137981,0.000688400468789041,-0.004134844057261944,0.002742468612268567,6.946129724383354e-05,0.0010203823912888765
0.0045169987715780735,0.0006831735954619944,-0.004548874218016863,0.002693345071747899,9.981677430914715e-05,0.0010009529069066048
0.00506781367585063,0.000708501844201237,-0.0041350508108735085,0.0027710774447768927,9.968828817363828e-05,0.0009134660940617323
0.0050469194538891315,0.0007288499618880451,-0.0038395009469240904,0.0028057582676410675,9.766076982486993e-05,0.0009022103040479124
0.004762919154018164,0.0006906244088895619,-0.0031692686025053263,0.002833316568285227,9.559497266309336e-05,0.0009012362570501864
0.004716517869383097,0.0008537137764506042,-0.0030063758604228497,0.002526289550587535,9.16993958526291e-05,0.0012243660166859627
0.004620049614459276,0.0008587208576500416,-0.0035210936330258846,0.0022710568737238646,8.986808825284243e-05,0.0013193541672080755
0.004705506376922131,0.0008636191487312317,-0.0036594336852431297,0.002173215849325061,8.810844883555546e-05,0.001407993957400322
0.005224152468144894,0.0008967328467406332,-0.003619297407567501,0.002344770822674036,8.641645399620757e-05,0.0013475120067596436
0.004994898568838835,0.0008964482694864273,-0.0033073758240789175,0.0030989127699285746,8.478812378598377e-05,0.0011896666837856174
0.004831881728023291,0.0008970010676421225,-0.002936277538537979,0.003147577866911888,8.322011126438156e-05,0.001063744886778295
0.004230826161801815,0.0008974163210950792,-0.002941302489489317,0.00331552023999393,8.170895307557657e-05,0.0009759856620803475
0.004843806382268667,0.0009202690562233329,-0.00309903547167778,0.0030772772151976824,8.025181159609929e-05,0.0009076741989701986
0.005455057602375746,0.0009560621110722423,-0.0034187815617769957,0.002773100743070245,7.88457109592855e-05,0.0007381405448541045
0.005459286272525787,0.0009592263959348202,-0.003451107768341899,0.0027191073168069124,7.748794450890273e-05,0.0006206035614013672
0.004964162595570087,0.0009514797129668295,-0.003079888178035617,0.002917008940130472,7.61762639740482e-05,0.0006971502443775535
0.004822119604796171,0.0012138641905039549,-0.003195204073563218,0.0031476321164518595,7.490823190892115e-05,0.0007461847853846848
0.005180623382329941,0.0011640435550361872,-0.003672651946544647,0.003273162990808487,7.368166552623734e-05,0.0009418533882126212
0.004962394945323467,0.001121256616897881,-0.0039849793538451195,0.003287035273388028,7.2494636697229e-05,0.0010895093437284231
0.004871869459748268,0.0010116506600752473,-0.003478704020380974,0.0031042194459587336,7.134523912100121e-05,0.0011056390358135104
0.005654251668602228,0.0010522996308282018,-0.0031111922580748796,0.003407964948564768,7.023179205134511e-05,0.001004054443910718
0.0053849611431360245,0.0010272086365148425,-0.00313124293461442,0.0033694077283143997,6.915252015460283e-05,0.0010334037942811847
0.00527762109413743,0.0010086868423968554,-0.0032995908986777067,0.0032285440247505903,6.81058518239297e-05,0.0009766436414793134
0.004993977956473827,0.001061646151356399,-0.0034646845888346434,0.0028918515890836716,6.709047738695517e-05,0.0008586051990278065
0.004993977956473827,0.001061646151356399,-0.0034646845888346434,0.0028918515890836716,6.709047738695517e-05,0.0008586051990278065
0.005358146037906408,0.0010942049557343125,-0.0036475572269409895,0.0026523557025939226,6.610492710024118e-05,0.0007426433148793876
0.005666062235832214,0.0011648399522528052,-0.003779724705964327,0.0030610624235123396,6.514788401545957e-05,0.0007461337954737246
0.005466929171234369,0.0012588131939992309,-0.0038098006043583155,0.00303023518063128,6.421817670343444e-05,0.0007249208283610642
0.005599869415163994,0.0012754346244037151,-0.0038206179160624743,0.0033313867170363665,6.331465556286275e-05,0.000697331503033638
0.005131199024617672,0.0012042868183925748,-0.0037882081232964993,0.00350177357904613,6.243620009627193e-05,0.0005747594987042248
0.005264997947961092,0.0011752210557460785,-0.003745527006685734,0.003407300915569067,6.158176256576553e-05,0.0005971685168333352
0.00524552259594202,0.001271917950361967,-0.003901381278410554,0.003311233362182975,6.075041164876893e-05,0.0006267031421884894
0.005721612833440304,0.0013666896848008037,-0.003791653085500002,0.0031240105163306,5.915326619287953e-05,0.0008584445458836854
0.005573149770498276,0.0013414450222626328,-0.003653431311249733,0.0029094817582517862,5.838577271788381e-05,0.0009302679682150483
0.005213198252022266,0.0013747669290751219,-0.003763774875551462,0.00320554431527853,5.763796798419207e-05,0.0008138330886140466
0.005724988877773285,0.0013230766635388136,-0.0039312029257416725,0.003332395339384675,5.690904799848795e-05,0.0008175572147592902
0.005568245425820351,0.0012738561490550637,-0.004394278861582279,0.0031513613648712635,5.6198354286607355e-05,0.0007299059652723372
0.005851547699421644,0.001318461261689663,-0.004155386239290237,0.0030365269631147385,5.55051738047041e-05,0.0007227176683954895
0.005633351858705282,0.0011804042151197791,-0.003954511601477861,0.0030046217143535614,5.482891356223263e-05,0.0006758327363058925
0.005572040565311909,0.0012233550660312176,-0.004246063064783812,0.0031895306892693043,5.416888234321959e-05,0.0006190453423187137
0.005519401747733355,0.0011778478510677814,-0.004283353686332703,0.0034368729684501886,5.352459629648365e-05,0.0005700743058696389
0.006151323206722736,0.0011574651580303907,-0.0040655722841620445,0.003404478542506695,5.2895426051691175e-05,0.0004888033727183938
0.00594832981005311,0.0013060312485322356,-0.0044630435295403,0.0031258598901331425,5.228091686149128e-05,0.0004312547971494496
0.005826655775308609,0.0013629025779664516,-0.004271619487553835,0.003043506992980838,5.168050847714767e-05,0.0003928551741410047
0.0060987938195466995,0.0013701641000807285,-0.0041317204013466835,0.0031820647418498993,5.109373159939423e-05,0.00042835852946154773
0.005474817007780075,0.0014793851878494024,-0.0038868815172463655,0.003069234313443303,5.052010965300724e-05,0.0004630696203093976
0.005972294602543116,0.001367372926324606,-0.0037908984813839197,0.0031623649410903454,4.995923154638149e-05,0.0004932705778628588
0.0059629930183291435,0.0012072380632162094,-0.0039174738340079784,0.0032294057309627533,1.269534186576493e-05,0.0006291497265920043
0.0059629930183291435,0.0012072380632162094,-0.0039174738340079784,0.0032294057309627533,1.269534186576493e-05,0.0006291497265920043
0.006110471673309803,0.0011743158102035522,-0.0044694580137729645,0.0031756083481013775,8.289150628115749e-07,0.0007040030905045569
0.005900179035961628,0.0011234425473958254,-0.004775736480951309,0.0033272658474743366,5.412222847667181e-08,0.0006383135332725942
0.0057831318117678165,0.001120897475630045,-0.0046491255052387714,0.0034468001686036587,3.5337950343716784e-09,0.0006537064327858388
0.005288026761263609,0.001108668395318091,-0.004216683097183704,0.003376130945980549,2.3073155885899865e-10,0.0006023235619068146
0.0057830787263810635,0.0012004387099295855,-0.003956065978854895,0.003157844068482518,1.5065121025670258e-11,0.0005503755528479815
0.005806313827633858,0.0011521894484758377,-0.004249029792845249,0.003121189074590802,9.836446978120361e-13,0.0005733362049795687
0.005725098308175802,0.001032584928907454,-0.004649037029594183,0.003226369386538863,6.422496540668676e-14,0.000535228755325079
0.006082360167056322,0.0009035049006342888,-0.004199674818664789,0.0031054066494107246,4.193431422960282e-15,0.0005270791007205844
0.0056199668906629086,0.0008027110015973449,-0.004477424547076225,0.003431312507018447,2.7380112379890684e-16,0.0004749671497847885
0.005880638957023621,0.0006956633878871799,-0.004612033721059561,0.0032857779879122972,1.7877257354706324e-17,0.0005095259402878582
0.005872170906513929,0.000717350747436285,-0.004500810522586107,0.003203705884516239,1.1672571030452694e-18,0.0004703305021394044
0.005680008791387081,0.0007558214128948748,-0.004408520180732012,0.003339352086186409,4.976200223361457e-21,0.000462879630504176
0.005912721157073975,0.001031308900564909,-0.00450143963098526,0.0033509335480630398,3.2491027411326585e-22,0.0004349566297605634
0.006628338247537613,0.0010545386467128992,-0.004582851659506559,0.003313124878332019,2.1214320409076656e-23,0.0004070992872584611
0.006093164440244436,0.001002690987661481,-0.004471722990274429,0.003349339822307229,1.3851435085376598e-24,0.0003823938895948231
0.005879048258066177,0.0009151144768111408,-0.004279637709259987,0.003195076249539852,9.043997537007353e-26,0.00038558783126063645
0.006107039749622345,0.0008881131070666015,-0.004442297853529453,0.003096921369433403,5.905083787649993e-27,0.0003879701835103333
0.005614330992102623,0.0007767602219246328,-0.0042679146863520145,0.003142112633213401,3.8555978780552843e-28,0.00036956628900952637
0.006465015467256308,0.0007932498119771481,-0.004546631593257189,0.0034248519223183393,2.5174299748509504e-29,0.0003516122233122587
0.006103372201323509,0.0008035972714424133,-0.004718054085969925,0.0036871309857815504,1.6437020262350344e-30,0.0003352421917952597
0.0059628975577652454,0.0008063396089710295,-0.004523935727775097,0.0037182841915637255,1.073219877081819e-31,0.0003203237720299512
0.00648628082126379,0.0008186175837181509,-0.004470537882298231,0.0036117250565439463,7.007359128173728e-33,0.00030759506626054645
0.0059212627820670605,0.0008563982555642724,-0.00436201598495245,0.003602017182856798,4.575304570841106e-34,0.0002702024357859045
0.006150390021502972,0.0008628686773590744,-0.004585058894008398,0.003463826607912779,2.987346988045473e-35,0.00025372003437951207
0.006035813130438328,0.0008674583514221013,-0.004623291548341513,0.0035972087644040585,1.9505240570555487e-36,0.0002848022850230336
0.006042866501957178,0.0009524901397526264,-0.004428088199347258,0.0038607486058026552,1.2735530695122838e-37,0.00027329407748766243
0.006000855937600136,0.0010037131141871214,-0.004472714848816395,0.00399989727884531,8.315391967808253e-39,0.0002603063767310232
0.006196816451847553,0.0008623703033663332,-0.004750127904117107,0.0040040817111730576,5.42935892599579e-40,0.0002685660729184747
0.006235367152839899,0.0008657387807033956,-0.00468834862112999,0.0035831101704388857,3.545004855048922e-41,0.000275612052064389
0.0060898358933627605,0.0008580168359912932,-0.004629914648830891,0.0035630655474960804,2.3149450630645978e-42,0.00026523516862653196
0.0060898358933627605,0.0008580168359912932,-0.004629914648830891,0.0035630655474960804,2.3149450630645978e-42,0.00026523516862653196
0.006138883531093597,0.0007771567907184362,-0.004607552196830511,0.0037458569277077913,1.5134023414708024e-43,0.0002545948955230415
0.0059896730817854404,0.0007164044654928148,-0.004694439470767975,0.0038382960483431816,9.80908925027372e-45,0.00024470919743180275
0.0064056445844471455,0.0008214719709940255,-0.004637741483747959,0.003436383558437228,0.0,0.0002520366688258946
0.0067968242801725864,0.0008321511559188366,-0.004344687797129154,0.0035566389560699463,0.0,0.0002583838941063732
0.006206769961863756,0.000790093035902828,-0.004629538394510746,0.004019254352897406,0.0,0.00025040286709554493
0.005980433896183968,0.001052791834808886,-0.00473858742043376,0.0042272889986634254,0.0,0.00024204950022976846
0.00615629693493247,0.0009255418553948402,-0.004456869792193174,0.003445372683927417,0.0,0.00022680257097817957
0.006253673229366541,0.0009084969642572105,-0.004577113315463066,0.0034620219375938177,0.0,0.00021987590298522264
0.006652364507317543,0.0008176942355930805,-0.004679310601204634,0.0036597063299268484,0.0,0.00021335971541702747
0.0061496710404753685,0.0007350005325861275,-0.005173500627279282,0.0038431871216744184,0.0,0.00020721858891192824
0.006342969369143248,0.0007539080688729882,-0.005062145181000233,0.0034918044693768024,0.0,0.00020142097491770983
0.006788222119212151,0.0007718433625996113,-0.004706791136413813,0.004035850055515766,0.0,0.00019593931210692972
0.006873569916933775,0.0007858955068513751,-0.0044093444012105465,0.004122158512473106,0.0,0.00019074777083005756
0.006787958554923534,0.0008700850885361433,-0.004957286641001701,0.004454012028872967,0.0,0.00018582458142191172
0.0062685757875442505,0.0009333182824775577,-0.004876290448009968,0.004125860519707203,0.0,0.0001811489782994613
0.006634906865656376,0.0009291672031395137,-0.005022249650210142,0.003871691646054387,0.0,0.00017670313536655158
0.006824867334216833,0.0008985904860310256,-0.0047680772840976715,0.003729060525074601,0.0,0.00017246992501895875
0.007257957477122545,0.0008378881611861289,-0.0046323975548148155,0.004143082071095705,0.0,0.00016843527555465698
0.006970380432903767,0.0009612033609300852,-0.004444908816367388,0.0042294529266655445,0.0,0.00016458470781799406
0.00663810083642602,0.0009860243881121278,-0.004841947462409735,0.004170222673565149,0.0,0.00016090630379039794
0.006822554860264063,0.0009846527827903628,-0.004960452206432819,0.00411685835570097,0.0,0.00015738882939331234
0.006805197801440954,0.001092924503609538,-0.004819842986762524,0.003914848901331425,0.0,0.00015402189455926418
0.006734158843755722,0.0010775888804346323,-0.0047138226218521595,0.003776097670197487,0.0,0.0001507960114395246
0.006975770462304354,0.0010480222990736365,-0.004609894007444382,0.0037486539222300053,0.0,0.00014770246343687177
0.006975770462304354,0.0010480222990736365,-0.004609894007444382,0.0037486539222300053,0.0,0.00014770246343687177
0.006885744631290436,0.0010267202742397785,-0.0045037465170025826,0.0037683160044252872,0.0,0.00014473327610176057
0.007371862418949604,0.0009748789598233998,-0.004669769201427698,0.003773796372115612,0.0,0.00014188112982083112
0.006928719114512205,0.0010754731483757496,-0.004733069334179163,0.003891673404723406,0.0,0.000139139243401587
0.006726761348545551,0.0010818034643307328,-0.00490626972168684,0.004377470817416906,0.0,0.0001365013449685648
0.0068890745751559734,0.001222894643433392,-0.0049304054118692875,0.004645678214728832,0.0,0.00013396159920375794
0.007125553674995899,0.0011884557316079736,-0.004831681959331036,0.004513544030487537,0.0,0.00013151457824278623
0.007297587115317583,0.0011364361271262169,-0.005159876774996519,0.004495680332183838,0.0,0.00011512471246533096
0.007258665282279253,0.0010200869292020798,-0.004876369144767523,0.004078696947544813,0.0,0.00010910589480772614
0.007564752362668514,0.000999744632281363,-0.005110837519168854,0.0040280441753566265,0.0,0.00010724044113885611
0.007574352901428938,0.001074924715794623,-0.005479794926941395,0.004379644058644772,0.0,0.00010548756108619273
0.007060848642140627,0.00098988541867584,-0.004916192498058081,0.004828043282032013,0.0,4.431331399246119e-05
0.007281838450580835,0.0011098595568910241,-0.004879138432443142,0.004495556466281414,0.0,3.9504706364823505e-05
0.008066737093031406,0.001088070566765964,-0.005358878988772631,0.004466617479920387,0.0,3.841101352008991e-05
0.007934937253594398,0.0010603339178487659,-0.005109844729304314,0.0041704801842570305,0.0,2.0050176317454316e-05
0.007079394534230232,0.0010994867188856006,-0.0051448955200612545,0.004026147536933422,0.0,1.8493028619559482e-05
0.007155653089284897,0.0011812470620498061,-0.005460105836391449,0.004122615326195955,0.0,4.662207629735349e-06
0.008064248599112034,0.0011365610407665372,-0.005484317429363728,0.004840112756937742,0.0,3.044088430215197e-07
0.007813007570803165,0.0011517700040712953,-0.005206545349210501,0.004823203198611736,0.0,1.987572062489562e-08
0.007485245820134878,0.0011537654791027308,-0.005682946648448706,0.004724394995719194,0.0,1.297742691086512e-09
0.0077989837154746056,0.0012166843516752124,-0.00533410394564271,0.004454511683434248,0.0,8.473331758462876e-11
0.007571444846689701,0.0012469937792047858,-0.005912944674491882,0.004237508866935968,0.0,5.532479856185102e-12
0.007856602780520916,0.0013745740288868546,-0.005723835434764624,0.004019653890281916,0.0,3.612313898525288e-13
0.007856602780520916,0.0013745740288868546,-0.005723835434764624,0.004019653890281916,0.0,3.612313898525288e-13
0.007600319106131792,0.0013323110761120915,-0.005109564866870642,0.003925872966647148,0.0,2.3585828927939756e-14
0.00836318451911211,0.0015252489829435945,-0.005378833971917629,0.003917727619409561,0.0,1.539986048600952e-15
0.008476818911731243,0.001458077458664775,-0.0051294779404997826,0.004339784849435091,0.0,-0.00023942976258695126
0.007999720983207226,0.001410659053362906,-0.00582158425822854,0.0045168958604335785,0.0,-0.0008189964573830366
0.007623390294611454,0.0014835319016128778,-0.005572100635617971,0.004381082020699978,0.0,-0.0008791516302153468
0.008212064392864704,0.001535099814645946,-0.005257474258542061,0.004545655567198992,0.0,-0.0008849924779497087
0.008688485249876976,0.0014234092086553574,-0.004996196366846561,0.004168089013546705,0.0,-0.0008007658761925995
0.007888657972216606,0.0014584069140255451,-0.004999332129955292,0.004158318508416414,0.0,-0.0007213529897853732
0.008204427547752857,0.001406235620379448,-0.005686129443347454,0.004726727493107319,0.0,-0.0006562865455634892
0.008106187917292118,0.001558808609843254,-0.005686942953616381,0.004775102715939283,0.0,-0.0006517759175039828
0.007810342591255903,0.0015308597357943654,-0.005249933805316687,0.0047576711513102055,0.0,-0.0006780416588298976
0.008534271270036697,0.0015478824498131871,-0.005329940468072891,0.0051268478855490685,0.0,-0.0007121573435142636
0.008545638993382454,0.0014595601242035627,-0.005180760286748409,0.005166742950677872,0.0,-0.0008566475589759648
0.0080644516274333,0.0014874035259708762,-0.005097565706819296,0.004956699907779694,0.0,-0.000996207119897008
0.007858808152377605,0.0014168033376336098,-0.005914905108511448,0.005100618582218885,0.0,-0.000990924658253789
0.008797417394816875,0.0013525951653718948,-0.005366539116948843,0.004893749952316284,0.0,-0.0009243970853276551
0.00874840747565031,0.0014868875732645392,-0.0050719487480819225,0.004843787290155888,0.0,-0.0009733910555951297
0.008041529916226864,0.0015102725010365248,-0.004988160915672779,0.004870849661529064,0.0,-0.0009754859493114054
0.008800935000181198,0.0016656214138492942,-0.005795363802462816,0.005135732237249613,0.0,-0.0009549594251438975
0.00890191551297903,0.001556378323584795,-0.005634630564600229,0.004967718850821257,0.0,-0.0009611572604626417
0.00860399380326271,0.0016601509414613247,-0.0059349266812205315,0.004877481609582901,0.0,-0.0010764870094135404
0.009002484381198883,0.00177797582000494,-0.005021623335778713,0.004964274819940329,0.0,-0.0011492897756397724
0.00923811923712492,0.0016024489887058735,-0.006057290360331535,0.005188744980841875,0.0,-0.0014028983423486352
0.009293537586927414,0.0013893807772547007,-0.006616243161261082,0.005086096934974194,0.0,-0.001553943962790072
0.008642984554171562,0.0012776472140103579,-0.006287247408181429,0.005395708605647087,0.0,-0.0014616763219237328
0.008785825222730637,0.0012097898870706558,-0.006298602093011141,0.005549953784793615,0.0,-0.0013257344253361225
0.008785825222730637,0.0012097898870706558,-0.006298602093011141,0.005549953784793615,0.0,-0.0013257344253361225
0.00906018540263176,0.0012201402569189668,-0.005720811430364847,0.005571894347667694,0.0,-0.0013514001620933414
0.008628216572105885,0.001183312269859016,-0.005676104687154293,0.005193491466343403,0.0,-0.0012736949138343334
0.00915319100022316,0.0012791217304766178,-0.006131690461188555,0.004872073419392109,0.0,-0.0012030175421386957
0.009211065247654915,0.0013817058643326163,-0.005679207853972912,0.005068534053862095,0.0,-0.0011762724025174975
0.009272334165871143,0.00144294579513371,-0.00638978648930788,0.005013796500861645,0.0,-0.0012581531191244721
0.00852654967457056,0.0013800256419926882,-0.006170664913952351,0.005011152941733599,0.0,-0.0014517268864437938
0.010037988424301147,0.0012881021248176694,-0.0059856269508600235,0.0051610153168439865,0.0,-0.0015808559255674481
0.008541721850633621,0.0012664084788411856,-0.0063707721419632435,0.005426574032753706,1.0876212286348164e-07,-0.0019848232623189688
0.009103504940867424,0.0011427138233557343,-0.006119200494140387,0.005241696257144213,7.101389698505045e-09,-0.0019682981073856354
0.009040698409080505,0.001160270068794489,-0.005812478717416525,0.0050255414098501205,4.636700190463472e-10,-0.0017394996248185635
0.009040099568665028,0.001127625466324389,-0.005779233295470476,0.005312961991876364,3.0274338591596006e-11,-0.0016089503187686205
0.009464340284466743,0.0011223593028262258,-0.006178754381835461,0.005044817458838224,1.976697885236467e-12,-0.0014584717573598027
0.009221508167684078,0.0013136517954990268,-0.0069055515341460705,0.0050517357885837555,1.2906425331683097e-13,-0.0014927012380212545
0.009314149618148804,0.0013543699169531465,-0.006868638563901186,0.005329507403075695,8.426974091137792e-15,-0.0016460914630442858
0.009865841828286648,0.001346395700238645,-0.006146850064396858,0.005296928342431784,5.502211675916056e-16,-0.0017034346237778664
0.009784653782844543,0.001308948965743184,-0.006248218007385731,0.005823067389428616,3.592550617691716e-17,-0.002062341896817088
0.009498780593276024,0.0013479257468134165,-0.006753986235707998,0.005513329524546862,2.345678662818167e-18,-0.002127506537362933
0.009603815153241158,0.0012960113817825913,-0.007541276980191469,0.00532513577491045,1.531560576305847e-19,-0.002179656410589814
0.009920870885252953,0.0012545103672891855,-0.00646599568426609,0.0051095085218548775,9.999997259274525e-21,-0.002028349321335554
0.009662075899541378,0.0013415724970400333,-0.00624610111117363,0.005010158754885197,6.529283320269659e-22,-0.002000170759856701
0.010034151375293732,0.0015173312276601791,-0.00609738240018487,0.005749520845711231,4.263155477563788e-23,-0.001774309203028679
0.010156442411243916,0.0014684568159282207,-0.006725584622472525,0.005602508317679167,2.7835359359785064e-24,-0.0014399776700884104
0.010014472529292107,0.0015741599490866065,-0.007151103112846613,0.005338795483112335,1.8174501067843177e-25,-0.0014071747427806258
0.010109446942806244,0.0016507753171026707,-0.006565944757312536,0.005067932885140181,1.1866651248708975e-26,-0.001398247666656971
0.010450408793985844,0.0015422315336763859,-0.006064370274543762,0.005003661848604679,7.74807538861564e-28,-0.0017791589489206672
0.00971186999231577,0.0014117737300693989,-0.006070958450436592,0.005272894632071257,5.05893949068471e-29,-0.0027479506097733974
0.009984134696424007,0.0014460132224485278,-0.006861572153866291,0.00551789253950119,-1.221535694639897e-05,-0.003401988884434104
0.010080376639962196,0.0013965285615995526,-0.006870739161968231,0.005474256817251444,-0.00019802914175670594,-0.003281370736658573
0.01031478215008974,0.001445038360543549,-0.006479307077825069,0.005215480923652649,-0.00020132663485128433,-0.002886945614591241
0.01031478215008974,0.001445038360543549,-0.006479307077825069,0.005215480923652649,-0.00020132663485128433,-0.002886945614591241
0.010270546190440655,0.0013773214304819703,-0.00646711653098464,0.005684471223503351,-0.0001934649480972439,-0.002584325848147273
0.010238696821033955,0.0013380462769418955,-0.006581505760550499,0.005384975112974644,-0.0002176998823415488,-0.0022755428217351437
0.010227387771010399,0.0014182489831000566,-0.006842518225312233,0.005108350422233343,-0.00021350888710003346,-0.002207581652328372
0.010140816681087017,0.001268116058781743,-0.006608980242162943,0.005691373720765114,-0.00023001668159849942,-0.0021775781642645597
0.010222109034657478,0.001252368208952248,-0.006903285626322031,0.005745557136833668,-0.00022290307970251888,-0.0025754489470273256
0.010630118660628796,0.0012247508857399225,-0.006710759364068508,0.005484427325427532,-0.000238115870160982,-0.0029036798514425755
0.010119514539837837,0.0011716183507815003,-0.0064648413099348545,0.005623539909720421,-0.00023746091756038368,-0.002964573912322521
0.010636351071298122,0.0011204408947378397,-0.006813570857048035,0.006119162309914827,-0.0002303338551428169,-0.0030223331414163113
0.011185415089130402,0.0012065834598615766,-0.007026588544249535,0.005791191011667252,-0.00035578428651206195,-0.003129832912236452
0.010054592974483967,0.0011916382936760783,-0.0069992016069591045,0.005836161784827709,-0.00034749862970784307,-0.0029883962124586105
0.010035347193479538,0.0012414776720106602,-0.006786547601222992,0.0055142841301858425,-0.00032374224974773824,-0.0029281985480338335
0.010381167754530907,0.001366028212942183,-0.006302979309111834,0.00569173414260149,-0.00035427536931820214,-0.0032759427558630705
0.01041694451123476,0.0012976344441995025,-0.006678740028291941,0.005833000410348177,-0.000339147838531062,-0.003287061583250761
0.010782670229673386,0.001399895641952753,-0.0070669520646333694,0.0060852449387311935,-0.0003195376484654844,-0.0031703105196356773
0.011070702224969864,0.0013447392266243696,-0.007582890335470438,0.005770558025687933,-0.00030170680838637054,-0.002918343059718609
0.010198734700679779,0.0013026227243244648,-0.007042003329843283,0.005790805909782648,-0.0003300779208075255,-0.0028101648204028606
0.010618549771606922,0.0014103208668529987,-0.00646126689389348,0.005555282812565565,-0.00031638809014111757,-0.0030437554232776165
0.01020584162324667,0.0014485318679362535,-0.00666020717471838,0.005917570553719997,-0.00033872839412651956,-0.0029983113054186106
0.010384194552898407,0.0014000505907461047,-0.007442757021635771,0.005766519345343113,-0.0003283990081399679,-0.0033999381121248007
0.010777976363897324,0.0013432517880573869,-0.007120361551642418,0.005744514055550098,-0.0003143910726066679,-0.003562233177945018
0.010323490016162395,0.0013759906869381666,-0.006806597113609314,0.006238139700144529,-0.0003389409394003451,-0.0035175338853150606
0.010638916864991188,0.0013635816285386682,-0.006667949724942446,0.006226649507880211,-0.000327666086377576,-0.003358194138854742
0.010889964178204536,0.001415407401509583,-0.0071863457560539246,0.006537373643368483,-0.00030623420025222003,-0.0029061788227409124
0.011226290836930275,0.0013585456181317568,-0.007375652901828289,0.006463551428169012,-0.0003146516974084079,-0.0027167387306690216
0.010649967938661575,0.0014819756615906954,-0.00736979441717267,0.006023408379405737,-0.00032157322857528925,-0.002783171134069562
0.010649967938661575,0.0014819756615906954,-0.00736979441717267,0.006023408379405737,-0.00032157322857528925,-0.002783171134069562
0.010596327483654022,0.001407017232850194,-0.00680970773100853,0.006275934632867575,-0.00032986036967486143,-0.0030937695410102606
0.010131005197763443,0.0013273574877530336,-0.0068641784600913525,0.00637125363573432,-0.0003353049687575549,-0.0031375065445899963
0.010648331604897976,0.0014392639277502894,-0.00727311335504055,0.006269725970923901,-0.0003535035066306591,-0.003462927881628275
0.010541106574237347,0.001346305594779551,-0.007132166530936956,0.006423662416636944,-0.0004388387897051871,-0.004185034427791834
0.01039325911551714,0.0012978033628314734,-0.006750429980456829,0.006583761423826218,-0.0005261795013211668,-0.004124027211219072
0.010375522077083588,0.0014270057436078787,-0.0072118681855499744,0.006042184308171272,-0.0005484780413098633,-0.0035151897463947535
0.010861172340810299,0.0014376873150467873,-0.007126749027520418,0.006514568813145161,-0.0005766594549641013,-0.0037433705292642117
0.010792135260999203,0.0015281456289812922,-0.007011945825070143,0.006477576680481434,-0.0007773880497552454,-0.003445400856435299
0.01089912373572588,0.001421113614924252,-0.007497573737055063,0.0058169071562588215,-0.0007313588284887373,-0.003555936273187399
0.011535163968801498,0.0015297237550839782,-0.0075565180741250515,0.006305892951786518,-0.0007506008259952068,-0.004284812603145838
0.01153310015797615,0.0015953034162521362,-0.007447198498994112,0.0067185149528086185,-0.0006658744532614946,-0.004516596905887127
0.010514079593122005,0.0018068770878016949,-0.007528596557676792,0.006677592638880014,-0.0005931201158091426,-0.004407968837767839
0.010953262448310852,0.0018109404481947422,-0.007680849637836218,0.006840316578745842,-0.0006109930691309273,-0.004046295769512653
0.011613432317972183,0.00166667893063277,-0.008370448835194111,0.006758714560419321,-0.000566411588806659,-0.004032954573631287
0.010747678577899933,0.001698097912594676,-0.007842447608709335,0.006819934118539095,-0.0005202717729844153,-0.003960203845053911
0.011809060350060463,0.0015449610073119402,-0.0077742584981024265,0.007316798437386751,-0.00048059262917377055,-0.0038885739631950855
0.011260157451033592,0.001482744817622006,-0.007856073789298534,0.007434297353029251,-0.0004465066595003009,-0.003953889943659306
0.011023612692952156,0.0014194946270436049,-0.007728376425802708,0.007421745453029871,-0.00047233456280082464,-0.004366579465568066
0.010897216387093067,0.0015235752798616886,-0.007763298228383064,0.006974229589104652,-0.0004466348036658019,-0.004562560003250837
0.011451712809503078,0.0016033228021115065,-0.007639750372618437,0.007474855054169893,-0.00042075844248756766,-0.004202248994261026
0.011658020317554474,0.0015277470229193568,-0.00798109732568264,0.007215757854282856,-0.00039753265446051955,-0.004340726416558027
0.010969054885208607,0.0016483399085700512,-0.007896281778812408,0.006974553223699331,-0.000376725394744426,-0.004124282393604517
0.011852206662297249,0.001635316526517272,-0.008181681856513023,0.006664618384093046,-0.0003262343816459179,-0.004002642352133989
0.012110082432627678,0.001722921384498477,-0.007825521752238274,0.006973217241466045,-0.00027810881147161126,-0.0048104641027748585
0.011416513472795486,0.0015914847608655691,-0.008265981450676918,0.00711566349491477,-0.00026018667267635465,-0.004865675698965788
0.011579858139157295,0.0015194249572232366,-0.008157344534993172,0.006674761883914471,-0.00024584578932262957,-0.004420872312039137
0.011579858139157295,0.0015194249572232366,-0.008157344534993172,0.006674761883914471,-0.00024584578932262957,-0.004420872312039137
0.011397900059819221,0.0016948222182691097,-0.007867799140512943,0.006496278569102287,-0.0002558391715865582,-0.004527020733803511
0.01360798254609108,0.0015753969782963395,-0.007500404957681894,0.006718752905726433,-0.00026437852648086846,-0.004450696986168623
0.013477264903485775,0.0016218844102695584,-0.008342739194631577,0.006634178105741739,-0.0002533496299292892,-0.004122645128518343
0.013057268224656582,0.0016645740251988173,-0.008444780483841896,0.00704966951161623,-0.0002770334540400654,-0.003865721169859171
0.013153813779354095,0.0018316828645765781,-0.008496525697410107,0.007165055256336927,-0.0002699606993701309,-0.0038890596479177475
0.013298922218382359,0.0018494240939617157,-0.008730480447411537,0.006653765216469765,-0.0002865321293938905,-0.004697858355939388
0.013117684982717037,0.0021400891710072756,-0.008542933501303196,0.006871788762509823,-0.0002838771033566445,-0.004946764092892408
0.013202547095716,0.002056876663118601,-0.008320054039359093,0.007141342386603355,-0.0002736512979026884,-0.004803922958672047
0.013575672172009945,0.0019349356880411506,-0.009031372144818306,0.006277949549257755,-0.0003451160155236721,-0.004318817052990198
0.014023378491401672,0.00180661934427917,-0.008237137459218502,0.0064796688966453075,-0.0003213754971511662,-0.004929299931973219
0.013740756548941135,0.001808062894269824,-0.008404536172747612,0.007116945460438728,-0.00029999736580066383,-0.005019642412662506
0.014029261656105518,0.001939658890478313,-0.00934477336704731,0.007095052395015955,-0.0002812413149513304,-0.004996089264750481
0.013563417829573154,0.0019257452804595232,-0.008855224587023258,0.006877831183373928,-0.00026469046133570373,-0.005232398863881826
0.014221527613699436,0.0019829384982585907,-0.008491817861795425,0.007192154880613089,-0.00029651951626874506,-0.005110230762511492
0.013259431347250938,0.0019487662939354777,-0.00882087741047144,0.007595135364681482,-0.0002839578955899924,-0.005441225599497557
0.013874754309654236,0.0019125401740893722,-0.009338620118796825,0.007614568807184696,-0.00026995677035301924,-0.0052232276648283005
0.013288809917867184,0.0017138367984443903,-0.009271472692489624,0.007665879558771849,-0.00025711202761158347,-0.00508592976257205
0.013620412908494473,0.0016074926825240254,-0.00870620459318161,0.006984734442085028,-0.00024542430764995515,-0.005034931935369968
0.013685114681720734,0.0017103026621043682,-0.009730856865644455,0.007214398588985205,-0.00026865259860642254,-0.004973532631993294
0.014244749210774899,0.001585882157087326,-0.008958326652646065,0.007196647580713034,-0.0002621245221234858,-0.005267473869025707
0.013696578331291676,0.0017047288129106164,-0.009580184705555439,0.007132747210562229,-0.00025194347836077213,-0.0054788473062217236
0.013893083669245243,0.0017799619818106294,-0.009402989409863949,0.007122748997062445,-0.0002422730321995914,-0.0051464419811964035
0.013854140415787697,0.002227650722488761,-0.009412341751158237,0.007479470688849688,-0.00025795193505473435,-0.005228930152952671
0.014248105697333813,0.0021347920410335064,-0.008692136034369469,0.0074584828689694405,-0.00025654034106992185,-0.0050887661054730415
0.014642720110714436,0.0020857660565525293,-0.009710942395031452,0.007085191085934639,-0.00025187520077452064,-0.0053478749468922615
0.014402749948203564,0.001887432299554348,-0.009070567786693573,0.007068224251270294,-0.0002402024547336623,-0.0056677754037082195
0.014233484864234924,0.0018090874655172229,-0.008851664140820503,0.007417971733957529,-0.0002281374909216538,-0.005252111703157425
0.014669365249574184,0.0016904061194509268,-0.008926566690206528,0.007521199528127909,-0.00021713301248382777,-0.00524523388594389
0.014669365249574184,0.0016904061194509268,-0.008926566690206528,0.007521199528127909,-0.00021713301248382777,-0.00524523388594389
0.014836312271654606,0.0018428988987579942,-0.010262864641845226,0.007493262644857168,-0.00024572815163992345,-0.005209397524595261
0.01458777766674757,0.001711093820631504,-0.00916542112827301,0.007347530219703913,-0.00023743833298794925,-0.005629238672554493
0.014458328485488892,0.0019990468863397837,-0.009653978049755096,0.007882736623287201,-0.00022759262355975807,-0.005761382170021534
0.0145402941852808,0.0018587351078167558,-0.009843024425208569,0.00836031511425972,-0.00024994739214889705,-0.0056900884956121445
0.014703616499900818,0.0020340627525001764,-0.00887399259954691,0.008392835035920143,-0.0002445744175929576,-0.005290750414133072
0.014542631804943085,0.001848030835390091,-0.009261885657906532,0.00783415324985981,-0.000267096736934036,-0.005830276757478714
0.014637308195233345,0.0016950297867879272,-0.009433020837605,0.0075690653175115585,-0.00035356893204152584,-0.005082391202449799
0.014236499555408955,0.0015141379553824663,-0.008749954402446747,0.0070743500255048275,-0.0003591706627048552,-0.0052388934418559074
0.014597668312489986,0.0015743774129077792,-0.00962381437420845,0.007118451874703169,-0.00036712808650918305,-0.005495072808116674
0.014487375505268574,0.0019466883968561888,-0.00947465281933546,0.007838391698896885,-0.00037168990820646286,-0.006015245337039232
0.014844479039311409,0.002016992773860693,-0.008984092622995377,0.008308750577270985,-0.0003495730634313077,-0.0063743628561496735
0.014593889005482197,0.0022752853110432625,-0.009819318540394306,0.007880555465817451,-0.00032842959626577795,-0.006328200455754995
0.01507642399519682,0.0021475651301443577,-0.00974904466420412,0.008783353492617607,-0.00033473060466349125,-0.00650955643504858
0.014509065076708794,0.0019852048717439175,-0.009348085150122643,0.008311220444738865,-0.00033987752976827323,-0.006693683099001646
0.014834019355475903,0.0018788825254887342,-0.009552622213959694,0.008094686083495617,-0.000323916639899835,-0.006234312895685434
0.015014499425888062,0.0018097853753715754,-0.009315072558820248,0.00802773516625166,-0.00030816654907539487,-0.006116970907896757
0.015264103189110756,0.0018136987928301096,-0.008997547440230846,0.009008890949189663,-0.0003301499818917364,-0.006696041207760572
0.0148766515776515,0.002000842010602355,-0.009724865667521954,0.008617253974080086,-0.0003204374515917152,-0.006435264367610216
0.015422764234244823,0.0019753125961869955,-0.010191918350756168,0.008380468934774399,-0.0003070980601478368,-0.0061592902056872845
0.015119186602532864,0.002109269378706813,-0.008903754875063896,0.00900094211101532,-0.00033407562295906246,-0.006127177271991968
0.015312022529542446,0.0020314184948801994,-0.009591865353286266,0.008722149766981602,-0.00031401566229760647,-0.006548837758600712
0.015368003398180008,0.0016674166545271873,-0.009989273734390736,0.008681226521730423,-0.00029372211429290473,-0.006873172242194414
0.015326707623898983,0.0016824995400384068,-0.009053201414644718,0.008773301728069782,-0.00032340706093236804,-0.006589396856725216
0.015182781033217907,0.001572239794768393,-0.00944084394723177,0.00828496739268303,-0.0003112766135018319,-0.006777470465749502
0.015575045719742775,0.0016833426197990775,-0.009493878111243248,0.008167990483343601,-0.0002947090833913535,-0.007016287185251713
0.015575045719742775,0.0016833426197990775,-0.009493878111243248,0.008167990483343601,-0.0002947090833913535,-0.007016287185251713
0.015349303372204304,0.0022098133340477943,-0.009662691503763199,0.008773637004196644,-0.0003084524651058018,-0.006997733376920223
0.015600822865962982,0.0023671521339565516,-0.009705067612230778,0.00872770231217146,-0.0002953653456643224,-0.0069572594948112965
0.015384052880108356,0.002301453147083521,-0.009943771176040173,0.008615362457931042,-0.00028222030960023403,-0.006777946371585131
0.015384052880108356,0.002301453147083521,-0.009943771176040173,0.008615362457931042,-0.00028222030960023403,-0.006777946371585131
0.015684761106967926,0.0020924601703882217,-0.00922444462776184,0.008801991119980812,-0.0002986341714859009,-0.007115317974239588
0.015976181253790855,0.0016039503971114755,-0.009620746597647667,0.008831600658595562,-0.0002842824615072459,-0.00673315767198801
0.01550690270960331,0.0015683569945394993,-0.009768751449882984,0.008530563674867153,-0.00029856874607503414,-0.0069192866794764996
0.016058562323451042,0.0015395553782582283,-0.00984751246869564,0.008976712822914124,-0.0003035140107385814,-0.007397804409265518
0.015914777293801308,0.0018345719436183572,-0.009676757268607616,0.009114440530538559,-0.0002858683292288333,-0.007370931562036276
0.01605129800736904,0.002310379408299923,-0.009717357344925404,0.008484349586069584,-0.0002950628404505551,-0.007292865309864283
0.016309842467308044,0.0022007031366229057,-0.00966367032378912,0.008746784180402756,-0.00030266924295574427,-0.0073701851069927216
0.015376974828541279,0.0020676266867667437,-0.008984041400253773,0.009092898108065128,-0.0002880968095269054,-0.008021521382033825
0.01656268537044525,0.0018091201782226562,-0.009417935274541378,0.008932488039135933,-0.00029584887670353055,-0.007871339097619057
0.01631069742143154,0.0016554594039916992,-0.010296604596078396,0.008969451300799847,-0.0003022844612132758,-0.007523441221565008
0.016375066712498665,0.0015045643085613847,-0.009790857322514057,0.009331281296908855,-0.00032030290458351374,-0.0067342473194003105
0.015946589410305023,0.0015792048070579767,-0.009544843807816505,0.009172619320452213,-0.0003159473999403417,-0.006704476661980152
0.016382798552513123,0.001981955487281084,-0.009881164878606796,0.008834455162286758,-0.0004086082335561514,-0.007062829565256834
0.016434675082564354,0.0024093620013445616,-0.00955219753086567,0.009173075668513775,-0.0004065264656674117,-0.006940387189388275
0.016541356220841408,0.0023422606755048037,-0.009591993875801563,0.008688678964972496,-0.00043959927279502153,-0.0064133512787520885
0.016157668083906174,0.0022654228378087282,-0.01012955792248249,0.008325873874127865,-0.0004147667495999485,-0.005945448763668537
0.01582331396639347,0.002069607377052307,-0.009484006091952324,0.008987167850136757,-0.0003857071278616786,-0.006284056231379509
0.016392972320318222,0.0018913040403276682,-0.009388159029185772,0.00919022411108017,-0.00041581824189051986,-0.006358422338962555
0.016447922214865685,0.001921506249345839,-0.009805523790419102,0.00893167220056057,-0.00039347895653918386,-0.0069962372072041035
0.017636610195040703,0.002276705577969551,-0.009494327940046787,0.008628270588815212,-0.0004163470002822578,-0.006861985195428133
0.017149122431874275,0.00231893896125257,-0.009219976142048836,0.009104101918637753,-0.00039951474172994494,-0.006833694875240326
0.016526291146874428,0.0022597035858780146,-0.009241519495844841,0.00913168303668499,-0.0004607942537404597,-0.0066152773797512054
0.017008069902658463,0.0020382676739245653,-0.009841633029282093,0.008395299315452576,-0.0004930372815579176,-0.006576005835086107
0.01701352559030056,0.0019734955858439207,-0.009150822646915913,0.00984076876193285,-0.0005280151381157339,-0.006618906743824482
0.01701352559030056,0.0019734955858439207,-0.009150822646915913,0.00984076876193285,-0.0005280151381157339,-0.006618906743824482
0.01722162961959839,0.002023069653660059,-0.009367276914417744,0.009084625169634819,-0.0005330367130227387,-0.006276887375861406
0.01722162961959839,0.002023069653660059,-0.009367276914417744,0.009084625169634819,-0.0005330367130227387,-0.006276887375861406
0.017000101506710052,0.0021745003759860992,-0.008952533826231956,0.009318498894572258,-0.000642069149762392,-0.00695588206872344
0.017531687393784523,0.0021710642613470554,-0.009734435938298702,0.00943820271641016,-0.0006809135666117072,-0.008201277814805508
0.017098508775234222,0.002490007085725665,-0.00944740604609251,0.009173653088510036,-0.0006862037116661668,-0.007978187873959541
0.017322108149528503,0.0026283240877091885,-0.009700033813714981,0.009544912725687027,-0.0006327655864879489,-0.006952391006052494
0.017671285197138786,0.002436974784359336,-0.009512980468571186,0.00930509902536869,-0.0005551731446757913,-0.006943148095160723
0.017885183915495872,0.002316258614882827,-0.009191690944135189,0.009527008049190044,-0.0005444937269203365,-0.007020999677479267
0.017811140045523643,0.0025232690386474133,-0.009818780235946178,0.00999714620411396,-0.0005034037167206407,-0.007280254270881414
0.017841367051005363,0.002719376003369689,-0.010151061229407787,0.009825499728322029,-0.0004662747378461063,-0.0073822299018502235
0.01807256042957306,0.002735551679506898,-0.00907545443624258,0.009771466255187988,-0.000491800659801811,-0.007842933759093285
0.017824428156018257,0.0025364644825458527,-0.010929160751402378,0.009939896874129772,-0.00046386377653107047,-0.00771567365154624
0.018043244257569313,0.0024960613809525967,-0.01237019058316946,0.009534540586173534,-0.00042108443449251354,-0.007501085288822651
0.017868874594569206,0.0023741982877254486,-0.011039022356271744,0.010092206299304962,-0.000373920367565006,-0.007347901351749897
0.017764724791049957,0.0024988839868456125,-0.01162220910191536,0.010258285328745842,-0.00039504977758042514,-0.007528453134000301
0.017804831266403198,0.0028507672250270844,-0.011169551871716976,0.010152648203074932,-0.00038269770448096097,-0.007799075450748205
0.017774682492017746,0.0032592506613582373,-0.011383176781237125,0.01058194413781166,-0.00040992602589540184,-0.0076606315560638905
0.018160125240683556,0.0031276822555810213,-0.011269330978393555,0.010450235567986965,-0.0003915531560778618,-0.0075001101940870285
0.018771540373563766,0.0028178668580949306,-0.010856732726097107,0.009432053193449974,-0.0004181411932222545,-0.008612069301307201
0.01812664046883583,0.002674412215128541,-0.011676130816340446,0.010199707001447678,-0.0004009520635008812,-0.008332716301083565
0.018387647345662117,0.002577519975602627,-0.011267881840467453,0.010014526546001434,-0.0005390470614656806,-0.008371385745704174
0.01821339875459671,0.0024243660736829042,-0.011565163731575012,0.00955110788345337,-0.0005770532879978418,-0.008053572848439217
0.01848652958869934,0.0026303695049136877,-0.011944755911827087,0.009914238005876541,-0.0005973894149065018,-0.008623396046459675
0.018364982679486275,0.0026458515785634518,-0.0113786980509758,0.009799383580684662,-0.0005646328208968043,-0.008332142606377602
0.018617693334817886,0.002506314544007182,-0.01195121556520462,0.0094440383836627,-0.0005883398116566241,-0.008357168175280094
0.018769240006804466,0.0025462349876761436,-0.011514403857290745,0.009833124466240406,-0.0006891681114211679,-0.008461391553282738
0.018741946667432785,0.002558817621320486,-0.01210062950849533,0.009559698402881622,-0.000734486267901957,-0.008557736873626709
0.018507756292819977,0.0024031521752476692,-0.012151855044066906,0.009323641657829285,-0.0007282188744284213,-0.008789717219769955
0.018689192831516266,0.002490696730092168,-0.011660179123282433,0.009949341416358948,-0.0006975590367801487,-0.008649013005197048
0.018689192831516266,0.002490696730092168,-0.011660179123282433,0.009949341416358948,-0.0006975590367801487,-0.008649013005197048
0.01951119303703308,0.0026917862705886364,-0.012355058453977108,0.00976183544844389,-0.0007145252893678844,-0.008506628684699535
0.01870381459593773,0.0025601640809327364,-0.011608005501329899,0.009455310180783272,-0.000786875665653497,-0.008086261339485645
0.019047681242227554,0.0025815237313508987,-0.012097340077161789,0.0098945964127779,-0.000832890800666064,-0.00794160459190607
0.01911758817732334,0.0022950530983507633,-0.012018831446766853,0.009967495687305927,-0.0008439656812697649,-0.008210248313844204
0.019433919340372086,0.002253859071061015,-0.012467372231185436,0.01031777448952198,-0.0007720495341345668,-0.008417162112891674
0.01897864043712616,0.0021361710969358683,-0.011881856247782707,0.01027931272983551,-0.0008111308561637998,-0.008607554249465466
0.019044550135731697,0.002172845881432295,-0.012335591949522495,0.010420274920761585,-0.0007055089226923883,-0.008863302879035473
0.019648853689432144,0.0021255058236420155,-0.012037894688546658,0.010878748260438442,-0.0007154966006055474,-0.009117797017097473
0.020243529230356216,0.0023791107814759016,-0.01250914204865694,0.010646537877619267,-0.0006441943114623427,-0.009052934125065804
0.01972471922636032,0.00251461542211473,-0.011892257258296013,0.010345008224248886,-0.0006588220712728798,-0.009172099642455578
0.020288368687033653,0.002422179328277707,-0.011578025296330452,0.01071535237133503,-0.0006065688794478774,-0.009258340112864971
0.01957271620631218,0.0024629137478768826,-0.011500663124024868,0.010777465999126434,-0.000553914753254503,-0.008749401196837425
0.019072705879807472,0.0026693621184676886,-0.012229690328240395,0.01110879611223936,-0.0005767230177298188,-0.008777879178524017
0.019920632243156433,0.002741483738645911,-0.012967097572982311,0.011243637651205063,-0.0005380084621720016,-0.009244153276085854
0.020322633907198906,0.002847227966412902,-0.01182076707482338,0.010598178952932358,-0.0004757879942189902,-0.00895419716835022
0.020321203395724297,0.002781045390293002,-0.011768896132707596,0.010904529131948948,-0.0004700136196333915,-0.008773420006036758
0.01962451823055744,0.002413601614534855,-0.012444637715816498,0.01082175225019455,-0.0004666187160182744,-0.008771875873208046
0.020273122936487198,0.0024506316985934973,-0.011650028638541698,0.010949916206300259,-0.0004845500225201249,-0.008860524743795395
0.020388931035995483,0.00259052193723619,-0.01228449959307909,0.010787121951580048,-0.00046529105748049915,-0.008896848186850548
0.02092651277780533,0.0025108458939939737,-0.012016763910651207,0.009818615391850471,-0.0004919804050587118,-0.00923886988312006
0.02066149190068245,0.002587186638265848,-0.012097680941224098,0.009860625490546227,-0.0006470431690104306,-0.009041441604495049
0.021281041204929352,0.0024587437510490417,-0.012144860811531544,0.010478982701897621,-0.0006772999768145382,-0.008890101686120033
0.020497197285294533,0.0022968060802668333,-0.011812112294137478,0.01004818081855774,-0.0006267540738917887,-0.009331821464002132
0.02038462832570076,0.0023928985465317965,-0.012160874903202057,0.010121474973857403,-0.0006501771276816726,-0.009596804156899452
0.020951079204678535,0.0025518578477203846,-0.011920677497982979,0.01050275843590498,-0.0006355341756716371,-0.009315620176494122
0.021482981741428375,0.0028436449356377125,-0.012630285695195198,0.010137521661818027,-0.0006183619261719286,-0.009498943574726582
0.021210812032222748,0.0029840627685189247,-0.011945313774049282,0.01065694261342287,-0.0005716831074096262,-0.00947274174541235
0.021210812032222748,0.0029840627685189247,-0.011945313774049282,0.01065694261342287,-0.0005716831074096262,-0.00947274174541235
0.021169332787394524,0.00316604389809072,-0.011955278925597668,0.010693613439798355,-0.0005856456700712442,-0.009102416224777699
0.021621061488986015,0.002634272677823901,-0.01236553955823183,0.009953562170267105,-0.0005274313152767718,-0.009746153838932514
0.02145795337855816,0.0024352942127734423,-0.011892098933458328,0.010777570307254791,-0.0005416676285676658,-0.009829249233007431
0.021267438307404518,0.002365840133279562,-0.012647571973502636,0.010603777132928371,-0.0005115639651194215,-0.009672041982412338
0.02143275924026966,0.002263850998133421,-0.012094132602214813,0.010982142761349678,-0.0005257678567431867,-0.009644565172493458
0.021900346502661705,0.0024161457549780607,-0.012340663932263851,0.011339985765516758,-0.0005016743089072406,-0.009787403978407383
0.019918594509363174,0.0024841486010700464,-0.01243272889405489,0.011334914714097977,-0.0004913356970064342,-0.009808375500142574
0.02227013371884823,0.002540385350584984,-0.012934213504195213,0.011544296517968178,-0.0004634569340851158,-0.009778275154531002
0.022054169327020645,0.0024254233576357365,-0.012186995707452297,0.011390427127480507,-0.00044888738193549216,-0.009288602508604527
0.021706508472561836,0.0029765476938337088,-0.012918565422296524,0.011635294184088707,-0.0004217378154862672,-0.009266194887459278
0.021930042654275894,0.0027996713761240244,-0.012710022740066051,0.011140391230583191,-0.0003864650789182633,-0.009666910395026207
0.02187695913016796,0.002819777699187398,-0.0132504403591156,0.011275109834969044,-0.00041734176920726895,-0.010163439437747002
0.022058047354221344,0.0026369341649115086,-0.012979709543287754,0.011576220393180847,-0.00039515437674708664,-0.009450649842619896
0.022358858957886696,0.002373587340116501,-0.012839091010391712,0.011014704592525959,-0.00039854960050433874,-0.00954445730894804
0.022428365424275398,0.0025036646984517574,-0.012931019067764282,0.011707395315170288,-0.0004006224626209587,-0.009736227802932262
0.022316282615065575,0.0024563635233789682,-0.012229520827531815,0.011623873375356197,-0.0003783492720685899,-0.009484254755079746
0.022895105183124542,0.0026550735346972942,-0.012716184370219707,0.011521720327436924,-0.0003946061769966036,-0.009932419285178185
0.023157555609941483,0.0028039070311933756,-0.01218398753553629,0.011968789622187614,-0.0003852616355288774,-0.010401487350463867
0.022860607132315636,0.002672711154446006,-0.012936485931277275,0.0111640440300107,-0.0003664193209260702,-0.009839564561843872
0.022808056324720383,0.0024741666857153177,-0.01292453147470951,0.0114884739741683,-0.00039625755744054914,-0.009892093949019909
0.022855766117572784,0.0024183017667382956,-0.013466445729136467,0.011165795847773552,-0.00037137267645448446,-0.010097992606461048
0.02297157607972622,0.003085318487137556,-0.013027884066104889,0.011420674622058868,-0.00037680758396163583,-0.011021138168871403
0.02366936020553112,0.0031681156251579523,-0.013632729649543762,0.011829071678221226,-0.0003806867462117225,-0.01147334836423397
0.023748619481921196,0.002898332430049777,-0.01348804123699665,0.011681401170790195,-0.00040897034341469407,-0.010556709952652454
0.022979125380516052,0.0027113647665828466,-0.012761997990310192,0.011970472522079945,-0.00039075620588846505,-0.010492329485714436
0.023013301193714142,0.00257430924102664,-0.012799947522580624,0.011692019179463387,-0.00041734534897841513,-0.00995799619704485
0.02350989729166031,0.002452149521559477,-0.01295375358313322,0.011881946586072445,-0.0004862378991674632,-0.01001584529876709
0.02355988696217537,0.002495028544217348,-0.013533549383282661,0.011493374593555927,-0.0005146743496879935,-0.010735143907368183
0.02355988696217537,0.002495028544217348,-0.013533549383282661,0.011493374593555927,-0.0005146743496879935,-0.010735143907368183
0.024067293852567673,0.0026572919450700283,-0.013294059783220291,0.010815998539328575,-0.0005533950170502067,-0.01132083311676979
0.02422473020851612,0.0025215160567313433,-0.013880809769034386,0.012008282355964184,-0.0005073685315437615,-0.011322533711791039
0.023858381435275078,0.002715758280828595,-0.013235189020633698,0.011388169601559639,-0.0004641106934286654,-0.010549231432378292
0.02367774024605751,0.002453300403431058,-0.013558723963797092,0.011222900822758675,-0.0004935467150062323,-0.010613689199090004
0.023861171677708626,0.0023575949016958475,-0.013167941011488438,0.011330652050673962,-0.0004936820478178561,-0.010541817173361778
0.02523861452937126,0.0029922944959253073,-0.013375299051404,0.01135973259806633,-0.0004611542681232095,-0.011005676351487637
0.02540016360580921,0.0026592048816382885,-0.013764713890850544,0.011238234117627144,-0.00048509339103475213,-0.011050207540392876
0.024568160995841026,0.0026564167346805334,-0.013882720842957497,0.011738809756934643,-0.00044222286669537425,-0.011409476399421692
0.02323049306869507,0.0024051647633314133,-0.014142000116407871,0.012022601440548897,-0.00047232111683115363,-0.01107320562005043
0.02496444806456566,0.0023447738494724035,-0.01386425644159317,0.011503653600811958,-0.0004430041881278157,-0.011793307960033417
0.025237994268536568,0.0025377715937793255,-0.013643944635987282,0.01192387379705906,-0.0004734705144073814,-0.0115314070135355
0.024650689214468002,0.0024967105127871037,-0.014178276062011719,0.011960855685174465,-0.00044424759107641876,-0.010776237584650517
0.02521083690226078,0.0024311519227921963,-0.01381620205938816,0.012049896642565727,-0.000458868860732764,-0.01073907595127821
0.025456208735704422,0.0026536595541983843,-0.014493601396679878,0.011892763897776604,-0.0004441801575012505,-0.010855736210942268
0.026396259665489197,0.002511894330382347,-0.01409856416285038,0.011311543174088001,-0.0004839521716348827,-0.011095567606389523
0.025530127808451653,0.0024336432106792927,-0.014489170163869858,0.01176402810961008,-0.00045781955122947693,-0.011547908186912537
0.024997107684612274,0.002619552193209529,-0.014484455808997154,0.012070094235241413,-0.0004942766972817481,-0.01125242654234171
0.024649424478411674,0.0028277290984988213,-0.014849398285150528,0.011944083496928215,-0.0004575175407808274,-0.01141519844532013
0.025755014270544052,0.00288727437146008,-0.014507634565234184,0.012080100364983082,-0.0004561331297736615,-0.010790795087814331
0.026109542697668076,0.0027119142469018698,-0.014797589741647243,0.011572158895432949,-0.0004543397226370871,-0.010942020453512669
0.025512484833598137,0.0028160891961306334,-0.014708371832966805,0.012472417205572128,-0.0004256656102370471,-0.011399331502616405
0.025778204202651978,0.00288399588316679,-0.01528541836887598,0.012124287895858288,-0.00045184142072685063,-0.0108597781509161
0.02574090287089348,0.0025722060818225145,-0.015669364482164383,0.012139436788856983,-0.00047800454194657505,-0.010673579759895802
0.02608327567577362,0.0026784271467477083,-0.015280860476195812,0.012354560196399689,-0.00047758244909346104,-0.010681108571588993
0.025358200073242188,0.0026790103875100613,-0.015041651204228401,0.012244611978530884,-0.0004983372637070715,-0.01087405439466238
0.02573912777006626,0.002712642541155219,-0.014955426566302776,0.012908481992781162,-0.00047436036402359605,-0.011355048045516014
0.025683779269456863,0.0025403215549886227,-0.015561418607831001,0.012801405973732471,-0.0005049277096986771,-0.011383533477783203
0.025683779269456863,0.0025403215549886227,-0.015561418607831001,0.012801405973732471,-0.0005049277096986771,-0.011383533477783203
0.02559131197631359,0.0026292456313967705,-0.015421014279127121,0.01208597794175148,-0.0005042902776040137,-0.011425971984863281
0.025858307257294655,0.0030365604907274246,-0.01607363484799862,0.012938518077135086,-0.0004994695191271603,-0.011821649968624115
0.02599067986011505,0.0030811186879873276,-0.015183456242084503,0.013719880022108555,-0.0004689033085014671,-0.011482322588562965
0.026214737445116043,0.0027910838834941387,-0.015956787392497063,0.013176443986594677,-0.0005430537275969982,-0.011499638669192791
0.025991840288043022,0.0026236949488520622,-0.01507763471454382,0.013235975056886673,-0.0004995404160581529,-0.01137579046189785
0.026584051549434662,0.002455873880535364,-0.015434437431395054,0.012862319126725197,-0.0004910549032501876,-0.012041861191391945
0.026181673631072044,0.002574531128630042,-0.015779156237840652,0.012798639945685863,-0.0004867204697802663,-0.011720959097146988
0.025787053629755974,0.002697666874155402,-0.015498620457947254,0.012806132435798645,-0.0004824891220778227,-0.011599253863096237
0.02467500977218151,0.0025410433299839497,-0.015615728683769703,0.013229464180767536,-0.0004974418552592397,-0.01149760652333498
0.026554277166724205,0.0025633960030972958,-0.015805358067154884,0.012678606435656548,-0.0004791795799974352,-0.011860912665724754
0.026708822697401047,0.002712323796004057,-0.015279417857527733,0.013369943015277386,-0.0005144852329976857,-0.012032964266836643
0.02734384872019291,0.0026381320785731077,-0.015244544483721256,0.01300020981580019,-0.0005172612145543098,-0.011721553280949593
0.026489045470952988,0.0028513174038380384,-0.016031330451369286,0.01337328553199768,-0.000551232136785984,-0.011723040603101254
0.02563137747347355,0.0029108545277267694,-0.016197407618165016,0.013042296282947063,-0.0005814023897983134,-0.011913594789803028
0.026301709935069084,0.002879768842831254,-0.015313523821532726,0.013577751815319061,-0.0005720953922718763,-0.012081894092261791
0.02690310962498188,0.002783949952572584,-0.015930186957120895,0.013451294973492622,-0.0007296900730580091,-0.01217652764171362
0.027178211137652397,0.0028386865742504597,-0.015769531950354576,0.013231062330305576,-0.0006855184910818934,-0.011957723647356033
0.02706911601126194,0.002821761416271329,-0.01651706174015999,0.01281752996146679,-0.0006855293177068233,-0.011963235214352608
0.027335289865732193,0.0032697543501853943,-0.016275504603981972,0.012720244936645031,-0.0006319356034509838,-0.012046103365719318
0.027172038331627846,0.003204225329682231,-0.015578262507915497,0.0134910698980093,-0.0006548684323206544,-0.012254037894308567
0.026858406141400337,0.0030358601361513138,-0.015937821939587593,0.013270963914692402,-0.0006396720418706536,-0.011835865676403046
0.02637488953769207,0.003054694039747119,-0.015636255964636803,0.013783648610115051,-0.0006220407085493207,-0.011500252410769463
0.02615026757121086,0.0032336788717657328,-0.01631980575621128,0.013036701828241348,-0.0005769790732301772,-0.011749817989766598
0.02635194920003414,0.003148083109408617,-0.015654349699616432,0.01357237622141838,-0.0005319160991348326,-0.011679418385028839
0.027139054611325264,0.0035023940727114677,-0.016473181545734406,0.013307210057973862,-0.0005466394941322505,-0.012099863030016422
0.02717217616736889,0.0036663233768194914,-0.01633743941783905,0.013593429699540138,-0.0005158671992830932,-0.012020111083984375
0.027162743732333183,0.003268814878538251,-0.016688700765371323,0.01345476508140564,-0.0005399524234235287,-0.012265583500266075
0.027162743732333183,0.003268814878538251,-0.016688700765371323,0.01345476508140564,-0.0005399524234235287,-0.012265583500266075
0.02740209735929966,0.002965418389067054,-0.016699593514204025,0.014084532856941223,-0.0005589806823991239,-0.012074321508407593
0.027402164414525032,0.0028227942530065775,-0.01612994074821472,0.013916730880737305,-0.0006396994576789439,-0.012271545827388763
0.027358945459127426,0.0029078596271574497,-0.01675616391003132,0.01430509239435196,-0.0006510653765872121,-0.01286363322287798
0.027808871120214462,0.003370853140950203,-0.01571904867887497,0.014058776199817657,-0.0006810699705965817,-0.012368988245725632
0.02743965946137905,0.003280363976955414,-0.01676592044532299,0.014161729253828526,-0.0007057291804812849,-0.012559562921524048
0.02797914296388626,0.003055428620427847,-0.016835957765579224,0.014070532284677029,-0.0006632576696574688,-0.01253212708979845
0.028265610337257385,0.003228663234040141,-0.017312176525592804,0.013928476721048355,-0.0007251084898598492,-0.012516649439930916
0.028278280049562454,0.0031721291597932577,-0.016703717410564423,0.014104137197136879,-0.0006424732855521142,-0.012429655529558659
0.028516748920083046,0.00340538308955729,-0.016625279560685158,0.014447946101427078,-0.0006598494364880025,-0.012389603070914745
0.026793234050273895,0.0033488597255200148,-0.0162197332829237,0.014470015652477741,-0.0006726318970322609,-0.012257968075573444
0.028916066512465477,0.0033762699458748102,-0.016680365428328514,0.014334207400679588,-0.0006286879652179778,-0.012017766013741493
0.028583073988556862,0.003614420536905527,-0.016808507964015007,0.014592006802558899,-0.0006434882525354624,-0.012233203276991844
0.028328347951173782,0.003245554631575942,-0.01702590472996235,0.014301191084086895,-0.0006382473511621356,-0.012569375336170197
0.028258899226784706,0.0032321177423000336,-0.017094319686293602,0.014257152564823627,-0.0005966536118648946,-0.012888518162071705
0.028534332290291786,0.003290716325864196,-0.016377344727516174,0.013986818492412567,-0.0006272440659813583,-0.012895900756120682
0.02868097461760044,0.0032055366318672895,-0.017071550711989403,0.01387306209653616,-0.0006556000444106758,-0.012724201194941998
0.029066847637295723,0.0035127652809023857,-0.016690168529748917,0.013682752847671509,-0.0006730953464284539,-0.012563273310661316
0.02896638959646225,0.003692914266139269,-0.016764827072620392,0.013473802246153355,-0.0006250368896871805,-0.012693432159721851
0.02952679805457592,0.0033247850369662046,-0.017002953216433525,0.01437526848167181,-0.0006940632010810077,-0.012670986354351044
0.029430804774165154,0.003439809661358595,-0.017318211495876312,0.014707433059811592,-0.0006376777892000973,-0.012853183783590794
0.029673023149371147,0.0031898263841867447,-0.018059387803077698,0.015184856951236725,-0.0006144496146589518,-0.013098384253680706
0.02962821163237095,0.003223076229915023,-0.017330214381217957,0.01478524599224329,-0.000594630662817508,-0.011893116869032383
0.030074063688516617,0.0032618013210594654,-0.0174429789185524,0.014286900870501995,-0.0006040455191396177,-0.012854236178100109
0.030137788504362106,0.0034501119516789913,-0.017602214589715004,0.014235632494091988,-0.0005697816959582269,-0.013489378616213799
0.02993663214147091,0.003248944180086255,-0.016889074817299843,0.014386692084372044,-0.0005599005380645394,-0.012995290569961071
0.029616275802254677,0.0035995114594697952,-0.017138076946139336,0.014335433952510357,-0.000550123571883887,-0.012526935897767544
0.029961897060275078,0.003859051037579775,-0.01668381690979004,0.014859654940664768,-0.0005200313171371818,-0.012687083333730698
0.031185651198029518,0.003441751701757312,-0.01768878661096096,0.01444188691675663,-0.00047640627599321306,-0.012467818334698677
0.031185651198029518,0.003441751701757312,-0.01768878661096096,0.01444188691675663,-0.00047640627599321306,-0.012467818334698677
0.029427483677864075,0.003084722440689802,-0.01697389967739582,0.014366310089826584,-0.0005293315625749528,-0.013219731859862804
0.029427483677864075,0.003084722440689802,-0.01697389967739582,0.014366310089826584,-0.0005293315625749528,-0.013219731859862804
0.029697082936763763,0.0033049366902559996,-0.01769242249429226,0.01429014839231968,-0.0005053554777987301,-0.013040387071669102
0.03106505610048771,0.003434802871197462,-0.01755952090024948,0.014045802876353264,-0.0005312018911354244,-0.013349185697734356
0.03090759739279747,0.003708945121616125,-0.01798664778470993,0.014761232770979404,-0.0007586674764752388,-0.013318255543708801
0.031482186168432236,0.003879013005644083,-0.01746085286140442,0.01483785267919302,-0.0006738035008311272,-0.012961111031472683
0.030525142326951027,0.00353226694278419,-0.01816451922059059,0.01521232072263956,-0.0006920854793861508,-0.013417349196970463
0.030367892235517502,0.003504327731207013,-0.018079260364174843,0.01510196179151535,-0.000712392502464354,-0.013210034929215908
0.030249862000346184,0.003669681027531624,-0.017580868676304817,0.015194463543593884,-0.0007494717719964683,-0.013306483626365662
0.031204180791974068,0.004100525286048651,-0.018423384055495262,0.015001162886619568,-0.0007709316560067236,-0.013498915359377861
0.0317935012280941,0.0038748050574213266,-0.018637215718626976,0.015493503771722317,-0.0007024459191597998,-0.013560271821916103
0.030779080465435982,0.0035524729173630476,-0.018414366990327835,0.015475617721676826,-0.0007195461657829583,-0.013376731425523758
0.032345112413167953,0.0031750279013067484,-0.018699821084737778,0.015963632613420486,-0.0006962541956454515,-0.013217032887041569
0.032044921070337296,0.003064383054152131,-0.01825643517076969,0.015447749756276608,-0.000671954418066889,-0.013759625144302845
0.031000107526779175,0.0032077287323772907,-0.018022172152996063,0.015773119404911995,-0.0006695282645523548,-0.013520709238946438
0.031338926404714584,0.004188319202512503,-0.018109112977981567,0.015359819866716862,-0.0006016240804456174,-0.013576270081102848
0.032061465084552765,0.003716598032042384,-0.017693962901830673,0.015214500017464161,-0.0006231023580767214,-0.013824816793203354
0.03149730712175369,0.003379312576726079,-0.018692562356591225,0.014858038164675236,-0.0005697221495211124,-0.014084971509873867
0.0319129154086113,0.0032499528024345636,-0.018802262842655182,0.015216371975839138,-0.0005900638061575592,-0.014080896973609924
0.032184794545173645,0.0034448474179953337,-0.01829362101852894,0.015188906341791153,-0.0005487329326570034,-0.014171694405376911
0.03251902014017105,0.0036870394833385944,-0.018605535849928856,0.015575975179672241,-0.0005724110524170101,-0.014008994214236736
0.0322449766099453,0.00354693247936666,-0.01856759563088417,0.015592516399919987,-0.0005691038677468896,-0.014145035296678543
0.031875889748334885,0.0034510535188019276,-0.018261466175317764,0.01580563560128212,-0.0005359668284654617,-0.013885769061744213
0.0323057658970356,0.00316928094252944,-0.01852542720735073,0.015690112486481667,-0.0005700648762285709,-0.013851014897227287
0.03323251008987427,0.0029701641760766506,-0.01799272745847702,0.015182284638285637,-0.0006016057450324297,-0.013801575638353825
0.03236643970012665,0.0030533827375620604,-0.01854320615530014,0.015534702688455582,-0.0006123430794104934,-0.014058039523661137
0.03236643970012665,0.0030533827375620604,-0.01854320615530014,0.015534702688455582,-0.0006123430794104934,-0.014058039523661137
0.03139246255159378,0.003256314666941762,-0.019242199137806892,0.01553057599812746,-0.000586138223297894,-0.013975060544908047
0.032260164618492126,0.0034770811907947063,-0.018429545685648918,0.016179446130990982,-0.0007080353097990155,-0.013940449804067612
0.03313346952199936,0.0036454834043979645,-0.018541987985372543,0.015684178099036217,-0.0007394220447167754,-0.013869444839656353
0.03271087259054184,0.003423001617193222,-0.019229808822274208,0.015825428068637848,-0.0006577011081390083,-0.014202984049916267
0.03373223543167114,0.003405311843380332,-0.018528440967202187,0.015739137306809425,-0.0006706959684379399,-0.014225372113287449
0.03341563418507576,0.0032116619404405355,-0.018752312287688255,0.015902994200587273,-0.0006164154037833214,-0.014364926144480705
0.03235457092523575,0.00342687894590199,-0.018705634400248528,0.01606145314872265,-0.0006312895566225052,-0.014554210007190704
0.03394588828086853,0.0031438064761459827,-0.019208960235118866,0.016027214005589485,-0.0005609935033135116,-0.01471701730042696
0.03392603248357773,0.003269951557740569,-0.0193750262260437,0.01567658595740795,-0.0005027638981118798,-0.014897523447871208
0.03284749016165733,0.0036019347608089447,-0.01872869022190571,0.01617823727428913,-0.0005363532691262662,-0.014776388183236122
0.03335140645503998,0.0038399365730583668,-0.01892268843948841,0.01599825546145439,-0.000553047691937536,-0.014746686443686485
0.03338779881596565,0.003389989957213402,-0.01909756474196911,0.016661256551742554,-0.0005810450529679656,-0.014375345781445503
0.03378104045987129,0.0031388213392347097,-0.018792688846588135,0.016204681247472763,-0.0006594400620087981,-0.014746913686394691
0.03368346393108368,0.0033117015846073627,-0.019106462597846985,0.016296401619911194,-0.000761602190323174,-0.014726665802299976
0.03371904045343399,0.0036235966254025698,-0.01907294988632202,0.016164761036634445,-0.0006991210393607616,-0.014895766973495483
0.03363662213087082,0.0038175657391548157,-0.01871817745268345,0.015936827287077904,-0.0006964112399145961,-0.014558175578713417
0.03380369022488594,0.0037789640482515097,-0.019149843603372574,0.01630481891334057,-0.0006479523726738989,-0.01475153211504221
0.0338706336915493,0.003265106352046132,-0.019063960760831833,0.0157461017370224,-0.000650420319288969,-0.014796724542975426
0.03416479751467705,0.0033268940169364214,-0.018749210983514786,0.016280800104141235,-0.0006140116602182388,-0.016110021620988846
0.034470487385988235,0.003546406514942646,-0.01929004304111004,0.016219038516283035,-0.0006117894081398845,-0.014990955591201782
0.03436987102031708,0.003530736081302166,-0.01917058229446411,0.016815895214676857,-0.0006351505871862173,-0.01485716737806797
0.03459971398115158,0.0035034194588661194,-0.018786029890179634,0.01715571992099285,-0.000638865283690393,-0.014805033802986145
0.03428126871585846,0.00336480513215065,-0.019644876942038536,0.017010360956192017,-0.0006202161312103271,-0.01539018377661705
0.034342847764492035,0.0034157144837081432,-0.018900969997048378,0.017542609944939613,-0.0006370553164742887,-0.015431302599608898
0.03530353680253029,0.003657543333247304,-0.01862187497317791,0.01726497709751129,-0.0005941311246715486,-0.015322048217058182
0.03470331430435181,0.00382001674734056,-0.019624121487140656,0.01726253516972065,-0.000653626921121031,-0.015124903991818428
0.034695401787757874,0.003910078201442957,-0.019814908504486084,0.016694821417331696,-0.0006034058751538396,-0.015383068472146988
0.03440167009830475,0.0038888840936124325,-0.019473474472761154,0.01658697798848152,-0.0006330568576231599,-0.015418987721204758
0.03487403690814972,0.00382787617854774,-0.020122503861784935,0.01708654686808586,-0.0006183733348734677,-0.01562655158340931
0.03546928986907005,0.0037940593902021646,-0.02040237747132778,0.017550718039274216,-0.0006010183715261519,-0.01595214754343033
0.03546928986907005,0.0037940593902021646,-0.02040237747132778,0.017550718039274216,-0.0006010183715261519,-0.01595214754343033
0.03534882888197899,0.00380620826035738,-0.020509526133537292,0.018199622631072998,-0.000618998019490391,-0.0155454371124506
0.035051193088293076,0.003411348909139633,-0.019955143332481384,0.017966747283935547,-0.0006338126841001213,-0.015593620017170906
0.03516942262649536,0.0035855667665600777,-0.020673135295510292,0.017583724111318588,-0.0006648564012721181,-0.015607810579240322
0.03529171273112297,0.004116457421332598,-0.01994253322482109,0.017440084367990494,-0.0006927712820470333,-0.015709666535258293
0.0354548916220665,0.004245883319526911,-0.019889546558260918,0.016649795696139336,-0.0007149767479859293,-0.015694182366132736
0.035930756479501724,0.003922526724636555,-0.020347213372588158,0.017082579433918,-0.0008519983966834843,-0.015869265422225
0.03487906977534294,0.003432675264775753,-0.020510055124759674,0.017347747460007668,-0.0008746953099034727,-0.016190147027373314
0.03571922332048416,0.0035882338415831327,-0.021072428673505783,0.01772201806306839,-0.0008625037153251469,-0.01600722223520279
0.035698745399713516,0.0037786317989230156,-0.020720060914754868,0.017529048025608063,-0.0008381661027669907,-0.01585424691438675
0.03625095635652542,0.003810412483289838,-0.02066204324364662,0.01811547763645649,-0.0007952364394441247,-0.0161086805164814
0.037682484835386276,0.0037595091853290796,-0.02100425213575363,0.01847727783024311,-0.0007695592357777059,-0.01612815260887146
0.03675654157996178,0.004256724379956722,-0.021739913150668144,0.018213778734207153,-0.0007406032527796924,-0.016169514507055283
0.035039301961660385,0.003598627168685198,-0.02172994799911976,0.01844962127506733,-0.0007877476746216416,-0.016489464789628983
0.03627069294452667,0.003529026871547103,-0.02056892402470112,0.01840708591043949,-0.0008025574497878551,-0.016710251569747925
0.037200454622507095,0.003679799847304821,-0.020270824432373047,0.017955614253878593,-0.0007474817102774978,-0.016914809122681618
0.03690825775265694,0.003820110112428665,-0.020988833159208298,0.018170222640037537,-0.0008208583458326757,-0.016357913613319397
0.03682780638337135,0.0038359565660357475,-0.020953772589564323,0.017479809001088142,-0.0008264200296252966,-0.016133736819028854
0.03724268823862076,0.00415526470169425,-0.02115107700228691,0.017370261251926422,-0.000820023356936872,-0.016245584934949875
0.037291210144758224,0.0042249541729688644,-0.021935023367404938,0.018235212191939354,-0.0008285531075671315,-0.01647219806909561
0.03737275302410126,0.004139745142310858,-0.02188154309988022,0.018611185252666473,-0.0008400447550229728,-0.016429107636213303
0.0368991494178772,0.00408233143389225,-0.021397694945335388,0.01890256628394127,-0.0008819920476526022,-0.016435127705335617
0.03737911954522133,0.004009241703897715,-0.021018177270889282,0.018824927508831024,-0.0007910322747193277,-0.016612377017736435
0.037294112145900726,0.003879411378875375,-0.02177628129720688,0.018131012097001076,-0.0007986638811416924,-0.017243728041648865
0.03717775642871857,0.004312754143029451,-0.022271428257226944,0.018609676510095596,-0.0007895275484770536,-0.01707233488559723
0.038131095468997955,0.004098016303032637,-0.021721744909882545,0.01856694370508194,-0.0007324180332943797,-0.016560202464461327
0.03836759179830551,0.004141401965171099,-0.021360009908676147,0.01835043914616108,-0.0007035467424429953,-0.016672838479280472
0.03836759179830551,0.004141401965171099,-0.021360009908676147,0.01835043914616108,-0.0007035467424429953,-0.016672838479280472
0.03653645142912865,0.0040931664407253265,-0.021992605179548264,0.018601566553115845,-0.000713527959305793,-0.01700083166360855
0.03646484389901161,0.004392491653561592,-0.02215569093823433,0.01844647340476513,-0.0006554214633069932,-0.017034124583005905
0.037642791867256165,0.004434018395841122,-0.021641990169882774,0.018353445455431938,-0.000670005043502897,-0.016757946461439133
0.03727346286177635,0.0042426674626767635,-0.02153650112450123,0.018384164199233055,-0.0006583651411347091,-0.016459932550787926
0.03859994560480118,0.004023894667625427,-0.021875767037272453,0.018135765567421913,-0.0006417182739824057,-0.016610920429229736
0.037950050085783005,0.003971290308982134,-0.022305063903331757,0.01812412217259407,-0.0007580012897960842,-0.016347600147128105
0.03612138703465462,0.004399819765239954,-0.022268857806921005,0.01833280920982361,-0.0007824456552043557,-0.01665790192782879
0.03815515711903572,0.0038899413775652647,-0.02198030985891819,0.01857938803732395,-0.0007697777473367751,-0.01681150123476982
0.037997763603925705,0.004037938546389341,-0.02257920242846012,0.01867089420557022,-0.0009955462301149964,-0.017248859629034996
0.037644609808921814,0.003906726371496916,-0.02236984483897686,0.01823294162750244,-0.0009199110209010541,-0.017312508076429367
0.037751927971839905,0.003816962940618396,-0.021603131666779518,0.018895994871854782,-0.0009128189994953573,-0.017256075516343117
0.03811701014637947,0.003844004822894931,-0.021747121587395668,0.018905049189925194,-0.0009029534412547946,-0.017117775976657867
0.03820410743355751,0.004300454631447792,-0.02269112318754196,0.018719974905252457,-0.000852901313919574,-0.017354195937514305
0.038483165204524994,0.004064550623297691,-0.02337411604821682,0.018900396302342415,-0.0008279656176455319,-0.017415957525372505
0.038194481283426285,0.003965027164667845,-0.022705115377902985,0.018678812310099602,-0.0007745355251245201,-0.01778140477836132
0.038074884563684464,0.004500076174736023,-0.022445207461714745,0.018878819420933723,-0.0007860378827899694,-0.017820458859205246
0.03837822750210762,0.004537248983979225,-0.02234717644751072,0.01874636672437191,-0.0007916584727354348,-0.017662493512034416
0.03891686350107193,0.004313251934945583,-0.022422833368182182,0.0182315856218338,-0.0008338681072928011,-0.017474794760346413
0.038163166493177414,0.004064785782247782,-0.023387910798192024,0.018326977267861366,-0.0008105113520286977,-0.01752583682537079
0.03874140977859497,0.004131600260734558,-0.023583775386214256,0.018625764176249504,-0.0007603600970469415,-0.017543544992804527
0.03946671262383461,0.004090021830052137,-0.0228712260723114,0.01827787235379219,-0.0007734449463896453,-0.017620043829083443
0.03904534876346588,0.004477980546653271,-0.023142850026488304,0.01864791475236416,-0.0007803866756148636,-0.017797693610191345
0.03896186500787735,0.004752106033265591,-0.023956812918186188,0.018992310389876366,-0.0007731477962806821,-0.01784341037273407
0.039126671850681305,0.0047472696751356125,-0.024148359894752502,0.01947333663702011,-0.0008148750639520586,-0.01826617121696472
0.03946533799171448,0.004391326569020748,-0.02429548278450966,0.01985141821205616,-0.0008281226037070155,-0.01804954744875431
0.03946533799171448,0.004391326569020748,-0.02429548278450966,0.01985141821205616,-0.0008281226037070155,-0.01804954744875431
