davideferrari95/blind_handover_controller/data/Test 196 - [2024-02-08 -- 11-31-59]/joint_states_data.csv
shoulder_pan_joint,shoulder_lift_joint,elbow_joint,wrist_1_joint,wrist_2_joint,wrist_3_joint
0.0011639348231256008,-0.01213849987834692,-0.012412194162607193,0.02553158439695835,-0.0,0.0023294249549508095
0.0011639348231256008,-0.01213849987834692,-0.012412194162607193,0.02553158439695835,-0.0,0.0023294249549508095
0.0011503811692819,-0.011966189369559288,-0.012737469747662544,0.024410609155893326,-0.0,0.0020786533132195473
0.001256392104551196,-0.011785396374762058,-0.012087102048099041,0.023417137563228607,-0.0,0.0017789199482649565
0.0013449436519294977,-0.012080330401659012,-0.012305768206715584,0.022960515692830086,-0.0,0.0014440363738685846
0.001681361929513514,-0.011372718028724194,-0.011908388696610928,0.022686155512928963,-0.0,0.0012559260940179229
0.001722986693494022,-0.011777454987168312,-0.012359085492789745,0.023070020601153374,-0.0,0.0013190226163715124
0.0019453205168247223,-0.01179361343383789,-0.012197327800095081,0.023768043145537376,-0.0,0.0015634563751518726
0.0016095874598249793,-0.012552151456475258,-0.012623892165720463,0.023118114098906517,-0.0,0.002236580476164818
0.001608372083865106,-0.011924907565116882,-0.012286622077226639,0.022650672122836113,-0.0,0.001992590259760618
0.0015446578618139029,-0.0125123867765069,-0.01210969127714634,0.022400619462132454,-0.0,0.0016095048049464822
0.001624440774321556,-0.011840716004371643,-0.0119804497808218,0.022602718323469162,-0.0,0.001361785689368844
0.001624440774321556,-0.011840716004371643,-0.0119804497808218,0.022602718323469162,-0.0,0.001361785689368844
0.0016888099489733577,-0.012228412553668022,-0.011766674928367138,0.022266650572419167,-0.0,0.0014526881277561188
0.0016888099489733577,-0.012228412553668022,-0.011766674928367138,0.022266650572419167,-0.0,0.0014526881277561188
0.0017166010802611709,-0.012031114660203457,-0.011452450416982174,0.02259506657719612,-0.0,0.0015489343786612153
0.001640722039155662,-0.012148578651249409,-0.011850258335471153,0.023128140717744827,-0.0,0.0018981562461704016
0.0016836440190672874,-0.01179512683302164,-0.01115630567073822,0.022983470931649208,-0.0,0.0020533627830445766
0.0017281797481700778,-0.012557139620184898,-0.011696832254529,0.023018570616841316,-0.0,0.001974082086235285
0.00181201274972409,-0.012158744037151337,-0.011349761858582497,0.022822435945272446,-0.0,0.0018021498108282685
0.0016622537514194846,-0.012062130495905876,-0.011453165672719479,0.023004861548542976,-0.0,0.0016190640162676573
0.0016621153336018324,-0.01239562127739191,-0.011496963910758495,0.023705685511231422,-0.0,0.001466700341552496
0.0016755753895267844,-0.012195988558232784,-0.010639728046953678,0.023800062015652657,-0.0,0.0014604585012421012
0.0017413556342944503,-0.012265906669199467,-0.011286647990345955,0.023723000660538673,-0.0,0.0017520554829388857
0.0018240280915051699,-0.01193839218467474,-0.011524705216288567,0.023194001987576485,-0.0,0.0018404414877295494
0.002255870494991541,-0.012480244971811771,-0.0118865966796875,0.022584527730941772,-0.0,0.002243851078674197
0.0023833690211176872,-0.012446707114577293,-0.01143705379217863,0.022759390994906425,-0.0,0.0020749245304614305
0.002264746930450201,-0.012015217915177345,-0.011205170303583145,0.02274271845817566,-0.0,0.001958386041224003
0.0021377091761678457,-0.012626581825315952,-0.011501489207148552,0.022495955228805542,-0.0,0.0018782218685373664
0.0020297865848988295,-0.012003281153738499,-0.011271802708506584,0.022282477468252182,-0.0,0.0015501235611736774
0.002075463067740202,-0.012411833740770817,-0.010894444771111012,0.022327139973640442,-0.0,0.0015036120312288404
0.0020803743973374367,-0.011867377907037735,-0.011771541088819504,0.022168608382344246,-0.0,0.001432577962987125
0.002429729327559471,-0.012186337262392044,-0.01193230226635933,0.02205081097781658,-0.0,0.001453353906981647
0.0023123817518353462,-0.012198396027088165,-0.011498500593006611,0.02193652093410492,-0.0,0.0014162736479192972
0.0024253535084426403,-0.011676382273435593,-0.011310003697872162,0.02173275500535965,-0.0,0.0015344067942351103
0.0023199778515845537,-0.012302103452384472,-0.010815782472491264,0.022175684571266174,-0.0,0.001720156753435731
0.002177407266572118,-0.011845278553664684,-0.011513693258166313,0.022368960082530975,-0.0,0.001830138498917222
0.0024630464613437653,-0.011866079643368721,-0.011557884514331818,0.022149793803691864,-0.0,0.0018089312361553311
0.0026212253142148256,-0.011726095341145992,-0.011990155093371868,0.022193539887666702,-0.0,0.0016675228253006935
0.0024593202397227287,-0.011783330701291561,-0.011483576148748398,0.022101491689682007,-0.0,0.0016598559450358152
0.0024593202397227287,-0.011783330701291561,-0.011483576148748398,0.022101491689682007,-0.0,0.0016598559450358152
0.002338311169296503,-0.011523493565618992,-0.011705093085765839,0.021925169974565506,-0.0,0.0016356650739908218
0.0022307089529931545,-0.01183592714369297,-0.011415950022637844,0.021767856553196907,-0.0,0.0016699163243174553
0.0024164242204278708,-0.011379272677004337,-0.011026745662093163,0.021786589175462723,-0.0,0.0016562510281801224
0.002359597012400627,-0.011209720745682716,-0.011301586404442787,0.022129569202661514,-0.0,0.001857774332165718
0.002295262413099408,-0.011782247573137283,-0.010758240707218647,0.022061064839363098,-0.0,0.0020230887457728386
0.002230630721896887,-0.01140997651964426,-0.0112593499943614,0.02183668687939644,-0.0,0.002111938549205661
0.002255192259326577,-0.012825476936995983,-0.01141553558409214,0.021651489660143852,-0.0,0.001957052620127797
0.0024719517678022385,-0.011608455330133438,-0.010783940553665161,0.021765831857919693,-0.0,0.0018007492180913687
0.002366946078836918,-0.011726387776434422,-0.011295574717223644,0.02211504429578781,-0.0,0.0016400449676439166
0.0024584573693573475,-0.011705516837537289,-0.011982538737356663,0.02212795428931713,-0.0,0.001499811070971191
0.002605003770440817,-0.011467605829238892,-0.011696097441017628,0.021767068654298782,-0.0,0.001489790971390903
0.002480508992448449,-0.011769820936024189,-0.011368759907782078,0.02208717353641987,-0.0,0.0016132279997691512
0.0025579617358744144,-0.011394632048904896,-0.010804026387631893,0.021745629608631134,-0.0,0.0016956236213445663
0.002655792748555541,-0.011874472722411156,-0.011352021247148514,0.022053534165024757,-0.0,0.0021023787558078766
0.00249901763163507,-0.011417917907238007,-0.011263271793723106,0.02224019542336464,-0.0,0.0020719943568110466
0.002525842748582363,-0.010988986119627953,-0.011236901395022869,0.022492464631795883,-0.0,0.0017393982270732522
0.0026104310527443886,-0.01134677603840828,-0.011438899673521519,0.022047722712159157,-0.0,0.001652945065870881
0.002471841173246503,-0.011411026120185852,-0.010817465372383595,0.0214010551571846,-0.0,0.0015439671697095037
0.0025704698637127876,-0.011017165146768093,-0.01205044612288475,0.020690616220235825,-0.0,0.001455947058275342
0.0027023612055927515,-0.011421266943216324,-0.01152715552598238,0.02113383449614048,-0.0,0.0013978693168610334
0.0025443790946155787,-0.011230504140257835,-0.011569558642804623,0.02182653173804283,-0.0,0.0015577934682369232
0.0025555251631885767,-0.01204877533018589,-0.01161624863743782,0.02176850475370884,-0.0,0.0019170430023223162
0.00236340775154531,-0.011339941062033176,-0.011295164935290813,0.021111277863383293,-0.0,0.0024537546560168266
0.0016214484348893166,-0.011103379540145397,-0.011422291398048401,0.021755509078502655,-0.0,0.0022595608606934547
0.0005679220776073635,-0.011370787397027016,-0.010581484995782375,0.022085295990109444,-0.0,0.0018924294272437692
0.0006154155707918108,-0.011316639371216297,-0.011423517018556595,0.021619107574224472,-0.0,0.001569526270031929
0.00021681362704839557,-0.012452828697860241,-0.011200071312487125,0.021722717210650444,-0.0,0.0015114409616217017
0.0003784332948271185,-0.011650118045508862,-0.010694875381886959,0.02154250629246235,-0.0,0.00146296969614923
0.0003784332948271185,-0.011650118045508862,-0.010694875381886959,0.02154250629246235,-0.0,0.00146296969614923
0.0004511614970397204,-0.01143753994256258,-0.011109568178653717,0.021471340209245682,-0.0,0.001716985716484487
0.00044151314068585634,-0.010953182354569435,-0.010960040614008904,0.021616609767079353,-0.0,0.0016929242992773652
0.000975566916167736,-0.01130254939198494,-0.011359854601323605,0.022022776305675507,-0.0,0.002146974904462695
0.0008086921297945082,-0.011728661134839058,-0.011347087100148201,0.02061428874731064,-0.0,0.0020398402120918036
0.0006854376406408846,-0.011338316835463047,-0.010782914236187935,0.022181175649166107,-0.0,0.0019364695763215423
0.0006718015065416694,-0.011667946353554726,-0.01123181451112032,0.021693173795938492,-0.0,0.0017472738400101662
0.0006297625950537622,-0.0114146638661623,-0.010937956161797047,0.021408559754490852,-0.0,0.00154743657913059
0.0006255629705265164,-0.011101661249995232,-0.011109978891909122,0.021727709099650383,-0.0,0.001480364822782576
0.0005956826498731971,-0.01118661742657423,-0.011136281304061413,0.02164243906736374,-0.0,0.0015332598704844713
0.0006190907442942262,-0.010774461552500725,-0.01077031809836626,0.021533425897359848,-0.0,0.0016088697593659163
0.0005055865040048957,-0.01087218802422285,-0.011330680921673775,0.021895231679081917,-0.0,0.0017785551026463509
0.0005333606968633831,-0.011052265763282776,-0.011576366610825062,0.021535426378250122,-0.0,0.00207520485855639
0.0006216615438461304,-0.010539970360696316,-0.011083293706178665,0.021071499213576317,-0.0,0.002203867305070162
0.0010288880439475179,-0.010882748290896416,-0.011062171310186386,0.020521191880106926,-0.0,0.0020118432585150003
0.0011921674013137817,-0.010776604525744915,-0.010673868469893932,0.020719269290566444,-0.0,0.0018124607158824801
0.001146149355918169,-0.010953010991215706,-0.01104735117405653,0.021013254299759865,-0.0,0.0015412259381264448
0.0009715036139823496,-0.011157681234180927,-0.011488187126815319,0.021458404138684273,-0.0,0.0015306490240618587
0.0009468939970247447,-0.010727002285420895,-0.011174440383911133,0.02099354937672615,-0.0,0.0014098823303356767
0.0008481988334096968,-0.010767713189125061,-0.01128766592592001,0.02100897580385208,-0.0,0.0015040435828268528
0.0007158256485126913,-0.010786507278680801,-0.010912205092608929,0.020910577848553658,-0.0,0.001667013973928988
0.0007320206495933235,-0.010733175091445446,-0.01177330780774355,0.020006630569696426,-0.0,0.002019071253016591
0.0010895913001149893,-0.011004731059074402,-0.010924545116722584,0.02108571119606495,-0.0,0.002084901789203286
0.001194568583741784,-0.011427843943238258,-0.011863685213029385,0.021111760288476944,-0.0,0.0021077413111925125
0.0011474386556074023,-0.011660231277346611,-0.011494874954223633,0.020470401272177696,-0.0,0.0020599239505827427
0.0011051286710426211,-0.010292860679328442,-0.011191507801413536,0.021173449233174324,-0.0,0.0020401012152433395
0.0010683470172807574,-0.010439824312925339,-0.01245140004903078,0.02163655124604702,-0.0,0.0019910167902708054
0.0010440427577123046,-0.010994667187333107,-0.011445806361734867,0.02125706523656845,-0.0,0.001958675216883421
0.0011194517137482762,-0.010563770309090614,-0.011585448868572712,0.020857036113739014,-0.0,0.0019258488900959492
0.0011194517137482762,-0.010563770309090614,-0.011585448868572712,0.020857036113739014,-0.0,0.0019258488900959492
0.0011518727988004684,-0.010751906782388687,-0.011112569831311703,0.021577252075076103,-0.0,0.0018582388292998075
0.0012925876071676612,-0.010604637674987316,-0.010980973951518536,0.020517127588391304,-0.0,0.001789952744729817
0.0012669955613091588,-0.01032326091080904,-0.011554290540516376,0.019960088655352592,-0.0,0.001799523364752531
0.001601786003448069,-0.010228442959487438,-0.010935080237686634,0.020752977579832077,-0.0,0.0018231408903375268
0.0015180421760305762,-0.009908324107527733,-0.011748703196644783,0.02140946500003338,-0.0,0.001689210650511086
0.0014383989619091153,-0.010198911651968956,-0.011040113866329193,0.021003130823373795,-0.0,0.0016946231480687857
0.0014313776046037674,-0.010175598785281181,-0.010602631606161594,0.020213870331645012,-0.0,0.0015793833881616592
0.001464335829950869,-0.009813209995627403,-0.011991535313427448,0.020324036478996277,-0.0,0.0013619865057989955
0.0014332435093820095,-0.010843461379408836,-0.011270983144640923,0.020390525460243225,-0.0,0.0014181273290887475
0.0015206594252958894,-0.010426272638142109,-0.011468296870589256,0.020208464935421944,-0.0,0.0013704728335142136
0.0016700747655704618,-0.009781288914382458,-0.011944553814828396,0.02051304094493389,-0.0,0.0016859120223671198
0.0017968552419915795,-0.010260052978992462,-0.01082600001245737,0.020475227385759354,-0.0,0.0016357784625142813
0.0017299705650657415,-0.01035600807517767,-0.011566851288080215,0.021194085478782654,-0.0,0.0017558535328134894
0.001826788648031652,-0.010440602898597717,-0.011204145848751068,0.02040453627705574,-0.0,0.0017136314418166876
0.0016688413452357054,-0.009843998588621616,-0.011201350018382072,0.02023422159254551,-0.0,0.0017004958353936672
0.0016877712914720178,-0.00982699915766716,-0.01155886985361576,0.020270030945539474,-0.0,0.001707764808088541
0.0017220333684235811,-0.009288138709962368,-0.010815514251589775,0.0203409343957901,-0.0,0.001928452169522643
0.0019519627094268799,-0.009940095245838165,-0.011199094355106354,0.020645350217819214,-0.0,0.0020194475073367357
0.0020597076509147882,-0.009434736333787441,-0.011135459877550602,0.020343977957963943,-0.0,0.0019996664486825466
0.001922022900544107,-0.009479858912527561,-0.011471979320049286,0.020047128200531006,-0.0,0.0017810475546866655
0.002023432869464159,-0.009734850376844406,-0.010996963828802109,0.020317133516073227,-0.0,0.0017604525201022625
0.0019855783320963383,-0.009127353318035603,-0.01130590308457613,0.020604152232408524,-0.0,0.0017286093207076192
0.0019855783320963383,-0.009127353318035603,-0.01130590308457613,0.020604152232408524,-0.0,0.0017286093207076192
0.002199658425524831,-0.00914518442004919,-0.011434630490839481,0.020434103906154633,-0.0,0.0018012806540355086
0.002322751097381115,-0.009359034709632397,-0.010838472284376621,0.02044655755162239,-2.4965631837403635e-06,0.002048259135335684
0.002282228786498308,-0.008940791711211205,-0.01215734239667654,0.019967438653111458,-1.6300772642807715e-07,0.0019975113682448864
0.002343921922147274,-0.009005706757307053,-0.011579649522900581,0.01939591020345688,-1.0643240955232613e-08,0.0018382106209173799
0.0021038195118308067,-0.0092000812292099,-0.011722972616553307,0.01986071653664112,-6.949275599410498e-10,0.0016345601761713624
0.002236538100987673,-0.008775176480412483,-0.011377032846212387,0.020097879692912102,-4.5373798468473225e-11,0.0015779356472194195
0.0022567729465663433,-0.009140245616436005,-0.011195424012839794,0.019808655604720116,-2.962585038401855e-12,0.001558117102831602
0.0024902557488530874,-0.00986852589994669,-0.011643551290035248,0.019892526790499687,-1.9343562667438474e-13,0.0016197329387068748
0.00261920178309083,-0.009224317036569118,-0.011120012030005455,0.02054099552333355,-1.2629964280907839e-14,0.0020165066234767437
0.002733842469751835,-0.008638730272650719,-0.011473690159618855,0.020647723227739334,-8.246464487935204e-16,0.0023920394014567137
0.002400408498942852,-0.009299004450440407,-0.011029724031686783,0.020042436197400093,-5.384352202912642e-17,0.0024063477758318186
0.002539566485211253,-0.010144498199224472,-0.010241555981338024,0.020545190200209618,-3.515597426279479e-18,0.0020870922598987818
0.0024892077781260014,-0.009063249453902245,-0.01136901043355465,0.020439110696315765,-2.2954339546528945e-19,0.0017172638326883316
0.0024259788915514946,-0.009008199907839298,-0.01143529824912548,0.020194988697767258,-1.4987543347180526e-20,0.001541299745440483
0.002734786830842495,-0.00906769372522831,-0.010352286510169506,0.020134836435317993,-9.785795043024153e-22,0.0014502379344776273
0.0027993929106742144,-0.00909500103443861,-0.010771182365715504,0.020315958186984062,-6.389424340225726e-23,0.0016344818286597729
0.0028322460129857063,-0.008978808298707008,-0.010732995346188545,0.019776053726673126,-4.171838043580671e-24,0.0021011033095419407
0.0026244274340569973,-0.009302183985710144,-0.010826220735907555,0.01967758685350418,-2.7239118073058327e-25,0.0022495121229439974
0.002625218825414777,-0.008829757571220398,-0.011363737285137177,0.019891418516635895,-1.7785197286670235e-26,0.002428995445370674
0.0027480225544422865,-0.009348507039248943,-0.010779169388115406,0.01963229477405548,0.00021778825612273067,0.002062393818050623
0.002671195659786463,-0.009602440521121025,-0.01072673499584198,0.019478382542729378,0.00023561497800983489,0.0015316097997128963
0.00292787654325366,-0.009237955324351788,-0.011066984385251999,0.01958593912422657,0.00025510406703688204,0.0014263771008700132
0.0028504275251179934,-0.00947119016200304,-0.01128715556114912,0.01880885474383831,0.0002460959367454052,0.001590181142091751
0.0027281560469418764,-0.008956221863627434,-0.010822160169482231,0.019436080008745193,0.00023553107166662812,0.0019128693966194987
0.0028647766448557377,-0.009189942851662636,-0.010796754620969296,0.018833763897418976,0.00022569597058463842,0.002414391376078129
0.0032673166133463383,-0.00958050973713398,-0.01162679586559534,0.019286317750811577,0.0002502908173482865,0.0027650233823806047
0.00322426063939929,-0.009323549456894398,-0.011151857674121857,0.020143501460552216,0.00024283590028062463,0.0026674610562622547
0.00322426063939929,-0.009323549456894398,-0.011151857674121857,0.020143501460552216,0.00024283590028062463,0.0026674610562622547
0.0030882477294653654,-0.009084850549697876,-0.011911510489881039,0.019718734547495842,0.00023395979951601475,0.002492413157597184
0.0033728345297276974,-0.008928472176194191,-0.011254946701228619,0.01891355775296688,0.000255635502981022,0.0021275628823786974
0.003071658778935671,-0.009500383399426937,-0.011077293194830418,0.018928583711385727,0.0002487620513420552,0.0020096199586987495
0.003049511695280671,-0.008770228363573551,-0.01125314086675644,0.01943906396627426,0.0002412909670965746,0.0018936312990263104
0.003325233468785882,-0.00896610040217638,-0.011132471263408661,0.019730279222130775,0.0003228908753953874,0.0018717226339504123
0.0032107585575431585,-0.009255299344658852,-0.011546317487955093,0.02009429596364498,0.00030731174047105014,0.0020514524076133966
0.0030610838439315557,-0.008577895350754261,-0.011143345385789871,0.019636409357190132,0.00033045996678993106,0.002061341656371951
0.0028985105454921722,-0.009024793282151222,-0.010313894599676132,0.018775179982185364,0.0003238981298636645,0.002283459762111306
0.002987247658893466,-0.010533795692026615,-0.010771182365715504,0.018583111464977264,0.0003063820768147707,0.0022121986839920282
0.003253320697695017,-0.008784346282482147,-0.011115149594843388,0.018843427300453186,0.0002899801474995911,0.0023401796352118254
0.0034887059591710567,-0.008635212667286396,-0.01101741474121809,0.018646225333213806,0.00031791074434295297,0.0022227878216654062
0.0036697895266115665,-0.009090348146855831,-0.01113063469529152,0.019686678424477577,0.00030528753995895386,0.00221073511056602
0.003309324849396944,-0.00916704535484314,-0.010301414877176285,0.019308356568217278,0.00029134779470041394,0.002242286456748843
0.0035328769590705633,-0.00862995907664299,-0.010487903840839863,0.018502846360206604,0.00030786418938077986,0.0021105892956256866
0.003332110121846199,-0.009527568705379963,-0.010875372216105461,0.018940825015306473,0.0003041068557649851,0.002127202693372965
0.0034737091045826674,-0.00905085913836956,-0.01059898640960455,0.018604964017868042,0.0003646387194748968,0.0019826001953333616
0.003696269588544965,-0.00834355503320694,-0.010970918461680412,0.018146220594644547,0.00039877780363895,0.0020011276938021183
0.0034100620541721582,-0.008802470751106739,-0.010480213910341263,0.0186289232224226,0.00038682130980305374,0.001985484967008233
0.003469807328656316,-0.008900781162083149,-0.010938167572021484,0.01868871971964836,0.00041808350943028927,0.002208931837230921
0.004188778810203075,-0.008558603003621101,-0.011375198140740395,0.01800455152988434,0.00044816185254603624,0.002308874623849988
0.004055288154631853,-0.008431884460151196,-0.011265314184129238,0.01756438799202442,0.0007480314816348255,0.0023060133680701256
0.003503421088680625,-0.008524334989488125,-0.01096468884497881,0.017539290711283684,0.000712524401023984,0.0024496677797287703
0.004226746503263712,-0.008490832522511482,-0.011018349789083004,0.018465351313352585,0.0007287045591510832,0.002288839779794216
0.004036040510982275,-0.008113685064017773,-0.011458009481430054,0.017986131832003593,0.0007041824283078313,0.0020823918748646975
0.0039244042709469795,-0.008433287963271141,-0.011219886131584644,0.01755780540406704,0.0006788857863284647,0.0019952282309532166
0.0039244042709469795,-0.008433287963271141,-0.011219886131584644,0.01755780540406704,0.0006788857863284647,0.0019952282309532166
0.003980264998972416,-0.008660092949867249,-0.011238702572882175,0.016817867755889893,0.0006720529054291546,0.002201034687459469
0.0035252398811280727,-0.008533930405974388,-0.011169152334332466,0.017431098967790604,0.0006804918521083891,0.0023357216268777847
0.004105108790099621,-0.007780191954225302,-0.010091720148921013,0.017921842634677887,0.0006282301619648933,0.0025688528548926115
0.004149411804974079,-0.008092397823929787,-0.01053281594067812,0.017473172396421432,0.0006514613050967455,0.002635206561535597
0.004031797870993614,-0.007791629061102867,-0.01208745501935482,0.017551952973008156,0.0006746269064024091,0.0023659593425691128
0.003946543205529451,-0.007785790134221315,-0.011532370001077652,0.01700957864522934,0.0007496282341890037,0.002190212020650506
0.003960838541388512,-0.00821396429091692,-0.011698238551616669,0.016807418316602707,0.0007992556202225387,0.002103969221934676
0.004005157854408026,-0.008423677645623684,-0.010649981908500195,0.01733020506799221,0.0007988797151483595,0.0022075048182159662
0.003954513464123011,-0.007726627867668867,-0.010672272183001041,0.016946783289313316,0.0007836343720555305,0.002337345387786627
0.004459543153643608,-0.00789645779877901,-0.011852816678583622,0.017366919666528702,0.0007488529663532972,0.002339717233553529
0.004099871497601271,-0.008173048496246338,-0.011086583137512207,0.017330190166831017,0.000803358037956059,0.002464673947542906
0.0038551888428628445,-0.008346989750862122,-0.011352741159498692,0.017408698797225952,0.0008299913024529815,0.002439530100673437
0.0032322017941623926,-0.007918556220829487,-0.010816454887390137,0.01776484027504921,0.000897989550139755,0.0023862060625106096
0.0029661862645298243,-0.008260739035904408,-0.010489396750926971,0.017571279779076576,0.0008575191022828221,0.002417907351627946
0.002842292655259371,-0.008171794936060905,-0.0111215990036726,0.01681918278336525,0.0010293293744325638,0.002260071225464344
0.002949601039290428,-0.00784969236701727,-0.01117931492626667,0.018077580258250237,0.0010572383180260658,0.0021561128087341785
0.0032982707489281893,-0.008000030182301998,-0.011396663263440132,0.01792255789041519,0.0010371325770393014,0.002211229642853141
0.0036340050864964724,-0.008387723006308079,-0.011987332254648209,0.01794968731701374,0.0010813326807692647,0.0021983222104609013
0.003795206779614091,-0.007966412231326103,-0.010945240035653114,0.01751703768968582,0.0010797259164974093,0.0025235142093151808
0.003287124214693904,-0.0075471652671694756,-0.011169442906975746,0.017342055216431618,0.0010619268286973238,0.002757193986326456
0.0029408519621938467,-0.008127664215862751,-0.01163801271468401,0.01729954406619072,0.0010389176895841956,0.0026338009629398584
0.0030304112005978823,-0.007852204144001007,-0.011421402916312218,0.016838079318404198,0.0009744319249875844,0.0024941787123680115
0.003336155554279685,-0.007724535185843706,-0.011703881435096264,0.01660708710551262,0.0008561924914829433,0.002422973746433854
0.0033877480309456587,-0.007553101982921362,-0.010423528961837292,0.01629035361111164,0.0008459690143354237,0.0022773121017962694
0.003390902653336525,-0.007958712987601757,-0.010732079856097698,0.016889944672584534,0.0007457153988070786,0.0024611223489046097
0.0037494851276278496,-0.007755850907415152,-0.011065439321100712,0.01686074398458004,0.0007286512991413474,0.002630743430927396
0.004060438834130764,-0.008118804544210434,-0.010700930841267109,0.01653645746409893,0.0006332750781439245,0.0026582384016364813
0.004060438834130764,-0.008118804544210434,-0.010700930841267109,0.01653645746409893,0.0006332750781439245,0.0026582384016364813
0.003989498130977154,-0.007694879546761513,-0.010811928659677505,0.016856856644153595,0.000638057419564575,0.002645996632054448
0.0034815967082977295,-0.007236328907310963,-0.011165990494191647,0.01664924807846546,0.0006651274743489921,0.002759041264653206
0.003962437156587839,-0.00728209875524044,-0.01077943667769432,0.01753903366625309,0.0006999178440310061,0.002801689552143216
0.004221116192638874,-0.007779933512210846,-0.01170200202614069,0.01708444207906723,0.0010630304459482431,0.0028374427929520607
0.004511125385761261,-0.007525025401264429,-0.01086682640016079,0.016276206821203232,0.0011215496342629194,0.002706511877477169
0.004511125385761261,-0.007525025401264429,-0.01086682640016079,0.016276206821203232,0.0011215496342629194,0.002706511877477169
0.004185985773801804,-0.00706596439704299,-0.01013787928968668,0.016857251524925232,0.0010926006361842155,0.002648117020726204
0.0039491429924964905,-0.006999296601861715,-0.011040421202778816,0.015879305079579353,0.001105681760236621,0.0025753118097782135
0.003844724502414465,-0.007844614796340466,-0.011207329109311104,0.01593877747654915,0.0010835501598194242,0.002496701432392001
0.00420271186158061,-0.007591903209686279,-0.011043335311114788,0.015491388738155365,0.0009748534648679197,0.0025985194370150566
0.004469706676900387,-0.00671582343056798,-0.010901340283453465,0.015561345033347607,0.0009484362090006471,0.002542642178013921
0.004045136738568544,-0.0071382587775588036,-0.010266130790114403,0.016400432214140892,0.0009253098978661001,0.002336355624720454
0.0038560868706554174,-0.007604678627103567,-0.01085800863802433,0.016808250918984413,0.0008441989775747061,0.002206906909123063
0.0043563456274569035,-0.00773083558306098,-0.010786311700940132,0.016892550513148308,0.0007336784619837999,0.0020996490493416786
0.004512146580964327,-0.0071167973801493645,-0.01036284863948822,0.01607534848153591,0.0007190937176346779,0.002160589909180999
0.004342409782111645,-0.007326406426727772,-0.010813524015247822,0.016223732382059097,0.0007388249505311251,0.0022424126509577036
0.004267871845513582,-0.007606205530464649,-0.010442834347486496,0.01623266376554966,0.0007563065737485886,0.0024747317656874657
0.004214381333440542,-0.007229974959045649,-0.010474367067217827,0.01648002862930298,0.000838040723465383,0.002442643279209733
0.00448731379583478,-0.00691381236538291,-0.01115760114043951,0.016458922997117043,0.0009318312513642013,0.0024047878105193377
0.004799577407538891,-0.007404779549688101,-0.011236412450671196,0.016183752566576004,0.000950797344557941,0.002567594638094306
0.004784626420587301,-0.007696118671447039,-0.01169514935463667,0.016228025779128075,0.0009455388062633574,0.0024015167728066444
0.004700331948697567,-0.007669018115848303,-0.010400091297924519,0.015932630747556686,0.000997520866803825,0.00233726785518229
0.004714801907539368,-0.00739113288000226,-0.009671543724834919,0.016294609755277634,0.0011036524083465338,0.002327190712094307
0.004788305144757032,-0.007580962497740984,-0.010473453439772129,0.01591232419013977,0.0010792631655931473,0.002124435268342495
0.004558425862342119,-0.007538577541708946,-0.010305187664926052,0.01576121523976326,0.00109199364669621,0.0023465186823159456
0.004558425862342119,-0.007538577541708946,-0.010305187664926052,0.01576121523976326,0.00109199364669621,0.0023465186823159456
0.00479348748922348,-0.006959020625799894,-0.01100984402000904,0.016355453059077263,0.001058669644407928,0.0024144528433680534
0.004827524535357952,-0.007436176296323538,-0.009967939928174019,0.01672240160405636,0.0010342929745092988,0.002596525242552161
0.004888886585831642,-0.0069314525462687016,-0.009507045149803162,0.01631653495132923,0.0010236611124128103,0.0028576466720551252
0.0048791891895234585,-0.006672391202300787,-0.010245080105960369,0.015623687766492367,0.0010064239613711834,0.0027734313625842333
0.0048791891895234585,-0.006672391202300787,-0.010245080105960369,0.015623687766492367,0.0010064239613711834,0.0027734313625842333
0.0048102340660989285,-0.006763271056115627,-0.010113383643329144,0.015929797664284706,0.0009592841379344463,0.0027775741182267666
0.004793827887624502,-0.007087226025760174,-0.010195178911089897,0.01570814475417137,0.0008960003033280373,0.002733665518462658
0.0047980104573071,-0.007599057629704475,-0.009763444773852825,0.015967195853590965,0.0008667897782288492,0.002482588402926922
0.0049867937341332436,-0.00708483112975955,-0.009497116319835186,0.01573026366531849,0.0008658368606120348,0.002456104615703225
0.005063456017524004,-0.006575465202331543,-0.010684504173696041,0.015658089891076088,0.0008219351875595748,0.0022519626654684544
0.005704447627067566,-0.006864971946924925,-0.009786786511540413,0.01512076798826456,0.0007751973462291062,0.0025132279843091965
0.005337427835911512,-0.0071439966559410095,-0.010147305205464363,0.016072053462266922,0.0007784633780829608,0.002733508823439479
0.004959392827004194,-0.0068655661307275295,-0.00991801731288433,0.016674265265464783,0.00074708869215101,0.0028843958862125874
0.005315277259796858,-0.006557694170624018,-0.009547026827931404,0.01598975993692875,0.0007710569188930094,0.0027277139015495777
0.005495803896337748,-0.0071466462686657906,-0.010534868575632572,0.015968317165970802,0.0007880755001679063,0.00257978867739439
0.005583798512816429,-0.006958209443837404,-0.010403129272162914,0.015164238400757313,0.0007751559023745358,0.0025982484221458435
0.005436966195702553,-0.007119597867131233,-0.009693601168692112,0.01529771275818348,0.000890178547706455,0.002511054975911975
0.005446441471576691,-0.007365893106907606,-0.009750676341354847,0.015107604674994946,0.0009916097624227405,0.0025206839200109243
0.005249349400401115,-0.00690035056322813,-0.009834157302975655,0.015242917463183403,0.001002742093987763,0.0023970038164407015
0.005434767808765173,-0.006904535926878452,-0.00955109391361475,0.015005012974143028,0.000989997060969472,0.0025774016976356506
0.005512323696166277,-0.006871108431369066,-0.010096244513988495,0.015164538286626339,0.0010244738077744842,0.002675705123692751
0.005650229752063751,-0.006835549604147673,-0.010214288718998432,0.014873318374156952,0.0010321707231923938,0.0027095682453364134
0.0057652657851576805,-0.006883179768919945,-0.009534270502626896,0.014700117520987988,0.0010926530230790377,0.0026136706583201885
0.00586535781621933,-0.007053271867334843,-0.009813793934881687,0.014943325892090797,0.0011366165708750486,0.002858371939510107
0.006249214522540569,-0.007216805126518011,-0.009617100469768047,0.014848067425191402,0.0010210544569417834,0.0029401874635368586
0.005593468435108662,-0.006417400203645229,-0.00998048298060894,0.014903425239026546,0.0009965619537979364,0.0028003212064504623
0.005377948749810457,-0.006644573528319597,-0.01018975954502821,0.015082201920449734,0.000868020229972899,0.002674103481695056
0.005377948749810457,-0.006644573528319597,-0.01018975954502821,0.015082201920449734,0.000868020229972899,0.002674103481695056
0.006226630415767431,-0.006781153380870819,-0.009720440953969955,0.014866545796394348,0.000777316396124661,0.0026102401316165924
0.006226630415767431,-0.006781153380870819,-0.009720440953969955,0.014866545796394348,0.000777316396124661,0.0026102401316165924
0.005538252182304859,-0.006422847975045443,-0.010883153416216373,0.014409818686544895,0.0006600127089768648,0.0027786127757281065
0.005917982663959265,-0.0060981265269219875,-0.009985905140638351,0.01468146312981844,0.0006562238559126854,0.002958057215437293
0.005621111486107111,-0.00619937339797616,-0.009506943635642529,0.014378217048943043,0.000681559497024864,0.002932007657364011
0.005757458508014679,-0.007233420852571726,-0.0102204829454422,0.014843582175672054,0.000703627651091665,0.0027876743115484715
0.005841938778758049,-0.006546578370034695,-0.009673329070210457,0.014719045720994473,0.0007932691369205713,0.002738355193287134
0.006155442446470261,-0.006150309927761555,-0.009566549211740494,0.015053524635732174,0.0009183704969473183,0.002749108476564288
0.006240418180823326,-0.007108065765351057,-0.010282713919878006,0.01445030141621828,0.0009320233948528767,0.002793463645502925
0.0056627485901117325,-0.007048277650028467,-0.009954934008419514,0.014220318756997585,0.0009304732084274292,0.002745519857853651
0.005969539750367403,-0.006569667719304562,-0.009526262059807777,0.013981453143060207,0.001217436045408249,0.0028210612945258617
0.0061951130628585815,-0.006136915646493435,-0.009849518537521362,0.014584907330572605,0.0011988267069682479,0.002835414605215192
0.006014683283865452,-0.006233274471014738,-0.009772692807018757,0.014420440420508385,0.0011526645394042134,0.00289519177749753
0.0061585265211761,-0.006204311270266771,-0.010243448428809643,0.01446655672043562,0.0011310031404718757,0.0033195449505001307
0.005888133309781551,-0.006364156492054462,-0.01001779269427061,0.013810448348522186,0.0011188286589458585,0.003158931154757738
0.006349956151098013,-0.006663753185421228,-0.009986077435314655,0.014000474475324154,0.001082722214050591,0.003280593315139413
0.0066413176245987415,-0.0059156762436032295,-0.009957600384950638,0.013794214464724064,0.0010463412618264556,0.0032894231844693422
0.006207920145243406,-0.006009274628013372,-0.010542675852775574,0.013582965359091759,0.000978396856226027,0.0031429375521838665
0.006207920145243406,-0.006009274628013372,-0.010542675852775574,0.013582965359091759,0.000978396856226027,0.0031429375521838665
0.006369422655552626,-0.006179814226925373,-0.010308628901839256,0.013228064402937889,0.000955818744841963,0.0034511021804064512
0.006369422655552626,-0.006179814226925373,-0.010308628901839256,0.013228064402937889,0.000955818744841963,0.0034511021804064512
0.00669235410168767,-0.005650605075061321,-0.01067448128014803,0.013547421433031559,0.000919462414458394,0.004011815879493952
0.006767208222299814,-0.0056490227580070496,-0.01014084741473198,0.013260453939437866,0.0009352861088700593,0.003262752667069435
0.006767208222299814,-0.0056490227580070496,-0.01014084741473198,0.013260453939437866,0.0009352861088700593,0.003262752667069435
0.005892130546271801,-0.005772667936980724,-0.009613302536308765,0.01352805644273758,0.0009464535396546125,0.0029254744295030832
0.006300047039985657,-0.006010605953633785,-0.010485781356692314,0.012973550707101822,0.0011236504651606083,0.0027836773078888655
0.006631385535001755,-0.005654165521264076,-0.010036199353635311,0.013206644915044308,0.0011520037660375237,0.0027563837356865406
0.0071610016748309135,-0.005641175899654627,-0.010095136240124702,0.012824839912354946,0.0013892771676182747,0.003111249068751931
0.006969667971134186,-0.00543108070269227,-0.010516622103750706,0.013141344301402569,0.001586619415320456,0.003453243523836136
0.007483859080821276,-0.006283748894929886,-0.010121204890310764,0.013179817236959934,0.0014722662745043635,0.0033819545060396194
0.0070227584801614285,-0.005936219356954098,-0.01037790160626173,0.013476820662617683,0.0013632785994559526,0.0032799839973449707
0.006809918209910393,-0.00596430990844965,-0.010609843768179417,0.013875299133360386,0.001218690536916256,0.003314530709758401
0.0066496459767222404,-0.0053281341679394245,-0.010794833302497864,0.013909781351685524,0.0010689443442970514,0.0031592315062880516
0.0067387050949037075,-0.0059183211997151375,-0.010271756909787655,0.01366329938173294,0.0010242174612358212,0.00290930294431746
0.007359493523836136,-0.00627356581389904,-0.010340376757085323,0.013830560259521008,0.0009885838953778148,0.00288866413757205
0.006973123177886009,-0.0059802639298141,-0.01020160410553217,0.013923628255724907,0.0008762660436332226,0.002932122442871332
0.007213539443910122,-0.005756688769906759,-0.01046818308532238,0.013188953511416912,0.0009444094030186534,0.0031114728190004826
0.0067102643661201,-0.005197374615818262,-0.010221763513982296,0.013735730201005936,0.0009741910616867244,0.0032217255793511868
0.007192410994321108,-0.005662215407937765,-0.009954134933650494,0.012608284130692482,0.001349877449683845,0.0030408301390707493
0.007378226611763239,-0.005383074749261141,-0.010626658797264099,0.012836125679314137,0.0014128703624010086,0.0030982717871665955
0.0072790333069860935,-0.00591110298410058,-0.010155390948057175,0.012831026688218117,0.001348568475805223,0.0033116720151156187
0.007096785120666027,-0.005352002568542957,-0.009691538289189339,0.013248266652226448,0.001418314059264958,0.0036575982812792063
0.007403251715004444,-0.004930457100272179,-0.010591322556138039,0.012821759097278118,0.0013773678801953793,0.0034808404743671417
0.007326198276132345,-0.005074367858469486,-0.010717789642512798,0.012687629088759422,0.0012931481469422579,0.0035382043570280075
0.007235197350382805,-0.0050719305872917175,-0.009796408005058765,0.011981170624494553,0.0011605154722929,0.0032852203585207462
0.007087681442499161,-0.005216713063418865,-0.010243882425129414,0.01222795806825161,0.0011028740555047989,0.0033904840238392353
0.007119066547602415,-0.00519547238945961,-0.010494398884475231,0.012189771048724651,0.0010805003112182021,0.00340216769836843
0.007119066547602415,-0.00519547238945961,-0.010494398884475231,0.012189771048724651,0.0010805003112182021,0.00340216769836843
0.007578604388982058,-0.005024131387472153,-0.010305942967534065,0.012585261836647987,0.0012876781402155757,0.004018025007098913
0.007163623813539743,-0.005285307299345732,-0.010312249884009361,0.012308208271861076,0.0013684624573215842,0.004146517254412174
0.007544709835201502,-0.0056285313330590725,-0.010062748566269875,0.012717965990304947,0.001710062031634152,0.003978606779128313
0.007675627712160349,-0.005214852746576071,-0.010486862622201443,0.012478942982852459,0.0017732209526002407,0.0037664712872356176
0.007629753556102514,-0.005268852226436138,-0.010075345635414124,0.012416785582900047,0.0018605506047606468,0.0033873782958835363
0.008141770027577877,-0.005385082680732012,-0.011310060508549213,0.012432889081537724,0.0016414063284173608,0.003291203174740076
0.008584733121097088,-0.004998057149350643,-0.01046239584684372,0.011799109168350697,0.0015096914721652865,0.0034622405655682087
0.008009330369532108,-0.005405778530985117,-0.009585395455360413,0.012408796697854996,0.001246224856004119,0.003650325583294034
0.007585327606648207,-0.005162947811186314,-0.01040042657405138,0.012296963483095169,0.0011487894225865602,0.0036910902708768845
0.007545809727162123,-0.005318425130099058,-0.010364090092480183,0.012579210102558136,0.001189459697343409,0.003707115538418293
0.008165666833519936,-0.005481919273734093,-0.009450762532651424,0.012400432489812374,0.0012319518718868494,0.003717174055054784
0.007823996245861053,-0.005146374925971031,-0.010171987116336823,0.012302562594413757,0.0013549983268603683,0.0037326428573578596
0.007424040697515011,-0.004845106974244118,-0.010420157574117184,0.012771050445735455,0.0015624823281541467,0.003616831498220563
0.00741281732916832,-0.005355578847229481,-0.00979215931147337,0.01258414052426815,0.0017114572692662477,0.003380434587597847
0.00827499758452177,-0.005137549247592688,-0.010818124748766422,0.012266097590327263,0.001640821574255824,0.003501513274386525
0.00831565260887146,-0.0051588923670351505,-0.010098391212522984,0.012018043547868729,0.0015875118551775813,0.0037811577785760164
0.007731436286121607,-0.005006804130971432,-0.00999550148844719,0.012668883427977562,0.0014944194117560983,0.003870755434036255
0.0076833064667880535,-0.005184687674045563,-0.010575969703495502,0.012218113988637924,0.0014042670372873545,0.003440651809796691
0.00810704380273819,-0.0050287493504583836,-0.009987841360270977,0.011839023791253567,0.0014010812155902386,0.0035546838771551847
0.008053379133343697,-0.005143693648278713,-0.010405774228274822,0.011629448272287846,0.0013314866228029132,0.003400280838832259
0.007522693835198879,-0.004996708128601313,-0.0111590176820755,0.011792369186878204,0.001430194592103362,0.003788960399106145
0.007680046837776899,-0.004806478042155504,-0.010235177353024483,0.011522786691784859,0.0016172575997188687,0.004150385037064552
0.008958321996033192,-0.004746333230286837,-0.01005533430725336,0.011126996017992496,0.001510977279394865,0.004088912159204483
0.007988795638084412,-0.00506962276995182,-0.009912685491144657,0.010787096805870533,0.0012868792982771993,0.003803978208452463
0.007988795638084412,-0.00506962276995182,-0.009912685491144657,0.010787096805870533,0.0012868792982771993,0.003803978208452463
0.00826002936810255,-0.004831584170460701,-0.010588699951767921,0.010784956626594067,0.0012116492725908756,0.0035959728993475437
0.008186515420675278,-0.004708599764853716,-0.010076680220663548,0.011140787042677402,0.001150247291661799,0.004039655439555645
0.008252425119280815,-0.004668444860726595,-0.009798797778785229,0.011185672134160995,0.00099517113994807,0.004206807352602482
0.007825798355042934,-0.004996211268007755,-0.010336457751691341,0.011060312390327454,0.0010479148477315903,0.004155938513576984
0.00825301930308342,-0.004595255013555288,-0.010039705783128738,0.011353974230587482,0.0010644795838743448,0.004197283182293177
0.008334540762007236,-0.004533418919891119,-0.009638285264372826,0.011381810531020164,0.0013609147863462567,0.004059342667460442
0.007988096214830875,-0.004490199498832226,-0.010608934797346592,0.01047592330724001,0.0014771580463275313,0.004209048580378294
0.008415566757321358,-0.004563521593809128,-0.009974573738873005,0.010858641006052494,0.0019229981116950512,0.004041867796331644
0.008567824959754944,-0.004678885452449322,-0.010001951828598976,0.011020863428711891,0.002092433162033558,0.0036515938118100166
0.008498522453010082,-0.004292302764952183,-0.010191457346081734,0.011030023917555809,0.002052839146926999,0.004060996230691671
0.008662112057209015,-0.004237165674567223,-0.010244032368063927,0.010936692357063293,0.001820050529204309,0.0040840101428329945
0.008206911385059357,-0.004200874362140894,-0.009638125076889992,0.010794400237500668,0.0016009063692763448,0.004234304651618004
0.008665156550705433,-0.004368207883089781,-0.010350320488214493,0.011274302378296852,0.001469709794037044,0.004222867079079151
0.008405529893934727,-0.004572691395878792,-0.009728435426950455,0.01092755701392889,0.0010869372636079788,0.004013167694211006
0.008579060435295105,-0.004162034951150417,-0.009314200840890408,0.010680175386369228,0.001077871536836028,0.004287674091756344
0.008637216873466969,-0.00418383814394474,-0.010346943512558937,0.011003291234374046,0.0011054638307541609,0.0041409386321902275
0.008272497914731503,-0.004247080069035292,-0.009722196497023106,0.010386589914560318,0.0014769543195143342,0.004203389398753643
0.008808321319520473,-0.00408313050866127,-0.009361416101455688,0.010514956898987293,0.0015899273566901684,0.004256634507328272
0.008814508095383644,-0.003868694882839918,-0.010499191470444202,0.010581344366073608,0.001848130952566862,0.004753433167934418
0.008821452036499977,-0.0039224158972501755,-0.009842555038630962,0.010365392081439495,0.0016798344440758228,0.004488207865506411
0.008489485830068588,-0.0038705666083842516,-0.00946403294801712,0.01077466644346714,0.0015496988780796528,0.0045699989423155785
0.008920586667954922,-0.003521229140460491,-0.010280150920152664,0.010913388803601265,0.001447578426450491,0.00437577860429883
0.008961038663983345,-0.0035327011719346046,-0.009668801911175251,0.010047361254692078,0.0014375862665474415,0.0042586252093315125
0.008588350377976894,-0.0036695695016533136,-0.009513082914054394,0.009888197295367718,0.0013857096200808883,0.0044864085502922535
0.009718820452690125,-0.0036823260597884655,-0.010343285277485847,0.010612530633807182,0.0014666342176496983,0.004566778428852558
0.009237254038453102,-0.003641054965555668,-0.009888989850878716,0.01043818611651659,0.0014514396898448467,0.004397507756948471
0.009462120942771435,-0.003237432800233364,-0.00980463344603777,0.010259300470352173,0.001824009814299643,0.004552438855171204
0.009516427293419838,-0.0033332458697259426,-0.010020799934864044,0.009251651354134083,0.0020281642209738493,0.004141155630350113
0.009516427293419838,-0.0033332458697259426,-0.010020799934864044,0.009251651354134083,0.0020281642209738493,0.004141155630350113
0.009372323751449585,-0.0035441971849650145,-0.009539114311337471,0.009564129635691643,0.0019229031167924404,0.004058152437210083
0.009305350482463837,-0.003207844914868474,-0.009780357591807842,0.009641907177865505,0.0019300710409879684,0.0047307866625487804
0.009429657831788063,-0.003045833669602871,-0.010010492987930775,0.009369799867272377,0.0019773312378674746,0.004886305425316095
0.009177492000162601,-0.0028111629653722048,-0.009165497496724129,0.008947398513555527,0.0020274361595511436,0.004611185286194086
0.009360910393297672,-0.0028088847175240517,-0.010075004771351814,0.009461179375648499,0.0018218787154182792,0.00456730742007494
0.009578066878020763,-0.0030921963043510914,-0.010347878560423851,0.00851545948535204,0.0017198810819536448,0.004482244607061148
0.009882811456918716,-0.0028508552350103855,-0.009693152271211147,0.008519350551068783,0.001702510635368526,0.004570831544697285
0.00967499241232872,-0.003070822451263666,-0.010048244148492813,0.009166204370558262,0.001754960510879755,0.004702735226601362
0.009576921351253986,-0.0027088711503893137,-0.009861314669251442,0.008684762753546238,0.0017218212597072124,0.004786712117493153
0.0094993831589818,-0.002697418909519911,-0.009632221423089504,0.00840170681476593,0.0017976418603211641,0.00489926990121603
0.009128822013735771,-0.002802240429446101,-0.010449648834764957,0.008958182297647,0.001835759379900992,0.0048310100100934505
0.009858483448624611,-0.0028787092305719852,-0.009810945950448513,0.009207360446453094,0.0019810821395367384,0.004805127624422312
0.009311706759035587,-0.0031743175350129604,-0.01026870310306549,0.009009155444800854,0.0020325102377682924,0.004586414899677038
0.009261555969715118,-0.0026985967997461557,-0.01018526777625084,0.00888422504067421,0.0018993529956787825,0.00479289423674345
0.009652028791606426,-0.0026425777468830347,-0.009794583544135094,0.008563047274947166,0.0017469675512984395,0.004976559430360794
0.009494475089013577,-0.0023557899985462427,-0.010100685991346836,0.008620812557637691,0.001657634973526001,0.00468175346031785
0.009593435563147068,-0.002188977086916566,-0.010356412269175053,0.00815864559262991,0.0017065246356651187,0.004790268372744322
0.009801710024476051,-0.002141887554898858,-0.009787820279598236,0.00874913576990366,0.00176651228684932,0.004961555358022451
0.009683559648692608,-0.002049659378826618,-0.00987611897289753,0.008446360938251019,0.0018814309732988477,0.004815069027245045
0.010075613856315613,-0.002226027427241206,-0.010339682921767235,0.007859913632273674,0.0018463365267962217,0.004786957986652851
0.009931925684213638,-0.0020098909735679626,-0.009654710069298744,0.00815538503229618,0.0019115519244223833,0.005192575044929981
0.009723975323140621,-0.002155397552996874,-0.010161400772631168,0.007788124494254589,0.0017403287347406149,0.005114222876727581
0.009502479806542397,-0.0024595826398581266,-0.009619444608688354,0.007677079644054174,0.0017881502863019705,0.004892969038337469
0.009502479806542397,-0.0024595826398581266,-0.009619444608688354,0.007677079644054174,0.0017881502863019705,0.004892969038337469
0.00962755735963583,-0.0021434826776385307,-0.010793791152536869,0.008097874000668526,0.0018674652092158794,0.005125472322106361
0.00962755735963583,-0.0021434826776385307,-0.010793791152536869,0.008097874000668526,0.0018674652092158794,0.005125472322106361
0.010500840842723846,-0.0017790455603972077,-0.01023724302649498,0.008163287304341793,0.001953931525349617,0.005334109533578157
0.009815691038966179,-0.0017605737084522843,-0.010716492310166359,0.00837872363626957,0.0020072839688509703,0.005487588234245777
0.010135403834283352,-0.0016873888671398163,-0.010460874997079372,0.008536571636795998,0.002041743602603674,0.00562960933893919
0.010163935832679272,-0.0017156010726466775,-0.00988373626023531,0.008082090876996517,0.0019186472054570913,0.005346844904124737
0.010174959897994995,-0.001928773825056851,-0.010560158640146255,0.007706369273364544,0.001854253583587706,0.005663825199007988
0.009689252823591232,-0.0019053026335313916,-0.010289293713867664,0.008131607435643673,0.0018978472799062729,0.005426602903753519
0.01046591904014349,-0.00181068223901093,-0.010841961950063705,0.008296356536448002,0.00196838122792542,0.005361590068787336
0.010022640228271484,-0.0016405443893745542,-0.01113221701234579,0.007886105217039585,0.0021324814297258854,0.005647522397339344
0.010196601040661335,-0.0015014349482953548,-0.011012447066605091,0.007624705787748098,0.002157003851607442,0.005333810579031706
0.010064871050417423,-0.0014079045504331589,-0.01155920885503292,0.007712117396295071,0.002108535962179303,0.005267398897558451
0.009584462270140648,-0.0014866844285279512,-0.01115653570741415,0.007656025234609842,0.0020518461242318153,0.004958441946655512
0.009346453472971916,-0.0014922436093911529,-0.010788188315927982,0.007694970350712538,0.0021083897445350885,0.005135172512382269
0.010136524215340614,-0.0015857660910114646,-0.01142594963312149,0.007138381712138653,0.002091179136186838,0.005010415334254503
0.009840641170740128,-0.0015152603155001998,-0.011078743264079094,0.007767222821712494,0.002307484159246087,0.005132340360432863
0.009349928237497807,-0.0016028814716264606,-0.011056062765419483,0.007651313673704863,0.002190145431086421,0.0055053881369531155
0.009855511598289013,-0.001648730831220746,-0.011189412325620651,0.007253421004861593,0.002044595777988434,0.005439390428364277
0.009947243146598339,-0.0017066588625311852,-0.010983556509017944,0.007054513785988092,0.0018764232518151402,0.005732563324272633
0.009760298766195774,-0.0015981241595000029,-0.009183375164866447,0.007609781809151173,0.0018792495829984546,0.005778453312814236
0.01008453220129013,-0.0015071085654199123,-0.010465366765856743,0.007798272650688887,0.0017685183556750417,0.0059411111287772655
0.010119172744452953,-0.0014848316786810756,-0.010356714017689228,0.006999898701906204,0.0019700671546161175,0.005416668485850096
0.009649314917623997,-0.001490115188062191,-0.010674825869500637,0.006476357579231262,0.0020781061612069607,0.005436941981315613
0.009774149395525455,-0.0013818438164889812,-0.01046469435095787,0.007264094892889261,0.0021329056471586227,0.005199491512030363
0.010129911825060844,-0.0014500969555228949,-0.00986071489751339,0.008466326631605625,0.0022061094641685486,0.005069739650934935
0.009226338006556034,-0.0013907788088545203,-0.010638359934091568,0.007939853705465794,0.0021267137490212917,0.005378087982535362
0.010172448121011257,-0.0014623581664636731,-0.00985098909586668,0.007497760467231274,0.0021565791685134172,0.005912081804126501
0.010172448121011257,-0.0014623581664636731,-0.00985098909586668,0.007497760467231274,0.0021565791685134172,0.005912081804126501
0.010172448121011257,-0.0014623581664636731,-0.00985098909586668,0.007497760467231274,0.0021565791685134172,0.005912081804126501
0.009973081760108471,-0.0010846686782315373,-0.009556169621646404,0.006203256081789732,0.0021628644317388535,0.0055416421964764595
0.009973081760108471,-0.0010846686782315373,-0.009556169621646404,0.006203256081789732,0.0021628644317388535,0.0055416421964764595
0.009704642929136753,-0.0009497423307038844,-0.01061022188514471,0.006479563191533089,0.0018803743878379464,0.005837911274284124
0.010392097756266594,-0.0009407381294295192,-0.010610169731080532,0.007045775186270475,0.0015792547492310405,0.00562244700267911
0.009899986907839775,-0.0009320125100202858,-0.010015100240707397,0.006793813314288855,0.001543839112855494,0.005392136052250862
0.009898328222334385,-0.0008667859947308898,-0.01020842231810093,0.006436904892325401,0.0017275077989324927,0.005583479069173336
0.010165105573832989,-0.0008620246662758291,-0.010594375431537628,0.006182643584907055,0.0018547959625720978,0.005922481417655945
0.01034434325993061,-0.0007568008149974048,-0.010271447710692883,0.006800930015742779,0.002337008947506547,0.006281018722802401
0.01010664738714695,-0.000772841100115329,-0.010647164657711983,0.006521410308778286,0.0024537192657589912,0.0061333319172263145
0.010578006505966187,-0.0006896648555994034,-0.009981142356991768,0.005852779373526573,0.002397713251411915,0.00579258194193244
0.010193422436714172,-0.00069957145024091,-0.01022969838231802,0.005637925583869219,0.0023799987975507975,0.005574190989136696
0.010587926022708416,-0.0006464290199801326,-0.010220327414572239,0.005824190564453602,0.00206584925763309,0.0054014902561903
0.010813672095537186,-0.0005932743661105633,-0.01076468825340271,0.006484231911599636,0.0018715865444391966,0.0061295670457184315
0.011051037348806858,-0.0004660055856220424,-0.010558960027992725,0.006310272961854935,0.0018473488744348288,0.006534613203257322
0.011451741680502892,-0.00029933685436844826,-0.010405486449599266,0.005950020160526037,0.0018971894169226289,0.006448740605264902
0.010635693557560444,0.0007890800479799509,-0.009670166298747063,0.0060438355430960655,0.0019145223777741194,0.006267162971198559
0.010630864650011063,0.0007011886918917298,-0.010312275029718876,0.006434087175875902,0.0024939689319580793,0.0060407607816159725
0.010956915095448494,0.0003748621675185859,-0.011041676625609398,0.0059486073441803455,0.002617367310449481,0.006179794203490019
0.010848536156117916,0.00015653492300771177,-0.010074521414935589,0.0058231777511537075,0.0024748060386627913,0.006514035630971193
0.01087358221411705,0.00013150458107702434,-0.010410145856440067,0.0051879361271858215,0.002468510065227747,0.006467565894126892
0.011725131422281265,0.00014277314767241478,-0.010504527017474174,0.004837303422391415,0.0022205712739378214,0.006166283506900072
0.011466947384178638,0.0002515287487767637,-0.010500773787498474,0.004908876959234476,0.0022949029225856066,0.006320078857243061
0.01148225273936987,0.0002334161108592525,-0.010482999496161938,0.0055675748735666275,0.0021924772299826145,0.00612357072532177
0.011259149760007858,0.00020677997963503003,-0.010437148623168468,0.005622013937681913,0.0021925736218690872,0.0061054714024066925
0.011306814849376678,8.408451685681939e-05,-0.010109463706612587,0.005309032741934061,0.002139361808076501,0.005968069192022085
0.010933883488178253,0.00015052482194732875,-0.009879744611680508,0.004867989104241133,0.002332239644601941,0.0057477266527712345
0.010933883488178253,0.00015052482194732875,-0.009879744611680508,0.004867989104241133,0.002332239644601941,0.0057477266527712345
0.011012714356184006,0.00014161552826408297,-0.010438203811645508,0.004680500365793705,0.00244198483414948,0.005783393979072571
0.011307461187243462,0.0001942418748512864,-0.009925701655447483,0.004931215196847916,0.0024169152602553368,0.006076897028833628
0.011170373298227787,0.0001835481816669926,-0.010038650594651699,0.005586869549006224,0.0026148289907723665,0.006839719135314226
0.011591082438826561,0.0001718942221486941,-0.010967226698994637,0.005347737111151218,0.0027719936333596706,0.006945934612303972
0.012532489374279976,0.00016160482482519,-0.010257165879011154,0.004869753960520029,0.0025963853113353252,0.0065138209611177444
0.013714198023080826,0.0001524776016594842,-0.01001445110887289,0.004647673573344946,0.0026290523819625378,0.005750536918640137
0.013637185096740723,0.0001443258806830272,-0.01127720158547163,0.004612019285559654,0.0024325773119926453,0.006334094796329737
0.013281412422657013,0.00013700168346986175,-0.010421433486044407,0.004796768072992563,0.0022591277956962585,0.006645102985203266
0.013744614087045193,0.000172069005202502,-0.009761914610862732,0.005074182525277138,0.0022874774876981974,0.006677363067865372
0.013846076093614101,0.00016581393720116466,-0.010535839945077896,0.004884239286184311,0.0020817508921027184,0.006314265076071024
0.013948371633887291,0.0001585346326464787,-0.010179626755416393,0.004212024621665478,0.002083750907331705,0.006544291507452726
0.013719531707465649,0.0001524758554296568,-0.010476541705429554,0.004342895466834307,0.0020615376997739077,0.0066901762038469315
0.014288638718426228,0.0002313162258360535,-0.010143646039068699,0.004206875339150429,0.0023398352786898613,0.006448482163250446
0.01412296574562788,0.00022111555153969675,-0.009975053369998932,0.003944333642721176,0.002631385810673237,0.0064064934849739075
0.0144331194460392,0.00021077324345242232,-0.010325969196856022,0.004298725165426731,0.0028605672996491194,0.006722262594848871
0.014156267046928406,0.00023996808158699423,-0.010489710606634617,0.0043823253363370895,0.0028444428462535143,0.006886146496981382
0.014323440380394459,0.00023124027939047664,-0.010214363224804401,0.004755182657390833,0.002945110434666276,0.006525697186589241
0.01434541679918766,0.00022176555648911744,-0.009949305094778538,0.004388738889247179,0.0031212368048727512,0.006444935686886311
0.01470628846436739,0.0002363131643505767,-0.010591673664748669,0.003970450721681118,0.0028070383705198765,0.006126679014414549
0.014439268968999386,0.00023892370518296957,-0.00981791689991951,0.0037373339291661978,0.0025150480214506388,0.00611496577039361
0.014631258323788643,0.00023034337209537625,-0.010026520118117332,0.003749612020328641,0.002367441076785326,0.006434277631342411
0.014990834519267082,0.00024306350678671151,-0.010563489980995655,0.0038200044073164463,0.0021418072283267975,0.006790229585021734
0.014992143027484417,0.0002451668551657349,-0.009939613752067089,0.0038672632072120905,0.002141251927241683,0.007158341817557812
0.014302661642432213,0.0003260676166974008,-0.010251861065626144,0.0038218486588448286,0.0022490632254630327,0.006861762143671513
0.014370283111929893,0.0003451096126809716,-0.010217806324362755,0.0042364345863461494,0.0023036112543195486,0.007037266623228788
0.014374595135450363,0.00032107409788295627,-0.009883133694529533,0.004165027290582657,0.002459605224430561,0.00667543476447463
0.014320374466478825,0.00033714165329001844,-0.010001165792346,0.0034617162309587,0.0022650915198028088,0.0068162246607244015
0.014659957028925419,0.00035197168472222984,-0.009371879510581493,0.003527701599523425,0.0024109752848744392,0.006818023044615984
0.014323600567877293,0.00034944890649057925,-0.010632894933223724,0.003734280588105321,0.0030018475372344255,0.006931274197995663
0.014811711385846138,0.0003766851150430739,-0.011226186528801918,0.0034076871816068888,0.003000317607074976,0.007383955176919699
0.014661489054560661,0.00035969485179521143,-0.010099158622324467,0.00340967602096498,0.003056569257751107,0.0070328498259186745
0.014661489054560661,0.00035969485179521143,-0.010099158622324467,0.00340967602096498,0.003056569257751107,0.0070328498259186745
0.01460452564060688,0.0004658674297388643,-0.010241696611046791,0.0034590449649840593,0.0026825862005352974,0.0065065836533904076
0.014683493413031101,0.0005205833585932851,-0.00998555589467287,0.0034151445142924786,0.0025247817393392324,0.006642204709351063
0.015198329463601112,0.0005480533000081778,-0.010308260098099709,0.003142902860417962,0.0025996589101850986,0.0070084864273667336
0.015074134804308414,0.0005122587317600846,-0.010123884305357933,0.0029769244138151407,0.0028232920449227095,0.00704221660271287
0.015190315432846546,0.0005386989796534181,-0.009738012216985226,0.0027527520433068275,0.002894051605835557,0.006679988000541925
0.015195861458778381,0.0006928474176675081,-0.00983661413192749,0.0026575084775686264,0.002744581550359726,0.006654018070548773
0.014971263706684113,0.0007686218596063554,-0.010537656955420971,0.0026403148658573627,0.002764730714261532,0.0064157648012042046
0.014997520484030247,0.0007099558133631945,-0.0095712561160326,0.00250431802123785,0.0028419748414307833,0.006960066966712475
0.014669767580926418,0.0007280422723852098,-0.009509405121207237,0.0025057834573090076,0.0029742554761469364,0.007284177467226982
0.01475407462567091,0.0007384529453702271,-0.010487759485840797,0.0023305874783545732,0.0030349460430443287,0.007338689640164375
0.014580383896827698,0.0006845290772616863,-0.010092894546687603,0.0023942789994180202,0.0029805642552673817,0.007056781556457281
0.015070676803588867,0.0008139574783854187,-0.010389660485088825,0.0025502380449324846,0.0028302965220063925,0.0069089243188500404
0.01473326701670885,0.000855787773616612,-0.010371384210884571,0.0027246600948274136,0.0027880212292075157,0.007323033642023802
0.014842590317130089,0.0008616115665063262,-0.009921679273247719,0.0027074944227933884,0.002623900305479765,0.007626411505043507
0.013975403271615505,0.0010747849009931087,-0.010511710308492184,0.002863427856937051,0.002665617736056447,0.007617776747792959
0.015570259653031826,0.0010729527566581964,-0.010745123028755188,0.0025581871159374714,0.0025987543631345034,0.007666344754397869
0.014987978152930737,0.001145492889918387,-0.009985439479351044,0.0023214465472847223,0.0024092018138617277,0.007525530178099871
0.014940301887691021,0.0010378839215263724,-0.010810263454914093,0.002053285948932171,0.0024541516322642565,0.007462744601070881
0.014795447699725628,0.0011474943021312356,-0.010432420298457146,0.0020505357533693314,0.0024192831479012966,0.007414244581013918
0.01532136183232069,0.0011557292891666293,-0.00999174639582634,0.002229741308838129,0.0026646433398127556,0.007611270062625408
0.01524587906897068,0.001355998683720827,-0.010355531238019466,0.002078091725707054,0.003098217071965337,0.007062497548758984
0.015211952850222588,0.0015574886929243803,-0.010640295222401619,0.002102790866047144,0.0031620364170521498,0.006919656880199909
0.015128761529922485,0.0018112079706043005,-0.010085221379995346,0.002086463151499629,0.00331040658056736,0.007356493733823299
0.015155350789427757,0.0017441831296309829,-0.010527892038226128,0.001919852918945253,0.002920124214142561,0.00820175465196371
0.015350181609392166,0.0016686383169144392,-0.010756020434200764,0.0018761134706437588,0.002715964103117585,0.00779394106939435
0.015344594605267048,0.0016420483589172363,-0.01082270685583353,0.0017620683647692204,0.002574251964688301,0.0071114166639745235
0.015301319770514965,0.0014624599134549499,-0.010504081845283508,0.0017285143258050084,0.002348783193156123,0.00752654392272234
0.015382546000182629,0.0013571986928582191,-0.011281153187155724,0.0017430620500817895,0.0021186834201216698,0.007164140697568655
0.015295116230845451,0.0014287460362538695,-0.01173272356390953,0.0018059295834973454,0.002108760643750429,0.007059165742248297
0.015295116230845451,0.0014287460362538695,-0.01173272356390953,0.0018059295834973454,0.002108760643750429,0.007059165742248297
0.015609520487487316,0.001858007162809372,-0.010513830929994583,0.0018196088494732976,0.0022147009149193764,0.007283364422619343
0.014920240268111229,0.0024305887054651976,-0.010829783976078033,0.0017504282295703888,0.002524730283766985,0.008005164563655853
0.015386577695608139,0.0024697158951312304,-0.010681130923330784,0.0016287018079310656,0.002634362317621708,0.00764862447977066
0.015288480557501316,0.0025813987012952566,-0.01009623147547245,0.0015322056133300066,0.003019984345883131,0.007568386383354664
0.015549532137811184,0.0023106157314032316,-0.010613788850605488,0.0014920647954568267,0.0030206134542822838,0.007035804446786642
0.015141191892325878,0.0021692230366170406,-0.010143742896616459,0.0013938688207417727,0.002848605625331402,0.007165075745433569
0.015524285845458508,0.0022296959068626165,-0.011243215762078762,0.001338753616437316,0.002599259139969945,0.007929634302854538
0.015141870826482773,0.0022605631966143847,-0.010947316884994507,0.0013356992276385427,0.002506223740056157,0.008148789405822754
0.015753071755170822,0.002914106473326683,-0.010137450881302357,0.0012771185720339417,0.002610869938507676,0.0077122957445681095
0.015532727353274822,0.003379576839506626,-0.010598210617899895,0.0012247419217601418,0.002590477466583252,0.007697997614741325
0.015650160610675812,0.0029145239386707544,-0.010669455863535404,0.0011219724547117949,0.0028337398543953896,0.0077923499047756195
0.01594480499625206,0.0026972831692546606,-0.010565431788563728,0.0010824814671650529,0.002961434656754136,0.00748438760638237
0.01568553037941456,0.002673669718205929,-0.010826203040778637,0.0010515858884900808,0.0029835423920303583,0.007432202342897654
0.015801602974534035,0.00282138935290277,-0.010502629913389683,0.0010445856023579836,0.002861317712813616,0.007975208573043346
0.015564899891614914,0.0030021697748452425,-0.010411910712718964,0.0011183995520696044,0.002947240835055709,0.007804537657648325
0.015597310848534107,0.002839920809492469,-0.010920276865363121,0.001195235876366496,0.003037200076505542,0.007975599728524685
0.015286365523934364,0.002859551692381501,-0.010284423828125,0.0012652426958084106,0.002917549107223749,0.008448511362075806
0.01613561622798443,0.0030993144027888775,-0.010812386870384216,0.0012365165166556835,0.0027675852179527283,0.008156794123351574
0.015968747437000275,0.0040605636313557625,-0.011107799597084522,0.0009814040968194604,0.002703734440729022,0.007599623408168554
0.015544896014034748,0.0037266819272190332,-0.011472896672785282,0.0009030785295180976,0.002759699709713459,0.007812993600964546
0.0158320851624012,0.0035220638383179903,-0.010345167480409145,0.0007932359003461897,0.0026642715092748404,0.00831792876124382
0.01617891900241375,0.0036767569836229086,-0.010570376180112362,0.0007046022801660001,0.002750936197116971,0.007951077073812485
0.01617891900241375,0.0036767569836229086,-0.010570376180112362,0.0007046022801660001,0.002750936197116971,0.007951077073812485
0.015702664852142334,0.003934004344046116,-0.011071999557316303,0.0007114975596778095,0.00262904679402709,0.007995765656232834
0.016110235825181007,0.003912409767508507,-0.0100969597697258,0.0006570637342520058,0.0024685736279934645,0.007890840992331505
0.015851231291890144,0.003877482144162059,-0.010170784778892994,0.0006026991759426892,0.0025780093856155872,0.0076391189359128475
0.016275186091661453,0.004293833859264851,-0.01064271479845047,0.000556148705072701,0.0030325311236083508,0.007890193723142147
0.016079790890216827,0.004948288202285767,-0.010448035784065723,0.0005162438610568643,0.003099733730778098,0.007500476203858852
0.016409123316407204,0.004481750074774027,-0.011402921751141548,0.0004853712162002921,0.002917623845860362,0.00790282804518938
0.016267908737063408,0.004404766950756311,-0.010425996966660023,0.0003528042580001056,0.0029015110339969397,0.00762694887816906
0.016087738797068596,0.004335564561188221,-0.00984959490597248,0.00032136691152118146,0.002680347766727209,0.008078625425696373
0.016443895176053047,0.004473562352359295,-0.010976865887641907,0.00029955091304145753,0.0025312008801847696,0.008172331377863884
0.01630466617643833,0.00514052901417017,-0.010639265179634094,0.0002808199787978083,0.0026259960141032934,0.008017579093575478
0.01666192337870598,0.0052673183381557465,-0.009748843498528004,0.0002643154584802687,0.002822283422574401,0.007851382717490196
0.016110451892018318,0.005004009231925011,-0.010724996216595173,0.0002496452070772648,0.0029582446441054344,0.008343868888914585
0.016972161829471588,0.005261540412902832,-0.010954760015010834,0.00023651952506043017,0.002884139306843281,0.008554327301681042
0.016811715438961983,0.005121230613440275,-0.011052343063056469,0.00022470479598268867,0.0028680586256086826,0.008364646695554256
0.017326656728982925,0.005066313315182924,-0.011483868584036827,0.00021401482808869332,0.0031880459282547235,0.008008796721696854
0.01696852780878544,0.005815960932523012,-0.0102481534704566,0.000204296171432361,0.003170289099216461,0.008121045306324959
0.01662403717637062,0.006305818445980549,-0.010209285654127598,0.0001954219478648156,0.00277368794195354,0.008678555488586426
0.017697935923933983,0.005916922818869352,-0.010788162238895893,0.0001872865395853296,0.0027823715936392546,0.00855925027281046
0.01748562417924404,0.005697696935385466,-0.009895972907543182,0.00017980235861614347,0.0027020296547561884,0.008164497092366219
0.017517780885100365,0.005545184016227722,-0.010588603094220161,0.00017289293464273214,0.0027002673596143723,0.007905459962785244
0.017560245469212532,0.006102246697992086,-0.010218528099358082,0.0001664946903474629,0.0026499279774725437,0.008090682327747345
0.017275497317314148,0.006088955793529749,-0.010293712839484215,0.0001605534489499405,0.0029032679740339518,0.007962243631482124
0.018319061025977135,0.00602276436984539,-0.010485818609595299,0.00015502175665460527,0.0029425874818116426,0.00836193934082985
0.017696717754006386,0.006566160824149847,-0.010240198113024235,0.0001498586789239198,0.0029827274847775698,0.009036936797201633
0.018053656443953514,0.006549323908984661,-0.011161401867866516,0.0001126505812862888,0.003541952930390835,0.00830445159226656
0.01825912483036518,0.006636559497565031,-0.010270927101373672,0.00010901284986175597,0.004270534496754408,0.00832805410027504
0.017982345074415207,0.006811731029301882,-0.009569047950208187,0.00010579413356026635,0.0036235740408301353,0.00837714783847332
0.017982345074415207,0.006811731029301882,-0.009569047950208187,0.00010579413356026635,0.0036235740408301353,0.00837714783847332
0.01810537278652191,0.007506212219595909,-0.009872195310890675,9.991995466407388e-05,0.002652316354215145,0.008628282696008682
0.01810537278652191,0.007506212219595909,-0.009872195310890675,9.991995466407388e-05,0.002652316354215145,0.008628282696008682
0.01864810660481453,0.007069992367178202,-0.009577236138284206,9.722135291667655e-05,0.002596805337816477,0.008535516448318958
0.01840595155954361,0.006873537786304951,-0.010438963770866394,7.411684782709926e-05,0.0025888816453516483,0.008454614318907261
0.01816386729478836,0.007245140615850687,-0.009951299987733364,6.938283331692219e-05,0.003078634152188897,0.008149690926074982
0.018651621416211128,0.0073546008206903934,-0.0095150675624609,6.746411963831633e-05,0.0032311880495399237,0.00886695645749569
0.01837368682026863,0.007494539488106966,-0.010078786872327328,-4.520285801845603e-05,0.003102067159488797,0.00900140032172203
0.018678070977330208,0.008070463314652443,-0.009754507802426815,-8.117111428873613e-05,0.0030425796285271645,0.008780734613537788
0.018849099054932594,0.007910532876849174,-0.010587355121970177,-0.00010809843661263585,0.0033457456156611443,0.00934346579015255
0.018693285062909126,0.00771731324493885,-0.010325461626052856,-0.00013290155038703233,0.0031268694438040257,0.009042071178555489
0.018636533990502357,0.008230481296777725,-0.009604403749108315,-0.0005149876815266907,0.003141529392451048,0.008550391532480717
0.019112514331936836,0.007823331281542778,-0.009750970639288425,-0.000873180921189487,0.002997797215357423,0.008747405372560024
0.019263751804828644,0.007661936338990927,-0.009961592964828014,-0.0009144451469182968,0.0032946220599114895,0.008535648696124554
0.01896127127110958,0.008063926361501217,-0.010062613524496555,-0.0009229739662259817,0.00322878360748291,0.008707367815077305
0.01924099586904049,0.008235065266489983,-0.009798325598239899,-0.0012207551626488566,0.003077928675338626,0.00897907093167305
0.01915910840034485,0.008730066008865833,-0.010228832252323627,-0.0013041429920122027,0.003072702093049884,0.009032550267875195
0.019011560827493668,0.008045000955462456,-0.009697727859020233,-0.0013770272489637136,0.003232266055420041,0.008951849304139614
0.019383253529667854,0.008325250819325447,-0.009633822366595268,-0.0015936845447868109,0.0031339360866695642,0.008475911803543568
0.01935320347547531,0.008203059434890747,-0.010238061659038067,-0.0020056336652487516,0.003455972298979759,0.008784964680671692
0.01932733878493309,0.00813636090606451,-0.009793613106012344,-0.0021247132681310177,0.0034178218338638544,0.009422573260962963
0.01952407881617546,0.008315217681229115,-0.009815759025514126,-0.0027309844736009836,0.003312848275527358,0.009616508148610592
0.019316857680678368,0.008269168436527252,-0.010335631668567657,-0.0029471060261130333,0.0029852574225515127,0.009479227475821972
0.020219458267092705,0.008216407150030136,-0.010162494145333767,-0.0029758415184915066,0.0033566863276064396,0.009708113968372345
0.019767185673117638,0.008417179808020592,-0.010345907881855965,-0.0031723284628242254,0.003250516252592206,0.009130804799497128
0.019400659948587418,0.008363439701497555,-0.00989132933318615,-0.0033709045965224504,0.0032922259997576475,0.009478473104536533
0.019987300038337708,0.008845720440149307,-0.010504176840186119,-0.0033551363740116358,0.0032857414335012436,0.008653562515974045
0.019987300038337708,0.008845720440149307,-0.010504176840186119,-0.0033551363740116358,0.0032857414335012436,0.008653562515974045
0.020287904888391495,0.008678705431520939,-0.010259258560836315,-0.0035762498155236244,0.0032407164108008146,0.009163021109998226
0.019658396020531654,0.008915954269468784,-0.009898665361106396,-0.003409574506804347,0.0032518773805350065,0.009360937401652336
0.020022671669721603,0.008472790941596031,-0.010645248927175999,-0.003933427389711142,0.0034143859520554543,0.009712036699056625
0.020419428125023842,0.008558281697332859,-0.010463600978255272,-0.004154513590037823,0.003631856292486191,0.008918162435293198
0.020847728475928307,0.009167547337710857,-0.009826541878283024,-0.004450713284313679,0.0036144896876066923,0.009821351617574692
0.020579664036631584,0.008732629008591175,-0.010557412169873714,-0.004618864972144365,0.0035338832531124353,0.009140935726463795
0.02081042155623436,0.008411608636379242,-0.010604294948279858,-0.0046241674572229385,0.0036070889327675104,0.008682101964950562
0.020418891683220863,0.008933327160775661,-0.01060541532933712,-0.0042174807749688625,0.003372197039425373,0.008952468633651733
0.018454231321811676,0.008696647360920906,-0.01097731851041317,-0.003920807037502527,0.0032191448844969273,0.009290237911045551
0.020863126963377,0.008804427459836006,-0.011014950461685658,-0.004252446349710226,0.003264592494815588,0.009326156228780746
0.02155555598437786,0.008907952345907688,-0.011520083993673325,-0.004661659710109234,0.0035518307704478502,0.009340750984847546
0.020971251651644707,0.009142985567450523,-0.010492952540516853,-0.004789161961525679,0.0032853768207132816,0.009565419517457485
0.020229293033480644,0.009014742448925972,-0.009983411990106106,-0.005102683790028095,0.0033868770115077496,0.009542099200189114
0.02108336053788662,0.008637117221951485,-0.011011617258191109,-0.004602346569299698,0.0035444002132862806,0.009489752352237701
0.02072889544069767,0.009698227979242802,-0.01129460334777832,-0.00451193330809474,0.003529163310304284,0.00933611299842596
0.020749986171722412,0.008215883746743202,-0.01029260829091072,-0.005017117131501436,0.0034683619160205126,0.009351027198135853
0.02144024893641472,0.006869402248412371,-0.011128418147563934,-0.005219775717705488,0.0036846501752734184,0.009305564686655998
0.021518569439649582,0.006899768952280283,-0.011181253008544445,-0.005675558932125568,0.003874193411320448,0.009873965755105019
0.02029610425233841,0.007626709993928671,-0.01023112703114748,-0.005406789481639862,0.0038401319179683924,0.010402577929198742
0.020097199827432632,0.007657424081116915,-0.010651737451553345,-0.005686291493475437,0.003757292637601495,0.010096514597535133
0.020097199827432632,0.007657424081116915,-0.010651737451553345,-0.005686291493475437,0.003757292637601495,0.010096514597535133
0.022071104496717453,0.007566663436591625,-0.010815368965268135,-0.005506009329110384,0.003495375160127878,0.010095659643411636
0.02150181494653225,0.008255170658230782,-0.01096098218113184,-0.005820096004754305,0.0036631603725254536,0.009794906713068485
0.021225759759545326,0.007692061364650726,-0.01005688589066267,-0.005613390821963549,0.0037214928306639194,0.009976360946893692
0.021587364375591278,0.007747115567326546,-0.010964831337332726,-0.00569891044870019,0.003846032777801156,0.009934366680681705
0.02140217088162899,0.007142532616853714,-0.010637711733579636,-0.0054657915607094765,0.00346659729257226,0.010319615714251995
0.02141212671995163,0.007978205569088459,-0.010708920657634735,-0.005735346116125584,0.003454507328569889,0.010084067471325397
0.02182253822684288,0.007813755422830582,-0.010951324366033077,-0.006235502660274506,0.0030984943732619286,0.010328853502869606
0.021932881325483322,0.0071206046268343925,-0.011739647947251797,-0.0058088949881494045,0.0031175734475255013,0.009915039874613285
0.02169087901711464,0.007968191988766193,-0.0109817273914814,-0.0055242967791855335,0.0030498516280204058,0.010083446279168129
0.021574558690190315,0.0077751874923706055,-0.010224135592579842,-0.005318401847034693,0.003324561519548297,0.00989793986082077
0.021704811602830887,0.007354934699833393,-0.0104806674644351,-0.005681025329977274,0.0037728827446699142,0.009751316159963608
0.022228160873055458,0.007408503443002701,-0.011467567645013332,-0.0068705081939697266,0.003939325455576181,0.010289001278579235
0.02243017591536045,0.008042996749281883,-0.010911837220191956,-0.007486631162464619,0.003931018989533186,0.010093542747199535
0.022474851459264755,0.00827027764171362,-0.010455841198563576,-0.006606040522456169,0.0038231005892157555,0.010753490030765533
0.02196183055639267,0.007598855532705784,-0.010714835487306118,-0.005705603864043951,0.00423030648380518,0.010226179845631123
0.02233145199716091,0.008023684844374657,-0.01126195304095745,-0.005387169308960438,0.004254561848938465,0.009902751073241234
0.022437866777181625,0.008409534581005573,-0.011165963485836983,-0.006753582041710615,0.003679170971736312,0.010545152239501476
0.02247682400047779,0.008348463103175163,-0.010867872275412083,-0.0070189218968153,0.0035455147735774517,0.010062208399176598
0.02208341471850872,0.008876648731529713,-0.010142401792109013,-0.006347151007503271,0.004091545008122921,0.010018016211688519
0.0223642997443676,0.008934145793318748,-0.010672018863260746,-0.006012334488332272,0.004284486640244722,0.009909207001328468
0.02273196540772915,0.009470370598137379,-0.010383550077676773,-0.006567191332578659,0.004448940046131611,0.010440155863761902
0.022759536281228065,0.008741325698792934,-0.01038409024477005,-0.006739807780832052,0.003997389692813158,0.010556178167462349
0.022261740639805794,0.008571526035666466,-0.011137716472148895,-0.007016315124928951,0.003661123802885413,0.01042874250560999
0.022319138050079346,0.009362226352095604,-0.010277832858264446,-0.006529661826789379,0.0037278851959854364,0.010439063422381878
0.022853190079331398,0.009390546940267086,-0.00994862150400877,-0.006623561959713697,0.003775776596739888,0.010776491835713387
0.02285820245742798,0.009473530575633049,-0.010461386293172836,-0.00787601713091135,0.0036880692932754755,0.010869155637919903
0.02285820245742798,0.009473530575633049,-0.010461386293172836,-0.00787601713091135,0.0036880692932754755,0.010869155637919903
0.022442752495408058,0.009358874522149563,-0.010406075976788998,-0.007431229576468468,0.003725314512848854,0.011070583947002888
0.02265402115881443,0.010052256286144257,-0.010559800080955029,-0.007380788680166006,0.003675630781799555,0.010505817830562592
0.023094866424798965,0.010022232308983803,-0.010374990291893482,-0.007850604131817818,0.004084973130375147,0.010459347628057003
0.02283618412911892,0.009291084483265877,-0.010845794342458248,-0.008718016557395458,0.00418890593573451,0.010817641392350197
0.023237667977809906,0.009035211987793446,-0.010788419283926487,-0.008142108097672462,0.003940163180232048,0.010428259149193764
0.022423168644309044,0.009996587410569191,-0.010890558362007141,-0.00782694760710001,0.0037736298982053995,0.010160442441701889
0.02315344847738743,0.009814637713134289,-0.011459806933999062,-0.007856443524360657,0.0038210819475352764,0.010272313840687275
0.023487400263547897,0.00969327986240387,-0.011278551071882248,-0.007948302663862705,0.003549471963196993,0.009970804676413536
0.02356828562915325,0.010637703351676464,-0.01129365898668766,-0.0074959550984203815,0.003484919434413314,0.010348992422223091
0.023618044331669807,0.010165047831833363,-0.01122125331312418,-0.00762551836669445,0.004122414160519838,0.010424102656543255
0.02288665808737278,0.01011532824486494,-0.010791528038680553,-0.008192868903279305,0.004548196215182543,0.010401842184364796
0.02215748466551304,0.010420403443276882,-0.011218106374144554,-0.00835275836288929,0.004228710662573576,0.010186810046434402
0.023195084184408188,0.01025288924574852,-0.011190048418939114,-0.007803032174706459,0.003906105412170291,0.010643765330314636
0.023774035274982452,0.011097479611635208,-0.010522276163101196,-0.007887355051934719,0.003972512204200029,0.011041582562029362
0.023475753143429756,0.010625370778143406,-0.011162254959344864,-0.00825436133891344,0.004168312530964613,0.011221488937735558
0.022726839408278465,0.010325657203793526,-0.010924948379397392,-0.007054279558360577,0.0040854220278561115,0.010403651744127274
0.023146897554397583,0.010329315438866615,-0.010925759561359882,-0.007765196263790131,0.00395938428118825,0.010472028516232967
0.024517608806490898,0.010786941275000572,-0.011278879828751087,-0.00920839048922062,0.004001878201961517,0.010926843620836735
0.02383294887840748,0.010546654462814331,-0.010589346289634705,-0.009428540244698524,0.004138569347560406,0.010982150211930275
0.02362101711332798,0.011001723818480968,-0.010902194306254387,-0.008552740328013897,0.00445512356236577,0.011071779765188694
0.02322281152009964,0.010766511783003807,-0.010899891145527363,-0.008138016797602177,0.004102254286408424,0.011105263605713844
0.023247884586453438,0.010564425028860569,-0.010236694477498531,-0.008754384703934193,0.003569678869098425,0.01048267725855112
0.023225758224725723,0.011042687110602856,-0.010946651920676231,-0.008816596120595932,0.0038611756172031164,0.011168712750077248
0.024328850209712982,0.01099737174808979,-0.010518895462155342,-0.009160350076854229,0.004845776129513979,0.011834753677248955
0.024124544113874435,0.011277098208665848,-0.010875815525650978,-0.009015736170113087,0.004606324713677168,0.011510083451867104
0.023727376013994217,0.011047117412090302,-0.010791084729135036,-0.008918999694287777,0.004407654982060194,0.011043083854019642
0.02378433384001255,0.011646369472146034,-0.011005834676325321,-0.009037470445036888,0.003920609597116709,0.011025807820260525
0.023782679811120033,0.011051297187805176,-0.010784132406115532,-0.00898626446723938,0.003679686225950718,0.011450724676251411
0.023782679811120033,0.011051297187805176,-0.010784132406115532,-0.00898626446723938,0.003679686225950718,0.011450724676251411
0.02398204244673252,0.011892561800777912,-0.0108774583786726,-0.00897655263543129,0.003487961832433939,0.011158091016113758
0.023933542892336845,0.01133230421692133,-0.011255583725869656,-0.008872946724295616,0.003509360132738948,0.011766958050429821
0.024369653314352036,0.01120210625231266,-0.011045845225453377,-0.009624972008168697,0.0037066105287522078,0.011656347662210464
0.023780064657330513,0.01173487026244402,-0.011212336830794811,-0.009151249192655087,0.003980320878326893,0.011672178283333778
0.02353711426258087,0.011463936418294907,-0.011603554710745811,-0.009358382783830166,0.004367378540337086,0.011769943870604038
0.024064023047685623,0.011393985711038113,-0.010596364736557007,-0.009689209051430225,0.004444663878530264,0.011736336164176464
0.023716600611805916,0.011641865596175194,-0.010808387771248817,-0.00920499674975872,0.0045951311476528645,0.011810222640633583
0.023809706792235374,0.011057145893573761,-0.010879126377403736,-0.00892513059079647,0.004181419964879751,0.011245260015130043
0.024406634271144867,0.011657185852527618,-0.010422023944556713,-0.009508703835308552,0.003604312427341938,0.011075333692133427
0.02291278727352619,0.011455933563411236,-0.010643349960446358,-0.00924620870500803,0.0034827690105885267,0.011622931808233261
0.024502307176589966,0.011054926551878452,-0.010533543303608894,-0.00906314980238676,0.00406669219955802,0.011648479849100113
0.024428606033325195,0.011669928207993507,-0.010211790911853313,-0.009766094386577606,0.004795379471033812,0.0118107870221138
0.02451265975832939,0.011906982399523258,-0.01097158994525671,-0.009596635587513447,0.004733514506369829,0.011905413120985031
0.024832723662257195,0.011633585207164288,-0.010442535392940044,-0.00929182954132557,0.004795977845788002,0.011957194656133652
0.0244690403342247,0.011363470926880836,-0.010535791516304016,-0.009575300849974155,0.004065760876983404,0.012071135453879833
0.024281851947307587,0.011107059195637703,-0.010946329683065414,-0.009673330001533031,0.0035625200252979994,0.011772606521844864
0.02418026514351368,0.011521801352500916,-0.011101329699158669,-0.009744580835103989,0.0035036075860261917,0.011514250189065933
0.025055158883333206,0.010951418429613113,-0.010557656176388264,-0.00943772867321968,0.0038337477017194033,0.011584931053221226
0.025274090468883514,0.011132950894534588,-0.010745905339717865,-0.009408443234860897,0.0043822950683534145,0.010601290501654148
0.025540681555867195,0.011594817042350769,-0.010620646178722382,-0.00905171874910593,0.00492918910458684,0.011135908775031567
0.02478710748255253,0.011448413133621216,-0.010850951075553894,-0.010089158080518246,0.004552390892058611,0.012478440068662167
0.02573481947183609,0.012064332142472267,-0.010629354976117611,-0.009700863622128963,0.004449611995369196,0.01158321462571621
0.02614440955221653,0.011542108841240406,-0.011194665916264057,-0.010348454117774963,0.004531492479145527,0.011717883870005608
0.025563837960362434,0.011491273529827595,-0.010812610387802124,-0.009898913092911243,0.004695825278759003,0.011731121689081192
0.025902608409523964,0.011133626103401184,-0.0119891706854105,-0.010076893493533134,0.004881186876446009,0.012234184890985489
0.025902608409523964,0.011133626103401184,-0.0119891706854105,-0.010076893493533134,0.004881186876446009,0.012234184890985489
0.026057422161102295,0.011463566683232784,-0.011450988240540028,-0.011023169383406639,0.004446638282388449,0.012362477369606495
0.026311524212360382,0.011216431856155396,-0.011030642315745354,-0.01124405488371849,0.00441658915951848,0.011889396235346794
0.026408454403281212,0.010884854942560196,-0.01163883600383997,-0.01136242039501667,0.004657489247620106,0.012259709648787975
0.025790823623538017,0.011809843592345715,-0.011306117288768291,-0.011284010484814644,0.004456067457795143,0.01188315823674202
0.026157470420002937,0.01156502217054367,-0.011051390320062637,-0.010752593167126179,0.004231335129588842,0.011583148501813412
0.026817383244633675,0.01141069084405899,-0.01139107160270214,-0.01024978794157505,0.004084718879312277,0.012240714393556118
0.026866383850574493,0.0111349793151021,-0.01122413668781519,-0.009924881160259247,0.004229200538247824,0.012029767967760563
0.026714961975812912,0.010765574872493744,-0.012141505256295204,-0.009622037410736084,0.004355589859187603,0.012517759576439857
0.02684761770069599,0.011734685860574245,-0.011789643205702305,-0.01049975585192442,0.004595719277858734,0.012542415410280228
0.026853395625948906,0.01173475943505764,-0.011269989423453808,-0.010151592083275318,0.005125169642269611,0.012263347394764423
0.026854997500777245,0.012299595400691032,-0.011452254839241505,-0.009462127462029457,0.0049272035248577595,0.012208383530378342
0.02722049318253994,0.012028209865093231,-0.011394779197871685,-0.009814662858843803,0.004572711884975433,0.01207079365849495
0.02573084644973278,0.01168884988874197,-0.011656188406050205,-0.010503266006708145,0.0042143105529248714,0.012687289156019688
0.027989406138658524,0.01230629999190569,-0.011504161171615124,-0.009950116276741028,0.004352404735982418,0.01254838053137064
0.027848612517118454,0.01131478138267994,-0.011969108134508133,-0.010070078074932098,0.004221057984977961,0.012660295702517033
0.027460740879178047,0.01215805858373642,-0.012110228650271893,-0.010256682522594929,0.004904784262180328,0.013151075690984726
0.02790657803416252,0.012292255647480488,-0.01100477110594511,-0.010125500150024891,0.0047993105836212635,0.012843940407037735
0.027700159698724747,0.011734874919056892,-0.011641391552984715,-0.010579533874988556,0.0045367078855633736,0.01234794594347477
0.027801955118775368,0.012449229136109352,-0.011645324528217316,-0.010937773622572422,0.00438054371625185,0.012364095076918602
0.027946598827838898,0.012270023114979267,-0.011293371208012104,-0.010458989068865776,0.004256825428456068,0.012776682153344154
0.028239117935299873,0.011769011616706848,-0.01109441090375185,-0.010378899984061718,0.004798307083547115,0.012280707247555256
0.02836383692920208,0.01211388036608696,-0.011420922353863716,-0.010624839924275875,0.005169306881725788,0.011936069466173649
0.028292587026953697,0.01217274647206068,-0.011335464194417,-0.010826794430613518,0.004855604376643896,0.012245659716427326
0.028350848704576492,0.011718151159584522,-0.010831816121935844,-0.010778754949569702,0.004832712933421135,0.012350642122328281
0.02866007387638092,0.012154142372310162,-0.012599458917975426,-0.011035645380616188,0.004785181488841772,0.012400924228131771
0.02894837222993374,0.0117136025801301,-0.010774479247629642,-0.011257785372436047,0.004781516268849373,0.012736858800053596
0.028894171118736267,0.012417832389473915,-0.010761530138552189,-0.011770154349505901,0.0045701004564762115,0.01271422766149044
0.028894171118736267,0.012417832389473915,-0.010761530138552189,-0.011770154349505901,0.0045701004564762115,0.01271422766149044
0.028963524848222733,0.01189100369811058,-0.010982914827764034,-0.011815309524536133,0.004398682154715061,0.012309466488659382
0.029012877494096756,0.012205309234559536,-0.010488196276128292,-0.011445647105574608,0.004505137912929058,0.012345729395747185
0.02942674420773983,0.012383664026856422,-0.011833323165774345,-0.011844366788864136,0.004697625990957022,0.013085202313959599
0.02920408919453621,0.01217001024633646,-0.011251814663410187,-0.012041144073009491,0.004877688363194466,0.01327785849571228
0.02915206365287304,0.012335257604718208,-0.010774404741823673,-0.011814620345830917,0.004457199480384588,0.01316748559474945
0.02918068692088127,0.012317676097154617,-0.011967956088483334,-0.011870947666466236,0.004526660777628422,0.012905077077448368
0.029643630608916283,0.01234192680567503,-0.01145368255674839,-0.01158861629664898,0.004167543258517981,0.012699786573648453
0.031060252338647842,0.012360179796814919,-0.0114766089245677,-0.01235338393598795,0.004364498890936375,0.013106830418109894
0.03060906007885933,0.012133554555475712,-0.011550847440958023,-0.011896181851625443,0.004867741372436285,0.013248443603515625
0.028664207085967064,0.012666771188378334,-0.011267688125371933,-0.011963844299316406,0.004506255500018597,0.012839867733418941
0.030246740207076073,0.012327201664447784,-0.011928064748644829,-0.012367850169539452,0.004547026474028826,0.013059597462415695
0.031082898378372192,0.012638002634048462,-0.01107831485569477,-0.012205107137560844,0.004496919456869364,0.013727838173508644
0.03028172254562378,0.012316429987549782,-0.011541816405951977,-0.012814844958484173,0.00466881925240159,0.013381371274590492
0.030906634405255318,0.012584192678332329,-0.012031583115458488,-0.0124179907143116,0.004726041108369827,0.013398885726928711
0.03199009969830513,0.012497156858444214,-0.011151407845318317,-0.012681950815021992,0.00448053190484643,0.012992486357688904
0.03152003511786461,0.012412832118570805,-0.01166602410376072,-0.012565739452838898,0.004533467814326286,0.013249040581285954
0.03003697656095028,0.012862947769463062,-0.01145315170288086,-0.01313360407948494,0.004630442708730698,0.013102513737976551
0.0306011401116848,0.012625551782548428,-0.011771204881370068,-0.013017048127949238,0.004773053340613842,0.013097219169139862
0.031645357608795166,0.013431889936327934,-0.012002718634903431,-0.012788401916623116,0.00483288150280714,0.013571998104453087
0.0309036485850811,0.013361096382141113,-0.011697718873620033,-0.012946723960340023,0.004659210331737995,0.01330471783876419
0.03095237724483013,0.013077661395072937,-0.011460274457931519,-0.013404336757957935,0.00493931258097291,0.013262933120131493
0.030142061412334442,0.013349197804927826,-0.011742847971618176,-0.012952620163559914,0.004970612935721874,0.013726784847676754
0.030638255178928375,0.013024060986936092,-0.011493353173136711,-0.013377088122069836,0.004687102977186441,0.013509422540664673
0.030978018417954445,0.013336346484720707,-0.011796240694820881,-0.013323890045285225,0.004791167099028826,0.013786105439066887
0.03102285787463188,0.013474353589117527,-0.011978903785347939,-0.013770094141364098,0.004866188857704401,0.013360901735723019
0.030987795442342758,0.01406175084412098,-0.011728453449904919,-0.01384968776255846,0.005112897139042616,0.013340306468307972
0.031296830624341965,0.014231735840439796,-0.012002098374068737,-0.013717254623770714,0.005087314173579216,0.013322330079972744
0.031296830624341965,0.014231735840439796,-0.012002098374068737,-0.013717254623770714,0.005087314173579216,0.013322330079972744
0.031434811651706696,0.014201500453054905,-0.011590490117669106,-0.012934324331581593,0.004878669511526823,0.013527020812034607
0.03097035549581051,0.014125307090580463,-0.011430357582867146,-0.014171960763633251,0.004737256094813347,0.013591669499874115
0.031368378549814224,0.014515767805278301,-0.011803441680967808,-0.014713464304804802,0.004658696707338095,0.013415331952273846
0.031382471323013306,0.014305563643574715,-0.011785228736698627,-0.015044461004436016,0.004981301259249449,0.013723867014050484
0.029841413721442223,0.01409204676747322,-0.01217302493751049,-0.013940730132162571,0.005037154071033001,0.013858719728887081
0.031313687562942505,0.01428232342004776,-0.011341201141476631,-0.014147630892693996,0.004704077262431383,0.014189472422003746
0.032238803803920746,0.014419825747609138,-0.011072034016251564,-0.014110291376709938,0.004829723853617907,0.013933172449469566
0.0320577435195446,0.014662242494523525,-0.0115960743278265,-0.014872626401484013,0.00480408500880003,0.0139304855838418
0.03143193572759628,0.014808990992605686,-0.0113356439396739,-0.013869598507881165,0.004927359521389008,0.013893526047468185
0.030764320865273476,0.014939237385988235,-0.011758874170482159,-0.014371830970048904,0.005300062708556652,0.013827315531671047
0.03203647583723068,0.01477520726621151,-0.01151549443602562,-0.0140910055488348,0.005435865838080645,0.013675269670784473
0.03248898684978485,0.01473547238856554,-0.011591484770178795,-0.01461300253868103,0.005186930764466524,0.014013382606208324
0.031596921384334564,0.014608803205192089,-0.0114195067435503,-0.014387908391654491,0.005488317925482988,0.013847693800926208
0.03264012187719345,0.015166452154517174,-0.010971029289066792,-0.01446512620896101,0.005300337914377451,0.013734376057982445
0.03197850286960602,0.01524597592651844,-0.0113272275775671,-0.014110940508544445,0.00530112162232399,0.013850575312972069
0.03177923709154129,0.015105415135622025,-0.011494189500808716,-0.01473657414317131,0.00547131709754467,0.014515405520796776
0.03111058473587036,0.01531253196299076,-0.010623154230415821,-0.014672779478132725,0.005254897754639387,0.014536271803081036
0.031771689653396606,0.0151801323518157,-0.01094231940805912,-0.014947786927223206,0.005336361471563578,0.014615505002439022
0.03210560604929924,0.015309475362300873,-0.010776801034808159,-0.015193280763924122,0.005441729445010424,0.014227173291146755
0.03208332136273384,0.01525551825761795,-0.011859055608510971,-0.014453176409006119,0.0053958832286298275,0.014062661677598953
0.03154918551445007,0.014894544146955013,-0.011876854114234447,-0.014723006635904312,0.004941844847053289,0.01452675648033619
0.03158383443951607,0.015446587465703487,-0.011491038836538792,-0.014457480981945992,0.005158181302249432,0.014229700900614262
0.03185943141579628,0.01520106103271246,-0.010856103152036667,-0.014572014100849628,0.005224486347287893,0.014546451158821583
0.0315164290368557,0.01729097031056881,-0.011035077273845673,-0.014502343721687794,0.005273142829537392,0.014256023801863194
0.03179234638810158,0.015071430243551731,-0.011806484311819077,-0.015133765526115894,0.005339610856026411,0.014589281752705574
0.03179234638810158,0.015071430243551731,-0.011806484311819077,-0.015133765526115894,0.005339610856026411,0.014589281752705574
0.03186136111617088,0.015707798302173615,-0.011280890554189682,-0.015214813873171806,0.005151970777660608,0.014592868275940418
0.03215295076370239,0.016130631789565086,-0.011967496015131474,-0.015787474811077118,0.005420554894953966,0.014663656242191792
0.03273291885852814,0.016318539157509804,-0.012049506418406963,-0.015518257394433022,0.0051441676914691925,0.014285633340477943
0.030936874449253082,0.016540924087166786,-0.011604745872318745,-0.015836162492632866,0.005183959845453501,0.014750600792467594
0.032718583941459656,0.01593945361673832,-0.011492344550788403,-0.015623162500560284,0.004989741835743189,0.014856175519526005
0.03274589776992798,0.01583888567984104,-0.01132228784263134,-0.015884507447481155,0.005212839227169752,0.015326660126447678
0.03224309906363487,0.01588074490427971,-0.011661910451948643,-0.01590040698647499,0.0055328113958239555,0.01467413455247879
0.032234881073236465,0.016704751178622246,-0.011567234061658382,-0.015813466161489487,0.0055984207428991795,0.014315555803477764
0.03225884214043617,0.01675136759877205,-0.011052750051021576,-0.016315389424562454,0.005191510077565908,0.01429987046867609
0.032894741743803024,0.016841188073158264,-0.011720133014023304,-0.015989141538739204,0.005227548070251942,0.014376744627952576
0.03282276168465614,0.0164912398904562,-0.011423767544329166,-0.016566641628742218,0.005471181124448776,0.014361999928951263
0.03305600583553314,0.016144054010510445,-0.012101124040782452,-0.0160624161362648,0.005237004719674587,0.014489805325865746
0.03281785547733307,0.016346411779522896,-0.011336532421410084,-0.016281837597489357,0.005239772144705057,0.014318086206912994
0.033024344593286514,0.01583256758749485,-0.011077944189310074,-0.016370166093111038,0.005571938585489988,0.014364615082740784
0.03311787545681,0.016422145068645477,-0.01206858828663826,-0.016513381153345108,0.0054737236350774765,0.014951379969716072
0.03278800845146179,0.015950486063957214,-0.011944020166993141,-0.016738111153244972,0.005553589202463627,0.014933232218027115
0.03255964070558548,0.016917826607823372,-0.011941029690206051,-0.016349555924534798,0.005440368317067623,0.014788269065320492
0.03263436630368233,0.01721985638141632,-0.01205173134803772,-0.016856294125318527,0.005105344578623772,0.015081468038260937
0.03339425474405289,0.01656576246023178,-0.011670298874378204,-0.016903256997466087,0.0048502711579203606,0.015101985074579716
0.03423314541578293,0.016995711252093315,-0.012463380582630634,-0.017247634008526802,0.004906695801764727,0.014926893636584282
0.03416147455573082,0.016565678641200066,-0.011924505233764648,-0.016968252137303352,0.005515310447663069,0.014636954292654991
0.03320254758000374,0.0174831822514534,-0.011891299858689308,-0.01735769957304001,0.005451457109302282,0.015089419670403004
0.03320254758000374,0.0174831822514534,-0.011891299858689308,-0.01735769957304001,0.005451457109302282,0.015089419670403004
0.03432115167379379,0.017399871721863747,-0.012298115529119968,-0.01761995628476143,0.005692461971193552,0.015450434759259224
0.03516680747270584,0.016561191529035568,-0.011860462836921215,-0.017394160851836205,0.006227984093129635,0.014964948408305645
0.03395671397447586,0.01696467213332653,-0.01272195391356945,-0.017085302621126175,0.006250571459531784,0.014785355888307095
0.03395671397447586,0.01696467213332653,-0.01272195391356945,-0.017085302621126175,0.006250571459531784,0.014785355888307095
0.033686619251966476,0.017028383910655975,-0.012352385558187962,-0.017644589766860008,0.006092150695621967,0.01487132627516985
