davideferrari95/blind_handover_controller/data/Test 44 - [2024-02-07 -- 15-02-22]/joint_states_data.csv
shoulder_pan_joint,shoulder_lift_joint,elbow_joint,wrist_1_joint,wrist_2_joint,wrist_3_joint
0.006428814027458429,-0.005950305610895157,-0.015852345153689384,0.022006994113326073,0.0,0.006089028902351856
0.007412673905491829,-0.005866633728146553,-0.015036754310131073,0.02240712009370327,0.0,0.005938318558037281
0.007412673905491829,-0.005866633728146553,-0.015036754310131073,0.02240712009370327,0.0,0.005938318558037281
0.006395251024514437,-0.0053110853768885136,-0.015481896698474884,0.022601250559091568,0.0,0.005926704499870539
0.006265661679208279,-0.005750860087573528,-0.016074681654572487,0.022328393533825874,0.0,0.00637462642043829
0.006531989201903343,-0.0058865793980658054,-0.015958568081259727,0.02221076749265194,0.0,0.006655655335634947
0.007365663535892963,-0.005771502386778593,-0.015411385335028172,0.0225432887673378,0.0,0.006061757914721966
0.006672405172139406,-0.005969193764030933,-0.014983218163251877,0.022673074156045914,0.0,0.0058282180689275265
0.00647237803786993,-0.005418911576271057,-0.015585942193865776,0.022540168836712837,0.0,0.006036822218447924
0.00666849547997117,-0.005781498271971941,-0.015115202404558659,0.02265440672636032,0.0,0.006472552195191383
0.006769346538931131,-0.005812044255435467,-0.015383481979370117,0.02259092964231968,0.0,0.006585520226508379
0.0066560679115355015,-0.006243436597287655,-0.0146926986053586,0.022196311503648758,0.0,0.006260241381824017
0.0061577013693749905,-0.006110162008553743,-0.015580420382320881,0.022871756926178932,0.0,0.00584849389269948
0.006090203300118446,-0.005847022868692875,-0.014813314191997051,0.021578358486294746,0.0,0.005757292732596397
0.005870624911040068,-0.006078325677663088,-0.015240549109876156,0.02192583680152893,0.0,0.00613677641376853
0.006190317217260599,-0.0056970613077282906,-0.01477204728871584,0.022228604182600975,0.0,0.0062343706376850605
0.006495533976703882,-0.006317169405519962,-0.014854060485959053,0.021940702572464943,0.0,0.006206377875059843
0.006329731084406376,-0.006690355949103832,-0.015088808722794056,0.021859878674149513,0.0,0.006150748580694199
0.006128350738435984,-0.006221109535545111,-0.015411841683089733,0.02203427627682686,0.0,0.006005525588989258
0.006189920008182526,-0.006232077721506357,-0.014772283844649792,0.021854383870959282,0.0,0.0063502793200314045
0.006035018712282181,-0.006318820174783468,-0.015259729698300362,0.02192458137869835,0.0,0.006681100931018591
0.006318230647593737,-0.0071596805937588215,-0.015448163263499737,0.02243684232234955,0.0,0.006283769384026527
0.006318230647593737,-0.0071596805937588215,-0.015448163263499737,0.02243684232234955,0.0,0.006283769384026527
0.005874022841453552,-0.0063508544117212296,-0.01565183326601982,0.02270195446908474,0.0,0.006837339606136084
0.006055265199393034,-0.006870802026242018,-0.015679316595196724,0.02030537836253643,0.0,0.005700614769011736
0.006055265199393034,-0.006870802026242018,-0.015679316595196724,0.02030537836253643,0.0,0.005700614769011736
0.006193738896399736,-0.007352352142333984,-0.014108672738075256,0.02107304334640503,0.0,0.005617112386971712
0.00618779519572854,-0.006855894811451435,-0.01601591892540455,0.022271033376455307,0.0,0.005765605717897415
0.005901179742068052,-0.006497809197753668,-0.015714533627033234,0.021949782967567444,0.0,0.005958302412182093
0.006261383183300495,-0.006952665746212006,-0.01553979329764843,0.021039750427007675,0.0,0.006658697035163641
0.0064192102290689945,-0.007322004530578852,-0.01519747544080019,0.021513154730200768,0.0,0.0063832784071564674
0.005855849478393793,-0.007153714075684547,-0.01607394404709339,0.02233198843896389,0.0,0.006347223185002804
0.00624955864623189,-0.0069618746638298035,-0.015562791377305984,0.022534988820552826,0.0,0.005719385109841824
0.00581324053928256,-0.006909847725182772,-0.01541139092296362,0.021748613566160202,0.0,0.005936038214713335
0.006064786110073328,-0.007530662696808577,-0.015400265343487263,0.0216041412204504,0.0,0.006419037468731403
0.006336288060992956,-0.007296281401067972,-0.015450914390385151,0.02101413533091545,0.0,0.00653369864448905
0.005764731205999851,-0.007541202008724213,-0.015333207324147224,0.021365448832511902,0.0,0.00640881946310401
0.006357805337756872,-0.00784919410943985,-0.015229392796754837,0.0215580016374588,0.0,0.00645295949652791
0.0067463465966284275,-0.007069501560181379,-0.01589331589639187,0.022333551198244095,0.0,0.006373370066285133
0.006260869558900595,-0.00700561236590147,-0.015086143277585506,0.02248648926615715,0.0,0.006478811614215374
0.006384845823049545,-0.00706794299185276,-0.015205355361104012,0.02223922312259674,0.0,0.006362303625792265
0.006472383625805378,-0.0072730001993477345,-0.014998594298958778,0.022765206173062325,0.0,0.0060354117304086685
0.006235445849597454,-0.007112982217222452,-0.015861162915825844,0.022156108170747757,0.0,0.006286517716944218
0.006326024420559406,-0.00721302954480052,-0.014597376808524132,0.02201729454100132,0.0,0.0065565453842282295
0.0063626328483223915,-0.007157107349485159,-0.015594548545777798,0.02230486087501049,0.0,0.006266501732170582
0.006189216859638691,-0.007671442348510027,-0.015473861247301102,0.022258201614022255,0.0,0.006223740056157112
0.006437061354517937,-0.007655379828065634,-0.015510519035160542,0.021622858941555023,0.0,0.005807064939290285
0.006376285571604967,-0.007393082603812218,-0.015224558301270008,0.023331182077527046,0.0,0.005977816414088011
0.006032835692167282,-0.0072854626923799515,-0.015249719843268394,0.02177601121366024,0.0,0.006283733062446117
0.006415687967091799,-0.008254840038716793,-0.015334454365074635,0.021196508780121803,0.0,0.005820272956043482
0.006178570911288261,-0.00848371908068657,-0.015132660046219826,0.02105022221803665,0.0,0.005769842769950628
0.006178570911288261,-0.00848371908068657,-0.015132660046219826,0.02105022221803665,0.0,0.005769842769950628
0.005990498699247837,-0.007739330641925335,-0.015216024592518806,0.021491721272468567,0.0,0.005867662373930216
0.006050231866538525,-0.007037167437374592,-0.01506379246711731,0.02154579758644104,0.0,0.0062857638113200665
0.006466167513281107,-0.007960649207234383,-0.014893653802573681,0.020863953977823257,0.0,0.006253478582948446
0.006446280516684055,-0.007791731506586075,-0.015407930128276348,0.021210722625255585,0.0,0.005918737500905991
0.006344283930957317,-0.0074515449814498425,-0.01477948296815157,0.020593494176864624,0.0,0.005995138082653284
0.00605734484270215,-0.007451551500707865,-0.015359210781753063,0.020353006199002266,0.0,0.0063499272800982
0.005986121483147144,-0.007614793721586466,-0.01479150727391243,0.020657241344451904,0.0,0.00672150356695056
0.006137576885521412,-0.007467769086360931,-0.015597364865243435,0.021246498450636864,0.0,0.0066301338374614716
0.005997830536216497,-0.007791529875248671,-0.014968841336667538,0.020887499675154686,0.0,0.0061545828357338905
0.00608257157728076,-0.008403858169913292,-0.015272741205990314,0.020598718896508217,0.0,0.005756727419793606
0.006122227758169174,-0.008517851121723652,-0.01453380286693573,0.02079024165868759,0.0,0.006370111834257841
0.0060375407338142395,-0.007956832647323608,-0.015276226215064526,0.020404046401381493,0.0,0.0069346074014902115
0.006428109481930733,-0.00802285224199295,-0.014926844276487827,0.0203724205493927,0.0,0.006619773805141449
0.006580600049346685,-0.008746745996177197,-0.015065521001815796,0.02109622023999691,0.0,0.006278755143284798
0.0060912263579666615,-0.008486772887408733,-0.014863044954836369,0.021170247346162796,0.0,0.006158800330013037
0.005857402924448252,-0.007625072728842497,-0.01522779744118452,0.021060781553387642,0.0,0.006555733270943165
0.00624507199972868,-0.00801018811762333,-0.015221594832837582,0.021288597956299782,0.0,0.006658509839326143
0.0063917264342308044,-0.008229353465139866,-0.015047871507704258,0.022234437987208366,0.0,0.006449327804148197
0.0063086305744946,-0.007625105325132608,-0.015322326682507992,0.02220320701599121,0.0,0.006026581395417452
0.006541053764522076,-0.007498838938772678,-0.014837471768260002,0.021333718672394753,0.0,0.005812983028590679
0.006136472802609205,-0.007931845262646675,-0.01524289045482874,0.02048521302640438,0.0,0.0061836810782551765
0.0066058021038770676,-0.0062436796724796295,-0.014997783116996288,0.02064317837357521,0.0,0.006416103802621365
0.006697926204651594,-0.005577749572694302,-0.015065585263073444,0.02126040868461132,0.0,0.006295579485595226
0.006712497677654028,-0.005163564346730709,-0.014547043479979038,0.02202165685594082,0.0,0.006294312886893749
0.006712497677654028,-0.005163564346730709,-0.014547043479979038,0.02202165685594082,0.0,0.006294312886893749
0.0063735865987837315,-0.006043935660272837,-0.015462336130440235,0.021732287481427193,0.0,0.006253858562558889
0.0060411421582102776,-0.006296743173152208,-0.014788882806897163,0.02100599929690361,0.0,0.006259600631892681
0.006341299973428249,-0.006165513768792152,-0.015453711152076721,0.020401978865265846,0.0,0.0064955707639455795
0.006209752522408962,-0.005333778914064169,-0.015294610522687435,0.02117711305618286,0.0,0.006683914456516504
0.006182259414345026,-0.005528949201107025,-0.015132507309317589,0.02098482847213745,0.0,0.006392538547515869
0.0062995897606015205,-0.0058905924670398235,-0.01470867358148098,0.020995764061808586,0.0,0.006675358861684799
0.0062995897606015205,-0.0058905924670398235,-0.01470867358148098,0.020995764061808586,0.0,0.006675358861684799
0.006248262710869312,-0.005762510467320681,-0.015464655123651028,0.020769473165273666,0.0,0.006608199793845415
0.0065286229364573956,-0.0054662227630615234,-0.01514481008052826,0.02090255357325077,0.0,0.006254240404814482
0.006152818910777569,-0.005167486611753702,-0.015164436772465706,0.021107856184244156,0.0,0.006554368883371353
0.006523255258798599,-0.005463320296257734,-0.015059757977724075,0.022685958072543144,0.0,0.00634548207744956
0.006491378881037235,-0.005802430212497711,-0.015458090230822563,0.020635752007365227,0.0,0.006308064796030521
0.006799154914915562,-0.005644223652780056,-0.014681450091302395,0.020412981510162354,0.0,0.006452308967709541
0.005973159801214933,-0.00549783231690526,-0.015067199245095253,0.02059043198823929,0.0,0.0066483644768595695
0.005881039425730705,-0.005049272906035185,-0.015281172469258308,0.020469671115279198,0.0,0.0066337608732283115
0.006577824242413044,-0.005423503927886486,-0.015111321583390236,0.02081698179244995,0.0,0.006254945881664753
0.007147626485675573,-0.005177954211831093,-0.015207924880087376,0.020807724446058273,0.0,0.006315055303275585
0.006406894885003567,-0.005258797202259302,-0.014987650327384472,0.020460758358240128,0.0,0.0060034547932446
0.006245868746191263,-0.005484640598297119,-0.015089455991983414,0.02059527486562729,0.0,0.006099436432123184
0.006301608402282,-0.004978939890861511,-0.01558882649987936,0.02027156949043274,0.0,0.006716812029480934
0.006437998730689287,-0.004805487114936113,-0.015281177125871181,0.019841255620121956,0.0,0.00649836054071784
0.006658780854195356,-0.005204536486417055,-0.014830438420176506,0.019876057282090187,0.0,0.0063110413029789925
0.006385867949575186,-0.005188495386391878,-0.01567102037370205,0.019957443699240685,0.0,0.00625888304784894
0.0061750635504722595,-0.0052228388376533985,-0.015483379364013672,0.020198151469230652,0.0,0.0065620653331279755
0.006109548266977072,-0.005262709688395262,-0.01597108505666256,0.02010648138821125,0.0,0.006570873782038689
0.006473652087152004,-0.005044838413596153,-0.015141925774514675,0.020015904679894447,0.0,0.006301269866526127
0.006473652087152004,-0.005044838413596153,-0.015141925774514675,0.020015904679894447,0.0,0.006301269866526127
0.0065907747484743595,-0.005293036811053753,-0.015611172653734684,0.020103562623262405,0.0,0.006384260021150112
0.0065324753522872925,-0.005084924399852753,-0.015170054510235786,0.0193830244243145,0.0,0.006304796319454908
0.0064475699327886105,-0.005204578395932913,-0.015281332656741142,0.020124830305576324,0.0,0.006945409346371889
0.0067556388676166534,-0.005354589316993952,-0.015307302586734295,0.02017880417406559,0.0,0.00574993621557951
0.0067556388676166534,-0.005354589316993952,-0.015307302586734295,0.02017880417406559,0.0,0.00574993621557951
0.006216159090399742,-0.005424844566732645,-0.01570715941488743,0.020808981731534004,0.0,0.007110061589628458
0.006216159090399742,-0.005424844566732645,-0.01570715941488743,0.020808981731534004,0.0,0.007110061589628458
0.006362255662679672,-0.005294036585837603,-0.015095180831849575,0.02065172791481018,0.0,0.006479158066213131
0.006614139769226313,-0.005695234518498182,-0.015618590638041496,0.021118542179465294,0.0,0.006351407151669264
0.006557743065059185,-0.0052680703811347485,-0.015272827818989754,0.021146882325410843,0.0,0.00650557316839695
0.006350180134177208,-0.005223516374826431,-0.015586365945637226,0.02073953114449978,0.0,0.006464565172791481
0.007140800356864929,-0.005382245872169733,-0.01479463092982769,0.020550133660435677,0.0,0.0065887728706002235
0.00662711076438427,-0.005140489898622036,-0.015102426521480083,0.020954562351107597,0.0,0.006605833303183317
0.006795434281229973,-0.005343353375792503,-0.014539625495672226,0.02121259644627571,0.0,0.00616016611456871
0.006565406918525696,-0.005144794937223196,-0.015336376614868641,0.020482361316680908,0.0,0.006306781433522701
0.006434579845517874,-0.005253971088677645,-0.014863967895507812,0.02025790326297283,0.0,0.006660525221377611
0.00725054694339633,-0.005456601735204458,-0.014933966100215912,0.020641464740037918,0.0,0.006813499145209789
0.0069384160451591015,-0.005284921731799841,-0.014604013413190842,0.020994091406464577,0.0,0.006345254369080067
0.006795677822083235,-0.005232112016528845,-0.01522024068981409,0.020758090540766716,0.0,0.006425816100090742
0.00667153624817729,-0.005401216447353363,-0.015060009434819221,0.020789580419659615,0.0,0.006800481583923101
0.007293244823813438,-0.005525582004338503,-0.015323334373533726,0.020068811252713203,0.0,0.007232114672660828
0.006526660174131393,-0.005075438413769007,-0.014581884257495403,0.01973508670926094,0.0,0.007015890441834927
0.007137739565223455,-0.005289996974170208,-0.014953996054828167,0.02036573924124241,0.0,0.0067482017911970615
0.006836508400738239,-0.005654009059071541,-0.01537153497338295,0.02084728702902794,0.0,0.006389125715941191
0.006813796237111092,-0.005642831325531006,-0.01469692587852478,0.0205839890986681,0.0,0.00663885148242116
0.007272627204656601,-0.00557279447093606,-0.014782100915908813,0.020260004326701164,0.0,0.006702963728457689
0.007272627204656601,-0.00557279447093606,-0.014782100915908813,0.020260004326701164,0.0,0.006702963728457689
0.006793785374611616,-0.005010558757930994,-0.01514227781444788,0.020471446216106415,0.0,0.006587271112948656
0.007414069026708603,-0.005306815728545189,-0.014750579372048378,0.019922735169529915,0.0,0.00659163435921073
0.007414069026708603,-0.005306815728545189,-0.014750579372048378,0.019922735169529915,0.0,0.00659163435921073
0.007085202727466822,-0.004975902382284403,-0.015106003731489182,0.020104141905903816,0.0,0.006673152092844248
0.007499602623283863,-0.004741906654089689,-0.014872043393552303,0.02001154236495495,0.0,0.006866362877190113
0.006609699688851833,-0.005071522202342749,-0.015359140932559967,0.01911417953670025,0.0,0.006885597016662359
0.007246891036629677,-0.004992734175175428,-0.015206953510642052,0.01864415965974331,0.0,0.006881635170429945
0.007100547663867474,-0.005316765047609806,-0.014442951418459415,0.01893717609345913,0.0,0.0066775851882994175
0.0068809036165475845,-0.005072814878076315,-0.015074110589921474,0.019904181361198425,0.0,0.006684985943138599
0.007327857427299023,-0.005404882598668337,-0.014595589600503445,0.01962190866470337,0.0,0.006767872720956802
0.007731645368039608,-0.005275278817862272,-0.014848095364868641,0.019190149381756783,0.0,0.006701940204948187
0.007622970268130302,-0.004937042482197285,-0.014240131713449955,0.019745344296097755,0.0,0.0069573186337947845
0.007691084872931242,-0.005352628882974386,-0.015015817247331142,0.02027738280594349,0.0,0.006816654931753874
0.006790587678551674,-0.005218408070504665,-0.014645625837147236,0.020028600469231606,0.0,0.007221111562103033
0.007188037969172001,-0.0050677284598350525,-0.01496101450175047,0.01999707706272602,0.0,0.007343478500843048
0.0074200998060405254,-0.005652961786836386,-0.014240720309317112,0.02001950703561306,0.0,0.007346163969486952
0.007370542734861374,-0.0053317188285291195,-0.014837847091257572,0.020200258120894432,0.0,0.006975885480642319
0.007193895056843758,-0.004796919878572226,-0.014626982621848583,0.020138192921876907,0.0,0.006790554150938988
0.007476126775145531,-0.004700678400695324,-0.014976518228650093,0.02017846517264843,0.0,0.006541685201227665
0.007427263539284468,-0.005110003985464573,-0.014397678896784782,0.019629884511232376,0.0,0.006926254369318485
0.007221663370728493,-0.005552168004214764,-0.014656800776720047,0.019608939066529274,0.0,0.006947211921215057
0.0070902155712246895,-0.005196624435484409,-0.014326263219118118,0.02056712843477726,0.0,0.007147679105401039
0.007306657265871763,-0.004904297646135092,-0.01466219499707222,0.020473221316933632,0.0,0.006979050114750862
0.007342529948800802,-0.005070624873042107,-0.014474188908934593,0.019698118790984154,0.0,0.007211486808955669
0.008127253502607346,-0.0050919558852910995,-0.014924852177500725,0.019908854737877846,0.0,0.006993428338319063
0.0070297569036483765,-0.005049738567322493,-0.01420598290860653,0.019697660580277443,0.0,0.007081879302859306
0.008244851604104042,-0.005671478342264891,-0.014464933425188065,0.01969367451965809,0.0,0.0074790967628359795
0.008244851604104042,-0.005671478342264891,-0.014464933425188065,0.01969367451965809,0.0,0.0074790967628359795
0.007535676006227732,-0.004822957795113325,-0.014830421656370163,0.020900798961520195,0.0,0.007066542748361826
0.007535676006227732,-0.004822957795113325,-0.014830421656370163,0.020900798961520195,0.0,0.007066542748361826
0.007438377011567354,-0.004579521249979734,-0.014335865154862404,0.020442329347133636,0.0,0.006993059068918228
0.008218866772949696,-0.004723893478512764,-0.014683984220027924,0.019516337662935257,0.0,0.006888555362820625
0.007947331294417381,-0.0052166408859193325,-0.014492694288492203,0.019006071612238884,0.0,0.007030688691884279
0.007629703730344772,-0.004992982372641563,-0.014619698747992516,0.018773483112454414,0.0,0.0072883497923612595
0.007674800232052803,-0.005072385538369417,-0.014789758250117302,0.01974777691066265,0.0,0.006935504265129566
0.007533108815550804,-0.004782980773597956,-0.015609822236001492,0.019831281155347824,0.0,0.007355123292654753
0.007745007518678904,-0.004749777261167765,-0.014782516285777092,0.01917215809226036,0.0,0.007540643680840731
0.007485252805054188,-0.004665514454245567,-0.015168379060924053,0.019742222502827644,0.0,0.007404285483062267
0.007977016270160675,-0.005256965756416321,-0.014783262275159359,0.019900446757674217,0.0,0.006882325746119022
0.00781142245978117,-0.005218252539634705,-0.014974487945437431,0.01985076814889908,0.0,0.0064163049682974815
0.008122681640088558,-0.004687673877924681,-0.014746990986168385,0.019645093008875847,0.0,0.006994188297539949
0.0077632274478673935,-0.004356387071311474,-0.014966093935072422,0.0193270742893219,0.0,0.0072894892655313015
0.008145857602357864,-0.004934356547892094,-0.014695652760565281,0.01855003461241722,0.0,0.006919750012457371
0.00803423672914505,-0.005102880299091339,-0.015253014862537384,0.018913760781288147,0.0,0.006751676555722952
0.007624406833201647,-0.004688360262662172,-0.014781751669943333,0.019101405516266823,0.0,0.006677705328911543
0.008013286627829075,-0.0049235206097364426,-0.01507009007036686,0.019022515043616295,0.0,0.006719950586557388
0.008280914276838303,-0.005396934226155281,-0.014266754500567913,0.019761431962251663,0.0,0.006795759312808514
0.008478401228785515,-0.0049491263926029205,-0.014791329391300678,0.019316842779517174,0.0,0.0071074822917580605
0.00775616941973567,-0.00451916828751564,-0.014488819986581802,0.01845293864607811,0.0,0.006962643936276436
0.00803094170987606,-0.0049585155211389065,-0.015358395874500275,0.018769994378089905,0.0,0.007827451452612877
0.007883969694375992,-0.005065288860350847,-0.014808463864028454,0.018965624272823334,0.0,0.00692231860011816
0.007823880761861801,-0.004523534793406725,-0.0149532500654459,0.018746761605143547,0.0,0.006693939212709665
0.008374416269361973,-0.004486048594117165,-0.014130913652479649,0.018760567530989647,0.0,0.0072159189730882645
0.008374416269361973,-0.004486048594117165,-0.014130913652479649,0.018760567530989647,0.0,0.0072159189730882645
0.008592836558818817,-0.004896005615592003,-0.014925246126949787,0.0186665877699852,0.0,0.007642481476068497
0.00787195935845375,-0.004946000874042511,-0.014239129610359669,0.01865069754421711,0.0,0.007506335154175758
0.007837374694645405,-0.004822834394872189,-0.015005740337073803,0.01880185306072235,0.0,0.007391737308353186
0.008192752487957478,-0.004748961888253689,-0.014048748649656773,0.01826493814587593,0.0,0.007453087717294693
0.007728002965450287,-0.004780127201229334,-0.014799960888922215,0.018930217251181602,0.0,0.007063183467835188
0.007728002965450287,-0.004780127201229334,-0.014799960888922215,0.018930217251181602,0.0,0.007063183467835188
0.008368396200239658,-0.004918222781270742,-0.014229309745132923,0.01910378411412239,0.0,0.007325232494622469
0.00868508405983448,-0.004880691412836313,-0.014773145318031311,0.019143806770443916,0.0,0.008109044283628464
0.007775436621159315,-0.004526501055806875,-0.01416346151381731,0.018676644191145897,0.0,0.007703851908445358
0.008078415878117085,-0.004556337837129831,-0.014799272641539574,0.018855774775147438,0.0,0.007699189707636833
0.008280424401164055,-0.004959013778716326,-0.014445344917476177,0.019421620294451714,0.0,0.007830962538719177
0.008158962242305279,-0.0049379984848201275,-0.014872293919324875,0.019316216930747032,0.0,0.00783540029078722
0.007706189062446356,-0.004387188702821732,-0.01447696890681982,0.01904822513461113,0.0,0.0075788237154483795
0.00824747234582901,-0.0043490114621818066,-0.014709338545799255,0.019036345183849335,0.0,0.007978525944054127
0.008330371230840683,-0.004969707690179348,-0.014531679451465607,0.018718915060162544,0.0,0.007936875335872173
0.008020090870559216,-0.004919534083455801,-0.014623956754803658,0.019181430339813232,0.0,0.007792273536324501
0.007971517741680145,-0.0044755712151527405,-0.01462075486779213,0.0193095151335001,0.0,0.00753744738176465
0.008606858551502228,-0.0044526648707687855,-0.01476489007472992,0.018596364185214043,0.0,0.007501123007386923
0.00857742503285408,-0.0046074483543634415,-0.014497131109237671,0.01892540231347084,0.0,0.007594643160700798
0.007804336491972208,-0.004598496947437525,-0.01453210785984993,0.01902603916823864,0.0,0.007673556450754404
0.00799513328820467,-0.004837788175791502,-0.013929520733654499,0.0191192664206028,0.0,0.007466206327080727
0.008156606927514076,-0.00489832041785121,-0.014035411179065704,0.019254425540566444,0.0,0.007409211248159409
0.007921218872070312,-0.004934532567858696,-0.014490089379251003,0.0193877425044775,0.0,0.007941193878650665
0.008119155652821064,-0.00518294470384717,-0.014912579208612442,0.019078603014349937,0.0,0.00795072689652443
0.00842925626784563,-0.004590979311615229,-0.014333627186715603,0.019188839942216873,0.0,0.007720618974417448
0.008158578537404537,-0.004416140727698803,-0.014619152992963791,0.020266998559236526,0.0,0.007485000882297754
0.008239192888140678,-0.004574601072818041,-0.014236732386052608,0.01893513649702072,0.0,0.008037939667701721
0.007828086614608765,-0.004738989751785994,-0.014520135708153248,0.019038815051317215,0.0,0.008278816938400269
0.008851704187691212,-0.004845709074288607,-0.014313182793557644,0.019106680527329445,0.0,0.007916884496808052
0.008145556785166264,-0.004885333590209484,-0.014201835729181767,0.018971163779497147,0.0,0.0075050038285553455
0.007934746332466602,-0.005103727336972952,-0.013814025558531284,0.01929505728185177,0.0,0.007952427491545677
0.007934746332466602,-0.005103727336972952,-0.013814025558531284,0.01929505728185177,0.0,0.007952427491545677
0.008249588310718536,-0.004851635545492172,-0.01436067558825016,0.018740974366664886,0.0,0.007538654841482639
0.009094559587538242,-0.004496380686759949,-0.014079241082072258,0.019056424498558044,0.0,0.007648095488548279
0.008204757235944271,-0.00487045431509614,-0.014529185369610786,0.019795458763837814,0.0,0.007591043598949909
0.008017042651772499,-0.004909321665763855,-0.014095869846642017,0.019363241270184517,0.0,0.007575485855340958
0.008715016767382622,-0.005486899055540562,-0.014047401957213879,0.01885947957634926,0.0,0.00759341474622488
0.008114507421851158,-0.004654992837458849,-0.01455400139093399,0.01902802661061287,0.0,0.00751053262501955
0.008226004429161549,-0.004522879607975483,-0.013917309232056141,0.018401628360152245,0.0,0.00820094719529152
0.00844793114811182,-0.004632440861314535,-0.014508587308228016,0.01857682317495346,0.0,0.007867121137678623
0.008499168790876865,-0.005116723477840424,-0.014250220730900764,0.01850748062133789,0.0,0.007522163912653923
0.008628224022686481,-0.004993096925318241,-0.014516111463308334,0.018241658806800842,0.0,0.007962950505316257
0.009193048812448978,-0.0048944647423923016,-0.014755751937627792,0.018013179302215576,0.0,0.008218229748308659
0.008722741156816483,-0.005015210248529911,-0.014781373552978039,0.018165871500968933,0.0,0.008223995566368103
0.008463566191494465,-0.004744690377265215,-0.014499872922897339,0.01872861199080944,0.0,0.007915088906884193
0.008935223333537579,-0.004686882719397545,-0.014920820482075214,0.0193013958632946,0.0,0.008125264197587967
0.009133377112448215,-0.004969764966517687,-0.01467799860984087,0.018526503816246986,0.0,0.008343026041984558
0.00935782864689827,-0.004905371461063623,-0.014704214408993721,0.017994441092014313,0.0,0.00817915704101324
0.00876606535166502,-0.004772434942424297,-0.014384878799319267,0.017730018123984337,0.0,0.008187060244381428
0.0091768279671669,-0.004561468958854675,-0.014946045354008675,0.01742660626769066,0.0,0.008045725524425507
0.008786940947175026,-0.00459213787689805,-0.014529646374285221,0.018224647268652916,0.0,0.00801869947463274
0.00898696482181549,-0.004673479590564966,-0.015075549483299255,0.018272049725055695,0.0,0.008287809789180756
0.009156578220427036,-0.004771211184561253,-0.014977335929870605,0.018644286319613457,0.0,0.008057709783315659
0.008963082917034626,-0.00465210760012269,-0.014427111484110355,0.018687229603528976,0.0,0.00852016732096672
0.00887061282992363,-0.004249670077115297,-0.014705480076372623,0.018332766368985176,0.0,0.008356093429028988
0.0094789182767272,-0.003758674254640937,-0.014978933148086071,0.018723661080002785,0.0,0.008371944539248943
0.00901737343519926,-0.0036270294804126024,-0.015529514290392399,0.01954711601138115,0.0,0.00883917510509491
0.008873441256582737,-0.003756779944524169,-0.015351656824350357,0.019015271216630936,0.0,0.008511649444699287
0.00944502092897892,-0.003826641710475087,-0.014507411979138851,0.018659180030226707,0.0,0.009042656980454922
0.009446186944842339,-0.003927604760974646,-0.01447796355932951,0.018579768016934395,0.0,0.00861519668251276
0.009072542190551758,-0.004415674600750208,-0.015256240032613277,0.01787368208169937,0.0,0.008277892135083675
0.009047436527907848,-0.004612138960510492,-0.015019695274531841,0.018004629760980606,0.0,0.008030684664845467
0.009293570183217525,-0.004547024145722389,-0.014792260713875294,0.018052611500024796,0.0,0.008615744300186634
0.009173711761832237,-0.003968493081629276,-0.013881498016417027,0.01815686747431755,0.0,0.009212440811097622
0.009225694462656975,-0.0037338389083743095,-0.014714776538312435,0.018996257334947586,0.0,0.008580664172768593
0.009363560937345028,-0.003977115266025066,-0.015143893659114838,0.018748780712485313,0.0,0.008917811326682568
0.009363560937345028,-0.003977115266025066,-0.015143893659114838,0.018748780712485313,0.0,0.008917811326682568
0.00938719417899847,-0.004289065953344107,-0.014219270087778568,0.018462058156728745,0.0,0.009079894050955772
0.009032989852130413,-0.0042486293241381645,-0.01460249163210392,0.018006375059485435,0.0,0.008527885191142559
0.009256849996745586,-0.004033055156469345,-0.014116340316832066,0.01801159977912903,0.0,0.008247609250247478
0.00905700959265232,-0.004054948687553406,-0.014589851722121239,0.018518494442105293,0.0,0.00902645569294691
0.009977019391953945,-0.004104653373360634,-0.013988635502755642,0.01840021274983883,0.0,0.008500012569129467
0.009731773287057877,-0.0035681326407939196,-0.014767871238291264,0.018784789368510246,0.0,0.008434433490037918
0.009297223761677742,-0.0035768868401646614,-0.014145138673484325,0.01882186159491539,0.0,0.009117680601775646
0.010256942361593246,-0.0037800900172442198,-0.014468122273683548,0.018347574397921562,0.0,0.009091437794268131
0.009989299811422825,-0.0038837117608636618,-0.01389299612492323,0.018118884414434433,0.0,0.008437720127403736
0.00926527101546526,-0.003919815644621849,-0.014400012791156769,0.01815052330493927,0.0,0.008626874536275864
0.01023155078291893,-0.003961398731917143,-0.013759974390268326,0.01798204332590103,0.0,0.00923310685902834
0.00991453044116497,-0.003974740393459797,-0.014453599229454994,0.01852414943277836,0.0,0.009036915376782417
0.010246680118143559,-0.003933627624064684,-0.014393248595297337,0.01793571561574936,0.0,0.009093664586544037
0.010658877901732922,-0.003954022191464901,-0.014224428683519363,0.017832696437835693,0.0,0.008936096914112568
0.00925394706428051,-0.003414159407839179,-0.013932865113019943,0.018652476370334625,0.0,0.00868995487689972
0.00975657906383276,-0.003361907321959734,-0.014221720397472382,0.01920987293124199,0.0,0.00880006980150938
0.010041140019893646,-0.00357819558121264,-0.014018787071108818,0.019199369475245476,0.0,0.008879049681127071
0.010045205242931843,-0.0037594176828861237,-0.01451515406370163,0.018876325339078903,-1.3918127024226123e-06,0.008934570476412773
0.009637951850891113,-0.0037449058145284653,-0.014394094236195087,0.017648518085479736,-9.087542451879926e-08,0.008548559620976448
0.010700933635234833,-0.00371632631868124,-0.01442058477550745,0.017750108614563942,-5.933515900835573e-09,0.008304177783429623
0.01000235229730606,-0.0037030375096946955,-0.013981267809867859,0.0180587787181139,-3.8741621022353456e-10,0.008892481215298176
0.009629517793655396,-0.003672824939712882,-0.014340946450829506,0.01820090040564537,-2.5295512212641924e-11,0.00891703087836504
0.010061338543891907,-0.003554103896021843,-0.014168153516948223,0.01850900799036026,-1.6516161268492757e-12,0.009309745393693447
0.010846465826034546,-0.0034110471606254578,-0.014507855288684368,0.01784648932516575,-1.0783873251839216e-13,0.009218689054250717
0.010846465826034546,-0.0034110471606254578,-0.014507855288684368,0.01784648932516575,-1.0783873251839216e-13,0.009218689054250717
0.010091238655149937,-0.0033519910648465157,-0.014446607790887356,0.017673317342996597,-7.041098593388827e-15,0.00919277872890234
0.010375059209764004,-0.0037401230074465275,-0.014321085065603256,0.018424328416585922,-3.0017305786030605e-17,0.009282998740673065
0.010056691244244576,-0.00380015280097723,-0.014644660986959934,0.01897810399532318,-1.9599157463237028e-18,0.008827736601233482
0.010575275868177414,-0.003399816807359457,-0.01413736678659916,0.018519435077905655,-1.2796849845122451e-19,0.008843434043228626
0.010800197720527649,-0.003550710389390588,-0.014625837095081806,0.017812427133321762,-8.355428107786992e-21,0.009273404255509377
0.010208002291619778,-0.003789553651586175,-0.014361780136823654,0.018296098336577415,-5.455497972986322e-22,0.009066300466656685
0.010270203463733196,-0.00336410291492939,-0.014503475278615952,0.01769961416721344,-3.5620506148831826e-23,0.009099401533603668
0.010158916935324669,-0.0031468772795051336,-0.014186307787895203,0.017618998885154724,-2.3257644886289583e-24,0.009145446121692657
0.01034584827721119,-0.0031437601428478956,-0.013959256000816822,0.01828637532889843,-1.5185579821075464e-25,0.00936484057456255
0.010646247304975986,-0.003349812002852559,-0.014314915984869003,0.01833382621407509,-9.915097961969634e-27,0.009824265725910664
0.010991630144417286,-0.00342284282669425,-0.01416112296283245,0.018579641357064247,-6.4738502854949065e-28,0.009714475832879543
0.01036980003118515,-0.0035232072696089745,-0.014386193826794624,0.018582113087177277,-4.226961527907175e-29,0.009477417916059494
0.010226850397884846,-0.0037142096552997828,-0.014051401056349277,0.01802217774093151,-2.7599038777645573e-30,0.009229405783116817
0.010078543797135353,-0.0038144453428685665,-0.014006849378347397,0.018266882747411728,-1.8020199093727077e-31,0.009494270198047161
0.010510330088436604,-0.003917899914085865,-0.013896805234253407,0.018548233434557915,-1.1765901319624447e-32,0.009862630628049374
0.010377844795584679,-0.0034570696298033,-0.014165964908897877,0.018379133194684982,-7.682293178762842e-34,0.009845266118645668
0.010823948308825493,-0.003539346856996417,-0.013926109299063683,0.01856725476682186,-5.015988219414765e-35,0.009432313032448292
0.010329161770641804,-0.0037421570159494877,-0.014511637389659882,0.018363898620009422,-3.275081946804734e-36,0.009688972495496273
0.010458758100867271,-0.003397267544642091,-0.014267224818468094,0.018341075628995895,-2.138394684817174e-37,0.009590412490069866
0.010128951631486416,-0.0035156141966581345,-0.014225739985704422,0.01867462322115898,-1.396218897521486e-38,0.009184475988149643
0.01041973102837801,-0.0033463172148913145,-0.013762607239186764,0.018683303147554398,-8.920829714043066e-05,0.00948309525847435
0.010391810908913612,-0.003345620119944215,-0.014142230153083801,0.018923625349998474,-0.00014711194671690464,0.00994822382926941
0.010584033094346523,-0.0033416817896068096,-0.013660915195941925,0.01855383813381195,-0.0001463009975850582,0.009586542844772339
0.010766950435936451,-0.00329963187687099,-0.014236918650567532,0.01796993613243103,-0.0001419452455593273,0.009608371183276176
0.010916808620095253,-0.003068312769755721,-0.013854511082172394,0.018221966922283173,-0.00013762086746282876,0.00956729706376791
0.01138253416866064,-0.0029820166528224945,-0.01449874322861433,0.017861435189843178,-0.0001335375418420881,0.009557061828672886
0.010473806411027908,-0.0027555390261113644,-0.01363054383546114,0.017372149974107742,-0.0001424189395038411,0.009887958876788616
0.010108116082847118,-0.002876541344448924,-0.014081006869673729,0.01784973405301571,-0.00015040452126413584,0.010380098596215248
0.010108116082847118,-0.002876541344448924,-0.014081006869673729,0.01784973405301571,-0.00015040452126413584,0.010380098596215248
0.010313482955098152,-0.0033372617326676846,-0.014283611439168453,0.017702588811516762,-0.00013953927555121481,0.009794037789106369
0.010313482955098152,-0.0033372617326676846,-0.014283611439168453,0.017702588811516762,-0.00013953927555121481,0.009794037789106369
0.011117574758827686,-0.0029628807678818703,-0.014951379969716072,0.017578836530447006,-0.00013602433318737894,0.009863311424851418
0.010298025794327259,-0.003060955787077546,-0.013926413841545582,0.01786656118929386,-0.00013268178736325353,0.009888369590044022
0.010475954040884972,-0.003047381294891238,-0.014625530689954758,0.017994465306401253,-0.00014963926514610648,0.009872779250144958
0.010862746275961399,-0.0030156716238707304,-0.013834868557751179,0.01732291653752327,-0.0001474502496421337,0.01041346974670887
0.010209654457867146,-0.002833006903529167,-0.01452803984284401,0.017162924632430077,-0.00014416201156564057,0.010357596911489964
0.010527058504521847,-0.0029799919575452805,-0.013974902220070362,0.01693408563733101,-0.00014094222569838166,0.010299050249159336
0.010489506646990776,-0.0026281606405973434,-0.01465610507875681,0.017258476465940475,-0.00013785836927127093,0.010236539877951145
0.010292109102010727,-0.002498988527804613,-0.01407709438353777,0.017361348494887352,-0.00013490623678080738,0.010309550911188126
0.010839560069143772,-0.002671464579179883,-0.014818184077739716,0.01757405698299408,-0.00014846984413452446,0.009953506290912628
0.011080729775130749,-0.002805712167173624,-0.014142713509500027,0.017944874241948128,-0.0001476847246522084,0.010609441436827183
0.011369463987648487,-0.0028878450393676758,-0.014458193443715572,0.017913442105054855,-0.00014486107102129608,0.010351096279919147
0.010574597865343094,-0.0027238987386226654,-0.014017856679856777,0.01793971285223961,-0.00014201329031493515,0.0104139419272542
0.01076203677803278,-0.0029080002568662167,-0.015040865167975426,0.017724260687828064,-0.0001875912130344659,0.010813014581799507
0.010859456844627857,-0.0029548630118370056,-0.014228537678718567,0.017225904390215874,-0.00018675455066841096,0.010278291068971157
0.011061865836381912,-0.0026472306344658136,-0.014705702662467957,0.017717918381094933,-0.00017974787624552846,0.010505602695047855
0.010812719352543354,-0.0027681393548846245,-0.01439048070460558,0.017742589116096497,-0.00017287149967160076,0.010172686539590359
0.011051035486161709,-0.0030509524513036013,-0.014880300499498844,0.01775394193828106,-0.00016647693701088428,0.009549298323690891
0.010828842408955097,-0.0030477510299533606,-0.013974079862236977,0.017389880493283272,-0.00018838269170373678,0.010152321308851242
0.01024051196873188,-0.0029547468293458223,-0.014861540868878365,0.016893861815333366,-0.0001857295719673857,0.010325807146728039
0.010805284604430199,-0.0026644524186849594,-0.013852790929377079,0.017338979989290237,-0.00017979498079512268,0.010392229072749615
0.010676931589841843,-0.0025412922259420156,-0.015550512820482254,0.01713336817920208,-0.00019548693671822548,0.009978285059332848
0.010585624724626541,-0.0027506439946591854,-0.013585255481302738,0.017192261293530464,-0.00019618993974290788,0.01024965476244688
0.011007912456989288,-0.002795176114886999,-0.013976391404867172,0.01774703525006771,-0.0001906946999952197,0.010326671414077282
0.01095336489379406,-0.0030620333272963762,-0.014406208880245686,0.017052726820111275,-0.0001851200795499608,0.0107764583081007
0.01082184724509716,-0.0029244094621390104,-0.015166031196713448,0.017292393371462822,-0.00019886788504663855,0.010313207283616066
0.010808494873344898,-0.0026811303105205297,-0.014110973104834557,0.017502009868621826,-0.0001993887563003227,0.010003942996263504
0.010808494873344898,-0.0026811303105205297,-0.014110973104834557,0.017502009868621826,-0.0001993887563003227,0.010003942996263504
0.011965373530983925,-0.0026230637449771166,-0.014385882765054703,0.017819583415985107,-0.00019439883180893958,0.010222475044429302
0.012167047709226608,-0.0028403867036104202,-0.014585772529244423,0.017186366021633148,-0.00018452404765412211,0.010242949239909649
0.012532657012343407,-0.0027747254353016615,-0.014112621545791626,0.01740921288728714,-0.0002492329222150147,0.010736658237874508
0.012155581265687943,-0.0024736993946135044,-0.014764237217605114,0.01719752699136734,-0.00024079543072730303,0.011228933930397034
0.012231854721903801,-0.0025141749065369368,-0.014210611581802368,0.016707006841897964,-0.00022886585793457925,0.01055180188268423
0.012539366260170937,-0.0027646548114717007,-0.014869843609631062,0.01738494634628296,-0.0002583776949904859,0.010772103443741798
0.012273592874407768,-0.002772296080365777,-0.01399717852473259,0.01730160228908062,-0.0002491030900273472,0.0104019520804286
0.01236007921397686,-0.002895133337005973,-0.014495357871055603,0.017678020521998405,-0.0002382820675848052,0.010807168669998646
0.012198030017316341,-0.002815615152940154,-0.014255054295063019,0.017353389412164688,-0.00022822071332484484,0.011426502838730812
0.012969753704965115,-0.0024034411180764437,-0.014829857274889946,0.017039969563484192,-0.00021896518592257053,0.011048942804336548
0.012677820399403572,-0.002510012360289693,-0.014077684842050076,0.017506783828139305,-0.00021043073502369225,0.012258329428732395
0.013066578656435013,-0.0028609156142920256,-0.014737949706614017,0.017529048025608063,-0.0002025368739850819,0.010303875431418419
0.012878929264843464,-0.0030170513782650232,-0.01392594538629055,0.01783047989010811,-0.00022554528550244868,0.009893734008073807
0.012882044538855553,-0.002832575934007764,-0.014367768540978432,0.018492309376597404,-0.0002196582790929824,0.010880946181714535
0.012652776204049587,-0.0026127835735678673,-0.013914263807237148,0.017786359414458275,-0.00021238147746771574,0.011211552657186985
0.012142105028033257,-0.0024999952875077724,-0.014935917221009731,0.01681196317076683,-0.00020546300220303237,0.011248753406107426
0.01272114273160696,-0.002361983759328723,-0.014288394711911678,0.016454128548502922,-0.00019897350284736603,0.011151950806379318
0.012924586422741413,-0.002538260305300355,-0.014626056887209415,0.016857190057635307,-0.00021328481670934707,0.011233317665755749
0.01293488685041666,-0.0026952268090099096,-0.013856574892997742,0.017158109694719315,-0.00021341988758649677,0.011483676731586456
0.01298082247376442,-0.0025711040943861008,-0.0142893735319376,0.01721944473683834,-0.00020768519607372582,0.01156497374176979
0.012656057253479958,-0.0025193572510033846,-0.01393215823918581,0.017070723697543144,-0.00020188873168081045,0.011343195103108883
0.01289906445890665,-0.002258532913401723,-0.014593569561839104,0.016291916370391846,-0.00019638350931927562,0.011577656492590904
0.012707134708762169,-0.002353435382246971,-0.014175072312355042,0.01662580668926239,-0.0002095676609314978,0.011675066314637661
0.013223880901932716,-0.0026187764015048742,-0.014565806835889816,0.016367796808481216,-0.00020631265942938626,0.01196048129349947
0.013223880901932716,-0.0026187764015048742,-0.014565806835889816,0.016367796808481216,-0.00020631265942938626,0.01196048129349947
0.012784133665263653,-0.0026358328759670258,-0.014261717908084393,0.01718166284263134,-0.00018937078129965812,0.011726468801498413
0.012889293022453785,-0.002584609901532531,-0.013952468521893024,0.016889000311493874,-0.00021559525339398533,0.011492941528558731
0.013086467981338501,-0.0022634207271039486,-0.014845812693238258,0.017142225056886673,-0.0002094413503073156,0.011359456926584244
0.013086467981338501,-0.0022634207271039486,-0.014845812693238258,0.017142225056886673,-0.0002094413503073156,0.011359456926584244
0.012792974710464478,-0.002142836805433035,-0.014393333345651627,0.016174154356122017,-0.00020175910321995616,0.011584428139030933
0.01214790903031826,-0.002250547055155039,-0.013897208496928215,0.016581978648900986,-0.00020307028898969293,0.01189603190869093
0.013341155834496021,-0.0024670553393661976,-0.014247559942305088,0.016781337559223175,-0.0002106259053107351,0.011480106972157955
0.013676971197128296,-0.002624581567943096,-0.01396168302744627,0.01736159808933735,-0.00020471836614888161,0.011198471300303936
0.012820742093026638,-0.0024147992953658104,-0.014668791554868221,0.016946520656347275,-0.00019833423721138388,0.011563446372747421
0.013091880828142166,-0.002231603255495429,-0.014043787494301796,0.016886716708540916,-0.00019228403107263148,0.011486098170280457
0.012938311323523521,-0.0021090207155793905,-0.01462479867041111,0.016703849658370018,-0.0001865887752501294,0.011507895775139332
0.013055352494120598,-0.0022589885629713535,-0.014083296060562134,0.01603524014353752,-0.00020039778610225767,0.011639520525932312
0.013041871599853039,-0.0020627311896532774,-0.014497779309749603,0.017014147713780403,-0.0002008800074690953,0.01150814350694418
0.013456909917294979,-0.00237829377874732,-0.014087693765759468,0.017314277589321136,-0.0001958135107997805,0.01193552277982235
0.01365126483142376,-0.0023679137229919434,-0.014816333539783955,0.017535654827952385,-0.00019065398373641074,0.011824293062090874
0.013850509189069271,-0.0022904977668076754,-0.014064038172364235,0.0167376846075058,-0.000185929166036658,0.011206782422959805
0.013562954030930996,-0.002010367112234235,-0.015188288874924183,0.01628940925002098,-0.0002287824172526598,0.01158516202121973
0.01333041861653328,-0.0020134334918111563,-0.014555784873664379,0.016247695311903954,-0.00022096806787885725,0.011647943407297134
0.013638142496347427,-0.002212191466242075,-0.014262884855270386,0.01635078713297844,-0.00024197166203521192,0.012182524427771568
0.013641631230711937,-0.0022885766811668873,-0.013677410781383514,0.01696445420384407,-0.00024097372079268098,0.011769982054829597
0.0138696962967515,-0.0024514109827578068,-0.01443593017756939,0.016474435105919838,-0.00023129148758016527,0.012280152179300785
0.013491012156009674,-0.002326748101040721,-0.014148280024528503,0.016539441421628,-0.00022182980319485068,0.012380658648908138
0.013633687049150467,-0.002244002651423216,-0.014804137870669365,0.01609550043940544,-0.0002393329777987674,0.01219849195331335
0.013203191570937634,-0.001994169084355235,-0.014620674774050713,0.01672464795410633,-0.00023854817845858634,0.012659266591072083
0.013203191570937634,-0.001994169084355235,-0.014620674774050713,0.01672464795410633,-0.00023854817845858634,0.012659266591072083
0.013908610679209232,-0.0019966945983469486,-0.014343884773552418,0.01753232814371586,-0.00023036538914311677,0.01233711652457714
0.013295027427375317,-0.0022324498277157545,-0.013745316304266453,0.016796976327896118,-0.00022227218141779304,0.012045872397720814
0.01362637523561716,-0.002029544673860073,-0.014750680886209011,0.01685507781803608,-0.00021469828789122403,0.011674841865897179
0.013743532821536064,-0.002167277969419956,-0.014675326645374298,0.015820734202861786,-0.00020762201165780425,0.011607585474848747
0.013969721272587776,-0.0019883594941347837,-0.015449028462171555,0.015721330419182777,-0.0002277741878060624,0.013116879388689995
0.013422106392681599,-0.0019882589112967253,-0.014911475591361523,0.015663867816329002,-0.00022248164168559015,0.01178570557385683
0.013710818253457546,-0.0020091852638870478,-0.014506839215755463,0.016615958884358406,-0.00027881158166565,0.012420935556292534
0.013707881793379784,-0.001828511944040656,-0.015181109309196472,0.016838937997817993,-0.0002672236005309969,0.012746184132993221
0.01379367709159851,-0.0019850560929626226,-0.01437529269605875,0.016941072419285774,-0.00028977773035876453,0.012921448796987534
0.014136944897472858,-0.002244612667709589,-0.014848909340798855,0.016350390389561653,-0.0002861030225176364,0.01244233176112175
0.013937518931925297,-0.0022022936027497053,-0.015155191533267498,0.016801411285996437,-0.0002945893502328545,0.013062491081655025
0.013931929133832455,-0.002144624013453722,-0.014651341363787651,0.016779392957687378,-0.00030110275838524103,0.01289736945182085
0.014129435643553734,-0.0020588734187185764,-0.01516687497496605,0.01736379787325859,-0.0003088043013121933,0.012931594625115395
0.014059732668101788,-0.0019886523950845003,-0.014950709417462349,0.017337514087557793,-0.00031415082048624754,0.013101388700306416
0.014607253484427929,-0.0019477263558655977,-0.015005756169557571,0.016324220225214958,-0.0004509805585257709,0.012739578261971474
0.014379617758095264,-0.002021817257627845,-0.014757290482521057,0.016734089702367783,-0.0004981576348654926,0.012167660519480705
0.014487097971141338,-0.002042450476437807,-0.015108346939086914,0.016169453039765358,-0.000495350279379636,0.01241938304156065
0.014241266064345837,-0.002107558771967888,-0.014401409775018692,0.016289222985506058,-0.0004562776884995401,0.012942173518240452
0.01476304605603218,-0.0020347721874713898,-0.014821280725300312,0.016273707151412964,-0.0004860487242694944,0.012609340250492096
0.014476570300757885,-0.0019683530554175377,-0.014147583395242691,0.01636950671672821,-0.00045517447870224714,0.012844744138419628
0.014748206362128258,-0.0019010920077562332,-0.014907645992934704,0.01750781573355198,-0.0004693788359872997,0.012712915427982807
0.014770617708563805,-0.0018297192873433232,-0.014533836394548416,0.016933713108301163,-0.00045371937449090183,0.013346473686397076
0.01473655179142952,-0.001824021921493113,-0.015382081270217896,0.01678878627717495,-0.0004276687977835536,0.013202001340687275
0.01476105023175478,-0.0018891984364017844,-0.01479750219732523,0.01662297733128071,-0.00040373706724494696,0.013725652359426022
0.014500525780022144,-0.001871613902039826,-0.014780689962208271,0.01676568202674389,-0.0004216235247440636,0.013505855575203896
0.014782172627747059,-0.0018489289795979857,-0.013983003795146942,0.016709638759493828,-0.0003919003938790411,0.013300220482051373
0.014782172627747059,-0.0018489289795979857,-0.013983003795146942,0.016709638759493828,-0.0003919003938790411,0.013300220482051373
0.014844725839793682,-0.0017856656340882182,-0.014764168299734592,0.016502294689416885,-0.00036090213689021766,0.013188477605581284
0.014737406745553017,-0.0018051340011879802,-0.01455247774720192,0.01661720871925354,-0.0003341133997309953,0.013225496746599674
0.014791394583880901,-0.0016631189500913024,-0.015118700452148914,0.016138587146997452,-0.00031100818887352943,0.013302489183843136
0.015141548588871956,-0.0016577692003920674,-0.014756230637431145,0.016243210062384605,-0.00029089098097756505,0.012952741235494614
0.014973080717027187,-0.001740722917020321,-0.014900934882462025,0.01624256744980812,-0.00027321954257786274,0.013231414370238781
0.015431227162480354,-0.0018182998755946755,-0.014179052785038948,0.016817647963762283,-0.0003055206616409123,0.013295232318341732
0.015313968993723392,-0.0018544031772762537,-0.014046749100089073,0.016458434984087944,-0.0002773130836430937,0.013354144059121609
0.01486958097666502,-0.001890020095743239,-0.014564557000994682,0.01654100976884365,-0.0002637765428517014,0.01348020788282156
0.014906692318618298,-0.0018624361837282777,-0.014136864803731441,0.01610017940402031,-0.0002514889929443598,0.013113940134644508
0.014656446874141693,-0.0018347162986174226,-0.014988134615123272,0.01664811000227928,-0.00024029490305110812,0.013281111605465412
0.015665119513869286,-0.0017449342412874103,-0.01429174654185772,0.0161121878772974,-0.0002300554479006678,0.013588638976216316
0.014974704943597317,-0.0018784578423947096,-0.014648246578872204,0.016506893560290337,-0.00022065288794692606,0.013437306508421898
0.015598228201270103,-0.0019668112508952618,-0.013774579390883446,0.01654835231602192,-0.000242617868934758,0.013301700353622437
0.015405054204165936,-0.0020111328922212124,-0.014769480563700199,0.016415037214756012,-0.00023766944650560617,0.013336672447621822
0.015415970236063004,-0.001814588438719511,-0.014062449336051941,0.01653469353914261,-0.00022929316037334502,0.013675455003976822
0.015408480539917946,-0.0018744970439001918,-0.014538414776325226,0.016328364610671997,-0.0002212570543633774,0.013401654548943043
0.015714002773165703,-0.0017017778009176254,-0.01405392587184906,0.01646931655704975,-0.00022871638066135347,0.013656750321388245
0.015798037871718407,-0.0017348327673971653,-0.014462113380432129,0.016204752027988434,-0.00023525208234786987,0.012699881568551064
0.015849266201257706,-0.0016966852126643062,-0.013614526949822903,0.016417160630226135,-0.00022869472741149366,0.013196800835430622
0.015646811574697495,-0.0018008833285421133,-0.01437083538621664,0.016597457230091095,-0.0002217116707470268,0.013261922635138035
0.01562962681055069,-0.0018197522731497884,-0.014019590802490711,0.016321076080203056,-0.00019424869969952852,0.013756359927356243
0.016053995117545128,-0.0020658737048506737,-0.014799293130636215,0.016371944919228554,-0.00018370123871136457,0.013620765879750252
0.01555186603218317,-0.0020252387039363384,-0.01432760152965784,0.015799593180418015,-0.0002069002657663077,0.01381269283592701
0.0156742911785841,-0.0019409939413890243,-0.015210451558232307,0.01617363840341568,-0.0002032968623097986,0.013818369247019291
0.01579146832227707,-0.0017423115205019712,-0.014602450653910637,0.015922289341688156,-0.000196183638763614,0.013795438222587109
0.016167577356100082,-0.0016370381927117705,-0.01503837201744318,0.01619003154337406,-0.00021266908152028918,0.01366150751709938
0.016364427283406258,-0.0014587293844670057,-0.014400831423699856,0.01634267345070839,-0.0002128589985659346,0.013730553910136223
0.01599872298538685,-0.0013540299842134118,-0.014899610541760921,0.016335612162947655,-0.00023194904497358948,0.013787313364446163
0.01617720164358616,-0.001366887940093875,-0.014762278646230698,0.016652734950184822,-0.00022814753174316138,0.013372276909649372
0.01617720164358616,-0.001366887940093875,-0.014762278646230698,0.016652734950184822,-0.00022814753174316138,0.013372276909649372
0.01623188704252243,-0.0014950893819332123,-0.014987085945904255,0.01612984947860241,-0.00043306552106514573,0.013705968856811523
0.016646046191453934,-0.001774572185240686,-0.014831499196588993,0.01641797460615635,-0.00042278150795027614,0.013984546065330505
0.0156286358833313,-0.0018581532640382648,-0.01516234502196312,0.015632303431630135,-0.0004258067929185927,0.014154401607811451
0.016387522220611572,-0.0016906473319977522,-0.015088281594216824,0.015813780948519707,-0.00042640778701752424,0.01434268057346344
0.01643599011003971,-0.001302756485529244,-0.015293982811272144,0.015526967123150826,-0.0004234536609146744,0.014444960281252861
0.01661623641848564,-0.0013418622547760606,-0.015240329317748547,0.015637898817658424,-0.0004035975143779069,0.013981470838189125
0.016358524560928345,-0.0012582812923938036,-0.01600915752351284,0.015986794605851173,-0.0004061376384925097,0.013490831479430199
0.016580989584326744,-0.0013463805662468076,-0.015114467591047287,0.015962688252329826,-0.0004075158212799579,0.014050127007067204
0.01639411970973015,-0.0013095509493723512,-0.015486297197639942,0.01600726693868637,-0.0003871895605698228,0.014072061516344547
0.01703677698969841,-0.0011234096018597484,-0.01516504492610693,0.0159961748868227,-0.0003675235202535987,0.01409142091870308
0.01661989465355873,-0.0009718601359054446,-0.015510653145611286,0.01562928408384323,-0.0003496757708489895,0.01386301126331091
0.016792505979537964,-0.0008561898721382022,-0.014656491577625275,0.016158534213900566,-0.00033347561839036644,0.01418993528932333
0.016744522377848625,-0.0007651413325220346,-0.01518633496016264,0.015839459374547005,-0.00032010299037210643,0.0143082020804286
0.016297047957777977,-0.0006472369423136115,-0.014944580383598804,0.016022618860006332,-0.0003081312170252204,0.014435718767344952
0.016935234889388084,-0.0005486177979037166,-0.015783105045557022,0.01598999835550785,-0.0002889854076784104,0.01434282772243023
0.016582578420639038,-0.000584997411351651,-0.015074800699949265,0.016044920310378075,-0.0002715793380048126,0.014512911438941956
0.016841746866703033,-0.0006133727147243917,-0.015200055204331875,0.016302790492773056,-0.0002938673133030534,0.01467416062951088
0.01708965003490448,-0.0006327805458568037,-0.014915263280272484,0.01643194630742073,-0.0002899050305131823,0.014953400008380413
0.016674896702170372,-0.0005895962240174413,-0.015382044017314911,0.016553012654185295,-0.0002758632181212306,0.014586308971047401
0.017003009095788002,-0.0006975122378207743,-0.01470201089978218,0.01683725230395794,-0.0002947913599200547,0.014592246152460575
0.01673836074769497,-0.0006219614879228175,-0.015635425224900246,0.016543429344892502,-0.00029130413895472884,0.01450318843126297
0.017193563282489777,-0.000546875293366611,-0.015505349263548851,0.015937646850943565,-0.0002985509345307946,0.01499299518764019
0.01691298373043537,-0.00048755883472040296,-0.015081623569130898,0.016076909378170967,-0.0003041134914383292,0.01485968567430973
0.017115414142608643,-0.00043989511323161423,-0.015408806502819061,0.016142599284648895,-0.00034840175067074597,0.014979777857661247
0.017115414142608643,-0.00043989511323161423,-0.015408806502819061,0.016142599284648895,-0.00034840175067074597,0.014979777857661247
0.017294306308031082,-0.00045278985635377467,-0.014882102608680725,0.016087636351585388,-0.0003729649179149419,0.01554266270250082
0.01755603961646557,-0.00040813483064994216,-0.014769072644412518,0.015634138137102127,-0.0003862841986119747,0.014555820263922215
0.01755603961646557,-0.00040813483064994216,-0.014769072644412518,0.015634138137102127,-0.0003862841986119747,0.014555820263922215
0.017057986930012703,-0.0003794538788497448,-0.01513259019702673,0.01614130288362503,-0.0004057940386701375,0.015135640278458595
0.017731891945004463,-0.00038734442205168307,-0.01556416042149067,0.015827059745788574,-0.0004213529173284769,0.015105904079973698
0.01695084571838379,-0.0003655975451692939,-0.014993513934314251,0.015446750447154045,-0.00040206004632636905,0.0152828898280859
0.017565956339240074,-0.0003455519618000835,-0.015058769844472408,0.015790795907378197,-0.0005439510568976402,0.015259196981787682
0.017568422481417656,-0.0003275840717833489,-0.014595409855246544,0.01648506335914135,-0.0004964479594491422,0.015649782493710518
0.01761370152235031,-0.000311389536364004,-0.014842692762613297,0.016185009852051735,-0.000447797094238922,0.015365972183644772
0.018345195800065994,-0.0002967223699670285,-0.014668243005871773,0.01639549992978573,-0.00046692052274011075,0.015925997868180275
0.01749134622514248,-0.00030986781348474324,-0.01534297689795494,0.015184693969786167,-0.00044670372153632343,0.015404030680656433
0.01781565509736538,-0.000309729075524956,-0.014763277024030685,0.01557415071874857,-0.0004470783460419625,0.014897906221449375
0.017968816682696342,-0.00029712391551584005,-0.015422415919601917,0.015123079530894756,-0.00044601221452467144,0.014854112640023232
0.01644883304834366,-0.0002853503101505339,-0.01490388996899128,0.015776589512825012,-0.0004700444405898452,0.015258506871759892
0.018230272457003593,-0.00027447217144072056,-0.015181099995970726,0.015548335388302803,-0.00045035447692498565,0.015183908864855766
0.018556516617536545,-0.0002643924381118268,-0.015168012119829655,0.015740402042865753,-0.00045466533629223704,0.015584968961775303
0.018307214602828026,-0.00021870194177608937,-0.015324116684496403,0.015593376941978931,-0.0004768076178152114,0.015970082953572273
0.01808803901076317,-0.00019139294454362243,-0.014974093995988369,0.015343599952757359,-0.00045557739213109016,0.015820452943444252
0.017868315801024437,-0.00018335327331442386,-0.015036146156489849,0.01533169113099575,-0.0004552684258669615,0.016044771298766136
0.018531983718276024,-0.00020997392130084336,-0.015514248982071877,0.01571398600935936,-0.0004536029591690749,0.015969548374414444
0.01829485222697258,-0.00020342091738712043,-0.015037456527352333,0.016009505838155746,-0.00046969953109510243,0.01601955108344555
0.018246697261929512,-0.00022740552958566695,-0.015153924003243446,0.016057921573519707,-0.0004541229864116758,0.015877921134233475
0.018755368888378143,-0.00022069778060540557,-0.014996834099292755,0.016568701714277267,-0.0005272624548524618,0.01621076464653015
0.018781179562211037,-0.0002132449153577909,-0.015104626305401325,0.015371804125607014,-0.0005511869676411152,0.015405647456645966
0.017888326197862625,-0.00020626313926186413,-0.014911744743585587,0.016002917662262917,-0.0005415852647274733,0.015180343762040138
0.01828576624393463,-0.00019972410518676043,-0.015499791130423546,0.015284848399460316,-0.0005553240771405399,0.015027504414319992
0.018315184861421585,-0.00019358699501026422,-0.014673803932964802,0.015785766765475273,-0.0005276352749206126,0.01572435349225998
0.01875535398721695,-0.00021356443176046014,-0.014854518696665764,0.01555358525365591,-0.0005481302505359054,0.015902724117040634
0.019322331994771957,-0.0002084179868688807,-0.01428345125168562,0.015422488562762737,-0.0005170251242816448,0.016067832708358765
0.01883714832365513,-0.0002025685680564493,-0.015146449208259583,0.01622486673295498,-0.0005901867407374084,0.016534725204110146
0.01894255168735981,-0.0001970255543710664,-0.014935650862753391,0.015862731263041496,-0.0005375202163122594,0.01618751883506775
0.01894255168735981,-0.0001970255543710664,-0.014935650862753391,0.015862731263041496,-0.0005375202163122594,0.01618751883506775
0.018694836646318436,-0.00018680180073715746,-0.014288671314716339,0.015499376691877842,-0.0005207125213928521,0.01573135145008564
0.01871882751584053,-0.00018207795801572502,-0.01509531307965517,0.015902454033493996,-0.00047554547199979424,0.016142353415489197
0.019292935729026794,-0.00017758685862645507,-0.014371399767696857,0.015360252931714058,-0.0004998904187232256,0.016078459098935127
0.019453885033726692,-0.00017331218987237662,-0.01525596808642149,0.016017336398363113,-0.0004710470966529101,0.016303634271025658
0.01933056116104126,-0.00016923864313866943,-0.014996481128036976,0.01590283401310444,-0.0004387787776067853,0.016224868595600128
0.019278258085250854,-0.00016535192844457924,-0.015536797232925892,0.01604493334889412,-0.0004102264647372067,0.016805032268166542
0.01966886781156063,-0.00016163983673322946,-0.015247234143316746,0.015916679054498672,-0.0003851365181617439,0.01630217954516411
0.01962287910282612,-0.00015809069736860693,-0.01524647232145071,0.01585621014237404,-0.00036293859011493623,0.016253521665930748
0.01984882541000843,-0.0001546943240100518,-0.015160102397203445,0.016148550435900688,-0.0003431625955272466,0.016766374930739403
0.019385961815714836,-0.0001347262877970934,-0.015544218942523003,0.015580685809254646,-0.0003254293987993151,0.01628231257200241
0.019502324983477592,-0.00012981049076188356,-0.01571553945541382,0.015622412785887718,-0.0003094398707617074,0.016637252643704414
0.019832540303468704,-0.0001271615910809487,-0.01541899237781763,0.015400975942611694,-0.0003314418427180499,0.016625462099909782
0.01983218640089035,-0.00014173930685501546,-0.015343019738793373,0.01587989553809166,-0.0003216357436031103,0.01689079962670803
0.019599873572587967,-0.00013967871200293303,-0.015585624612867832,0.015443515963852406,-0.00030819253879599273,0.01725269854068756
0.02015882171690464,-0.00013702968135476112,-0.016158070415258408,0.015451868064701557,-0.00029556057415902615,0.017015399411320686
0.02025734633207321,-0.00013447052333503962,-0.0156362596899271,0.015342357568442822,-0.0002839048102032393,0.01694868877530098
0.019709903746843338,-0.00013200542889535427,-0.015932748094201088,0.015553232282400131,-0.00023548692115582526,0.01710088551044464
0.020074782893061638,-0.00012962873734068125,-0.015350176952779293,0.014786521904170513,-0.00021915712568443269,0.017072435468435287
0.020340409129858017,-0.0001273362140636891,-0.01595063880085945,0.014984697103500366,-0.00022905890364199877,0.01707915961742401
0.020613810047507286,-0.00012512333341874182,-0.015720974653959274,0.015093420632183552,-0.000237890359130688,0.016999483108520508
0.020361626520752907,-0.00012298613728489727,-0.015518560074269772,0.01534056942909956,-0.00022903620265424252,0.017105156555771828
0.0203403290361166,-0.0001209207039210014,-0.01582583785057068,0.015589723363518715,-0.00023771575069986284,0.016906186938285828
0.02049100585281849,-0.00011892353359144181,-0.01606234535574913,0.01549122016876936,-0.0002451788750477135,0.01715000532567501
0.020507294684648514,-0.00011699117749230936,-0.016327831894159317,0.015691999346017838,-0.00026209736824966967,0.017154885455965996
0.02109500765800476,-0.00010564737021923065,-0.016025923192501068,0.015049411915242672,-0.0002605874033179134,0.01694679446518421
0.020831098780035973,-9.921141463564709e-05,-0.016036683693528175,0.01575327478349209,-0.0004081468505319208,0.017510609701275826
0.020831098780035973,-9.921141463564709e-05,-0.016036683693528175,0.01575327478349209,-0.0004081468505319208,0.017510609701275826
0.0207574013620615,-9.761018736753613e-05,-0.015364867635071278,0.0162939615547657,-0.0004935681936331093,0.017963359132409096
0.02073807828128338,-9.612007124815136e-05,-0.016269365325570107,0.01700802892446518,-0.00046435181866399944,0.017708662897348404
0.021112630143761635,-9.327405132353306e-05,-0.016374701634049416,0.015279841609299183,-0.0004627229645848274,0.01738240197300911
0.021164847537875175,-9.191322169499472e-05,-0.01625981740653515,0.015582558698952198,-0.0004313105600886047,0.01711319014430046
0.020701788365840912,-9.059163130586967e-05,-0.01571705937385559,0.015604385174810886,-0.000453517131973058,0.017176011577248573
0.02186766266822815,-8.930744661483914e-05,-0.016398239880800247,0.015026886947453022,-0.00043304020073264837,0.01738160476088524
0.021819133311510086,-8.805911056697369e-05,-0.015541383996605873,0.014306082390248775,-0.0004943985841237009,0.017700515687465668
0.021822335198521614,-8.684530621394515e-05,-0.01665617525577545,0.014774136245250702,-0.0004724607279058546,0.018108196556568146
0.02147449180483818,-8.566444012103602e-05,-0.015564322471618652,0.015025468543171883,-0.0004921451327390969,0.01783904619514942
0.02188362553715706,-8.451532630715519e-05,-0.01606873981654644,0.015982380136847496,-0.0004688912886194885,0.017586305737495422
0.02143744006752968,-8.339653140865266e-05,-0.016050349920988083,0.01564439758658409,-0.0004995719064027071,0.017692334949970245
0.020906617864966393,-8.230704406742007e-05,-0.016589583829045296,0.015498315915465355,-0.0004993383772671223,0.017809657379984856
0.02129124477505684,-8.124564919853583e-05,-0.01666695438325405,0.014711066149175167,-0.0004949015565216541,0.017823506146669388
0.022091973572969437,-8.021125540835783e-05,-0.015907691791653633,0.01548295933753252,-0.0004648901231121272,0.01749410666525364
0.021841488778591156,-7.92028586147353e-05,-0.016467252746224403,0.015296045690774918,-0.0005266729276627302,0.01747456192970276
0.02123304456472397,-7.821954932296649e-05,-0.015599238686263561,0.01531785074621439,-0.0005313002620823681,0.016922788694500923
0.02188809961080551,-7.726032345090061e-05,-0.016377167776226997,0.014868604019284248,-0.000522713758982718,0.017218707129359245
0.023167645558714867,-7.632435153936967e-05,-0.016308456659317017,0.015210838988423347,-0.00047910839202813804,0.017295194789767265
0.022167205810546875,-7.541076774941757e-05,-0.016578434035182,0.014808190055191517,-0.0004940214566886425,0.016963189467787743
0.021370727568864822,-7.451880810549483e-05,-0.016517948359251022,0.015198282897472382,-0.0005064375582151115,0.01812194287776947
0.021670930087566376,-7.364772318396717e-05,-0.01624395325779915,0.015224895440042019,-0.0005025813006795943,0.018136145547032356
0.021733911707997322,-7.279671990545467e-05,-0.016592510044574738,0.015289872884750366,-0.0005794896860606968,0.0184479970484972
0.021989397704601288,-7.19652307452634e-05,-0.016068164259195328,0.015556314960122108,-0.0006183342193253338,0.018174493685364723
0.022112131118774414,-7.115242624422535e-05,-0.016577331349253654,0.015371270477771759,-0.0006414251984097064,0.01808626390993595
0.022025780752301216,-7.035785529296845e-05,-0.016256798058748245,0.015414528548717499,-0.0005924218567088246,0.018401173874735832
0.022081447765231133,-6.958082667551935e-05,-0.016549475491046906,0.015125499106943607,-0.0006140494951978326,0.018151065334677696
0.022103101015090942,-3.352659769007005e-05,-0.01631913147866726,0.015761271119117737,-0.0005701335030607879,0.018519606441259384
0.02211223915219307,-2.5275112420786172e-05,-0.01689254119992256,0.015749435871839523,-0.000634992029517889,0.01845220848917961
0.02211223915219307,-2.5275112420786172e-05,-0.01689254119992256,0.015749435871839523,-0.000634992029517889,0.01845220848917961
0.022414594888687134,-2.492376370355487e-05,-0.01618446782231331,0.015374580398201942,-0.0006133480346761644,0.01835072785615921
0.022321563214063644,-1.648929355724249e-05,-0.016542749479413033,0.016012685373425484,-0.0006211560103110969,0.018692314624786377
0.022494561970233917,-1.2182420505268965e-05,-0.01648647151887417,0.01585576869547367,-0.0005844420520588756,0.018444424495100975
0.022281493991613388,-1.3959074749436695e-06,-0.016616342589259148,0.01583263836801052,-0.0005921871052123606,0.018635565415024757
0.022281493991613388,-1.3959074749436695e-06,-0.016616342589259148,0.01583263836801052,-0.0005921871052123606,0.018635565415024757
0.02245843969285488,-2.5125840297235413e-10,-0.01644080877304077,0.015580215491354465,-0.0005234623095020652,0.01912512816488743
0.022237975150346756,-3.370951955072865e-12,-0.01694609224796295,0.015576636418700218,-0.0005186620401218534,0.019274501129984856
0.021936699748039246,-4.522562337648528e-14,-0.016286300495266914,0.015232685953378677,-0.00047059537610039115,0.019143128767609596
0.021781926974654198,-6.067595050900868e-16,-0.016619374975562096,0.01600540801882744,-0.0004887551185674965,0.01885978691279888
0.022607430815696716,-8.140453152979306e-18,-0.01630188152194023,0.015651246532797813,-0.0004658368416130543,0.01929628662765026
0.022637102752923965,-1.0921456913054277e-19,-0.016813009977340698,0.01582426205277443,-0.00042997594573535025,0.019077450037002563
0.020952288061380386,-1.4652528130902839e-21,-0.01700960472226143,0.015326770953834057,-0.0003983188362326473,0.019137443974614143
0.02298055775463581,-1.9658237053264845e-23,-0.01637483574450016,0.016024189069867134,-0.00042843312257900834,0.019599588587880135
0.023132970556616783,-2.6374035948060664e-25,-0.016758456826210022,0.01553467195481062,-0.000404649501433596,0.019391093403100967
0.02276788093149662,-3.5384136347674824e-27,-0.01636653207242489,0.015690341591835022,-0.0003804478037636727,0.019322175532579422
0.022635258734226227,-4.747233747716712e-29,-0.01718984916806221,0.015573165379464626,-0.0003587866958696395,0.01958075724542141
0.022481173276901245,-6.369019763235468e-31,-0.016682863235473633,0.015424314886331558,-0.00038141151890158653,0.0195800568908453
0.0228275116533041,-8.544853576487462e-33,-0.016837794333696365,0.015104041434824467,-0.0003676745109260082,0.019137751311063766
0.022583724930882454,-1.146400980433806e-34,-0.01655021496117115,0.015499843284487724,-0.00035144397406838834,0.019379282370209694
0.023487798869609833,-1.538043132399897e-36,-0.016329705715179443,0.016040503978729248,-0.0003282320103608072,0.0199119932949543
0.023487798869609833,-1.538043132399897e-36,-0.016329705715179443,0.016040503978729248,-0.0003282320103608072,0.0199119932949543
0.02407778427004814,-2.0634812128624308e-38,-0.016954725608229637,0.015471932478249073,-0.0003357807290740311,0.019412444904446602
0.023549210280179977,-3.71484222892509e-42,-0.016794249415397644,0.015214464627206326,-0.0003231454757042229,0.019872000440955162
0.023549210280179977,-3.71484222892509e-42,-0.016794249415397644,0.015214464627206326,-0.0003231454757042229,0.019872000440955162
0.022047359496355057,-5.044674471569341e-44,-0.01665435917675495,0.015620623715221882,-0.0003489786176942289,0.01965211145579815
0.02320500835776329,-0.0,-0.01665741205215454,0.013587510213255882,-0.00033636405714787543,0.019777117297053337
0.02386685647070408,0.0,-0.016509724780917168,0.016007380560040474,-0.0003363506402820349,0.019476857036352158
0.023528505116701126,0.0,-0.017076821997761726,0.015875712037086487,-0.00033096704282797873,0.019739646464586258
0.0235445573925972,0.0,-0.016728345304727554,0.015347199514508247,-0.00031704994034953415,0.020096099004149437
0.02434409223496914,0.00031937455059960485,-0.016934361308813095,0.015241370536386967,-0.0003967080847360194,0.019919229671359062
0.024432631209492683,0.0003187267284374684,-0.017082111909985542,0.01509006042033434,-0.00037751579657197,0.02008073218166828
0.024648774415254593,0.00029791888664476573,-0.016821959987282753,0.015312747098505497,-0.00034913059789687395,0.020333843305706978
0.023814937099814415,0.000279419356957078,-0.01882939226925373,0.0159488245844841,-0.00032403122168034315,0.02102704532444477
0.023714400827884674,0.0002630813978612423,-0.016845086589455605,0.015480125322937965,-0.00034672103356570005,0.019566547125577927
0.023740103468298912,0.000296215177513659,-0.016165517270565033,0.015701228752732277,-0.00033882318530231714,0.019746212288737297
0.024761701002717018,0.000282617867924273,-0.016921553760766983,0.015646962448954582,-0.0003196641628164798,0.020956531167030334
0.024718817323446274,0.0003080323804169893,-0.01743772067129612,0.016408655792474747,-0.0003018472343683243,0.02138102799654007
0.02458931878209114,0.00029843091033399105,-0.01783418096601963,0.015923233702778816,-0.000321003986755386,0.021042196080088615
0.025021802634000778,0.0003208845155313611,-0.01708163134753704,0.015773482620716095,-0.00031592167215421796,0.01997079700231552
0.024307411164045334,0.000311549985781312,-0.016848843544721603,0.015766296535730362,-0.00032255426049232483,0.019520431756973267
0.02467089518904686,0.00030064358725212514,-0.017230581492185593,0.01583859696984291,-0.0003274609334766865,0.020274976268410683
0.024752872064709663,0.00036258442560210824,-0.017519762739539146,0.01586783304810524,-0.00031443804618902504,0.021413138136267662
0.024063456803560257,0.00040113370050676167,-0.01714635081589222,0.015622846782207489,-0.0003144947695545852,0.02126319333910942
0.025081772357225418,0.00037580315256491303,-0.016174640506505966,0.015738436952233315,-0.00030637686722911894,0.020354148000478745
0.02549750544130802,0.0004075146571267396,-0.017313160002231598,0.01513435784727335,-0.00028765437309630215,0.020556647330522537
0.02549750544130802,0.0004075146571267396,-0.017313160002231598,0.01513435784727335,-0.00028765437309630215,0.020556647330522537
0.025209171697497368,0.00038486102130264044,-0.01779349334537983,0.015178307890892029,-0.0003171823627781123,0.021450811997056007
0.025429433211684227,0.00039665057556703687,-0.017159318551421165,0.01507757417857647,-0.00030562395113520324,0.02238716557621956
0.024979164823889732,0.0003917366557288915,-0.017259083688259125,0.015658777207136154,-0.00032524505513720214,0.021473119035363197
0.02507856860756874,0.0005309816333465278,-0.01661079190671444,0.01570846140384674,-0.00031991236028261483,0.0205939169973135
0.025238873437047005,0.000558153260499239,-0.017506534233689308,0.016192641109228134,-0.00034575193421915174,0.02049213834106922
0.025960827246308327,0.0005660613533109426,-0.017117049545049667,0.01631774939596653,-0.0005743374349549413,0.02175012417137623
0.025862373411655426,0.0005688730161637068,-0.017487769946455956,0.016473958268761635,-0.0005959420814178884,0.021746158599853516
0.025920523330569267,0.0005489924806170166,-0.016743507236242294,0.016153031960129738,-0.0006225799443200231,0.021553443744778633
0.026210734620690346,0.0006754337809979916,-0.017262397333979607,0.016323469579219818,-0.0005968815530650318,0.021445052698254585
0.026728950440883636,0.0007131291786208749,-0.017352299764752388,0.015690157189965248,-0.0009042918682098389,0.021482467651367188
0.02628331445157528,0.0007111320737749338,-0.017376266419887543,0.015939030796289444,-0.0008212768589146435,0.021678447723388672
0.02630024589598179,0.0007309312932193279,-0.017622370272874832,0.015610720962285995,-0.0008261101320385933,0.022044379264116287
0.026276255026459694,0.000690935121383518,-0.01662805676460266,0.016078734770417213,-0.0007367721409536898,0.02174854278564453
0.026171764358878136,0.0008093249052762985,-0.01747666299343109,0.015968739986419678,-0.0007410043617710471,0.021534966304898262
0.02658381313085556,0.0008295735460706055,-0.01732984185218811,0.015682509168982506,-0.0006817816756665707,0.021927082911133766
0.026526378467679024,0.0008389852591790259,-0.01700451970100403,0.015600203536450863,-0.0006248911959119141,0.021584827452898026
0.026846719905734062,0.000843144953250885,-0.01719215326011181,0.015252542681992054,-0.0005631858366541564,0.021428514271974564
0.027236049994826317,0.0009004041203297675,-0.016853351145982742,0.01576770655810833,-0.0005495333462022245,0.021829931065440178
0.027144700288772583,0.0009149388060905039,-0.01743447780609131,0.01578247733414173,-0.0005379485082812607,0.022408509626984596
0.027235183864831924,0.0009128981037065387,-0.016942396759986877,0.01603604480624199,-0.000551787146832794,0.02235719934105873
0.027448398992419243,0.0011590891517698765,-0.01711246930062771,0.0155623285099864,-0.0005245479987934232,0.02224818803369999
0.028435254469513893,0.0012151553528383374,-0.017514707520604134,0.01619062013924122,-0.0005497722304426134,0.02215023711323738
0.028702521696686745,0.001270158914849162,-0.016863247379660606,0.015532750636339188,-0.0006377305835485458,0.02224285714328289
0.028702521696686745,0.001270158914849162,-0.016863247379660606,0.015532750636339188,-0.0006377305835485458,0.02224285714328289
0.027300747111439705,0.001307175843976438,-0.017324326559901237,0.015847187489271164,-0.0006835407693870366,0.0220565814524889
0.0271060261875391,0.001275908201932907,-0.016800209879875183,0.016094932332634926,-0.0006887465133331716,0.022399364039301872
0.02853492647409439,0.0012180083431303501,-0.01700792834162712,0.016036594286561012,-0.0006861521396785975,0.02232290431857109
0.02842540852725506,0.0011975137749686837,-0.017113404348492622,0.01655576191842556,-0.0006642045336775482,0.022073887288570404
0.027489302679896355,0.0012734939809888601,-0.016500255092978477,0.01625189743936062,-0.0007648875471204519,0.022277137264609337
0.02928447537124157,0.0015977488365024328,-0.016973400488495827,0.015975045040249825,-0.0007916548638604581,0.022269513458013535
0.02888578735291958,0.0017253006808459759,-0.017138853669166565,0.0166338998824358,-0.0007772831013426185,0.022717725485563278
0.027630170807242393,0.002010946860536933,-0.017256392166018486,0.016226062551140785,-0.0007433987921103835,0.02280139923095703
0.027721844613552094,0.0019013038836419582,-0.016589300706982613,0.015995459631085396,-0.0007332867244258523,0.02251940593123436
0.029094262048602104,0.0016736574470996857,-0.01699804700911045,0.016011102125048637,-0.0006831925711594522,0.02202524058520794
0.028810245916247368,0.0016978831263259053,-0.016849124804139137,0.01595390774309635,-0.0005964788142591715,0.02176492102444172
0.02876361459493637,0.0017389152199029922,-0.017258305102586746,0.016367927193641663,-0.0005267531960271299,0.021915253251791
0.028046876192092896,0.001766294240951538,-0.017607154324650764,0.015884917229413986,-0.0005588956992141902,0.02276594750583172
0.028413187712430954,0.0016959784552454948,-0.017635967582464218,0.016793936491012573,-0.0005115966778248549,0.02317699044942856
0.028126224875450134,0.0019682575948536396,-0.01779545471072197,0.0162526685744524,-0.0005052763153798878,0.022819433361291885
0.02839285135269165,0.0023230582010000944,-0.01654345728456974,0.016336580738425255,-0.0004994330229237676,0.02291284129023552
0.028321435675024986,0.002268579788506031,-0.016990549862384796,0.01642119511961937,-0.0004648087196983397,0.023217279464006424
0.028496814891695976,0.002194308675825596,-0.017413515597581863,0.015896962955594063,-0.00048641845933161676,0.023249192163348198
0.02847292646765709,0.0020953528583049774,-0.017357930541038513,0.015577657148241997,-0.0004634323704522103,0.02343934215605259
0.028416994959115982,0.0021961384918540716,-0.01755340024828911,0.015621047466993332,-0.00040930809336714447,0.022856952622532845
0.028696805238723755,0.002169159008190036,-0.017000172287225723,0.016147421672940254,-0.0004389808455016464,0.022450145334005356
0.028530674055218697,0.0023603886365890503,-0.017388999462127686,0.016078416258096695,-0.00046477976138703525,0.022901568561792374
0.02891618385910988,0.002729489002376795,-0.017522742971777916,0.016626952216029167,-0.0004480471834540367,0.023755336180329323
0.02891618385910988,0.002729489002376795,-0.017522742971777916,0.016626952216029167,-0.0004480471834540367,0.023755336180329323
0.0289024505764246,0.0029681148007512093,-0.017222648486495018,0.015743019059300423,-0.0004633572534658015,0.02397872880101204
0.028511565178632736,0.0027555522974580526,-0.017734980210661888,0.015475603751838207,-0.0004483075172174722,0.023830704391002655
0.027266602963209152,0.002756386762484908,-0.017149800434708595,0.015337536111474037,-0.000623946834821254,0.02367226593196392
0.029718972742557526,0.0024111659731715918,-0.017484305426478386,0.015214924700558186,-0.0006301337270997465,0.023733772337436676
0.030313260853290558,0.002362742554396391,-0.017965521663427353,0.01528118271380663,-0.0006099357269704342,0.02357906848192215
0.030408265069127083,0.002717546420171857,-0.017156679183244705,0.015571311116218567,-0.000618106103502214,0.02352275513112545
0.028994351625442505,0.003017763141542673,-0.017344385385513306,0.0158388614654541,-0.0006046937196515501,0.02343711256980896
0.029710983857512474,0.003217737888917327,-0.017379483208060265,0.016185550019145012,-0.0006103100604377687,0.023624364286661148
0.03064431995153427,0.0030552316457033157,-0.01836843602359295,0.0157003290951252,-0.0005825858097523451,0.023681797087192535
0.030268333852291107,0.0031866738572716713,-0.017685506492853165,0.016556361690163612,-0.000568453106097877,0.02384086884558201
0.030528662726283073,0.0032479434739798307,-0.017858009785413742,0.01656332053244114,-0.000554728030692786,0.023921068757772446
0.03016611561179161,0.003473745658993721,-0.017611071467399597,0.01714853197336197,-0.0005782591179013252,0.02401791512966156
0.030928276479244232,0.003446405753493309,-0.017932409420609474,0.01685510203242302,-0.0005760730127803981,0.02559700980782509
0.02975456789135933,0.00348403281532228,-0.018381208181381226,0.016396431252360344,-0.0005653382977470756,0.023981807753443718
0.02970534935593605,0.0036494173109531403,-0.017359551042318344,0.017397111281752586,-0.000606842921115458,0.0238556619733572
0.030528685078024864,0.0038694359827786684,-0.017743296921253204,0.01575213298201561,-0.0006422732258215547,0.02425706572830677
0.030425608158111572,0.00396194402128458,-0.01846522092819214,0.015383085235953331,-0.000670930661726743,0.02440047264099121
0.0303412564098835,0.004005789291113615,-0.0177483968436718,0.015102018602192402,-0.0006939009763300419,0.024506837129592896
0.030162381008267403,0.004061262588948011,-0.017629867419600487,0.01586413010954857,-0.0008131262729875743,0.024524277076125145
0.030064662918448448,0.0040882849134504795,-0.017812302336096764,0.016024310141801834,-0.0009587550302967429,0.024345705285668373
0.030479058623313904,0.004120609723031521,-0.018649902194738388,0.015864558517932892,-0.0009582941420376301,0.024268068373203278
0.030520940199494362,0.004152338486164808,-0.019147677347064018,0.015958555042743683,-0.0009592559654265642,0.02411331608891487
0.03038964793086052,0.004056913312524557,-0.018371546640992165,0.015614727512001991,-0.0008545172750018537,0.024290580302476883
0.030648229643702507,0.003920262213796377,-0.018541544675827026,0.01608041487634182,-0.0008582312730140984,0.024274462834000587
0.030722839757800102,0.004324749112129211,-0.01882152073085308,0.01632801629602909,-0.0007988082943484187,0.024594658985733986
0.03082152083516121,0.0044309599325060844,-0.018219737336039543,0.016764843836426735,-0.0007488472620025277,0.024757299572229385
0.03119836002588272,0.004275080747902393,-0.018987592309713364,0.016168711706995964,-0.0006610224372707307,0.024749625474214554
0.03119836002588272,0.004275080747902393,-0.018987592309713364,0.016168711706995964,-0.0006610224372707307,0.024749625474214554
0.029343850910663605,0.004390697460621595,-0.019196171313524246,0.016123931854963303,-0.0006800078554078937,0.024698365479707718
0.031030863523483276,0.0043705906718969345,-0.018457964062690735,0.01662319153547287,-0.0006028659408912063,0.02457270212471485
0.031013626605272293,0.004071167204529047,-0.01913716085255146,0.016457021236419678,-0.0005888334708288312,0.024762384593486786
0.031011557206511497,0.004368230700492859,-0.018714314326643944,0.01571011357009411,-0.0005478517268784344,0.02549823932349682
0.03139668330550194,0.004322473891079426,-0.018796352669596672,0.01609826274216175,-0.0004640227125491947,0.025596510618925095
0.031195692718029022,0.004481052048504353,-0.018618600443005562,0.0160969365388155,-0.00049109902465716,0.024868857115507126
0.031008446589112282,0.004437854513525963,-0.018547426909208298,0.016352038830518723,-0.0005250382237136364,0.023858079686760902
0.031387731432914734,0.004561893176287413,-0.019182803109288216,0.015917234122753143,-0.0005276957526803017,0.024242892861366272
0.03167600557208061,0.004657198674976826,-0.018808972090482712,0.015709128230810165,-0.0005224014748819172,0.025042302906513214
0.03192099928855896,0.00429238798096776,-0.018669625744223595,0.01579216681420803,-0.0007501039654016495,0.025491129606962204
0.03215078264474869,0.004368302412331104,-0.01893160119652748,0.01584133692085743,-0.0007830444374121726,0.02526489645242691
0.03233754634857178,0.00511136744171381,-0.018576189875602722,0.016347358003258705,-0.0007986901327967644,0.02602246217429638
0.03215271234512329,0.004946321714669466,-0.018704421818256378,0.015679318457841873,-0.0008101981366053224,0.026809031143784523
0.03179477900266647,0.004523322917521,-0.01917482353746891,0.016024233773350716,-0.0009900511940941215,0.02607247792184353
0.03138398751616478,0.004986211657524109,-0.018838055431842804,0.015589992515742779,-0.0009989496320486069,0.023905074223876
0.03262997791171074,0.004970272537320852,-0.01897970587015152,0.015948032960295677,-0.0009230636642314494,0.025313060730695724
0.032981306314468384,0.004784148186445236,-0.018772980198264122,0.015971915796399117,-0.0009080124436877668,0.0261551346629858
0.0322817787528038,0.0052904533222317696,-0.017871279269456863,0.016358207911252975,-0.000818355823867023,0.026420466601848602
0.031246555969119072,0.005520384293049574,-0.01853003166615963,0.01642208732664585,-0.0007354931440204382,0.025791943073272705
0.03231465816497803,0.004930379334837198,-0.018954981118440628,0.016268307343125343,-0.0006686234846711159,0.025227805599570274
0.03243209049105644,0.00497812544927001,-0.018587082624435425,0.016806814819574356,-0.0005827068234793842,0.02561524324119091
0.032484304159879684,0.004972986876964569,-0.018788497895002365,0.016359543427824974,-0.0005158220883458853,0.025668717920780182
0.03310035169124603,0.00515526719391346,-0.01955610141158104,0.016655724495649338,-0.00046269071754068136,0.025882016867399216
0.032122641801834106,0.005614748690277338,-0.018554337322711945,0.016497300937771797,-0.0004973486647941172,0.025515196844935417
0.03173241764307022,0.005196631420403719,-0.01919589936733246,0.016529183834791183,-0.0004600160464178771,0.02537168562412262
0.03124142251908779,0.0053189159370958805,-0.01886477880179882,0.01670479215681553,-0.0004241878050379455,0.025594480335712433
0.03124142251908779,0.0053189159370958805,-0.01886477880179882,0.01670479215681553,-0.0004241878050379455,0.025594480335712433
0.03308180719614029,0.0053301784209907055,-0.019214142113924026,0.01661287248134613,-0.00041151215555146337,0.025667615234851837
0.03308180719614029,0.0053301784209907055,-0.019214142113924026,0.01661287248134613,-0.00041151215555146337,0.025667615234851837
0.0317089669406414,0.005385948345065117,-0.01925119012594223,0.01618899777531624,-0.00039940711576491594,0.025782903656363487
0.032999370247125626,0.005340114235877991,-0.018679814413189888,0.016841158270835876,-0.00040994276059791446,0.02605349011719227
0.032336894422769547,0.005453252699226141,-0.018893348053097725,0.016930749639868736,-0.0004185646539554,0.02649896964430809
0.03284616768360138,0.0054150656796991825,-0.019295062869787216,0.017112817615270615,-0.00042001341353170574,0.026613764464855194
0.03347344696521759,0.0055199190974235535,-0.020277710631489754,0.016462478786706924,-0.0004481622308958322,0.026415513828396797
0.033127594739198685,0.00551323127001524,-0.019923202693462372,0.016639839857816696,-0.00042570396908558905,0.02676621824502945
0.03352199122309685,0.005647753830999136,-0.019024139270186424,0.016183216124773026,-0.0004411977715790272,0.027049513533711433
0.03352408483624458,0.005047102924436331,-0.01944074220955372,0.01652618683874607,-0.0004281099245417863,0.026944957673549652
0.033105384558439255,0.004800600465387106,-0.019356384873390198,0.016677511855959892,-0.0005994064849801362,0.026620646938681602
0.032939087599515915,0.005354106426239014,-0.01911177672445774,0.016257040202617645,-0.0006508211954496801,0.026389924809336662
0.033248089253902435,0.005229747388511896,-0.01951327733695507,0.01597576029598713,-0.0006792680942453444,0.02672293223440647
0.03454700857400894,0.005653021857142448,-0.02008393406867981,0.015195143409073353,-0.0007012397400103509,0.02755468711256981
0.034410260617733,0.005280364770442247,-0.019418664276599884,0.015738820657134056,-0.0007967023993842304,0.027203047648072243
0.032764241099357605,0.005371128674596548,-0.019412703812122345,0.015879640355706215,-0.0009325900464318693,0.026359807699918747
0.03295835107564926,0.0054758950136601925,-0.01965670846402645,0.01672223210334778,-0.0009448747150599957,0.025623207911849022
0.034211743623018265,0.005636251997202635,-0.019271066412329674,0.016196688637137413,-0.0009400132112205029,0.026408573612570763
0.03398188203573227,0.005669167265295982,-0.019825734198093414,0.016414368525147438,-0.0009946620557457209,0.027392495423555374
0.03519424423575401,0.005488984752446413,-0.020568998530507088,0.016208423301577568,-0.0008637001737952232,0.026829412207007408
0.03473566472530365,0.005514827556908131,-0.01906357705593109,0.015861161053180695,-0.0008516682428307831,0.027187636122107506
0.034280985593795776,0.006025093607604504,-0.01960650458931923,0.016591336578130722,-0.0008096041274257004,0.028236353769898415
0.0326705276966095,0.005875268951058388,-0.020247047767043114,0.016289109364151955,-0.0007649494800716639,0.027523720636963844
0.034617409110069275,0.005135083105415106,-0.020070800557732582,0.016895780339837074,-0.0007758997962810099,0.02696322463452816
0.035368047654628754,0.003625040641054511,-0.020121624693274498,0.0163428895175457,-0.0007024256628938019,0.02663460373878479
0.03439019247889519,0.002444619545713067,-0.020316924899816513,0.016350483521819115,-0.0006687831482850015,0.026773275807499886
0.03451944515109062,0.0023872379679232836,-0.020247183740139008,0.016503125429153442,-0.0006410647765733302,0.027941202744841576
0.03432595729827881,0.004013103898614645,-0.01962650567293167,0.01669006049633026,-0.0006221157964318991,0.028253905475139618
0.03484708070755005,0.0047516608610749245,-0.019834594801068306,0.01792696677148342,-0.0006041123415343463,0.02746349759399891
0.03504354879260063,0.0043211462907493114,-0.020205598324537277,0.01783546432852745,-0.0006271725869737566,0.027288351207971573
0.03504354879260063,0.0043211462907493114,-0.020205598324537277,0.01783546432852745,-0.0006271725869737566,0.027288351207971573
0.03495543450117111,0.003549805609509349,-0.01995765045285225,0.017679033800959587,-0.0006600024062208831,0.027421385049819946
0.03453146666288376,0.0031388395000249147,-0.020321164280176163,0.016560088843107224,-0.0006973806885071099,0.027178985998034477
0.035479046404361725,0.004250071477144957,-0.019766464829444885,0.015694886445999146,-0.0006975981523282826,0.02814105525612831
0.03556770086288452,0.003961604554206133,-0.01955578848719597,0.015206334181129932,-0.0006735497736372054,0.028051136061549187
0.03551563248038292,0.0033091630320996046,-0.02013876475393772,0.015792865306138992,-0.0007413465064018965,0.028100887313485146
0.03567581996321678,0.0033936291001737118,-0.020356981083750725,0.015693802386522293,-0.0007728139171376824,0.028357379138469696
0.035592734813690186,0.003136421786621213,-0.02036888524889946,0.01589338667690754,-0.0007044693338684738,0.028442278504371643
0.034395989030599594,0.0034395998809486628,-0.020410845056176186,0.01581948809325695,-0.0007214155048131943,0.028245018795132637
0.03619503229856491,0.00416348222643137,-0.020136229693889618,0.01669314317405224,-0.0007332530221901834,0.02860271744430065
0.03639162704348564,0.004130670800805092,-0.01998683251440525,0.01667594723403454,-0.000743132724892348,0.02869773656129837
0.03599919006228447,0.003541494719684124,-0.02075175940990448,0.016283374279737473,-0.000800104346126318,0.028591500595211983
0.03630202263593674,0.0033136613201349974,-0.02177005261182785,0.016481861472129822,-0.0007275373791344464,0.02855880744755268
0.036128152161836624,0.0032594730146229267,-0.02102925069630146,0.015984870493412018,-0.0007423022761940956,0.028754401952028275
0.03611335530877113,0.003483148757368326,-0.020016614347696304,0.01668277010321617,-0.0007522184168919921,0.02852792851626873
0.036450814455747604,0.003741433611139655,-0.020323606207966805,0.01592380553483963,-0.0006914903060533106,0.02890944294631481
0.03631698340177536,0.004090614151209593,-0.020659010857343674,0.016121001914143562,-0.000722130760550499,0.028622161597013474
0.03583557903766632,0.003939766902476549,-0.02072000503540039,0.016001682728528976,-0.0006366978632286191,0.02870156057178974
0.03588969260454178,0.003812202485278249,-0.021112807095050812,0.016269048675894737,-0.000654389790724963,0.02751019224524498
0.0358397401869297,0.00431177718564868,-0.020953398197889328,0.016998255625367165,-0.0006676708580926061,0.029076751321554184
0.0374789834022522,0.005222368519753218,-0.020390652120113373,0.016779309138655663,-0.0006675681797787547,0.029532743617892265
0.036898139864206314,0.004191792104393244,-0.02020956762135029,0.017112838104367256,-0.0006478492286987603,0.029454100877046585
0.035012468695640564,0.0038939365185797215,-0.021455131471157074,0.01662248931825161,-0.0006623595836572349,0.030249716714024544
0.03549889102578163,0.0040305848233401775,-0.021225163713097572,0.01695648580789566,-0.0006897104904055595,0.0301302969455719
0.03635266795754433,0.004610337316989899,-0.02087431214749813,0.016901176422834396,-0.0006243595271371305,0.0290830060839653
0.03655809536576271,0.005083466414362192,-0.020259469747543335,0.016505813226103783,-0.0006470149382948875,0.028571443632245064
0.03741459175944328,0.005379266105592251,-0.020536944270133972,0.016584929078817368,-0.0006326636648736894,0.029043283313512802
0.03722976893186569,0.004768678918480873,-0.02098596841096878,0.016035374253988266,-0.0006166527746245265,0.02990865893661976
0.03569526597857475,0.004911128431558609,-0.021354950964450836,0.016324955970048904,-0.0008118239929899573,0.030388223007321358
0.03723106160759926,0.004971139132976532,-0.02134401910007,0.01653902605175972,-0.0008326501119881868,0.030091309919953346
0.037201281636953354,0.005310601554811001,-0.021040424704551697,0.016323741525411606,-0.001116646220907569,0.029912972822785378
0.036741115152835846,0.005642695818096399,-0.020689761266112328,0.016327863559126854,-0.0011035698698833585,0.02878672257065773
0.036741115152835846,0.005642695818096399,-0.020689761266112328,0.016327863559126854,-0.0011035698698833585,0.02878672257065773
0.03666983172297478,0.005030396394431591,-0.020949997007846832,0.01668979786336422,-0.0009369091712869704,0.028440432623028755
0.036696985363960266,0.004759595729410648,-0.02138626016676426,0.015950482338666916,-0.0009132073610089719,0.02987062744796276
0.037181951105594635,0.004827096126973629,-0.021636847406625748,0.016365371644496918,-0.0009102543699555099,0.03005930408835411
0.03676115348935127,0.004878997337073088,-0.02128877304494381,0.016045935451984406,-0.0007909632986411452,0.03006700426340103
0.03656527027487755,0.005231124348938465,-0.02136588655412197,0.014851301908493042,-0.0007696623797528446,0.030028875917196274
0.0370013490319252,0.0055711232125759125,-0.021460482850670815,0.0165431946516037,-0.0007550126174464822,0.02983994036912918
0.036708757281303406,0.005106915254145861,-0.02123584784567356,0.016997743397951126,-0.0007696808315813541,0.0291752889752388
0.03718848153948784,0.005253309849649668,-0.021403998136520386,0.017173990607261658,-0.0007384552154690027,0.02964777499437332
0.03776094689965248,0.0051582385785877705,-0.021427258849143982,0.01661878079175949,-0.0008261700859293342,0.02968071959912777
0.036583952605724335,0.005013658199459314,-0.021871453151106834,0.017258556559681892,-0.0008443705155514181,0.029858889058232307
0.03597572073340416,0.005738135427236557,-0.02180100604891777,0.01679997704923153,-0.0007459012558683753,0.029732264578342438
0.0369335301220417,0.005954537075012922,-0.021013807505369186,0.017064467072486877,-0.0007358678849413991,0.029925091192126274
0.036827605217695236,0.005661491770297289,-0.021220514550805092,0.01724194549024105,-0.0006806512828916311,0.0303697120398283
0.03800486400723457,0.005210083443671465,-0.021422242745757103,0.01699456200003624,-0.0006972479750402272,0.030593639239668846
0.03779900446534157,0.005288498010486364,-0.02150404267013073,0.017097102478146553,-0.0006673202733509243,0.029902229085564613
0.0359615683555603,0.0055559491738677025,-0.021443234756588936,0.016306119039654732,-0.0006789611070416868,0.031164292246103287
0.03642088547348976,0.006325401831418276,-0.021487917751073837,0.016877904534339905,-0.0007035539019852877,0.030941015109419823
0.038069263100624084,0.005740176886320114,-0.021780915558338165,0.01709131710231304,-0.000736196874640882,0.03076176531612873
0.03761076182126999,0.005634529981762171,-0.020670946687459946,0.016489366069436073,-0.0010589451994746923,0.03095097653567791
0.03754730150103569,0.006127584725618362,-0.020935865119099617,0.01668080873787403,-0.000993157853372395,0.030695462599396706
0.03758322075009346,0.005828057415783405,-0.021481184288859367,0.016236083582043648,-0.0009758134838193655,0.030802486464381218
0.03758322075009346,0.005828057415783405,-0.021481184288859367,0.016236083582043648,-0.0009758134838193655,0.030802486464381218
0.0381920300424099,0.005862412974238396,-0.02110477164387703,0.01704588532447815,-0.0008573831873945892,0.031034525483846664
0.03846799209713936,0.005922944284975529,-0.021257715299725533,0.016576817259192467,-0.0007962780655361712,0.032150816172361374
0.037940461188554764,0.0061888606287539005,-0.021335840225219727,0.016865262761712074,-0.0007828118978068233,0.031865864992141724
0.03814220428466797,0.005701606627553701,-0.020938485860824585,0.01629823073744774,-0.0007964294636622071,0.029926341027021408
0.03835739567875862,0.006521678064018488,-0.02110060304403305,0.01663290709257126,-0.0007822538609616458,0.030200963839888573
0.039064615964889526,0.006118367426097393,-0.0217286329716444,0.016275562345981598,-0.0007477433537133038,0.0316428542137146
0.03911270573735237,0.005992827005684376,-0.02133670262992382,0.016363566741347313,-0.000724783749319613,0.03182578831911087
0.0390036478638649,0.0064649032428860664,-0.02122611179947853,0.016548052430152893,-0.0006671885494142771,0.03257875144481659
0.03919025510549545,0.005909327417612076,-0.02111000195145607,0.016882676631212234,-0.0006838088156655431,0.03244646638631821
0.03935474157333374,0.006207113154232502,-0.021996736526489258,0.01726396568119526,-0.0007147635333240032,0.031342290341854095
0.03894679248332977,0.006479138042777777,-0.02084212750196457,0.016987420618534088,-0.000740081537514925,0.03055742383003235
0.03904049098491669,0.005862900987267494,-0.021499967202544212,0.017271721735596657,-0.001001965720206499,0.03063175454735756
0.0397530272603035,0.005940787494182587,-0.021800220012664795,0.01718253828585148,-0.001020350493490696,0.031939901411533356
0.03894329443573952,0.006160676945000887,-0.02193036675453186,0.01722666807472706,-0.0009568165405653417,0.031977180391550064
0.039369676262140274,0.00563304778188467,-0.021444207057356834,0.017556974664330482,-0.0008930718759074807,0.031696975231170654
0.03948204964399338,0.005772104486823082,-0.021608570590615273,0.017114074900746346,-0.0008760845521464944,0.032913029193878174
0.039566829800605774,0.005604310892522335,-0.020887216553092003,0.017269058153033257,-0.000872726843226701,0.032468441873788834
0.04003801569342613,0.005642917938530445,-0.02132975496351719,0.016811104491353035,-0.0008762964862398803,0.03181016445159912
0.039838820695877075,0.005274851806461811,-0.02194901742041111,0.016972199082374573,-0.0008793387678451836,0.03189440444111824
0.039370544254779816,0.005736596416682005,-0.02165701985359192,0.01712626777589321,-0.0008078767568804324,0.03173116222023964
0.04013208672404289,0.005886003375053406,-0.020460613071918488,0.017000004649162292,-0.0008336735190823674,0.0319259837269783
0.04126393795013428,0.00620143860578537,-0.021386023610830307,0.017480595037341118,-0.0008438863442279398,0.031937528401613235
0.03999591991305351,0.005630189087241888,-0.02188265137374401,0.017198927700519562,-0.0008601180161349475,0.03198409453034401
0.03874542564153671,0.005602030549198389,-0.0215567909181118,0.017288818955421448,-0.0008684659260325134,0.032397497445344925
