davideferrari95/blind_handover_controller/data/Test 248 - [2024-02-08 -- 12-38-19]/joint_states_data.csv
shoulder_pan_joint,shoulder_lift_joint,elbow_joint,wrist_1_joint,wrist_2_joint,wrist_3_joint
0.006303755566477776,0.008943894878029823,-0.013595429249107838,0.0044057960622012615,0.0,0.006315295118838549
0.005675207823514938,0.009532436728477478,-0.01359661016613245,0.003957832232117653,0.0,0.0063082692213356495
0.005675207823514938,0.009532436728477478,-0.01359661016613245,0.003957832232117653,0.0,0.0063082692213356495
0.005876403767615557,0.0094899982213974,-0.013941759243607521,0.0038162837736308575,0.0,0.006173272151499987
0.006509506609290838,0.008070021867752075,-0.013698157854378223,0.0038909493014216423,0.0,0.00643375376239419
0.006087461952120066,0.009348087012767792,-0.013727491721510887,0.003929303493350744,0.0,0.006609839852899313
0.005995003506541252,0.009341956116259098,-0.014027359895408154,0.004357998725026846,0.0,0.005903719458729029
0.006441537756472826,0.010124558582901955,-0.013438732363283634,0.004227216821163893,0.0,0.006077430676668882
0.006116207223385572,0.009585629217326641,-0.01361971814185381,0.004324927926063538,0.0,0.0063731432892382145
0.006510741077363491,0.009163154289126396,-0.013104863464832306,0.004270683508366346,0.0,0.006139526143670082
0.0059075504541397095,0.009440770372748375,-0.013814286328852177,0.004063095431774855,0.0,0.006401977967470884
0.005990913137793541,0.009315840899944305,-0.013221519999206066,0.0038769745733588934,0.0,0.006557183805853128
0.006260894704610109,0.009196643717586994,-0.013806109316647053,0.00423206202685833,0.0,0.0062173279002308846
0.0060547166503965855,0.009561067447066307,-0.013357114978134632,0.004473926033824682,0.0,0.006300908513367176
0.006169897969812155,0.009526432491838932,-0.014131701551377773,0.004396413452923298,0.0,0.00644605653360486
0.006170814391225576,0.009524177759885788,-0.013633484952151775,0.004361020866781473,0.0,0.006256930995732546
0.006170814391225576,0.009524177759885788,-0.013633484952151775,0.004361020866781473,0.0,0.006256930995732546
0.006477830465883017,0.009976750239729881,-0.013675366528332233,0.004442960489541292,0.0,0.006716822739690542
0.006477830465883017,0.009976750239729881,-0.013675366528332233,0.004442960489541292,0.0,0.006716822739690542
0.006608464755117893,0.00923918280750513,-0.013925643637776375,0.004628549795597792,0.0,0.006659674923866987
0.006407665554434061,0.009957876987755299,-0.013884827494621277,0.004610872827470303,0.0,0.005831519141793251
0.006068883463740349,0.01029270514845848,-0.013236918486654758,0.004794607870280743,0.0,0.0058576446026563644
0.006650086492300034,0.009550285525619984,-0.01390742976218462,0.004776820540428162,0.0,0.005862547550350428
0.006941401865333319,0.009525353088974953,-0.013909338973462582,0.004690547939389944,0.0,0.0061633470468223095
0.00649353489279747,0.009270251728594303,-0.013691474683582783,0.004466514103114605,0.0,0.006422797217965126
0.006383076775819063,0.009309949353337288,-0.013023330830037594,0.004442631732672453,0.0,0.005875955801457167
0.006362563464790583,0.009980116970837116,-0.014007238671183586,0.004588971845805645,0.0,0.005772551521658897
0.006496603135019541,0.009702890180051327,-0.013598508201539516,0.00492540979757905,0.0,0.005983556155115366
0.006423454266041517,0.009741260670125484,-0.013817993924021721,0.0047759320586919785,0.0,0.006289033684879541
0.0064418199472129345,0.010069428943097591,-0.013524921610951424,0.004310139920562506,0.0,0.006170703563839197
0.006603176239877939,0.010297484695911407,-0.014486308209598064,0.0039925226010382175,0.0,0.006087284069508314
0.0061375717632472515,0.009188860654830933,-0.01391610223799944,0.00392809696495533,0.0,0.006150543224066496
0.006864956580102444,0.009359912946820259,-0.013621073216199875,0.00417474377900362,0.0,0.00636920053511858
0.006106806453317404,0.009223022498190403,-0.01381997112184763,0.004229627549648285,0.0,0.006218472495675087
0.005958667490631342,0.009173611178994179,-0.01334298960864544,0.004388479981571436,0.0,0.006423964165151119
0.006548760458827019,0.009293321520090103,-0.013859055005013943,0.004111150279641151,0.0,0.00660130986943841
0.006525085307657719,0.009380808100104332,-0.013658926822245121,0.00394258089363575,0.0,0.006124013103544712
0.006270970217883587,0.0095289945602417,-0.01407964900135994,0.004206210840493441,0.0,0.00628944206982851
0.006157065276056528,0.009978828020393848,-0.013470062986016273,0.004285301081836224,0.0,0.005970918107777834
0.006021617446094751,0.009129088371992111,-0.014604170806705952,0.004451298620551825,0.0,0.005874802358448505
0.007114703767001629,0.00965264905244112,-0.01358655747026205,0.004614024423062801,0.0,0.005958895664662123
0.007114703767001629,0.00965264905244112,-0.01358655747026205,0.004614024423062801,0.0,0.005958895664662123
0.006436449941247702,0.009100746363401413,-0.013044603168964386,0.004761609248816967,0.0,0.005919245071709156
0.006311577744781971,0.00886448286473751,-0.013243643566966057,0.005096700508147478,0.0,0.006128101143985987
0.006565343122929335,0.009002428501844406,-0.013750380836427212,0.004617577884346247,0.0,0.006211148574948311
0.006470028776675463,0.009966129437088966,-0.014356687664985657,0.004422032739967108,0.0,0.00623980863019824
0.006938335485756397,0.009391715750098228,-0.012976822443306446,0.0041007352992892265,0.0,0.006374184507876635
0.006557917688041925,0.008578186854720116,-0.013172408565878868,0.004376863595098257,0.0,0.006230438128113747
0.006362607702612877,0.009374734945595264,-0.01326755527406931,0.00451009813696146,0.0,0.006050711963325739
0.0061890617944300175,0.008797288872301579,-0.014011635445058346,0.004607462789863348,0.0,0.006159375421702862
0.006960224360227585,0.008440563455224037,-0.012760940007865429,0.004525755997747183,0.0,0.006431626621633768
0.006744076032191515,0.008970323018729687,-0.013223979622125626,0.004514827858656645,0.0,0.006298286374658346
0.006700020749121904,0.009066262282431126,-0.012710035778582096,0.00451896246522665,0.0,0.006437669973820448
0.006724318023771048,0.008830799721181393,-0.013597700744867325,0.004507739562541246,0.0,0.006705017294734716
0.00644382881000638,0.009263741783797741,-0.01312535721808672,0.004778268747031689,0.0,0.005953798070549965
0.00673397583886981,0.009606038220226765,-0.013352644629776478,0.004905092995613813,0.0,0.00573790492489934
0.006648088339716196,0.008701687678694725,-0.012897451408207417,0.0046098255552351475,0.0,0.005893610417842865
0.006367236841470003,0.009404120966792107,-0.012910190969705582,0.004694790113717318,0.0,0.005586395040154457
0.006365917157381773,0.009250602684915066,-0.012662741355597973,0.004716992843896151,0.0,0.005577343516051769
0.006716261617839336,0.009196776896715164,-0.013305054977536201,0.004745987243950367,0.0,0.0051779840141534805
0.006408232729882002,0.009224645793437958,-0.012859685346484184,0.004602802451699972,0.0,0.005205178167670965
0.006219192408025265,0.00960168894380331,-0.013290789909660816,0.00430635642260313,0.0,0.005614693742245436
0.006334569770842791,0.008520831353962421,-0.012749888002872467,0.00451610516756773,0.0,0.0059396796859800816
0.006334569770842791,0.008520831353962421,-0.012749888002872467,0.00451610516756773,0.0,0.0059396796859800816
0.006832398008555174,0.009142809547483921,-0.013014303520321846,0.004644754808396101,0.0,0.0053538549691438675
0.006832398008555174,0.009142809547483921,-0.013014303520321846,0.004644754808396101,0.0,0.0053538549691438675
0.006297802086919546,0.009141174145042896,-0.013159403577446938,0.004266039468348026,0.0,0.005229128058999777
0.00618565222248435,0.008898116648197174,-0.012766965664923191,0.003794545540586114,0.0,0.0057126907631754875
0.006755530368536711,0.009462766349315643,-0.012441501952707767,0.004707678686827421,0.0,0.005895914509892464
0.006425138562917709,0.008964494802057743,-0.01288127526640892,0.005041214637458324,0.0,0.005671792663633823
0.006245138123631477,0.009206442162394524,-0.013134713284671307,0.00460701622068882,0.0,0.005582633428275585
0.006245138123631477,0.009206442162394524,-0.013134713284671307,0.00460701622068882,0.0,0.005582633428275585
0.006542196497321129,0.009241082705557346,-0.01231245044618845,0.004462609998881817,0.0,0.005497620906680822
0.0071334331296384335,0.008693089708685875,-0.012628735043108463,0.004561249166727066,0.0,0.005436839535832405
0.006822885479778051,0.009287101216614246,-0.012439461424946785,0.005100952461361885,0.0,0.00567151652649045
0.006220746319741011,0.009032114408910275,-0.01225915178656578,0.005087368190288544,0.0,0.005898904055356979
0.006167592480778694,0.009038858115673065,-0.012647813186049461,0.004458512179553509,0.0,0.005493510980159044
0.006472392939031124,0.009486163035035133,-0.011716088280081749,0.004025008995085955,0.0,0.005794416181743145
0.00656675873324275,0.009451844729483128,-0.012523122131824493,0.004393177572637796,0.0,0.005530801136046648
0.006314513739198446,0.008920884691178799,-0.01199997030198574,0.004500324837863445,0.0,0.005879242904484272
0.006557275075465441,0.009114554151892662,-0.0123060317710042,0.004525964614003897,0.0,0.005402971524745226
0.006575220264494419,0.009006510488688946,-0.01300510112196207,0.0046447934582829475,0.0,0.005245264153927565
0.007244187872856855,0.008633233606815338,-0.012409177608788013,0.004529031924903393,0.0,0.005361303221434355
0.006708226632326841,0.00885438546538353,-0.012340420857071877,0.0043380726128816605,0.0,0.00590864010155201
0.006582105532288551,0.008664979599416256,-0.013280141167342663,0.004423215053975582,0.0,0.006152066867798567
0.007048755418509245,0.00853457860648632,-0.012107040733098984,0.0045257615856826305,0.0,0.0055206636898219585
0.0069087836891412735,0.009036860428750515,-0.012855145148932934,0.004483561031520367,0.0,0.005312740802764893
0.006617889739573002,0.008852566592395306,-0.012609503231942654,0.004910062998533249,0.0,0.005297673866152763
0.00630701519548893,0.008459656499326229,-0.012714685872197151,0.004784268327057362,0.0,0.00524069182574749
0.006674428936094046,0.00895652361214161,-0.012648837640881538,0.004339154344052076,0.0,0.005752782803028822
0.006674428936094046,0.00895652361214161,-0.012648837640881538,0.004339154344052076,0.0,0.005752782803028822
0.007341004908084869,0.008904988877475262,-0.012143935076892376,0.00446664821356535,0.0,0.005514656659215689
0.00702321995049715,0.008658837527036667,-0.012744195759296417,0.004534234292805195,0.0,0.0052647702395915985
0.006339060142636299,0.009182882495224476,-0.013354962691664696,0.00505333486944437,0.0,0.0052862889133393764
0.006339060142636299,0.009182882495224476,-0.013354962691664696,0.00505333486944437,0.0,0.0052862889133393764
0.0069602797739207745,0.009162492118775845,-0.01285945437848568,0.004625936970114708,0.0,0.005618707742542028
0.007011952809989452,0.008230569772422314,-0.013200031593441963,0.004530470352619886,0.0,0.00605186028406024
0.00733792083337903,0.008833312429487705,-0.012884732335805893,0.004507699050009251,0.0,0.005521065089851618
0.006952404975891113,0.008982309140264988,-0.013463538140058517,0.004112293943762779,0.0,0.00530891353264451
0.007578874472528696,0.008525282144546509,-0.013087521307170391,0.004281049594283104,0.0,0.004997843410819769
0.007149142678827047,0.008545675314962864,-0.012699443846940994,0.004548780154436827,0.0,0.004887897986918688
0.006703127641230822,0.008867310360074043,-0.013554020784795284,0.004685577005147934,0.0,0.005573099013417959
0.006562528200447559,0.008462175726890564,-0.012821066193282604,0.004667613655328751,0.0,0.005359342787414789
0.0069654169492423534,0.008248762227594852,-0.013230778276920319,0.004335151519626379,0.0,0.005282411351799965
0.007654058281332254,0.00912986509501934,-0.012875544838607311,0.004010636825114489,0.0,0.005368846468627453
0.007048584520816803,0.008169326931238174,-0.013571200892329216,0.003826737403869629,0.0,0.0053283656015992165
0.00657757418230176,0.008207671344280243,-0.01282212883234024,0.0037902824115008116,0.0,0.005440886132419109
0.00655332300812006,0.00951871182769537,-0.013334986753761768,0.00441743852570653,0.0,0.005361623130738735
0.00690548587590456,0.008717683143913746,-0.013133992440998554,0.0050260042771697044,0.0,0.004971939604729414
0.007601605728268623,0.008299659937620163,-0.013032454065978527,0.00501324562355876,0.0,0.004679475445300341
0.0070024398155510426,0.009191528894007206,-0.012866624630987644,0.004799338988959789,0.0,0.0048964424058794975
0.006613735109567642,0.0090462202206254,-0.01285919826477766,0.004714067094027996,0.0,0.005255200434476137
0.00709936860948801,0.008802996948361397,-0.012827846221625805,0.0047122519463300705,0.0,0.005715247243642807
0.007277872879058123,0.008943451568484306,-0.013198680244386196,0.005365113262087107,0.0,0.005711595993489027
0.006567985285073519,0.008917229250073433,-0.012157769873738289,0.005677471868693829,0.0,0.005080871284008026
0.0066478135995566845,0.008528390899300575,-0.012937151826918125,0.005206369329243898,0.0,0.004795657005161047
0.0071726590394973755,0.008970535360276699,-0.01267255749553442,0.004845310468226671,0.0,0.005244535859674215
0.007251301780343056,0.009179346263408661,-0.013170274905860424,0.00427286745980382,0.0,0.005420797970145941
0.006941651925444603,0.008762338198721409,-0.012656763195991516,0.004303304478526115,0.0,0.005358430556952953
0.00670079467818141,0.008956566452980042,-0.012248829007148743,0.0046516768634319305,0.0,0.0050492677837610245
0.00670079467818141,0.008956566452980042,-0.012248829007148743,0.0046516768634319305,0.0,0.0050492677837610245
0.007440504617989063,0.009359943680465221,-0.013078035786747932,0.004701817408204079,0.0,0.004789253231137991
0.006788408383727074,0.0084651755169034,-0.013238532468676567,0.004592194687575102,0.0,0.005041779484599829
0.006788408383727074,0.0084651755169034,-0.013238532468676567,0.004592194687575102,0.0,0.005041779484599829
0.007077942602336407,0.00904764886945486,-0.01270252838730812,0.004878304898738861,0.0,0.0049558901228010654
0.007077942602336407,0.00904764886945486,-0.01270252838730812,0.004878304898738861,0.0,0.0049558901228010654
0.007410749327391386,0.00822632946074009,-0.012632335536181927,0.004963612649589777,0.0,0.005135771818459034
0.007387333549559116,0.008757040835916996,-0.012421362102031708,0.004951811861246824,0.0,0.0051825097762048244
0.007086980622261763,0.009072978049516678,-0.012702232226729393,0.005162665154784918,0.0,0.005232715513557196
0.007567135617136955,0.008769246749579906,-0.012512397021055222,0.004672178532928228,0.0,0.005036558024585247
0.007135933730751276,0.009458541870117188,-0.013116121292114258,0.004581140354275703,0.0,0.0049156020395457745
0.007382551208138466,0.009417036548256874,-0.012716026976704597,0.004937367979437113,0.0,0.005185103043913841
0.007377955596894026,0.009213441051542759,-0.013424423523247242,0.00513548543676734,0.0,0.005078044254332781
0.007539830170571804,0.008268825709819794,-0.01287286076694727,0.005020462442189455,0.0,0.004904829431325197
0.00763515243306756,0.008849579840898514,-0.013088738545775414,0.004862132482230663,0.0,0.004995197523385286
0.007508167531341314,0.008902228437364101,-0.012812751345336437,0.004991024266928434,0.0,0.004995851777493954
0.007296851370483637,0.008471355773508549,-0.012862125411629677,0.004638906568288803,0.0,0.004982368554919958
0.007949844002723694,0.008727405220270157,-0.013082454912364483,0.0045208074152469635,0.0,0.005135063081979752
0.007897318340837955,0.008749930188059807,-0.012739377096295357,0.004985662177205086,0.0,0.004896827973425388
0.007585133425891399,0.008807413280010223,-0.012987595982849598,0.005022170953452587,0.0,0.004353761672973633
0.007383574265986681,0.008597850799560547,-0.012194223701953888,0.004809380974620581,0.0,0.004004443995654583
0.007520982995629311,0.008952119387686253,-0.012958726845681667,0.004714592359960079,0.0,0.004270306788384914
0.007845411077141762,0.00914804171770811,-0.012538732960820198,0.004647528287023306,0.0,0.004627919290214777
0.007510378956794739,0.009116917848587036,-0.012963414192199707,0.004604898858815432,0.0,0.004712125286459923
0.007602008059620857,0.009101769886910915,-0.012787903659045696,0.004728909116238356,0.0,0.004519116599112749
0.008153187111020088,0.008142871782183647,-0.012918326072394848,0.005019788164645433,0.0,0.004570615012198687
0.007744749076664448,0.00871159415692091,-0.01279200054705143,0.004966766573488712,0.0,0.004592572804540396
0.008054308593273163,0.008505837991833687,-0.012884651310741901,0.004808526486158371,0.0,0.004892279393970966
0.007922012358903885,0.008498188108205795,-0.012433577328920364,0.004754932597279549,0.0,0.004712094087153673
0.0077687473967671394,0.00855519063770771,-0.012903396040201187,0.004978079814463854,0.0,0.004534367471933365
0.007592825684696436,0.009112291038036346,-0.012423170730471611,0.004732332192361355,0.0,0.004817729350179434
0.007532996591180563,0.008414484560489655,-0.012589908204972744,0.0046445457264781,0.0,0.004974827170372009
0.007947812788188457,0.008255085907876492,-0.01257810927927494,0.004883811809122562,0.0,0.004840226843953133
0.00797574408352375,0.009235281497240067,-0.012653740122914314,0.004926301538944244,0.0,0.004661237355321646
0.00769562553614378,0.008488588035106659,-0.013134951703250408,0.005229859612882137,0.0,0.004671390168368816
0.008735086768865585,0.008384360000491142,-0.012770669534802437,0.005024366080760956,0.0,0.004866928327828646
0.008102024905383587,0.008466299623250961,-0.012890777550637722,0.004816090688109398,0.0,0.004430281464010477
0.008102024905383587,0.008466299623250961,-0.012890777550637722,0.004816090688109398,0.0,0.004430281464010477
0.007846775464713573,0.008446226827800274,-0.012324497103691101,0.004573410376906395,0.0,0.004420168232172728
0.007450152188539505,0.008013900369405746,-0.01219706330448389,0.00480099581182003,0.0,0.00459472369402647
0.008086656220257282,0.007808102294802666,-0.012389237061142921,0.004699792247265577,0.0,0.004641630221158266
0.008288278244435787,0.008628846146166325,-0.012993769720196724,0.004333880264312029,0.0,0.004628342110663652
0.008245137520134449,0.00863974541425705,-0.012854406610131264,0.004489141050726175,0.0,0.00464303232729435
0.007949868217110634,0.007764637935906649,-0.0125585263594985,0.004528871271759272,0.0,0.0047098202630877495
0.008205931633710861,0.007951241917908192,-0.012916848063468933,0.005200767423957586,0.0,0.0047507924027740955
0.008149862289428711,0.0082467095926404,-0.012479156255722046,0.005240096710622311,0.0,0.004284900147467852
0.008271556347608566,0.00777495838701725,-0.01322625670582056,0.004911866970360279,0.0,0.004397703800350428
0.008018633350729942,0.0074684275314211845,-0.012430163100361824,0.004732022527605295,0.0,0.00415966659784317
0.008317145518958569,0.00811294000595808,-0.013075509108603,0.004738546442240477,0.0,0.003963286988437176
0.00822457205504179,0.008311254903674126,-0.012745114974677563,0.004729802720248699,0.0,0.004234622232615948
0.008061503060162067,0.007952990010380745,-0.012758426368236542,0.004825565032660961,0.0,0.004459639545530081
0.00868214014917612,0.007772895507514477,-0.013143468648195267,0.005152275785803795,0.0,0.004166571889072657
0.008389818482100964,0.008264315314590931,-0.013108239509165287,0.004939851816743612,0.0,0.0041412292048335075
0.008280936628580093,0.008225603960454464,-0.012895534746348858,0.005080814473330975,0.0,0.004250500351190567
0.009011927992105484,0.008001095615327358,-0.013604442588984966,0.00485412310808897,0.0,0.004452147521078587
0.008120521903038025,0.007950283586978912,-0.012984479777514935,0.004574166610836983,0.0,0.0041998629458248615
0.008028952404856682,0.007763118017464876,-0.01340224128216505,0.0049749817699193954,0.0,0.003949972800910473
0.008396275341510773,0.0077161951921880245,-0.012890881858766079,0.005073747597634792,0.0,0.003474443918094039
0.008837530389428139,0.00770391384139657,-0.013453020714223385,0.005239414516836405,0.0,0.0034249322488904
0.008170196786522865,0.007755502592772245,-0.013647406361997128,0.005051477812230587,0.0,0.0036875393707305193
0.008353084325790405,0.007794600911438465,-0.013846785761415958,0.005127838347107172,0.0,0.003942923620343208
0.009313195012509823,0.007700064219534397,-0.013233786448836327,0.0053007155656814575,0.0,0.004449605476111174
0.008781034499406815,0.007450191304087639,-0.012638851068913937,0.005758784711360931,0.0,0.004156955983489752
0.008321462199091911,0.00791085883975029,-0.013235913589596748,0.005591288674622774,0.0,0.004135746043175459
0.008321462199091911,0.00791085883975029,-0.013235913589596748,0.005591288674622774,0.0,0.004135746043175459
0.009033353067934513,0.007375229615718126,-0.01382085494697094,0.005142523441463709,0.0,0.0035042650997638702
0.009091552346944809,0.0073189507238566875,-0.013392487540841103,0.005506223998963833,0.0,0.0035678918939083815
0.00957365334033966,0.008236791007220745,-0.013605215586721897,0.0056245517916977406,0.0,0.003821985563263297
0.00957365334033966,0.008236791007220745,-0.013605215586721897,0.0056245517916977406,0.0,0.003821985563263297
0.008629831485450268,0.007656481117010117,-0.012977547943592072,0.00572845246642828,0.0,0.0038929677102714777
0.00885726884007454,0.008137314580380917,-0.0138914305716753,0.005537816789001226,0.0,0.003796281758695841
0.008607863448560238,0.007990583777427673,-0.01320747658610344,0.005523480009287596,0.0,0.0037320705596357584
0.008773361332714558,0.007688986603170633,-0.013579883612692356,0.005332554690539837,0.0,0.0036341350059956312
0.008916075341403484,0.007661252748221159,-0.013213484548032284,0.005125280469655991,0.0,0.0036475975066423416
0.008450531400740147,0.007398996036499739,-0.013525725342333317,0.005243305582553148,0.0,0.0034225855488330126
0.008837019093334675,0.007578847464174032,-0.013392597436904907,0.005357353948056698,0.0,0.0033360926900058985
0.00927188154309988,0.007641493808478117,-0.01324445754289627,0.0054818992502987385,0.0,0.003219315316528082
0.00872377585619688,0.007376580964773893,-0.013788570649921894,0.0053942520171403885,0.0,0.0034617497585713863
0.00907267164438963,0.007409987505525351,-0.013132903724908829,0.005558320786803961,0.0,0.003682004986330867
0.009128331206738949,0.007535859011113644,-0.012900689616799355,0.005708848126232624,0.0,0.0037993735168129206
0.008573695085942745,0.006940972525626421,-0.013265909627079964,0.0052552856504917145,0.0,0.0038797217421233654
0.009102529846131802,0.007383664138615131,-0.01352526992559433,0.005238671321421862,0.0,0.003397704102098942
0.00912503432482481,0.007994505576789379,-0.013694198802113533,0.005253470037132502,0.0,0.003299533622339368
0.008942576125264168,0.007551854010671377,-0.013085529208183289,0.005481503438204527,0.0,0.0033111018128693104
0.009360024705529213,0.007181850261986256,-0.013358579017221928,0.005982004106044769,0.0,0.0031321325805038214
0.009451290592551231,0.007228328380733728,-0.012961669825017452,0.006105791311711073,0.0,0.0034293190110474825
0.009018459357321262,0.008122161962091923,-0.013132837601006031,0.005814157892018557,0.0,0.003676971886307001
0.00917037669569254,0.008316402323544025,-0.01328701339662075,0.0055945818312466145,0.0,0.0033939748536795378
0.009418267756700516,0.00791618600487709,-0.012904997915029526,0.005364273674786091,0.0,0.0031339479610323906
0.009418267756700516,0.00791618600487709,-0.012904997915029526,0.005364273674786091,0.0,0.0031339479610323906
0.009122317656874657,0.007817620411515236,-0.012529130093753338,0.005668134894222021,0.0,0.0032096451614052057
0.009210651740431786,0.00788874365389347,-0.013119223527610302,0.005796615034341812,0.0,0.0031824358738958836
0.009256106801331043,0.007430518977344036,-0.012730301357805729,0.00576016353443265,0.0,0.00309359235689044
0.009256106801331043,0.007430518977344036,-0.012730301357805729,0.00576016353443265,0.0,0.00309359235689044
0.009281706996262074,0.0073998719453811646,-0.01346438005566597,0.006093810312449932,0.0,0.0030143065378069878
0.00911575648933649,0.00806303322315216,-0.012857416644692421,0.006048507057130337,0.0,0.0030414166394621134
0.009844840504229069,0.00808787439018488,-0.013318578712642193,0.005643103271722794,0.0,0.0031614797189831734
0.009027514606714249,0.0069282520562410355,-0.013131109066307545,0.0054361820220947266,0.0,0.003417631145566702
0.009797383099794388,0.006992658134549856,-0.013213280588388443,0.005938245449215174,0.0,0.0033067623153328896
0.00960363820195198,0.007706269156187773,-0.013039380311965942,0.006323336157947779,0.0,0.0032309426460415125
0.009147928096354008,0.007530466187745333,-0.012817583046853542,0.006010488606989384,0.0,0.002940073376521468
0.009491346776485443,0.007236727513372898,-0.013452915474772453,0.005774922668933868,0.0,0.0028986481484025717
0.009554971940815449,0.007095230743288994,-0.013006079010665417,0.005280483979731798,0.0,0.0028558112680912018
0.009333708323538303,0.008077050559222698,-0.013520869426429272,0.0057103619910776615,0.0,0.002900797640904784
0.009205824695527554,0.007808545604348183,-0.01303639356046915,0.005523253697901964,0.0,0.0027345584239810705
0.010104444809257984,0.0069694556295871735,-0.01339665986597538,0.005862937308847904,0.0,0.002774714259430766
0.009574702009558678,0.007626309059560299,-0.013675155118107796,0.0058138309977948666,0.0,0.002839893102645874
0.009556745178997517,0.007980680093169212,-0.013332352973520756,0.0056130909360945225,0.0,0.0031511185225099325
0.009038404561579227,0.007040330208837986,-0.013434124179184437,0.005982954986393452,0.0,0.002972566755488515
0.009298504330217838,0.0068156360648572445,-0.013118108734488487,0.006185255479067564,0.0,0.003062794217839837
0.009372998960316181,0.007547768764197826,-0.012816604226827621,0.005879486910998821,0.0,0.0029599242843687534
0.009024868719279766,0.007380547467619181,-0.013274588622152805,0.0055839731357991695,0.0,0.002898962702602148
0.009188174270093441,0.007094626314938068,-0.013417711481451988,0.005637489724904299,0.0,0.0027123691979795694
0.009188174270093441,0.007094626314938068,-0.013417711481451988,0.005637489724904299,0.0,0.0027123691979795694
0.00898787658661604,0.0074649048037827015,-0.012478222139179707,0.0057233963161706924,0.0,0.0026044195983558893
0.009279378689825535,0.007257356308400631,-0.013192186132073402,0.006058600265532732,0.0,0.002520329784601927
0.009258359670639038,0.007179141044616699,-0.012974243611097336,0.0056854551658034325,0.0,0.002743006683886051
0.009258359670639038,0.007179141044616699,-0.012974243611097336,0.0056854551658034325,0.0,0.002743006683886051
0.009017995558679104,0.007017746567726135,-0.013448365963995457,0.005700471345335245,0.0,0.002886696718633175
0.008539213798940182,0.007724274415522814,-0.013223428279161453,0.005269755143672228,1.68852238857653e-06,0.0029769905377179384
0.009088825434446335,0.0074706366285681725,-0.013344746083021164,0.005619580391794443,1.1024845036899933e-07,0.0029622626025229692
0.009155639447271824,0.007265850901603699,-0.012994598597288132,0.006348625291138887,7.198436513533579e-09,0.003069925354793668
0.008815121836960316,0.00705031119287014,-0.01265017967671156,0.00624834606423974,4.700064781815172e-10,0.002882961882278323
0.00909251905977726,0.007744490634649992,-0.013124820776283741,0.006196897942572832,3.068806667116952e-11,0.0027366038411855698
0.009198885411024094,0.007444500923156738,-0.012829922139644623,0.005915220361202955,2.0037112160448123e-12,0.0025321708526462317
0.00903412140905857,0.007231213618069887,-0.013347961939871311,0.005915765650570393,1.3082803341103039e-13,0.002534331288188696
0.009637614712119102,0.007302312180399895,-0.013206751085817814,0.00652681291103363,8.542134996580592e-15,0.0026618449483066797
0.00946708582341671,0.007674757856875658,-0.013583406805992126,0.0062334537506103516,5.577403849435004e-16,0.0025465860962867737
0.009676850400865078,0.007421428803354502,-0.01281899493187666,0.005929823033511639,3.641646103152453e-17,0.0025031170807778835
0.008664275519549847,0.008014149032533169,-0.01381998136639595,0.005904525984078646,2.3777343930964345e-18,0.00228508235886693
0.009407334960997105,0.0078965462744236,-0.013029194436967373,0.005603203549981117,1.5524907014958822e-19,0.0023426387924700975
0.008970281109213829,0.007812207099050283,-0.013420524075627327,0.005879797972738743,1.0136656543756235e-20,0.002425297861918807
0.00950747262686491,0.007490958087146282,-0.013181409798562527,0.005986374337226152,4.3214153797692566e-23,0.002657968318089843
0.009683513082563877,0.008115497417747974,-0.013199987821280956,0.005894605070352554,2.8215754004739425e-24,0.0027209112886339426
0.008915608748793602,0.007937952876091003,-0.01321319304406643,0.005870062392205,1.8422871458661684e-25,0.0024179955944418907
0.00951557606458664,0.00749284727498889,-0.013916119933128357,0.006136467680335045,1.2028818401886269e-26,0.0022426762152463198
0.009522814303636551,0.007434244267642498,-0.013257109560072422,0.005955846980214119,7.853959165098161e-28,0.0021358418744057417
0.008983333595097065,0.007446304429322481,-0.013538419269025326,0.006200701929628849,-0.00020577873510774225,0.0022200325038284063
0.008983333595097065,0.007446304429322481,-0.013538419269025326,0.006200701929628849,-0.00020577873510774225,0.0022200325038284063
0.009355027228593826,0.007827104069292545,-0.012793228961527348,0.005448725074529648,-0.00022290562628768384,0.002322827000170946
0.009319894015789032,0.007499183528125286,-0.013734701089560986,0.005872975569218397,-0.00021408652537502348,0.002306631999090314
0.0090219397097826,0.0074624973349273205,-0.013588239438831806,0.006572980899363756,-0.0002044728898908943,0.002337238984182477
0.009363420307636261,0.008067255839705467,-0.014024242758750916,0.006337044760584831,-0.00019559112843126059,0.0021041168365627527
0.010093391872942448,0.008294806815683842,-0.01335405744612217,0.006165067665278912,-0.00018744240514934063,0.00180678884498775
0.00919437874108553,0.007710040081292391,-0.013324758969247341,0.005816634278744459,-0.00017994572408497334,0.0017902131658047438
0.00958798173815012,0.007647865451872349,-0.013242143206298351,0.005983640439808369,-0.00017302553169429302,0.001768195303156972
0.009621042758226395,0.008274475112557411,-0.013831058517098427,0.006433449219912291,-0.00019551448349375278,0.0017857318744063377
0.009157583117485046,0.007240446284413338,-0.013791539706289768,0.005956523586064577,-0.0001925127289723605,0.0019725789315998554
0.010382754728198051,0.007159227039664984,-0.013675490394234657,0.005745321046561003,-0.0001861360651673749,0.0019611138850450516
0.009504939429461956,0.007390469778329134,-0.013528539799153805,0.0056334906257689,-0.00017994907102547586,0.001990219345316291
0.009401223622262478,0.007643390912562609,-0.013207953423261642,0.0060341996140778065,-0.00018837922834791243,0.0018769033486023545
0.009791180491447449,0.00813369918614626,-0.01376003585755825,0.006739599164575338,-0.00019585667178034782,0.0016671635676175356
0.009894191287457943,0.007158566266298294,-0.013733266852796078,0.006366941146552563,-0.00019079612684436142,0.00169865891803056
0.009434996172785759,0.007470949087291956,-0.013969319872558117,0.006157641299068928,-0.0001852426357800141,0.0017380814533680677
0.009881803765892982,0.00834257435053587,-0.013309188187122345,0.0061934287659823895,-0.00017995457164943218,0.001854673377238214
0.009683147072792053,0.00802000891417265,-0.014055129140615463,0.006651911418884993,-0.0001934741740114987,0.0018756274366751313
0.00952648650854826,0.007088597398251295,-0.013391878455877304,0.00650549354031682,-0.00019412495021242648,0.001961318776011467
0.00943475030362606,0.008181420154869556,-0.013379083946347237,0.0058977603912353516,-0.00018457081750966609,0.0015928746433928609
0.00933399610221386,0.007309643551707268,-0.014165951870381832,0.006248115096241236,-0.00020467549620661885,0.0014823311939835548
0.009132809937000275,0.007149262819439173,-0.013732490129768848,0.006244908552616835,-0.00019934515876229852,0.001394076505675912
0.0100697111338377,0.0075612980872392654,-0.01416691206395626,0.005957548040896654,-0.0001911214494612068,0.0012973103439435363
0.009585504420101643,0.006977689918130636,-0.013472781516611576,0.005614503752440214,-0.00021045267931185663,0.0012669104617089033
0.009120624512434006,0.007123623043298721,-0.014056812040507793,0.006116760894656181,-0.0002107794862240553,0.001463429187424481
0.009788046590983868,0.007127005141228437,-0.013541226275265217,0.006535651627928019,-0.0002033977216342464,0.0016990950098261237
0.009668808430433273,0.006786169018596411,-0.014028049074113369,0.006787560880184174,-0.00021205496159382164,0.0016293303342536092
0.009668808430433273,0.006786169018596411,-0.014028049074113369,0.006787560880184174,-0.00021205496159382164,0.0016293303342536092
0.009602830745279789,0.007048115134239197,-0.013995232060551643,0.0062822988256812096,-0.00021962412574794143,0.0017903812695294619
0.009686213918030262,0.007191183976829052,-0.013984406366944313,0.006341580301523209,-0.0002281017805216834,0.001700044609606266
0.009051165543496609,0.007002216298133135,-0.013534730300307274,0.006648077629506588,-0.00023470609448850155,0.001693756552413106
0.009230592288076878,0.00703531363978982,-0.013739452697336674,0.006519249174743891,-0.00022818428988102823,0.001548591535538435
0.009357712231576443,0.0069031501188874245,-0.013704930432140827,0.0068923779763281345,-0.00036187938530929387,0.0014571811771020293
0.009655144065618515,0.007333737798035145,-0.013595174998044968,0.006438732612878084,-0.0003538236487656832,0.0013813188998028636
0.009469134733080864,0.00736244535073638,-0.014024903066456318,0.0063741314224898815,-0.0003292582696303725,0.001308694016188383
0.009851774200797081,0.006786814890801907,-0.013582807034254074,0.006282811053097248,-0.00035989616299048066,0.0012627041433006525
0.009876076132059097,0.006816554814577103,-0.013569876551628113,0.0070060244761407375,-0.00034419106668792665,0.0013034972362220287
0.00944822933524847,0.00756152905523777,-0.013330966234207153,0.0067119598388671875,-0.00032400316558778286,0.001353161409497261
0.00974312424659729,0.007383003830909729,-0.014013174921274185,0.006327553186565638,-0.0003531058900989592,0.0014380437787622213
0.009842082858085632,0.007186677306890488,-0.013505960814654827,0.005992962047457695,-0.0003372901410330087,0.0015441409777849913
0.009476038627326488,0.007094882428646088,-0.013969860039651394,0.006527482997626066,-0.0003629532002378255,0.0014520777622237802
0.00970486644655466,0.007411184720695019,-0.013125494122505188,0.006889714393764734,-0.00034818932181224227,0.001293538836762309
0.0100465789437294,0.006768191233277321,-0.013633225113153458,0.006239690817892551,-0.00033279028139077127,0.0010378091828897595
0.009248530492186546,0.0071648298762738705,-0.013224786147475243,0.0063296593725681305,-0.0003850013017654419,0.00084461405640468
0.01111765205860138,0.007357219234108925,-0.01328196283429861,0.007025041151791811,-0.00039075754466466606,0.0008238527225330472
0.01083370577543974,0.007356555666774511,-0.013787632808089256,0.006861002184450626,-0.0003717137442436069,0.0008319002809002995
0.0110133932903409,0.0073181139305233955,-0.01343536376953125,0.006753813941031694,-0.00039096089312806726,0.0007429451216012239
0.010899348184466362,0.006870145909488201,-0.013240350410342216,0.006627596914768219,-0.0003806947497650981,0.0007125199190340936
0.011784574016928673,0.007322132121771574,-0.01346956193447113,0.006821883376687765,-0.0004076703335158527,0.0007318817661143839
0.010395561344921589,0.006812073290348053,-0.01328341942280531,0.006208246108144522,-0.0005221329047344625,0.000725634687114507
0.011747125536203384,0.006445290055125952,-0.013334915973246098,0.006970069371163845,-0.0005826593842357397,0.0006988029344938695
0.012017526663839817,0.006716239731758833,-0.012923835776746273,0.0067344531416893005,-0.0005491700721904635,0.0008332242723554373
0.011505166999995708,0.007038328796625137,-0.013608564622700214,0.006397366523742676,-0.0005401786766014993,0.0008003167458809912
0.012192628346383572,0.007396750617772341,-0.01277436874806881,0.006748499348759651,-0.0005311159184202552,0.0007514660828746855
0.012192628346383572,0.007396750617772341,-0.01277436874806881,0.006748499348759651,-0.0005311159184202552,0.0007514660828746855
0.011454859748482704,0.006806311197578907,-0.013201704248785973,0.006706885062158108,-0.0004920021747238934,0.0006631350261159241
0.011487491428852081,0.007202527951449156,-0.013362341560423374,0.006756986491382122,-0.0004564842092804611,0.0006819515838287771
0.011756852269172668,0.006681520026177168,-0.013732983730733395,0.006711016409099102,-0.0004821780021302402,0.0006634047022089362
0.011823484674096107,0.007117732428014278,-0.013042754493653774,0.007224910892546177,-0.000455360219348222,0.0006430526846088469
0.011945769190788269,0.006828250363469124,-0.013742874376475811,0.006765782367438078,-0.0004704892635345459,0.0005926375743001699
0.011923270300030708,0.0068090506829321384,-0.013207112438976765,0.006670171860605478,-0.0004328342620283365,0.0005295129376463592
0.011769631877541542,0.006990598980337381,-0.01349949836730957,0.006569193210452795,-0.0004532042075879872,0.0005189906223677099
0.012363280169665813,0.0074140033684670925,-0.013592499308288097,0.006533048115670681,-0.0004346504283603281,0.0005520706763491035
0.011425979435443878,0.0073698232881724834,-0.013746614567935467,0.007001938298344612,-0.0004613767669070512,0.0005821554223075509
0.011574141681194305,0.0074066235683858395,-0.013463045470416546,0.006827155593782663,-0.0004373195697553456,0.0005771343712694943
0.011715584434568882,0.007025416474789381,-0.013240084983408451,0.006865968927741051,-0.00045995740219950676,0.0008597435662522912
0.011882259510457516,0.007593751419335604,-0.013245813548564911,0.006743909325450659,-0.0005079479888081551,0.0008161424775607884
0.01211156602948904,0.006904158741235733,-0.01295094471424818,0.007170696277171373,-0.000517861160915345,0.0007705489406362176
0.0119831133633852,0.006453382316976786,-0.013877970166504383,0.0073112486861646175,-0.0005553131923079491,0.0007316110422834754
0.011735227890312672,0.0069747925736010075,-0.013907323591411114,0.006962647661566734,-0.0005322404904291034,0.0005962027935311198
0.011735227890312672,0.0069747925736010075,-0.013907323591411114,0.006962647661566734,-0.0005322404904291034,0.0005962027935311198
0.012561257928609848,0.007266611326485872,-0.013894121162593365,0.007259994279593229,-0.0005116442334838212,0.0005012442707084119
0.012008623220026493,0.007329878397285938,-0.013936611823737621,0.007314251270145178,-0.0004918316262774169,0.00046427478082478046
0.012314718216657639,0.007512067910283804,-0.014226941391825676,0.007404575124382973,-0.0005077504902146757,0.00043238772195763886
0.012210161425173283,0.007659779395908117,-0.013363220728933811,0.007629755884408951,-0.0004962771199643612,0.000404603109927848
0.012358125299215317,0.00709660816937685,-0.014002296142280102,0.007687992416322231,-0.000492878898512572,0.0003801747225224972
0.012575856409966946,0.006526516284793615,-0.012805517762899399,0.007504380773752928,-0.0004875882586929947,0.00035852851578965783
0.012442839331924915,0.006585531868040562,-0.014215217903256416,0.0073342639952898026,-0.0005045075668022037,0.0003392159997019917
0.012787016108632088,0.0069502731785178185,-0.014525361359119415,0.008023054338991642,-0.0004830033576581627,0.00032187983742915094
0.012787016108632088,0.0069502731785178185,-0.014525361359119415,0.008023054338991642,-0.0004830033576581627,0.00032187983742915094
0.011961393989622593,0.0070282467640936375,-0.014277097769081593,0.008360837586224079,-0.0004968560533598065,0.00030622867052443326
0.012415772303938866,0.0067971497774124146,-0.013802709989249706,0.008160635828971863,-0.00047858626930974424,0.000131168300868012
0.012057548388838768,0.006562097929418087,-0.014693310484290123,0.007719434332102537,-0.00044965065899305046,0.00010199383541475981
0.012441135011613369,0.006876945961266756,-0.014388041570782661,0.0075662871822714806,-0.00047671268112026155,9.517301805317402e-05
0.012579712085425854,0.007111589424312115,-0.014336739666759968,0.007517865393310785,-0.0004392771515995264,9.030349610839039e-05
0.012471345253288746,0.006871307268738747,-0.014247897081077099,0.007566090673208237,-0.00045943251461721957,8.59824285726063e-05
0.012715783901512623,0.006964297033846378,-0.014403543435037136,0.006917793769389391,-0.0004401491314638406,8.206104394048452e-05
0.012349463999271393,0.007060790900141001,-0.014266283251345158,0.007199665065854788,-0.00044103217078372836,7.848229870432988e-05
0.012995419092476368,0.0073005687445402145,-0.014060714282095432,0.007412649691104889,-0.0004403934290166944,7.520253711845726e-05
0.012810084037482738,0.007282010279595852,-0.014001185074448586,0.007924136705696583,-0.0004134565533604473,7.218597602332011e-05
0.012917355634272099,0.0073616900481283665,-0.014478178694844246,0.007977211847901344,-0.00038810184923931956,6.940241291886196e-05
0.01263951975852251,0.0075073265470564365,-0.014372700825333595,0.008231093175709248,-0.00036557999555952847,6.682539242319763e-05
0.013157255947589874,0.007044252939522266,-0.014263346791267395,0.007898232899606228,-0.0003455210826359689,3.6492448998615146e-05
0.013151646591722965,0.007190463598817587,-0.013991913758218288,0.007596356328576803,-0.00032755042775534093,3.138217653031461e-05
0.012942163273692131,0.006620974279940128,-0.014459093101322651,0.007677703630179167,-0.0003113574057351798,3.0082073863013647e-05
0.01337716355919838,0.0066206264309585094,-0.013988282531499863,0.008465640246868134,-0.00029668956995010376,2.9093171178828925e-05
0.01297189574688673,0.007201435975730419,-0.013573690317571163,0.008388107642531395,-0.0002833426115103066,1.4357622603711206e-05
0.012934748083353043,0.0069326963275671005,-0.014176231808960438,0.007879219017922878,-0.00029675354016944766,6.120879447735206e-08
0.01344192773103714,0.006872731260955334,-0.014401006512343884,0.007864239625632763,-0.00028529352857731283,3.996496911184977e-09
0.013009026646614075,0.007419722620397806,-0.014230683445930481,0.007639056537300348,-0.00027443672297522426,2.6094265637155445e-10
0.013544498942792416,0.007032354362308979,-0.014462041668593884,0.007446531672030687,-0.00026436042389832437,1.703769070271477e-11
0.013339164666831493,0.007148155476897955,-0.013473855331540108,0.007600332610309124,-0.00025499649927951396,1.112439567546586e-12
0.013403942808508873,0.0075172679498791695,-0.014168390072882175,0.007963692769408226,-0.0002462734410073608,7.263434916460892e-14
0.013495905324816704,0.006999394856393337,-0.013888543471693993,0.007729667238891125,-0.00023812711879145354,4.742504437391885e-15
0.013727718964219093,0.007100878749042749,-0.014064154587686062,0.008063536137342453,-0.00023050296294968575,3.096516609425471e-16
0.01369582861661911,0.007063320372253656,-0.01419308502227068,0.008404935710132122,-0.000206805721973069,-0.0008843634277582169
0.01369582861661911,0.007063320372253656,-0.01419308502227068,0.008404935710132122,-0.000206805721973069,-0.0008843634277582169
0.013947187922894955,0.006711654365062714,-0.01433156244456768,0.008423365652561188,-0.00018337342771701515,-0.0009738763328641653
0.014057590626180172,0.007157839369028807,-0.014204776845872402,0.008693358860909939,-0.0001752486714394763,-0.0009070818778127432
0.014173594303429127,0.00724894879385829,-0.014222304336726665,0.008706842549145222,-0.0001686170435277745,-0.0007969525177031755
0.01388532668352127,0.007067074067890644,-0.013990151695907116,0.008763985708355904,-0.00016252191562671214,-0.000801212852820754
0.013724269345402718,0.007016136310994625,-0.014325032010674477,0.008389615453779697,-0.00015685571997892112,-0.0007264091982506216
0.013997400179505348,0.007285943254828453,-0.013730195350944996,0.008320922963321209,-0.00015157164307311177,-0.0006770828040316701
0.014178850688040257,0.006982805207371712,-0.014678653329610825,0.008050148375332355,-0.00017207585915457457,-0.0007897472241893411
0.014356929808855057,0.0066052689217031,-0.014137745834887028,0.007982928305864334,-0.00017015212506521493,-0.0008313078433275223
0.013972361572086811,0.006728785578161478,-0.014465265907347202,0.007586225867271423,-0.00016517520998604596,-0.0015142809133976698
0.014714854769408703,0.006610741838812828,-0.013754119165241718,0.008006933145225048,-0.00016028707614168525,-0.0015158936148509383
0.014349940232932568,0.0068931495770812035,-0.01423091720789671,0.00881695281714201,-0.00015566698857583106,-0.0014748215908184648
0.014257416129112244,0.0071897683665156364,-0.013777190819382668,0.00820176862180233,-0.0001513050083303824,-0.001462853280827403
0.014311146922409534,0.0070454636588692665,-0.014243894256651402,0.007624336984008551,-0.00015922579041216522,-0.0013571939198300242
0.014788370579481125,0.006772224325686693,-0.013893096707761288,0.00796035211533308,-0.00016633963969070464,-0.001231545815244317
0.014580924063920975,0.006846708711236715,-0.014493267051875591,0.008301965892314911,-0.00016278091061394662,-0.0013199400855228305
0.014829189516603947,0.0068075149320065975,-0.013887494802474976,0.008177562616765499,-0.00015872779476922005,-0.0017706482904031873
0.01505177840590477,0.006931653246283531,-0.014384971931576729,0.008178398944437504,-0.00015482970047742128,-0.002108633751049638
0.01516044419258833,0.007011259440332651,-0.013703782111406326,0.008718798868358135,-0.0001511160662630573,-0.0026872577145695686
0.01478897500783205,0.0069493623450398445,-0.013714863918721676,0.008331491611897945,-0.00016342112212441862,-0.002099041361361742
0.014712635427713394,0.007150224409997463,-0.014512541703879833,0.008629687130451202,-0.00016102023073472083,-0.0018513379618525505
0.01459935586899519,0.006795749068260193,-0.01374250091612339,0.008929810486733913,-0.00015757785877212882,-0.0016374399419873953
0.014943982474505901,0.0068323928862810135,-0.014339936897158623,0.008549327962100506,-0.0001542081736261025,-0.0017148108454421163
0.015065358020365238,0.006791272200644016,-0.013846871443092823,0.007863461039960384,-0.00015097475261427462,-0.0023672119714319706
0.015434345230460167,0.006627213209867477,-0.014491605572402477,0.008059434592723846,-0.0001751425734255463,-0.002541108289733529
0.01472577452659607,0.006646798923611641,-0.014054713770747185,0.008178984746336937,-0.00017246791685465723,-0.002491133287549019
0.015132313594222069,0.00723562715575099,-0.014567484147846699,0.007598088588565588,-0.00016635486099403352,-0.0024588205851614475
0.01515042781829834,0.007815414108335972,-0.013905541971325874,0.008724416606128216,-0.0001604407880222425,-0.0021821348927915096
0.01515042781829834,0.007815414108335972,-0.013905541971325874,0.008724416606128216,-0.0001604407880222425,-0.0021821348927915096
0.014950054697692394,0.006439564283937216,-0.014109698124229908,0.009053202345967293,-0.00017944531282410026,-0.002217294881120324
0.014950054697692394,0.006439564283937216,-0.014109698124229908,0.009053202345967293,-0.00017944531282410026,-0.002217294881120324
0.015650412067770958,0.006958778481930494,-0.014432094059884548,0.008584489114582539,-0.00017390721768606454,-0.003008713247254491
0.01574813202023506,0.007196561899036169,-0.014642852358520031,0.008861674927175045,-0.00018703141540754586,-0.004279198125004768
0.01574813202023506,0.007196561899036169,-0.014642852358520031,0.008861674927175045,-0.00018703141540754586,-0.004279198125004768
0.01580003835260868,0.00641891872510314,-0.01494824979454279,0.00918333325535059,-0.00019875839643646032,-0.0031398835126310587
0.01580003835260868,0.00641891872510314,-0.01494824979454279,0.00918333325535059,-0.00019875839643646032,-0.0031398835126310587
0.015770260244607925,0.006939512677490711,-0.014018669724464417,0.00928138941526413,-0.0001992962061194703,-0.003108396427705884
0.015539044514298439,0.007404711097478867,-0.014776496216654778,0.008358488790690899,-0.00019431160762906075,-0.0032684507314115763
0.015762876719236374,0.007007270585745573,-0.014658146537840366,0.00850177276879549,-0.00018972379621118307,-0.0033990610390901566
0.015682995319366455,0.006794139742851257,-0.014900198206305504,0.009070511907339096,-0.0003008820058312267,-0.0034438478760421276
0.015974462032318115,0.007153261452913284,-0.014199379831552505,0.008701280690729618,-0.0002896183868870139,-0.0036399024538695812
0.01577443815767765,0.008081109263002872,-0.014534808695316315,0.008448480628430843,-0.00031275468063540757,-0.003742695553228259
0.01636330969631672,0.007204269524663687,-0.01439714152365923,0.008902665227651596,-0.00030752597376704216,-0.003850569250062108
0.01572735421359539,0.0064405533485114574,-0.015145924873650074,0.009011822752654552,-0.0002917307720053941,-0.003483718493953347
0.0158681757748127,0.007327517494559288,-0.015222068876028061,0.009007534943521023,-0.0002957158721983433,-0.0037575415335595608
0.016059475019574165,0.006752791814506054,-0.014551706612110138,0.009399165399372578,-0.00029217349947430193,-0.0039019885007292032
0.016209600493311882,0.005950890947133303,-0.015544896945357323,0.00922371819615364,-0.00027985774795524776,-0.004307255148887634
0.0159846730530262,0.005369537975639105,-0.015339871868491173,0.009220950305461884,-0.00029628173797391355,-0.004130756948143244
0.016220487654209137,0.00601412495598197,-0.015659263357520103,0.009331571869552135,-0.00029312926926650107,-0.003573291003704071
0.015627896413207054,0.006085930857807398,-0.014841473661363125,0.008984706364572048,-0.0002822197857312858,-0.003534650430083275
0.016320759430527687,0.006342192646116018,-0.015488334000110626,0.009189964272081852,-0.000272371806204319,-0.003696110099554062
0.016316058114171028,0.006227610632777214,-0.015642553567886353,0.009380314499139786,-0.0003179555933456868,-0.004130441229790449
0.01632973738014698,0.005532542243599892,-0.015186712145805359,0.008807696402072906,-0.00030093270470388234,-0.004302236717194319
0.01632973738014698,0.005532542243599892,-0.015186712145805359,0.008807696402072906,-0.00030093270470388234,-0.004302236717194319
0.016312481835484505,0.006039550993591547,-0.015297559089958668,0.008470061235129833,-0.0003311344189569354,-0.004003604874014854
0.016424834728240967,0.005874159280210733,-0.01588960736989975,0.009158959612250328,-0.0003476864949334413,-0.0041663991287350655
0.016424834728240967,0.005874159280210733,-0.01588960736989975,0.009158959612250328,-0.0003476864949334413,-0.0041663991287350655
0.016124363988637924,0.005584517493844032,-0.015491216443479061,0.008536918088793755,-0.0003324102726764977,-0.004080967511981726
0.016611265018582344,0.005511781200766563,-0.015176834538578987,0.00944305956363678,-0.00034306381712667644,-0.003978897351771593
0.016611265018582344,0.005511781200766563,-0.015176834538578987,0.00944305956363678,-0.00034306381712667644,-0.003978897351771593
0.016798241063952446,0.005680249538272619,-0.01557754073292017,0.009147844277322292,-0.0004553152830339968,-0.004236131440848112
0.01602148823440075,0.0058808354660868645,-0.01506796944886446,0.009212729521095753,-0.0004519835929386318,-0.0049125999212265015
0.016448598355054855,0.005882004741579294,-0.01592220366001129,0.008860244415700436,-0.0004899662453681231,-0.004836651496589184
0.01667771115899086,0.005436565726995468,-0.015492526814341545,0.008497989736497402,-0.0004539397486951202,-0.004919501952826977
0.016557328402996063,0.005966689437627792,-0.015468910336494446,0.0089399553835392,-0.000452858250355348,-0.004440062679350376
0.017202388495206833,0.005690769758075476,-0.015770994126796722,0.008706741034984589,-0.0004513065505307168,-0.004475815687328577
0.016547275707125664,0.006000208202749491,-0.01566947251558304,0.009146526455879211,-0.00042301384382881224,-0.0049381679855287075
0.01714564859867096,0.006046092603355646,-0.015885042026638985,0.008709930814802647,-0.00044547245488502085,-0.004972835537046194
0.016711372882127762,0.005494783632457256,-0.015304447151720524,0.009052827022969723,-0.00042581630987115204,-0.004618530627340078
0.01483297348022461,0.005756774917244911,-0.016008375212550163,0.009318655356764793,-0.00047173970961011946,-0.004923499654978514
0.01720242016017437,0.005771399941295385,-0.015431380830705166,0.009133441373705864,-0.000512684928253293,-0.004821439739316702
0.017682770267128944,0.006201682612299919,-0.015774983912706375,0.00920611061155796,-0.0005168005591258407,-0.004841243382543325
0.017191825434565544,0.0056345509365201,-0.015147252939641476,0.010082266293466091,-0.0005460837855935097,-0.004764806944876909
0.016809340566396713,0.005518255289644003,-0.015349066816270351,0.010003474541008472,-0.0007497808546759188,-0.005064188968390226
0.01781681925058365,0.005866556894034147,-0.01561890821903944,0.010520324110984802,-0.000791882979683578,-0.005202637054026127
0.017189864069223404,0.006304921116679907,-0.015339150093495846,0.010139945894479752,-0.0007626158185303211,-0.00515008345246315
0.017676955088973045,0.006068505812436342,-0.015350120142102242,0.010555898770689964,-0.0007257590186782181,-0.0049039991572499275
0.017634447664022446,0.006231591105461121,-0.01550538931041956,0.010962782427668571,-0.0006537105655297637,-0.004724312573671341
0.017425693571567535,0.006428324151784182,-0.01575014367699623,0.010407027788460255,-0.0006331842159852386,-0.005106248427182436
0.017928501591086388,0.006025812588632107,-0.015932919457554817,0.010826480574905872,-0.0006159046315588057,-0.005293676164001226
0.01706630550324917,0.006558890454471111,-0.015338238328695297,0.010408840142190456,-0.0005695692379958928,-0.005457344464957714
0.016971031203866005,0.0064348382875323296,-0.015705348923802376,0.009911713190376759,-0.0005261639598757029,-0.005273674614727497
0.01734011434018612,0.005972974933683872,-0.015421539545059204,0.009713389910757542,-0.0004731856461148709,-0.005638288799673319
0.01751215197145939,0.006221821531653404,-0.015931861475110054,0.009485018439590931,-0.0004695412644650787,-0.005397818051278591
0.017880583181977272,0.005774359218776226,-0.015067723579704762,0.009604633785784245,-0.00046630477299913764,-0.005146580748260021
0.017880583181977272,0.005774359218776226,-0.015067723579704762,0.009604633785784245,-0.00046630477299913764,-0.005146580748260021
0.017614472657442093,0.006117798388004303,-0.015700729563832283,0.009729758836328983,-0.0004314698453526944,-0.005253381095826626
0.017712656408548355,0.00601001875475049,-0.015594425611197948,0.00940578430891037,-0.0003996692830696702,-0.00544314319267869
0.017580127343535423,0.0059357997961342335,-0.015957847237586975,0.009144404903054237,-0.0003721185203175992,-0.005453116726130247
0.01744970865547657,0.005984460934996605,-0.015884002670645714,0.009316160343587399,-0.0004020859196316451,-0.005430247634649277
0.017847485840320587,0.005680732429027557,-0.01547926478087902,0.009387364611029625,-0.00038126326398923993,-0.005537193734198809
0.017428060993552208,0.005946849472820759,-0.01580834574997425,0.009355583228170872,-0.00035971435136161745,-0.005501539912074804
0.017751509323716164,0.006393394432961941,-0.015652736648917198,0.009900026023387909,-0.00037613805034197867,-0.005552355665713549
0.018030785024166107,0.005760908592492342,-0.016065696254372597,0.009802638553082943,-0.00036813688348047435,-0.005294825881719589
0.017912600189447403,0.0058295815251767635,-0.015405968762934208,0.009374306537210941,-0.00035092353937216103,-0.005679103545844555
0.01798159070312977,0.005890486761927605,-0.01608777791261673,0.009873857721686363,-0.000335547374561429,-0.0054209232330322266
0.01835702732205391,0.005971209146082401,-0.015195881947875023,0.009754079394042492,-0.0003131774428766221,-0.005685277283191681
0.018287677317857742,0.0058708637952804565,-0.015785878524184227,0.009336276911199093,-0.0002928482135757804,-0.00536049110814929
0.01840309426188469,0.0056726993061602116,-0.015850258991122246,0.009796681813895702,-0.000274950813036412,-0.005726528819650412
0.01830272004008293,0.005618993192911148,-0.016069868579506874,0.010563913732767105,-0.00025911215925589204,-0.005755707621574402
0.01807735674083233,0.005586302373558283,-0.01617886684834957,0.010192934423685074,-0.0002449986932333559,-0.005725083872675896
0.01827048882842064,0.00557561544701457,-0.01595114916563034,0.010943700559437275,-0.00022093360894359648,-0.006042237393558025
0.018196098506450653,0.005273069255053997,-0.015497547574341297,0.010555711574852467,-0.00024168813251890242,-0.0057609062641859055
0.01854695752263069,0.005459366831928492,-0.016222307458519936,0.010705161839723587,-0.0002406896383035928,-0.005819275975227356
0.01850471831858158,0.005632803775370121,-0.0156166460365057,0.010344921611249447,-0.0002310296258656308,-0.0056294905953109264
0.01858576573431492,0.005791002418845892,-0.01607709378004074,0.010436424985527992,-0.00022158926003612578,-0.00604852894321084
0.018590567633509636,0.006170246750116348,-0.015643887221813202,0.010794617235660553,-0.000212855709833093,-0.006256075110286474
0.018437711521983147,0.006201192736625671,-0.016065917909145355,0.010451375506818295,-0.00023002260422799736,-0.006960760336369276
0.018437711521983147,0.006201192736625671,-0.016065917909145355,0.010451375506818295,-0.00023002260422799736,-0.006960760336369276
0.018967684358358383,0.005608163774013519,-0.01616009697318077,0.010625840164721012,-0.0002296015154570341,-0.006476713344454765
0.019176846370100975,0.005987538956105709,-0.015905136242508888,0.010846588760614395,-0.00022202922264114022,-0.005771837197244167
0.01856304332613945,0.005623730830848217,-0.016229718923568726,0.010278754867613316,-0.00022952270228415728,-0.0059105465188622475
0.019107051193714142,0.005770355928689241,-0.01596619188785553,0.01085240300744772,-0.000236055493587628,-0.006273399572819471
0.019058957695961,0.005490434821695089,-0.01645476743578911,0.010606867261230946,-0.00022945099044591188,-0.00690126046538353
0.018832247704267502,0.005641923751682043,-0.015840299427509308,0.009973540902137756,-0.00022242222621571273,-0.006540642119944096
0.019444547593593597,0.005329004488885403,-0.016306357458233833,0.010219630785286427,-0.00021576025756075978,-0.005798615515232086
0.019074594601988792,0.005366506054997444,-0.01626075804233551,0.010050876066088676,-0.00021020093117840588,-0.006303245667368174
0.01880921982228756,0.005514080170542002,-0.015985632315278053,0.00985424779355526,-0.00019913392316084355,-0.006606737617403269
0.0197242870926857,0.005211501382291317,-0.01609857566654682,0.010112285614013672,-0.00019058282487094402,-0.006698422599583864
0.019533270969986916,0.005606178659945726,-0.015996776521205902,0.010021580383181572,-0.00018283049575984478,-0.006250692997127771
0.01906285621225834,0.0054099783301353455,-0.01687507890164852,0.009952698834240437,-0.00017569051124155521,-0.006412236951291561
0.01960568316280842,0.005265476647764444,-0.01611008122563362,0.010090084746479988,-0.00018564859055913985,-0.006515161599963903
0.019758595153689384,0.005619557108730078,-0.016382278874516487,0.009707393124699593,-0.00019442979828454554,-0.006986571941524744
0.0187892634421587,0.005951402708888054,-0.01620342768728733,0.010597479529678822,-0.0001886474492494017,-0.006743769161403179
0.020152011886239052,0.005442667752504349,-0.016656335443258286,0.010404751636087894,-0.00019723991863429546,-0.006441873963922262
0.02010221779346466,0.005295620299875736,-0.0169708039611578,0.00972718559205532,-0.00020477680664043874,-0.00686606066301465
0.020028237253427505,0.005493634380400181,-0.0166352316737175,0.009988542646169662,-0.000199212328880094,-0.006972177419811487
0.019575776532292366,0.006078276317566633,-0.01687646470963955,0.010499203577637672,-0.000217110151425004,-0.006768444553017616
0.019794275984168053,0.0056007797829806805,-0.017003891989588737,0.009995739907026291,-0.00020825958927161992,-0.006862004287540913
0.0192708820104599,0.0055061825551092625,-0.01630188524723053,0.0097803371027112,-0.0003129582037217915,-0.007200910244137049
0.01937289349734783,0.00574392220005393,-0.016213737428188324,0.010118047706782818,-0.0002998973068315536,-0.007424986455589533
0.019553424790501595,0.006243955809623003,-0.01649819128215313,0.01010142546147108,-0.0003231036534998566,-0.007907183840870857
0.020276952534914017,0.005837620701640844,-0.016553109511733055,0.01002001017332077,-0.0003171120479237288,-0.007799290586262941
0.020057210698723793,0.00585939409211278,-0.016994833946228027,0.009892484173178673,-0.00030031937058083713,-0.0071221329271793365
0.019536344334483147,0.0057175736874341965,-0.0161574799567461,0.010646347887814045,-0.0003255902847740799,-0.006961793173104525
0.02005763165652752,0.006068412680178881,-0.01656517945230007,0.010869791731238365,-0.00031493324786424637,-0.007082960568368435
0.02005763165652752,0.006068412680178881,-0.01656517945230007,0.010869791731238365,-0.00031493324786424637,-0.007082960568368435
0.021227167919278145,0.006532484199851751,-0.016427239403128624,0.010957987047731876,-0.00032123835990205407,-0.00697222538292408
0.020402610301971436,0.006191961467266083,-0.016788465902209282,0.010539205744862556,-0.00032615961390547454,-0.007270372938364744
0.019614586606621742,0.005759137682616711,-0.01708889938890934,0.009823600761592388,-0.0003132403944619,-0.007305744104087353
0.02058665081858635,0.005548157729208469,-0.016283320263028145,0.010275422595441341,-0.00035442697117105126,-0.007079588249325752
0.020155051723122597,0.0055012814700603485,-0.016577916219830513,0.010742202401161194,-0.0003765663714148104,-0.007443118374794722
0.02015477791428566,0.005677295383065939,-0.01634499989449978,0.01037626527249813,-0.00035060898517258465,-0.007178192026913166
0.020134905353188515,0.006129520479589701,-0.016640344634652138,0.010691696777939796,-0.0003732902114279568,-0.007257203105837107
0.02081933617591858,0.006193818058818579,-0.01672656461596489,0.011151016689836979,-0.00036308029666543007,-0.007054000627249479
0.02064199186861515,0.005909966770559549,-0.016435271129012108,0.010392623022198677,-0.0003411090583540499,-0.00734601030126214
0.02036198042333126,0.006052539683878422,-0.016762834042310715,0.010833421722054482,-0.0003602897049859166,-0.007065073121339083
0.02077902853488922,0.00566598167642951,-0.016278237104415894,0.011106866411864758,-0.00035245221806690097,-0.007382762152701616
0.02060575969517231,0.006434020586311817,-0.016760285943746567,0.011181932874023914,-0.0003697884385474026,-0.007289920002222061
0.02039881981909275,0.00614344235509634,-0.016306085512042046,0.011467180214822292,-0.0003622810763772577,-0.007291190791875124
0.02058391273021698,0.006033943500369787,-0.016691474243998528,0.010389909148216248,-0.0004162109107710421,-0.0069650812074542046
0.020821794867515564,0.00641366234049201,-0.01646568439900875,0.009798812679946423,-0.00044212699867784977,-0.006933822296559811
0.020697833970189095,0.006070965435355902,-0.016388563439249992,0.010641333647072315,-0.00044288020581007004,-0.006763799581676722
0.02036193758249283,0.006115785334259272,-0.01696072518825531,0.01015588827431202,-0.00047075512702576816,-0.006875824183225632
0.02102227322757244,0.0064927502535283566,-0.016511399298906326,0.01065919455140829,-0.0004925281391479075,-0.00733364699408412
0.02076975628733635,0.005984561052173376,-0.0165378600358963,0.011385842226445675,-0.00047835352597758174,-0.00756923807784915
0.020557604730129242,0.005970688071101904,-0.015909377485513687,0.0113393384963274,-0.0007809471571817994,-0.007165188901126385
0.020901745185256004,0.0064120786264538765,-0.01663835160434246,0.011162549257278442,-0.0008130048518069088,-0.007136068772524595
0.021143360063433647,0.00571586936712265,-0.016348496079444885,0.01161524560302496,-0.0010178720112890005,-0.008057257160544395
0.020937955006957054,0.006123649422079325,-0.01697436347603798,0.011727845296263695,-0.0010361294262111187,-0.008121122606098652
0.02092801034450531,0.005767528899013996,-0.016370072960853577,0.01126355305314064,-0.0009066909551620483,-0.007251142058521509
0.020768411457538605,0.006327745504677296,-0.01680159941315651,0.011415494605898857,-0.0008894922211766243,-0.0072359791956841946
0.02190185710787773,0.0060710902325809,-0.01596226915717125,0.011669709347188473,-0.0007925017271190882,-0.0079584876075387
0.02161252684891224,0.0058184415102005005,-0.01635141856968403,0.011906960047781467,-0.0007780920132063329,-0.008255555294454098
0.02161252684891224,0.0058184415102005005,-0.01635141856968403,0.011906960047781467,-0.0007780920132063329,-0.008255555294454098
0.02168663963675499,0.0056676403619349,-0.016907012090086937,0.011748512275516987,-0.0007224844302982092,-0.00722334161400795
0.021656617522239685,0.00588913494721055,-0.016622819006443024,0.011414281092584133,-0.0006631064461544156,-0.007005980703979731
0.021774206310510635,0.006594444625079632,-0.01745496317744255,0.012074772268533707,-0.0005488024326041341,-0.007972861640155315
0.021476460620760918,0.006900614593178034,-0.016333235427737236,0.011937101371586323,-0.0005707539967261255,-0.008335770107805729
0.021372316405177116,0.006316150072962046,-0.017080940306186676,0.01179216243326664,-0.0005905994330532849,-0.007691764738410711
0.021985018625855446,0.006351470947265625,-0.016601283103227615,0.012026474811136723,-0.0005586468032561243,-0.007353047840297222
0.02282141149044037,0.0062677436508238316,-0.01656462252140045,0.011752111837267876,-0.0005777179612778127,-0.007891150191426277
0.022090720012784004,0.006227131001651287,-0.016964130103588104,0.01185350026935339,-0.0005428498261608183,-0.007736523635685444
0.022210510447621346,0.006025670561939478,-0.01701788790524006,0.011673559434711933,-0.0006266493001021445,-0.007883924059569836
0.021542521193623543,0.005377860274165869,-0.017593584954738617,0.011835867539048195,-0.0006501625757664442,-0.007711135316640139
0.02191334031522274,0.005373987834900618,-0.017301397398114204,0.011842532083392143,-0.0006039093132130802,-0.007750844117254019
0.022189829498529434,0.005196458660066128,-0.016742931678891182,0.01182471215724945,-0.0006288563599810004,-0.008635045029222965
0.022281955927610397,0.005340603180229664,-0.01720903255045414,0.012208204716444016,-0.0005768333794549108,-0.008180933073163033
0.02189246006309986,0.005502389743924141,-0.017512481659650803,0.011333798058331013,-0.0005841263337060809,-0.008251979015767574
0.02222580276429653,0.0055098398588597775,-0.017950188368558884,0.011790767312049866,-0.0005561555735766888,-0.008698870427906513
0.022521741688251495,0.005204112734645605,-0.01700889691710472,0.011801235377788544,-0.0005172966630198061,-0.00860634446144104
0.022825388237833977,0.005087097641080618,-0.01687907613813877,0.011520210653543472,-0.0005048697348684072,-0.007964665070176125
0.022796539589762688,0.005724767688661814,-0.017394155263900757,0.0119646480306983,-0.000462754542240873,-0.008182231336832047
0.02211197465658188,0.005753904115408659,-0.016810983419418335,0.011605978012084961,-0.00042141866288147867,-0.008165453560650349
0.02239922806620598,0.005078178830444813,-0.016616174951195717,0.011838828213512897,-0.00042221989133395255,-0.008280188776552677
0.022450895980000496,0.004892071709036827,-0.01739663816988468,0.01147572323679924,-0.0003936371940653771,-0.007862517610192299
0.02315140888094902,0.005252244416624308,-0.018133308738470078,0.011921582743525505,-0.000367021159036085,-0.007645430974662304
0.02335604839026928,0.005347088910639286,-0.017164135351777077,0.011970019899308681,-0.0003858087584376335,-0.008330746553838253
0.02308022789657116,0.0059454976581037045,-0.017286717891693115,0.012444019317626953,-0.0003759401442948729,-0.008535638451576233
0.02303480915725231,0.005231705028563738,-0.016920361667871475,0.012588854879140854,-0.000355604657670483,-0.008460716344416142
0.0226949043571949,0.005149797070771456,-0.016977567225694656,0.01243362482637167,-0.00038139920798130333,-0.008514921180903912
0.0226949043571949,0.005149797070771456,-0.016977567225694656,0.01243362482637167,-0.00038139920798130333,-0.008514921180903912
0.023215850815176964,0.005077898036688566,-0.017439525574445724,0.011917497962713242,-0.00036498860572464764,-0.00838235393166542
0.023594971746206284,0.005064509809017181,-0.01712821237742901,0.01146463118493557,-0.000347581401001662,-0.008375592529773712
0.02305196225643158,0.005838831886649132,-0.01760789379477501,0.012311626225709915,-0.000335236283717677,-0.00827847234904766
0.021497178822755814,0.005708105396479368,-0.017116369679570198,0.01199935469776392,-0.00031333725200966,-0.008664466440677643
0.02334601804614067,0.0055665806867182255,-0.017031541094183922,0.0122027937322855,-0.00034749414771795273,-0.008597713895142078
0.023733068257570267,0.005072940140962601,-0.01738557405769825,0.012137280777096748,-0.0003298291703686118,-0.008524107746779919
0.023637309670448303,0.005569336470216513,-0.016956789419054985,0.011825764551758766,-0.0003492507676128298,-0.008807193487882614
0.023529469966888428,0.005385567434132099,-0.01747804880142212,0.012353375554084778,-0.00034225088893435895,-0.009096418507397175
0.02333235554397106,0.00548616424202919,-0.016850413754582405,0.012675745412707329,-0.00036558660212904215,-0.008625682443380356
0.023219071328639984,0.0056413100101053715,-0.01718377321958542,0.012684302404522896,-0.000464952812762931,-0.00850652251392603
0.02338930405676365,0.005182325374335051,-0.01721717044711113,0.012748992070555687,-0.0005935351364314556,-0.008738442324101925
0.023902704939246178,0.0051368167623877525,-0.016912681981921196,0.01307524275034666,-0.000562080298550427,-0.008692278526723385
0.024164358153939247,0.005343048367649317,-0.01765572838485241,0.013105930760502815,-0.0005899453535676003,-0.008411683142185211
0.024191999807953835,0.005595576483756304,-0.016748709604144096,0.012673741206526756,-0.0005442327237688005,-0.008773836307227612
0.02367815002799034,0.005640424322336912,-0.016910409554839134,0.01267906092107296,-0.0005630250088870525,-0.008789828047156334
0.023534422740340233,0.005542817525565624,-0.016868917271494865,0.0124049112200737,-0.0005299769109115005,-0.008987626060843468
0.024114320054650307,0.005287148989737034,-0.017535733059048653,0.012022068724036217,-0.0005548754124902189,-0.0084875812754035
0.024381905794143677,0.005600480362772942,-0.016560593619942665,0.012081441469490528,-0.0005683153867721558,-0.008852909319102764
0.024214107543230057,0.006239549722522497,-0.01715868152678013,0.011810793541371822,-0.000534452439751476,-0.008774293586611748
0.02407287061214447,0.005583518650382757,-0.01673448272049427,0.011758527718484402,-0.0005630402592942119,-0.008851795457303524
0.02444556914269924,0.0052324216812849045,-0.01710868626832962,0.012049512006342411,-0.0005574797396548092,-0.008914142847061157
0.024275071918964386,0.005366331432014704,-0.017046822234988213,0.011533583514392376,-0.0005481783300638199,-0.008888555690646172
0.024526366963982582,0.005206417758017778,-0.01631627231836319,0.011802432127296925,-0.0005875629722140729,-0.009242095053195953
0.024526366963982582,0.005206417758017778,-0.01631627231836319,0.011802432127296925,-0.0005875629722140729,-0.009242095053195953
0.025104638189077377,0.005307640880346298,-0.016831886023283005,0.011715218424797058,-0.0006232208688743412,-0.00918515957891941
0.02469566836953163,0.005686710588634014,-0.01663380116224289,0.011913766153156757,-0.0006400324637070298,-0.009451750665903091
0.02450297400355339,0.005377511493861675,-0.01714719645678997,0.012629377655684948,-0.0006641419604420662,-0.009023139253258705
0.024428527802228928,0.0049119931645691395,-0.017425989732146263,0.012545856647193432,-0.0008741967612877488,-0.009514769539237022
0.025169378146529198,0.0047546918503940105,-0.017017288133502007,0.01322412770241499,-0.0009434571256861091,-0.009255046024918556
0.025196244940161705,0.004999159369617701,-0.017425796017050743,0.012980987317860126,-0.0009228898561559618,-0.009405466727912426
0.026035040616989136,0.005486516281962395,-0.01657797209918499,0.01308452244848013,-0.0009191613062284887,-0.009459858760237694
0.02521098218858242,0.006069977767765522,-0.0171485748142004,0.012486299499869347,-0.0008401547675020993,-0.009481735527515411
0.02366652898490429,0.005357493180781603,-0.017315173521637917,0.012487227097153664,-0.0008379750652238727,-0.00947219505906105
0.02490207739174366,0.005335303954780102,-0.016802983358502388,0.012387209571897984,-0.0008255132706835866,-0.009556924924254417
0.025217223912477493,0.005156807601451874,-0.017483675852417946,0.011907780542969704,-0.0007442799396812916,-0.009572816081345081
0.025246478617191315,0.0054689752869307995,-0.016722531989216805,0.012286396697163582,-0.0007352872635237873,-0.009661459363996983
0.024745825678110123,0.005796943791210651,-0.017440903931856155,0.012080032378435135,-0.0006803296855650842,-0.008548417128622532
0.02522910013794899,0.006140253506600857,-0.017431918531656265,0.012757896445691586,-0.0006910650990903378,-0.010020202025771141
0.025909116491675377,0.0054129017516970634,-0.016959859058260918,0.012628826312720776,-0.0006411481299437582,-0.010327053256332874
0.025843583047389984,0.005381102208048105,-0.017198165878653526,0.01313170325011015,-0.0005922013660892844,-0.009509354829788208
0.025965113192796707,0.005491612013429403,-0.016983481124043465,0.013208256103098392,-0.0005756436148658395,-0.009548983536660671
0.025138378143310547,0.005750689655542374,-0.01840103417634964,0.013825341127812862,-0.0005107856122776866,-0.009577018208801746
0.025912337005138397,0.005411251913756132,-0.01777144894003868,0.013942052610218525,-0.000533829617779702,-0.00945611298084259
0.025915509089827538,0.0054830387234687805,-0.017837829887866974,0.01387436781078577,-0.0005005181883461773,-0.009444005787372589
0.025676129385828972,0.005334832239896059,-0.017260504886507988,0.013480156660079956,-0.0005258411401882768,-0.009639999829232693
0.02570631541311741,0.0053674643859267235,-0.017677508294582367,0.013436812907457352,-0.000493828090839088,-0.00994072575122118
0.0260359775274992,0.0054563903249800205,-0.017817718908190727,0.013001222163438797,-0.0005037864902988076,-0.010491855442523956
0.025668947026133537,0.005494689103215933,-0.01757957972586155,0.013635525479912758,-0.0004598893865477294,-0.010104198008775711
0.02593686804175377,0.005176261533051729,-0.018035488203167915,0.013181998394429684,-0.0004176497459411621,-0.01052442379295826
0.02593686804175377,0.005176261533051729,-0.018035488203167915,0.013181998394429684,-0.0004176497459411621,-0.01052442379295826
0.026016423478722572,0.005839617922902107,-0.017604732885956764,0.013521895743906498,-0.0003821747668553144,-0.010225092060863972
0.026032226160168648,0.005421243607997894,-0.017494358122348785,0.01342399138957262,-0.0004176761140115559,-0.01003780122846365
0.02610873058438301,0.005161399953067303,-0.01837199553847313,0.013862663879990578,-0.00039164634654298425,-0.010249380953609943
0.025961389765143394,0.005900516174733639,-0.01771686039865017,0.01314060389995575,-0.0003654093015938997,-0.010122256353497505
0.026240181177854538,0.005681070499122143,-0.01840066909790039,0.01341831311583519,-0.00036999103031121194,-0.010715076699852943
0.02626570127904415,0.005761138163506985,-0.01833728887140751,0.013109148479998112,-0.0003735745558515191,-0.0097760409116745
0.026043131947517395,0.005655061919242144,-0.017563223838806152,0.013248925097286701,-0.0003542318881954998,-0.010206514038145542
0.02620863728225231,0.005830702371895313,-0.018218347802758217,0.013405063189566135,-0.0003354723157826811,-0.010059625841677189
0.026551298797130585,0.00527875917032361,-0.017848042771220207,0.012761031277477741,-0.00036088511114940047,-0.00999374222010374
0.026349563151597977,0.005128197371959686,-0.01888112537562847,0.01291455514729023,-0.00034628756111487746,-0.010079088620841503
0.02682274952530861,0.004959230776876211,-0.017787938937544823,0.01244327612221241,-0.0003278091608081013,-0.010070448741316795
0.026308970525860786,0.005290927365422249,-0.017370115965604782,0.01317275408655405,-0.00030589578091166914,-0.010184641927480698
0.027422277256846428,0.005528787150979042,-0.018465556204319,0.013191357254981995,-0.00033595552667975426,-0.01011032797396183
0.02805991843342781,0.005144092254340649,-0.018419427797198296,0.013569692149758339,-0.00032264148467220366,-0.010282485745847225
0.027873022481799126,0.005201625172048807,-0.018160462379455566,0.01338468212634325,-0.0003488220972940326,-0.01039839070290327
0.026856085285544395,0.00501456530764699,-0.018562428653240204,0.013884015381336212,-0.00033624403295107186,-0.01012139767408371
0.026572560891509056,0.004942595027387142,-0.018313199281692505,0.013935274444520473,-0.00035326401120983064,-0.010351001285016537
0.028061803430318832,0.005185063928365707,-0.01842544786632061,0.013873706571757793,-0.0004650243790820241,-0.01032215729355812
0.027722850441932678,0.0049999975599348545,-0.01783912256360054,0.013757424429059029,-0.0004614548815879971,-0.010220167227089405
0.027730321511626244,0.00519356457516551,-0.018329257145524025,0.014034201391041279,-0.0004828032397199422,-0.009995623491704464
0.028128083795309067,0.005087807774543762,-0.01842859573662281,0.013999220915138721,-0.00046079937601462007,-0.010598682798445225
0.028066085651516914,0.004921899177134037,-0.017938664183020592,0.013644237071275711,-0.0004869278345722705,-0.010870208963751793
0.02766493521630764,0.005251884926110506,-0.01869569718837738,0.013881020247936249,-0.00045978938578628004,-0.010930880904197693
0.027650505304336548,0.005092158913612366,-0.018440430983901024,0.01411051582545042,-0.0004819591122213751,-0.011026930063962936
0.027947893366217613,0.0047350088134408,-0.017585081979632378,0.013664851896464825,-0.00045851615141145885,-0.01049122866243124
0.028271129354834557,0.004846628289669752,-0.018530122935771942,0.014246365055441856,-0.0005182012100704014,-0.010580808855593204
0.028430717065930367,0.004839955363422632,-0.018380753695964813,0.013827231712639332,-0.00047741495654918253,-0.010965381748974323
0.028430717065930367,0.004839955363422632,-0.018380753695964813,0.013827231712639332,-0.00047741495654918253,-0.010965381748974323
0.028183074668049812,0.004803523421287537,-0.018333906307816505,0.014061764813959599,-0.000512662052642554,-0.01072182971984148
0.028058862313628197,0.004869211930781603,-0.01866072602570057,0.013880835846066475,-0.0005410043522715569,-0.010797316208481789
0.02827221155166626,0.005021203309297562,-0.018148720264434814,0.014346322976052761,-0.0005601836601272225,-0.010810503736138344
0.028268277645111084,0.004903022199869156,-0.01831064186990261,0.014168528839945793,-0.0005366434343159199,-0.01068267971277237
0.028663134202361107,0.004580111242830753,-0.018638476729393005,0.014509502798318863,-0.0006636469624936581,-0.010910918936133385
0.028751935809850693,0.004804457537829876,-0.01803208887577057,0.014250612817704678,-0.0006914286059327424,-0.010841412469744682
0.02877737209200859,0.00480479234829545,-0.01866948790848255,0.014737311750650406,-0.0007018956821411848,-0.011013684794306755
0.02880796603858471,0.00493012135848403,-0.01879841275513172,0.013932405039668083,-0.0006532921106554568,-0.011435925029218197
0.029017608612775803,0.004641268402338028,-0.018183449283242226,0.014108551666140556,-0.000666269741486758,-0.01076454482972622
0.02949324995279312,0.004823689348995686,-0.018537765368819237,0.01390138454735279,-0.0007272218936122954,-0.010496700182557106
0.02940548025071621,0.004829755052924156,-0.018144065514206886,0.01454269327223301,-0.0007746925111860037,-0.010375505313277245
0.02912450022995472,0.004862238187342882,-0.018617385998368263,0.014029239304363728,-0.0007772345561534166,-0.010430021211504936
0.02943406254053116,0.004641656298190355,-0.019070450216531754,0.014399881474673748,-0.0007648066966794431,-0.010939407162368298
0.029409606009721756,0.004349774681031704,-0.01838652417063713,0.014107316732406616,-0.0007326754857786,-0.01097987312823534
0.029265889897942543,0.00481011439114809,-0.018460934981703758,0.014896237291395664,-0.0007897337782196701,-0.010961960069835186
0.029262177646160126,0.004877950064837933,-0.018849821761250496,0.014779656194150448,-0.0008411014568991959,-0.011048290878534317
0.029622720554471016,0.004627536050975323,-0.01852554641664028,0.014974109828472137,-0.0008513127104379237,-0.011041882447898388
0.029833024367690086,0.005013287533074617,-0.018993394449353218,0.014906118623912334,-0.0008358389022760093,-0.011179132387042046
0.03011840395629406,0.004819728434085846,-0.018526282161474228,0.015500816516578197,-0.0008936915546655655,-0.011696931906044483
0.030173178762197495,0.004693510010838509,-0.01836460642516613,0.01530528161674738,-0.0008300230256281793,-0.011519625782966614
0.030379267409443855,0.004718477837741375,-0.018614470958709717,0.0150460135191679,-0.0008110099588520825,-0.011508495546877384
0.0304905753582716,0.004656568635255098,-0.018422674387693405,0.01490170881152153,-0.0007422511698678136,-0.011510975658893585
0.030734652653336525,0.004831600934267044,-0.01886197179555893,0.014695556834340096,-0.0007536387420259416,-0.011542728170752525
0.03073923848569393,0.004786602687090635,-0.01905820146203041,0.01445724256336689,-0.0007112240418791771,-0.011217032559216022
0.03057754784822464,0.004549346398562193,-0.01809488795697689,0.014691131189465523,-0.000640146667137742,-0.011419222690165043
0.03028133325278759,0.004056041594594717,-0.01891460455954075,0.015001006424427032,-0.0006157455500215292,-0.01147733349353075
0.030997177585959435,0.004395191557705402,-0.01903754658997059,0.015431025996804237,-0.000595694116782397,-0.011796505190432072
0.03145395591855049,0.004712870344519615,-0.018932556733489037,0.015541990287601948,-0.0005392870516516268,-0.013017925433814526
0.03119487129151821,0.004596216604113579,-0.018785078078508377,0.015802649781107903,-0.0005608585197478533,-0.011407970450818539
0.03119487129151821,0.004596216604113579,-0.018785078078508377,0.015802649781107903,-0.0005608585197478533,-0.011407970450818539
0.029379021376371384,0.004347260110080242,-0.019096756353974342,0.015077329240739346,-0.0005237740697339177,-0.01108674705028534
0.029821963980793953,0.004468729719519615,-0.019015004858374596,0.015148581936955452,-0.0004841217596549541,-0.011571229435503483
0.031270742416381836,0.004597317893058062,-0.019031748175621033,0.014807170256972313,-0.0005092984647490084,-0.012022693641483784
0.030536169186234474,0.004389374051243067,-0.01884371042251587,0.015998104587197304,-0.00047927614650689065,-0.012406189925968647
0.030997155234217644,0.004440742079168558,-0.018954142928123474,0.015929993242025375,-0.00044958695070818067,-0.012324952520430088
0.03187393769621849,0.004323409870266914,-0.01950407214462757,0.01587578095495701,-0.0004083687672391534,-0.012061057612299919
0.03095981664955616,0.00456582335755229,-0.01903499849140644,0.015409261919558048,-0.00037358206463977695,-0.01209832914173603
0.03085367940366268,0.004572481382638216,-0.01899217814207077,0.01562538556754589,-0.0004043888475280255,-0.012415284290909767
0.030586257576942444,0.004547863733023405,-0.01932409405708313,0.015513667836785316,-0.0003837443655356765,-0.01250278390944004
0.03130307048559189,0.0041464269161224365,-0.019084684550762177,0.015433995984494686,-0.00040275612263940275,-0.012356243096292019
0.031324826180934906,0.004362201783806086,-0.019184254109859467,0.01550483237951994,-0.0003914758563041687,-0.012473829090595245
0.030565934255719185,0.004432370886206627,-0.01908889040350914,0.015334867872297764,-0.00036941232974641025,-0.012817531824111938
0.03155931085348129,0.004693534690886736,-0.018984556198120117,0.016108134761452675,-0.00039540891884826124,-0.012489663437008858
0.031317781656980515,0.004795261658728123,-0.019259648397564888,0.015826933085918427,-0.0004428857355378568,-0.012290173210203648
0.030723940581083298,0.0048836031928658485,-0.01939413882791996,0.01596088893711567,-0.0004613858473021537,-0.012318065389990807
0.03167179226875305,0.004247710108757019,-0.019156722351908684,0.015548781491816044,-0.00045798192149959505,-0.012527985498309135
0.031278740614652634,0.004065661691129208,-0.019451403990387917,0.015472541563212872,-0.0004878551990259439,-0.012798975221812725
0.03151777386665344,0.003931543789803982,-0.01888406090438366,0.01596522144973278,-0.0004608170420397073,-0.012621676549315453
0.031879812479019165,0.004265129566192627,-0.01912624016404152,0.015795232728123665,-0.0004597489314619452,-0.013037901371717453
0.03192617744207382,0.0045804535038769245,-0.019751528277993202,0.015758592635393143,-0.000457909656688571,-0.012691113166511059
0.03180747106671333,0.004681325983256102,-0.019467325881123543,0.015626395121216774,-0.0005236657452769578,-0.012766771949827671
0.031894486397504807,0.004311492200940847,-0.019035374745726585,0.015519663691520691,-0.0004980819066986442,-0.01300415862351656
0.032118093222379684,0.0040137614123523235,-0.019223995506763458,0.015924733132123947,-0.000493679428473115,-0.012913884595036507
0.032888706773519516,0.004210636019706726,-0.01923362724483013,0.015540729276835918,-0.0004882608773186803,-0.012510044500231743
0.03188000246882439,0.004621022380888462,-0.018894240260124207,0.016367193311452866,-0.0005148154450580478,-0.012779572047293186
0.03105197101831436,0.004262026399374008,-0.01959189586341381,0.01625523902475834,-0.00048419617814943194,-0.013061483390629292
0.03105197101831436,0.004262026399374008,-0.01959189586341381,0.01625523902475834,-0.00048419617814943194,-0.013061483390629292
0.03268828243017197,0.004392496310174465,-0.019236544147133827,0.016199365258216858,-0.0005099556292407215,-0.013116206042468548
0.03312739357352257,0.00425912206992507,-0.01859799027442932,0.015805384144186974,-0.0004798893933184445,-0.01351627241820097
0.0324750691652298,0.004487562924623489,-0.019002851098775864,0.016006655991077423,-0.0005170213407836854,-0.013435258530080318
0.03410898521542549,0.004491611383855343,-0.01922808215022087,0.01608215644955635,-0.0004853502905461937,-0.013546092435717583
0.03334025666117668,0.004695615731179714,-0.01926545239984989,0.015634305775165558,-0.0005210275994613767,-0.013646680861711502
0.03248964622616768,0.004765469115227461,-0.01948639564216137,0.015925461426377296,-0.0005387620767578483,-0.013554605655372143
0.0319141149520874,0.004978707991540432,-0.01914363168179989,0.015405634418129921,-0.0005489008617587388,-0.013312548398971558
0.034004632383584976,0.004427662584930658,-0.018863392993807793,0.015880340710282326,-0.0005412425380200148,-0.0132524399086833
0.03411097079515457,0.004111250396817923,-0.019232653081417084,0.01586659625172615,-0.000674785056617111,-0.013508979231119156
0.03324201703071594,0.0040964409708976746,-0.01927376352250576,0.01630801148712635,-0.0006690843147225678,-0.014027242548763752
0.03336071968078613,0.004494881723076105,-0.019072143360972404,0.016110049560666084,-0.0006428437191061676,-0.013710194267332554
0.033177126199007034,0.004709869157522917,-0.01962769776582718,0.016335006803274155,-0.000666766194626689,-0.013724553398787975
0.03343142569065094,0.004796753637492657,-0.01947077363729477,0.016547437757253647,-0.0006890561780892313,-0.013803522102534771
0.03359033539891243,0.004498818423599005,-0.018980491906404495,0.01653861068189144,-0.0007587520522065461,-0.013953154906630516
0.03410578891634941,0.004325107671320438,-0.019429605454206467,0.01658359356224537,-0.0006877018604427576,-0.014153525233268738
0.0338812954723835,0.004397524055093527,-0.019314512610435486,0.016769850626587868,-0.0007107291021384299,-0.01360293198376894
0.033964455127716064,0.004593003541231155,-0.019559355452656746,0.016550414264202118,-0.0007056727190501988,-0.013626376166939735
0.03402397409081459,0.004718387965112925,-0.01919059455394745,0.01669383980333805,-0.0006838959525339305,-0.014028329402208328
0.03434751182794571,0.00472382502630353,-0.019422370940446854,0.016313208267092705,-0.0006881112931296229,-0.014228681102395058
0.034418173134326935,0.00500092189759016,-0.01959659717977047,0.01593669503927231,-0.0007720566936768591,-0.014129440300166607
0.03443559259176254,0.004925842396914959,-0.01961725950241089,0.016487527638673782,-0.0007909892010502517,-0.013474375009536743
0.034240275621414185,0.004322486463934183,-0.020015761256217957,0.01682327315211296,-0.000762098585255444,-0.013863112777471542
0.03461169824004173,0.004276684485375881,-0.02072487398982048,0.017597360536456108,-0.000998383155092597,-0.01389638427644968
0.03541093319654465,0.0047066304832696915,-0.020586244761943817,0.017283063381910324,-0.0009226115071214736,-0.013894543051719666
0.03541093319654465,0.0047066304832696915,-0.020586244761943817,0.017283063381910324,-0.0009226115071214736,-0.013894543051719666
0.03507126122713089,0.00480941217392683,-0.01975993998348713,0.01698446460068226,-0.0009151343256235123,-0.013833281584084034
0.03448523208498955,0.004529941827058792,-0.020857421681284904,0.016225416213274002,-0.0008096593664959073,-0.01412520557641983
0.03536093235015869,0.004253388848155737,-0.020643729716539383,0.017249660566449165,-0.0007355166017077863,-0.014396085403859615
0.03543725982308388,0.0044630225747823715,-0.020168213173747063,0.01714986376464367,-0.0006545135984197259,-0.014612141996622086
0.03543725982308388,0.0044630225747823715,-0.020168213173747063,0.01714986376464367,-0.0006545135984197259,-0.014612141996622086
0.03508612513542175,0.004641365259885788,-0.02067677490413189,0.01726122945547104,-0.00057272519916296,-0.01480676420032978
0.03471869230270386,0.0049489461816847324,-0.020278871059417725,0.01736472360789776,-0.0006021633162163198,-0.014414794743061066
0.03462222218513489,0.004714067559689283,-0.01991722173988819,0.016214149072766304,-0.0005911436164751649,-0.014539035968482494
0.034854333847761154,0.004909866023808718,-0.020122112706303596,0.016778141260147095,-0.0005769555573351681,-0.014818374067544937
0.03485296294093132,0.004785900469869375,-0.02118385210633278,0.016588855534791946,-0.0005963228759355843,-0.015074042603373528
0.03607659786939621,0.004837989341467619,-0.02075439691543579,0.017463799566030502,-0.0006033218814991415,-0.01499167550355196
0.03526998311281204,0.004599736072123051,-0.020267462357878685,0.017614733427762985,-0.0006291555473580956,-0.015056069940328598
0.0338452085852623,0.004910164512693882,-0.020513148978352547,0.017300575971603394,-0.0006592817953787744,-0.015127554535865784
0.034869223833084106,0.00483669200912118,-0.020898766815662384,0.01781432144343853,-0.0006839095731265843,-0.015113169327378273
0.03522307425737381,0.004996429663151503,-0.020100608468055725,0.017297066748142242,-0.0006637652404606342,-0.01525823399424553
0.035255201160907745,0.004826690070331097,-0.020265718922019005,0.017236310988664627,-0.0008479784009978175,-0.015233533456921577
0.0359799899160862,0.004698069766163826,-0.02033214457333088,0.01668475568294525,-0.000751763116568327,-0.015214011073112488
0.034359849989414215,0.004791811108589172,-0.020158153027296066,0.017340227961540222,-0.0007545906701125205,-0.015529420226812363
0.034392450004816055,0.0047851186245679855,-0.0204155333340168,0.016910193488001823,-0.0007697560940869153,-0.015544360503554344
0.03592820093035698,0.004949735011905432,-0.02086665853857994,0.017019376158714294,-0.0007224229630082846,-0.015245050191879272
0.0357157401740551,0.00525242742151022,-0.020017391070723534,0.01695355772972107,-0.000672782480251044,-0.015083148144185543
0.03610702604055405,0.004691459238529205,-0.02041279897093773,0.016722654923796654,-0.0006893371464684606,-0.015597954392433167
0.03580382466316223,0.0050442880019545555,-0.02047913894057274,0.01710389368236065,-0.0006733848713338375,-0.015794605016708374
0.03536142036318779,0.0050661941058933735,-0.020142529159784317,0.016513530164957047,-0.0006494304980151355,-0.015967227518558502
0.03577079251408577,0.0051122973673045635,-0.020282959565520287,0.016495145857334137,-0.0006641583167947829,-0.015368010848760605
0.03626793622970581,0.005586544517427683,-0.020492704585194588,0.016217505559325218,-0.0006820993148721755,-0.015505580231547356
0.03535115346312523,0.005407242104411125,-0.02032531052827835,0.01690342091023922,-0.0007435080478899181,-0.015396085567772388
0.03555800020694733,0.004834443796426058,-0.019848305732011795,0.017529277130961418,-0.0007369898376055062,-0.015417258255183697
0.03513547405600548,0.00472016679123044,-0.020259281620383263,0.017442621290683746,-0.0007789592491462827,-0.015387313440442085
0.03594793751835823,0.004763152915984392,-0.020387304946780205,0.017901061102747917,-0.0008817564230412245,-0.015737224370241165
0.03594793751835823,0.004763152915984392,-0.020387304946780205,0.017901061102747917,-0.0008817564230412245,-0.015737224370241165
0.03689265996217728,0.004845659714192152,-0.01999911293387413,0.017341911792755127,-0.0009897666750475764,-0.015513892285525799
0.03643249347805977,0.004583078436553478,-0.020641285926103592,0.01749327965080738,-0.000982288853265345,-0.015441788360476494
0.034768037497997284,0.004786885809153318,-0.02041306160390377,0.01804002933204174,-0.0009712764294818044,-0.01566065475344658
0.035737037658691406,0.00476323626935482,-0.020147569477558136,0.017476161941885948,-0.0009753039921633899,-0.015535026788711548
0.035876378417015076,0.004851595964282751,-0.0199433621019125,0.01756247878074646,-0.0011250384850427508,-0.015898870304226875
0.03549414873123169,0.004391709808260202,-0.020662004128098488,0.017600905150175095,-0.0011361076030880213,-0.01583462953567505
0.03684353455901146,0.00442055007442832,-0.020569298416376114,0.017621904611587524,-0.0010286307660862803,-0.01606687903404236
0.03643524646759033,0.004903832916170359,-0.019946249201893806,0.017630072310566902,-0.0012084349291399121,-0.016087869182229042
0.03483095392584801,0.005051922053098679,-0.02049098163843155,0.01738002523779869,-0.001186132780276239,-0.016282198950648308
0.03524251654744148,0.004905088804662228,-0.021073609590530396,0.018013279885053635,-0.0011521645355969667,-0.016539378091692924
0.03664553165435791,0.004737422801554203,-0.02081502228975296,0.01791573315858841,-0.0011095345253124833,-0.016487739980220795
0.03660095855593681,0.0048072501085698605,-0.020846683531999588,0.01807270385324955,-0.000906142988242209,-0.01656326837837696
0.03660095855593681,0.0048072501085698605,-0.020846683531999588,0.01807270385324955,-0.000906142988242209,-0.01656326837837696
0.036612093448638916,0.004908659029752016,-0.02014772966504097,0.017613837495446205,-0.0007886631647124887,-0.01579147018492222
0.03756169229745865,0.005033126566559076,-0.02103935368359089,0.0174806397408247,-0.0007903832010924816,-0.016589952632784843
0.037176843732595444,0.004827651660889387,-0.021759698167443275,0.017087072134017944,-0.0007228761096484959,-0.01685650832951069
0.0365203358232975,0.004817715380340815,-0.021711137145757675,0.01771700754761696,-0.0005974165978841484,-0.017022356390953064
0.03709198161959648,0.005206192843616009,-0.020412160083651543,0.018013346940279007,-0.0006683884421363473,-0.016600679606199265
0.03755762055516243,0.004698986653238535,-0.021316882222890854,0.0181459691375494,-0.0006948967929929495,-0.015923218801617622
0.03759988397359848,0.004599450621753931,-0.022012583911418915,0.018108835443854332,-0.000675857299938798,-0.016258295625448227
0.037665028125047684,0.004985753912478685,-0.021547650918364525,0.018337640911340714,-0.0009248632122762501,-0.01649245247244835
0.03791996091604233,0.004955201409757137,-0.02060067281126976,0.018665190786123276,-0.0009339352254755795,-0.017061132937669754
0.03850714862346649,0.004677575547248125,-0.021533243358135223,0.018537677824497223,-0.0009027685737237334,-0.016980338841676712
0.03821035847067833,0.004709582310169935,-0.022391684353351593,0.018025167286396027,-0.0009007158223539591,-0.016360647976398468
0.03806557133793831,0.004683832637965679,-0.02121374011039734,0.018652256578207016,-0.0008251917315647006,-0.01613733172416687
0.03806557133793831,0.004683832637965679,-0.02121374011039734,0.018652256578207016,-0.0008251917315647006,-0.01613733172416687
0.0382552407681942,0.004848115146160126,-0.020979050546884537,0.018759384751319885,-0.0007603020058013499,-0.016304653137922287
0.03837144002318382,0.004677892196923494,-0.022186750546097755,0.01860463246703148,-0.0007569778244942427,-0.016849452629685402
0.038474440574645996,0.004892056807875633,-0.02211315557360649,0.01867968961596489,-0.0007888536783866584,-0.016977762803435326
0.03852413594722748,0.004761067219078541,-0.021855374798178673,0.01951369270682335,-0.0008023863774724305,-0.018296394497156143
0.039096586406230927,0.004843303933739662,-0.021137960255146027,0.019275009632110596,-0.0008689151145517826,-0.017421454191207886
0.0388789065182209,0.0044008176773786545,-0.02167319320142269,0.019238267093896866,-0.0009808170143514872,-0.016470011323690414
0.0387229323387146,0.004386367741972208,-0.022153254598379135,0.018671613186597824,-0.0009751007310114801,-0.0168303232640028
0.03949850797653198,0.004503753501921892,-0.021814528852701187,0.01822264865040779,-0.0009652459993958473,-0.016932418569922447
0.039140939712524414,0.004739303141832352,-0.021347617730498314,0.018912123516201973,-0.0009994799038395286,-0.01703161932528019
0.039079856127500534,0.004640405066311359,-0.021835001185536385,0.019056379795074463,-0.0009442949667572975,-0.016672061756253242
0.04053200036287308,0.004394934978336096,-0.021943584084510803,0.01932622864842415,-0.0008660723106004298,-0.016398025676608086
0.04026848077774048,0.004468723200261593,-0.022215958684682846,0.01912342943251133,-0.0008573300438001752,-0.017103299498558044
0.0381687693297863,0.004558402579277754,-0.02205798029899597,0.018765900284051895,-0.0008473551133647561,-0.016883132979273796
0.040133439004421234,0.004320407286286354,-0.0223341453820467,0.019387204200029373,-0.0008174358517862856,-0.017083317041397095
0.04026125371456146,0.004544668365269899,-0.02227618359029293,0.019018612802028656,-0.0008284521754831076,-0.017237788066267967
0.04121437296271324,0.004225136712193489,-0.02218933403491974,0.01875186897814274,-0.0008100405684672296,-0.017488030716776848
0.039993032813072205,0.004292785655707121,-0.022352149710059166,0.018665120005607605,-0.0007714524981565773,-0.017522677779197693
0.03921009227633476,0.004512069746851921,-0.022606629878282547,0.01776796579360962,-0.0009176761377602816,-0.01785457879304886
0.04093049466609955,0.0042218673042953014,-0.022376244887709618,0.018250692635774612,-0.0009342959965579212,-0.018162788823246956
0.04061001166701317,0.0038117896765470505,-0.022115327417850494,0.019154034554958344,-0.0009621569188311696,-0.017776822671294212
0.04054031893610954,0.0031810689251869917,-0.02203431911766529,0.01930362358689308,-0.0008857391658239067,-0.017744451761245728
0.03959924727678299,0.003041719552129507,-0.02241082489490509,0.020413706079125404,-0.001032339408993721,-0.017464620992541313
0.04051606357097626,0.0033979127183556557,-0.022703487426042557,0.019075429067015648,-0.0009442081209272146,-0.017673911526799202
0.04051399230957031,0.003710393328219652,-0.022132182493805885,0.018519729375839233,-0.0009329915046691895,-0.017845645546913147
0.04051399230957031,0.003710393328219652,-0.022132182493805885,0.018519729375839233,-0.0009329915046691895,-0.017845645546913147
0.0404408723115921,0.003432806581258774,-0.02225683629512787,0.018676070496439934,-0.0009282552055083215,-0.017829127609729767
0.04008644446730614,0.0034851166419684887,-0.022438516840338707,0.01895958185195923,-0.0008843871764838696,-0.01823294535279274
0.0409640334546566,0.003273466369137168,-0.02263728156685829,0.018820879980921745,-0.0008332077995873988,-0.01791854202747345
0.042296797037124634,0.003469491610303521,-0.022528737783432007,0.01889064349234104,-0.0007774282712489367,-0.017955755814909935
0.03904618322849274,0.0036579526495188475,-0.02249070443212986,0.0191047303378582,-0.0007807521033100784,-0.01803889125585556
0.03990219533443451,0.0038237255066633224,-0.0221237875521183,0.01892145723104477,-0.0007550144218839705,-0.017671087756752968
0.040803514420986176,0.003888595150783658,-0.02277996577322483,0.019065124914050102,-0.0007234079530462623,-0.017540235072374344
0.04103125259280205,0.00333220767788589,-0.022706003859639168,0.019224926829338074,-0.0006894124089740217,-0.017243750393390656
0.04188154637813568,0.003248276188969612,-0.023136109113693237,0.01927981711924076,-0.0006998710450716317,-0.017526809126138687
0.04095335304737091,0.0033447931054979563,-0.022871041670441628,0.01969088241457939,-0.000722721975762397,-0.0179175715893507
0.039645951241254807,0.0036231321282684803,-0.022979341447353363,0.019730765372514725,-0.0007176638464443386,-0.017416926100850105
