davideferrari95/blind_handover_controller/data/Test 276 - [2024-02-08 -- 13-51-03]/joint_states_data.csv
shoulder_pan_joint,shoulder_lift_joint,elbow_joint,wrist_1_joint,wrist_2_joint,wrist_3_joint
-0.002396590542048216,0.007427793927490711,-0.00703539839014411,0.0,-0.00010758866847027093,-0.004982535727322102
-0.002396590542048216,0.007427793927490711,-0.00703539839014411,0.0,-0.00010758866847027093,-0.004982535727322102
-0.002396590542048216,0.007427793927490711,-0.00703539839014411,0.0,-0.00010758866847027093,-0.004982535727322102
-0.0025271691847592592,0.005777840502560139,-0.006679192651063204,0.0,-0.00010267865582136437,-0.00331914727576077
-0.0024815634824335575,0.007468142081052065,-0.0075052822940051556,0.0,-0.00010038794425781816,-0.0029620490968227386
-0.0028643065597862005,0.005950577091425657,-0.007334388326853514,0.0,-9.819726983550936e-05,-0.003238606033846736
-0.0026836188044399023,0.006828234530985355,-0.00677019078284502,0.0,-9.610016422811896e-05,-0.004163681995123625
-0.0025556907057762146,0.004841440822929144,-0.0063954247161746025,0.0,-9.4090704806149e-05,-0.004049618262797594
-0.0026186846662312746,0.003813582705333829,-0.007280559744685888,1.515492385806283e-05,-9.216358739649877e-05,-0.0037976952735334635
-0.0024942944291979074,0.0037334596272557974,-0.007609848864376545,3.8389403925975785e-05,-9.031383524416015e-05,-0.003709604497998953
-0.0024323558900505304,0.004296145401895046,-0.007164672948420048,5.3699404816143215e-05,-0.00010167451546294615,-0.003412032499909401
-0.0027169319801032543,0.004376270808279514,-0.006759910378605127,0.0013232346391305327,-0.00010389586532255635,-0.0032610693015158176
-0.002819515299052,0.004059500526636839,-0.007198201026767492,0.0015623043291270733,-0.0001022023061523214,-0.0032383687794208527
-0.0027563385665416718,0.003399289445951581,-0.007883403450250626,0.002050759270787239,-0.00010032136924564838,-0.003459146013483405
-0.0025340195279568434,0.0031157254707068205,-0.007551766466349363,0.002193621825426817,-9.849265188677236e-05,-0.004026229027658701
-0.0026263645850121975,0.0029836806934326887,-0.0072423918172717094,0.002575041726231575,-9.672841406427324e-05,-0.0038762427866458893
-0.0026263645850121975,0.0029836806934326887,-0.0072423918172717094,0.002575041726231575,-9.672841406427324e-05,-0.0038762427866458893
-0.0030728457495570183,0.0029578155372291803,-0.007468011230230331,0.004045269452035427,-9.50262910919264e-05,-0.003429057775065303
-0.00272884638980031,0.0027796451468020678,-0.007712283171713352,0.004646133631467819,-9.338289964944124e-05,-0.0030755028128623962
-0.0027145701460540295,0.0023740092292428017,-0.008185266517102718,0.004977626260370016,-9.179548942483962e-05,-0.002955922158434987
-0.0027375835925340652,0.0022069145925343037,-0.007658672984689474,0.005188155919313431,-9.026113548316061e-05,-0.0032364926300942898
-0.0024407487362623215,0.002007632050663233,-0.008271346800029278,0.00587115902453661,-8.87771529960446e-05,-0.003154138568788767
-0.0025037266314029694,0.002237614942714572,-0.007902437821030617,0.0054513379000127316,-8.734125003684312e-05,-0.0033785647246986628
-0.00266125425696373,0.0029359199106693268,-0.00745621882379055,0.005134450271725655,-8.595107647124678e-05,-0.003522005397826433
-0.0027575157582759857,0.0028707042802125216,-0.007125571370124817,0.004774619825184345,-8.460445678792894e-05,-0.003625160316005349
-0.0025821574963629246,0.002697243355214596,-0.007827377878129482,0.004460779018700123,-8.329931733896956e-05,-0.003408449236303568
-0.00271080294623971,0.002760415431112051,-0.007272573187947273,0.004129062406718731,-8.080626867013052e-05,-0.0034596393816173077
-0.00271080294623971,0.002760415431112051,-0.007272573187947273,0.004129062406718731,-8.080626867013052e-05,-0.0034596393816173077
-0.002856951905414462,0.00269680074416101,-0.007965180091559887,0.004034738522022963,-7.845817162888125e-05,-0.0034587960690259933
-0.002934218617156148,0.003036376554518938,-0.0075460211373865604,0.003963666036725044,-7.733458187431097e-05,-0.0031651670578867197
-0.00260498677380383,0.0031155229080468416,-0.006917130202054977,0.003964359872043133,-7.624265708727762e-05,-0.003105173585936427
-0.0026241487357765436,0.003147266572341323,-0.007140277419239283,0.003909298684448004,-7.518121128669009e-05,-0.0030390298925340176
-0.002722121076658368,0.0032832256983965635,-0.008083070628345013,0.0041299378499388695,-7.414886931655928e-05,-0.0034267979208379984
-0.002795484382659197,0.003042142605409026,-0.007446454372256994,0.00419918168336153,-7.314451067941263e-05,-0.0036580199375748634
-0.00286165252327919,0.0031981333158910275,-0.00683116540312767,0.003998717293143272,-7.216700032586232e-05,-0.00373303540982306
-0.002789326012134552,0.003442157059907913,-0.006598139647394419,0.0038892633747309446,-7.121527596609667e-05,-0.0037511882837861776
-0.00247740326449275,0.0034862349275499582,-0.0074483780190348625,0.0038469962310045958,-7.028830441413447e-05,-0.003335733199492097
-0.002307564252987504,0.003560461336746812,-0.007393880281597376,0.0036260320339351892,-6.938516162335873e-05,-0.0029885820113122463
-0.002635859651491046,0.003676564199849963,-0.006997689139097929,0.0034283525310456753,-6.850495265098289e-05,-0.0029323208145797253
-0.0029383066575974226,0.003415448125451803,-0.006633469369262457,0.003063920186832547,-6.764678983017802e-05,-0.0029225407633930445
-0.0029383066575974226,0.003415448125451803,-0.006633469369262457,0.003063920186832547,-6.764678983017802e-05,-0.0029225407633930445
-0.0026818029582500458,0.003698284039273858,-0.007329606916755438,0.0037023366894572973,-6.59933575661853e-05,-0.0033161102328449488
-0.002396279014647007,0.0037244881968945265,-0.007410523481667042,0.003831615438684821,-6.519661837955937e-05,-0.0031268184538930655
-0.0023034277837723494,0.0041497619822621346,-0.006869024597108364,0.0037148105911910534,-6.441884761443362e-05,-0.0031793524976819754
-0.0023034277837723494,0.0041497619822621346,-0.006869024597108364,0.0037148105911910534,-6.441884761443362e-05,-0.0031793524976819754
-0.0025741998106241226,0.0036942206788808107,-0.007155232131481171,0.0034211839083582163,-6.291771569522098e-05,-0.003222179366275668
-0.0025741998106241226,0.0036942206788808107,-0.007155232131481171,0.0034211839083582163,-6.291771569522098e-05,-0.003222179366275668
-0.0024628443643450737,0.003492944408208132,-0.00673468504101038,0.0035582492128014565,-6.219308852450922e-05,-0.003084127325564623
-0.0024381468538194895,0.0036593524273484945,-0.0068667116574943066,0.003528126748278737,-6.148495594970882e-05,-0.002825493924319744
-0.0024189583491533995,0.004371578339487314,-0.0073379999957978725,0.0034192660823464394,-6.079276499804109e-05,-0.0026756117586046457
-0.0022596297785639763,0.004211899824440479,-0.007705388590693474,0.003625963581725955,-6.0115977248642594e-05,-0.0026919026859104633
-0.0025350875221192837,0.004081771709024906,-0.006982515566051006,0.0038105673156678677,-3.013711466337554e-05,-0.002660301048308611
-0.0024253216106444597,0.003842684905976057,-0.0065839518792927265,0.0038883632514625788,-1.9677381715155207e-06,-0.003051845822483301
-0.0025287007447332144,0.003772718133404851,-0.00678941048681736,0.003841385943815112,-1.2847924324432825e-07,-0.003304895246401429
-0.0023777943570166826,0.0038448995910584927,-0.007508870214223862,0.0034053095150738955,-8.388776784329366e-09,-0.003119089175015688
-0.002273866208270192,0.003916546702384949,-0.007143629714846611,0.0034492965787649155,-5.477271969311914e-10,-0.0026728033553808928
-0.002232745522633195,0.00443786196410656,-0.006649765186011791,0.003170883050188422,-3.5762670602679236e-11,-0.0026029290165752172
-0.002124385442584753,0.004610409494489431,-0.006321845576167107,0.003354317508637905,-2.3350468694033344e-12,-0.0024237516336143017
-0.002298623090609908,0.004371678922325373,-0.00768059678375721,0.003455634694546461,-9.954670856344387e-15,-0.0023942708503454924
-0.0022843105252832174,0.004327577073127031,-0.006740767974406481,0.00357552501372993,-6.4996893213057445e-16,-0.002891430864110589
-0.0023993670474737883,0.0040488229133188725,-0.006427093409001827,0.0037550621200352907,-4.2438325964743224e-17,-0.002729431726038456
-0.002495876746252179,0.00414753844961524,-0.006729399785399437,0.0038372839335352182,-2.770919394432184e-18,-0.002725373487919569
-0.0023199093993753195,0.004006217699497938,-0.007500429172068834,0.0039017118979245424,-1.8092124084563085e-19,-0.0026483573019504547
-0.002272437559440732,0.0038165999576449394,-0.00708923302590847,0.003462826833128929,-1.1812863738086786e-20,-0.0023944517597556114
-0.002143607474863529,0.004310609307140112,-0.0065523539669811726,0.0033077385742217302,-7.71295585569058e-22,-0.002553336787968874
-0.0022400030866265297,0.004146192222833633,-0.006653973367065191,0.0033184043131768703,-5.036008501751693e-23,-0.002697931369766593
-0.0021923405583947897,0.004447171464562416,-0.007184074725955725,0.0036119739525020123,-3.288153690969378e-24,-0.0025776380207389593
-0.0023446620907634497,0.004113791044801474,-0.006899889092892408,0.004159354139119387,-2.1469293269849023e-25,-0.002721217693760991
-0.00228071678429842,0.004321432206779718,-0.006880932487547398,0.004324887879192829,-1.4017914996589517e-26,-0.0026718447916209698
-0.0022278553806245327,0.004170234315097332,-0.007067208178341389,0.004092326387763023,-9.152696060103597e-28,-0.002329661278054118
-0.0021359589882194996,0.004210321232676506,-0.006989572197198868,0.003573174588382244,-5.976055894992867e-29,-0.002141273347660899
-0.002045143861323595,0.004099331330507994,-0.007268478162586689,0.0035219581332057714,-3.9019378289104625e-30,-0.0019405318889766932
-0.0019832535181194544,0.0044365329667925835,-0.006861847825348377,0.003684239462018013,-2.54768652235637e-31,-0.001972697675228119
-0.001914734486490488,0.004184025805443525,-0.00675820279866457,0.003775978460907936,-1.663457190338386e-32,-0.0018677124753594398
-0.001914734486490488,0.004184025805443525,-0.00675820279866457,0.003775978460907936,-1.663457190338386e-32,-0.0018677124753594398
-0.0018480357248336077,0.004434903152287006,-0.007203653920441866,0.0038010943681001663,-1.086118576593392e-33,-0.0021106000058352947
-0.001838225987739861,0.004581773653626442,-0.006954324897378683,0.003867486258968711,-7.091579487237054e-35,-0.002334418473765254
-0.0019102642545476556,0.0045400345697999,-0.006807603873312473,0.0034815887920558453,-4.630294417551735e-36,-0.0022400724701583385
-0.0018333143088966608,0.004173269495368004,-0.006962930783629417,0.0033678526524454355,-3.0232512142438314e-37,-0.0022148950956761837
-0.0018919928697869182,0.003758394392207265,-0.007250592112541199,0.0034890531096607447,-1.9739669676105936e-38,-0.002045626053586602
-0.0017274724086746573,0.003675117390230298,-0.007582160644233227,0.0036811805330216885,-1.288859676845858e-39,-0.0019974252209067345
-0.0016928553814068437,0.00435936264693737,-0.006848076358437538,0.003543255850672722,-8.415357797656256e-41,-0.0019654505886137486
-0.0017616256373003125,0.004584481939673424,-0.00707418005913496,0.003590590553358197,-5.494491278617608e-42,-0.0020285802893340588
-0.0015904450556263328,0.004299996420741081,-0.006713042035698891,0.003712801728397608,-3.587324068671532e-43,-0.0019900291226804256
-0.0016165454871952534,0.004324562847614288,-0.007278965786099434,0.00379006820730865,-2.382207389352189e-44,-0.001957853324711323
-0.0016068737022578716,0.004315324127674103,-0.006983679719269276,0.004044066183269024,-1.401298464324817e-45,-0.0019611448515206575
-0.0014949202304705977,0.004038953687995672,-0.006445175502449274,0.00398001866415143,-0.0,-0.0019078187178820372
-0.001463813241571188,0.003969361074268818,-0.0069276406429708,0.0034440713934600353,-0.0,-0.0017509671160951257
-0.001463813241571188,0.003969361074268818,-0.0069276406429708,0.0034440713934600353,-0.0,-0.0017509671160951257
-0.0016075433231890202,0.0035538075026124716,-0.007265262305736542,0.0033183442428708076,-0.0,-0.0016436324222013354
-0.0014035905478522182,0.00333530455827713,-0.006709153763949871,0.003465482732281089,-0.0,-0.0017280030297115445
-0.0013943520607426763,0.003978619817644358,-0.006820177659392357,0.0036599382292479277,-1.3677868992090225e-05,-0.0016119551146402955
-0.0012925526825711131,0.004285333212465048,-0.007287984248250723,0.004124683327972889,-8.930670105655736e-07,-0.0015835867961868644
-0.0012246594997122884,0.003472711192443967,-0.006860868539661169,0.004175165668129921,-5.831089922025967e-08,-0.001560672651976347
-0.0010910608107224107,0.003034585388377309,-0.0067685749381780624,0.003996755462139845,-3.80728515381179e-09,-0.0014587569748982787
-0.001044916920363903,0.0030432329513132572,-0.0071999914944171906,0.003914798144251108,-2.485884831315843e-10,-0.001385650597512722
-0.0010329887736588717,0.0035036569461226463,-0.00753168435767293,0.003962947987020016,-1.6231051225279458e-11,-0.0014361506327986717
-0.0010142326354980469,0.004362508188933134,-0.0075065200217068195,0.0035676141269505024,-1.0597717365126713e-12,-0.001542012090794742
-0.001024445635266602,0.003628420876339078,-0.006977079901844263,0.003966109361499548,-6.919552414776445e-14,-0.0016076077008619905
-0.0010062003275379539,0.0034138343762606382,-0.007440387737005949,0.0041624498553574085,-4.517972943733715e-15,-0.0018136064754799008
-0.0009893669048324227,0.0034188665449619293,-0.007822790183126926,0.004028616473078728,-2.9499134704036767e-16,-0.001722041517496109
-0.000977677758783102,0.003592323511838913,-0.007015773560851812,0.0034877026919275522,-1.926082611704212e-17,-0.0015752388862892985
-0.000977677758783102,0.003592323511838913,-0.007015773560851812,0.0034877026919275522,-1.926082611704212e-17,-0.0015752388862892985
-0.0009503404144197702,0.0031472300179302692,-0.007006327621638775,0.003761733416467905,-8.21119188120604e-20,-0.0010523527162149549
-0.0009503404144197702,0.0031472300179302692,-0.007006327621638775,0.003761733416467905,-8.21119188120604e-20,-0.0010523527162149549
-0.0009412687504664063,0.0032656961120665073,-0.007365942467004061,0.004024013876914978,-5.361321460958082e-21,-0.000853806093800813
-0.0009230652940459549,0.003673235885798931,-0.006913430523127317,0.003991741221398115,-3.5005597908454186e-22,-0.0008494595531374216
-0.0008293177234008908,0.003842549864202738,-0.007282270584255457,0.003905397607013583,-2.2856154523007802e-23,-0.0008309208205901086
-0.0007642175769433379,0.0037563838995993137,-0.007542526815086603,0.0041633290238678455,-1.4923435918851798e-24,-0.0007585251587443054
-0.0007398054003715515,0.0036829763557761908,-0.008062299340963364,0.004294158425182104,-9.74393779447282e-26,-0.0007683756994083524
-0.0006855333340354264,0.003732873359695077,-0.007397002074867487,0.004095806274563074,-6.362095022687429e-27,-0.0006648392882198095
-0.0007058234768919647,0.003829789813607931,-0.007041421718895435,0.0035591640044003725,-4.153993519177622e-28,-0.0006585443043150008
-0.0007254349184222519,0.003784474218264222,-0.007294140290468931,0.0038748946972191334,-2.712260960070363e-29,-0.0006835614331066608
-0.0007420802139677107,0.0034054690040647984,-0.008161850273609161,0.004163730889558792,-1.7709125202482533e-30,-0.0007054808083921671
-0.0007589365122839808,0.0033703481312841177,-0.007616010028868914,0.0040025869384408,-1.156279249966006e-31,-0.0009355965303257108
-0.0007120823138393462,0.0038777843583375216,-0.007939307950437069,0.003938810899853706,-4.929400203507242e-34,-0.0009991929400712252
-0.0006498225848190486,0.003906426019966602,-0.007894148118793964,0.0038487580604851246,-3.218545719482471e-35,-0.000977739691734314
-0.0006631104042753577,0.0038304708432406187,-0.008139530196785927,0.003716512117534876,-2.1014802681610777e-36,-0.000950669520534575
-0.0006156009039841592,0.003715861588716507,-0.007775816600769758,0.0036685012746602297,-1.3721163677533142e-37,-0.0008507488528266549
-0.0005680115427821875,0.0036903885193169117,-0.00774826854467392,0.003667296841740608,-8.958938287549425e-39,-0.0008523043943569064
-0.0005440607201308012,0.0037136333994567394,-0.008118946105241776,0.0037342540454119444,-5.84955228350823e-40,-0.0007436709711328149
-0.00048588047502562404,0.0032959217205643654,-0.007641149684786797,0.0037771770730614662,-3.8193790943637214e-41,-0.0007333175744861364
-0.00043851809459738433,0.003430646611377597,-0.00739038223400712,0.004113042261451483,-2.4943112664981744e-42,-0.0006785111036151648
-0.0004697858530562371,0.0036646779626607895,-0.00809411983937025,0.00462556816637516,-1.6255062186167878e-43,-0.0006780491094104946
-0.0003756977093871683,0.004240956623107195,-0.008209796622395515,0.004228006582707167,-1.1210387714598537e-44,-0.0006378028774634004
-0.0002743843651842326,0.004031269811093807,-0.007721413858234882,0.0036149993538856506,-0.0,-0.0005870553432032466
-0.00019197490473743528,0.003854965791106224,-0.00830875150859356,0.0032449860591441393,-0.0,-0.0005169579526409507
0.00022203529078979045,0.003309090156108141,-0.008352627046406269,0.00343893188983202,-0.0,-0.00044538412475958467
0.00020235913689248264,0.0033660626504570246,-0.008443172089755535,0.003740897634997964,-0.0,-0.00040400263969786465
0.0001227530447067693,0.0036177998408675194,-0.00769432308152318,0.0038307090289890766,-0.0001052211009664461,-0.00043945127981714904
8.305131632369012e-05,0.0037608768325299025,-0.008405575528740883,0.003837821539491415,-0.00011386947880964726,-0.00041050868458114564
7.568080036435276e-05,0.0036743171513080597,-0.008661570958793163,0.0039708963595330715,-0.00011177971464348957,-0.0003817621909547597
7.041470234980807e-05,0.003616171656176448,-0.007992629893124104,0.004286602139472961,-0.00010911727440543473,-0.0004118283395655453
0.00012642158253584057,0.0036630257964134216,-0.0075391908176243305,0.00403779000043869,-0.00010653701610863209,-0.0003899349248968065
0.00012642158253584057,0.0036630257964134216,-0.0075391908176243305,0.00403779000043869,-0.00010653701610863209,-0.0003899349248968065
0.00021841522539034486,0.003707295283675194,-0.008250383660197258,0.003822960425168276,-0.0001040732313413173,-0.00036741956137120724
0.00019856168364640325,0.0036724971141666174,-0.009069561958312988,0.004063138738274574,-0.00010172067413805053,-0.00039334854227490723
0.00017887559079099447,0.003483264707028866,-0.008032687939703465,0.004215186461806297,-9.947207581717521e-05,-0.00037582358345389366
9.121866605710238e-05,0.003536038100719452,-0.007765571586787701,0.004416375420987606,-9.732066973811015e-05,-0.00035736075369641185
7.473673031199723e-05,0.003364591859281063,-0.008746540173888206,0.004464850295335054,-9.526043140795082e-05,-0.00034047020017169416
0.00013490382116287947,0.003532320959493518,-0.008810456842184067,0.004427804611623287,-9.328560554422438e-05,-0.0003250939189456403
0.0001279462012462318,0.003674568608403206,-0.007877188734710217,0.004319982137531042,-9.139102621702477e-05,-0.0003110470133833587
0.00011948619066970423,0.003774679498746991,-0.008002826943993568,0.003764842404052615,-8.95718767424114e-05,-0.00029792162240482867
0.00016137288184836507,0.0042884573340415955,-0.008370689116418362,0.0035247975029051304,-8.782366057857871e-05,-0.0002801177033688873
0.00015813103527761996,0.003598168957978487,-0.008813937194645405,0.003582824021577835,-8.614241232862696e-05,-0.0002637426950968802
0.0001494598836870864,0.0035410895943641663,-0.008094158954918385,0.004170442000031471,-8.452434849459678e-05,-0.00024913635570555925
0.00017938954988494515,0.0033918784465640783,-0.007929641753435135,0.004814138635993004,-8.146405889419839e-05,-0.00022429331147577614
0.00017089718312490731,0.003510921262204647,-0.00789969228208065,0.004547928459942341,-8.001545211300254e-05,-0.00021364160056691617
0.00016315178072545677,0.0036611934192478657,-0.007851678878068924,0.0041597625240683556,-7.861756603233516e-05,-0.00020395676256157458
0.0002596134436316788,0.0033371159806847572,-0.008854107931256294,0.003914045635610819,-8.487540617352352e-05,-0.00019511098798830062
0.00024939904687926173,0.0033439663238823414,-0.008333347737789154,0.003950113896280527,-9.064361802302301e-05,-0.00018700190412346274
0.00028168538119643927,0.0034945972729474306,-0.007399091497063637,0.004702005069702864,-8.960923878476024e-05,-0.00017953866336029023
0.00026944553246721625,0.00353085994720459,-0.007747551426291466,0.005006152670830488,-8.817666093818843e-05,-0.00017264961206819862
0.00025666170404292643,0.003399106441065669,-0.008545098826289177,0.00501371081918478,-8.676195284351707e-05,-0.00016626925207674503
0.0002852770558092743,0.003213214920833707,-0.008429941721260548,0.004980362951755524,-8.539011469110847e-05,-0.00016034416330512613
0.00027343587134964764,0.0033060938585549593,-0.007820362225174904,0.004428561311215162,-8.406082633882761e-05,-0.0001548264262964949
0.0002989818749483675,0.003621951676905155,-0.008336975239217281,0.004371373914182186,-8.277228334918618e-05,-0.000149676256114617
0.0002875375794246793,0.0038338410668075085,-0.008323732763528824,0.004232150502502918,-8.152268856065348e-05,-0.0001306491467403248
0.0004485899698920548,0.003972009290009737,-0.007456315215677023,0.004088391549885273,-8.031028846744448e-05,-0.00011323564103804529
0.00041458330815657973,0.004030771087855101,-0.00813517440110445,0.0048658642917871475,-7.913341687526554e-05,-0.00010893887520069256
0.00037968927063047886,0.003490842180326581,-0.008443228900432587,0.005036129150539637,-7.799046579748392e-05,-0.0001056837136275135
0.00041914606117643416,0.003533746115863323,-0.00796651840209961,0.004850518424063921,-7.688016194151714e-05,-0.00010266596655128524
0.00041914606117643416,0.003533746115863323,-0.00796651840209961,0.004850518424063921,-7.688016194151714e-05,-0.00010266596655128524
0.0004469738923944533,0.0032615703530609608,-0.007527267560362816,0.004694960545748472,-7.580094825243577e-05,-9.981861512642354e-05
0.00046367463073693216,0.003365329932421446,-0.007839839905500412,0.0046891202218830585,-7.475168240489438e-05,-9.712542669149116e-05
0.0004538957145996392,0.00348036945797503,-0.00865977257490158,0.004249329213052988,-7.373100379481912e-05,-9.457377746002749e-05
0.0005229184753261507,0.0035326615907251835,-0.008655344136059284,0.0044652982614934444,-7.273786468431354e-05,-9.215284080710262e-05
0.0005110524944029748,0.0035381161142140627,-0.008067306131124496,0.004612618591636419,-7.177113729994744e-05,-7.034625014057383e-05
0.0005401646485552192,0.0034720224794000387,-0.00791849009692669,0.004472803790122271,-7.082972297212109e-05,-6.594145816052333e-05
0.0005001332610845566,0.0036172689869999886,-0.008422273211181164,0.004460608586668968,-6.991269037825987e-05,-6.419793498935178e-05
0.0005330397980287671,0.0037536148447543383,-0.008060992695391178,0.004398593213409185,-6.901913729961962e-05,-6.269564619287848e-05
0.0005597746348939836,0.003874699119478464,-0.008034694008529186,0.004437820520251989,-6.81481251376681e-05,-1.2737749557345523e-06
0.0006452106754295528,0.0039180670864880085,-0.008618796244263649,0.0045718601904809475,-6.72988171572797e-05,5.496450830833055e-05
0.0007259867852553725,0.003490265691652894,-0.008535686880350113,0.004764289129525423,-6.647042027907446e-05,5.6892527936724946e-05
0.0007641484844498336,0.004188497085124254,-0.008494870737195015,0.00480227405205369,-6.48733475827612e-05,8.037665975280106e-05
0.0009193504229187965,0.004169912543147802,-0.008545676246285439,0.004683192819356918,-6.410320929717273e-05,9.107050573220477e-05
0.0010020325426012278,0.003931179642677307,-0.008438383229076862,0.004225938115268946,-6.335115904221311e-05,0.00010056317842099816
0.0009869920322671533,0.003654435509815812,-0.00830342248082161,0.004314666148275137,-6.261657108552754e-05,0.00011686841753544286
0.0009750669123604894,0.0036206061486154795,-0.008497139438986778,0.004934308584779501,-6.95639755576849e-05,0.00011960465053562075
0.0009941759053617716,0.003688847180455923,-0.008427736349403858,0.005171756725758314,-7.122380338842049e-05,0.00044020716450177133
0.000978131778538227,0.003721707034856081,-0.007839045487344265,0.004944550339132547,-7.058555638650432e-05,0.0005069785402156413
0.0008718884782865644,0.0036791940219700336,-0.009020051918923855,0.00462960172444582,-6.981383921811357e-05,0.0004844834911637008
0.0008744056685827672,0.0036955145187675953,-0.008520631119608879,0.004294714890420437,-8.992858965939377e-06,0.0005150031065568328
0.0009884400060400367,0.003967543598264456,-0.008301796391606331,0.004364008083939552,-5.871694384040893e-07,0.0005135920364409685
0.0011369739659130573,0.003910393919795752,-0.008550912141799927,0.00475275469943881,-3.833796569097103e-08,0.0005080353002995253
0.0011658419389277697,0.003679215209558606,-0.008746190927922726,0.004732876550406218,-2.5031954287157987e-09,0.0006815459346398711
0.001957159023731947,0.0034516099840402603,-0.008609559386968613,0.00475359009578824,-1.634407470474386e-10,0.0008553229854442179
0.0020451003219932318,0.0035723478067666292,-0.008398318663239479,0.004692448768764734,-1.0671512284954332e-11,0.0019352210219949484
0.0022800180595368147,0.0037632996682077646,-0.009337841533124447,0.004443563055247068,-6.967734765897515e-13,0.0026488781441003084
0.0021558492444455624,0.003862604033201933,-0.00882614403963089,0.004615692421793938,-4.5494329332408656e-14,0.0026562034618109465
0.002063263673335314,0.0038130974862724543,-0.00847630761563778,0.0046501727774739265,-2.9704547605284223e-15,0.0020934538915753365
0.002063263673335314,0.0038130974862724543,-0.00847630761563778,0.0046501727774739265,-2.9704547605284223e-15,0.0020934538915753365
0.0020225057378411293,0.0037975620944052935,-0.00889284536242485,0.005068637430667877,-1.9394947497667183e-16,0.0017016326310113072
0.0020991796627640724,0.003924326039850712,-0.008891274221241474,0.005076323635876179,-1.2663514792727439e-17,0.0015021495055407286
0.002683295402675867,0.0036005238071084023,-0.008205522783100605,0.004958149045705795,-8.268370741048767e-19,0.0015132937114685774
0.0030318587087094784,0.003589702071622014,-0.008430369198322296,0.004922645632177591,-5.398655337020996e-20,0.0016261894488707185
0.002972895512357354,0.00390267139300704,-0.009450052864849567,0.004921191371977329,-3.524936072444178e-21,0.0026597052346915007
0.002727590035647154,0.003989974968135357,-0.008783741854131222,0.0047268676571547985,-2.301531604587828e-22,0.003544359700754285
0.002762520918622613,0.003752664662897587,-0.008883307687938213,0.004795858636498451,-1.502735690463154e-23,0.0030968673527240753
0.0031228826846927404,0.0034245552960783243,-0.00919289980083704,0.004889518953859806,-9.811789816342659e-25,0.0027968641370534897
0.0032225942704826593,0.0035348664969205856,-0.00954494345933199,0.004938321188092232,-6.406397343272564e-26,0.0024615491274744272
0.0034610864240676165,0.00378449191339314,-0.00869959406554699,0.004789707716554403,-4.182919927680849e-27,0.0023830414284020662
0.0032339890021830797,0.0038481573574244976,-0.009313522838056087,0.004932759795337915,-2.7311477726259285e-28,0.0024465853348374367
0.003520502708852291,0.0038250077050179243,-0.008882508613169193,0.005072699394077063,-5.358393900678493e-05,0.003020782256498933
0.0032868757843971252,0.003395373234525323,-0.008730747736990452,0.005581976380199194,-5.97833568463102e-05,0.0034617374185472727
0.003415648825466633,0.0038446253165602684,-0.009303437545895576,0.005315979942679405,-5.8698991779237986e-05,0.003165747970342636
0.0034689088352024555,0.003921271301805973,-0.008576586842536926,0.005516232922673225,-5.794508251710795e-05,0.003329129423946142
0.003475254401564598,0.003438240848481655,-0.008336306549608707,0.005278192926198244,-5.720854824176058e-05,0.0032192652579396963
0.003850568551570177,0.003514690324664116,-0.009141536429524422,0.005547726061195135,-5.649041122524068e-05,0.003482626751065254
0.003914184868335724,0.00362039590254426,-0.008890231139957905,0.0054163578897714615,-5.57900384592358e-05,0.003826751606538892
0.003814069088548422,0.0037043557967990637,-0.008616206236183643,0.005382460076361895,-5.510682603926398e-05,0.003939707297831774
0.0038522600661963224,0.0038133375346660614,-0.009609254077076912,0.0051333182491362095,-5.4440173698822036e-05,0.003935959190130234
0.004342313855886459,0.0033908586483448744,-0.009457924403250217,0.005045005585998297,-5.378946298151277e-05,0.004327127709984779
0.004551901016384363,0.0033215649891644716,-0.008985129185020924,0.005675991997122765,-5.315408270689659e-05,0.004195369780063629
0.0046140593476593494,0.003282756544649601,-0.00851780828088522,0.0056429640389978886,-5.2533578127622604e-05,0.0039297607727348804
0.004409464076161385,0.0034396471455693245,-0.00998847745358944,0.006025794893503189,-5.1927388994954526e-05,0.004132023546844721
0.004315666854381561,0.0036232364363968372,-0.009111141785979271,0.005637302994728088,-5.1334987801965326e-05,0.004315240774303675
0.004937491379678249,0.0036720633506774902,-0.008931495249271393,0.00544768339022994,-5.07560143887531e-05,0.004531648941338062
0.005105376243591309,0.0034285234287381172,-0.009519550018012524,0.005290472414344549,-5.018990850658156e-05,0.004536252934485674
0.005294636823236942,0.003054001834243536,-0.009616377763450146,0.004822911228984594,-2.516062158974819e-05,0.0044440715573728085
0.005444522947072983,0.002811624901369214,-0.009370392188429832,0.005303802900016308,-1.6428089111286681e-06,0.004652444738894701
0.005444522947072983,0.002811624901369214,-0.009370392188429832,0.005303802900016308,-1.6428089111286681e-06,0.004652444738894701
0.00582848908379674,0.0029033126775175333,-0.009565060958266258,0.005295808892697096,-1.0726368060431923e-07,0.004565937910228968
0.0058389995247125626,0.0032699094153940678,-0.00900338776409626,0.005600456148386002,-7.003551960593768e-09,0.004612958524376154
0.005721119232475758,0.0034555208403617144,-0.008890627883374691,0.005257569253444672,-4.572818790293809e-10,0.004924422595649958
0.005868053529411554,0.0034909197129309177,-0.009672668762505054,0.005384091287851334,-2.985723820958519e-11,0.004837668966501951
0.006146190222352743,0.0036800657398998737,-0.009694846346974373,0.005182345397770405,-1.949464461387107e-12,0.004525222349911928
0.005859481170773506,0.003902594093233347,-0.00960704404860735,0.005474670324474573,-1.2728610754384612e-13,0.00443967804312706
0.006258143112063408,0.0034879508893936872,-0.009894249029457569,0.005746434908360243,-8.31087297912354e-15,0.004643346183001995
0.006761726923286915,0.0035486759152263403,-0.009548510424792767,0.005487164482474327,-5.426406462301532e-16,0.005097496788948774
0.006338326260447502,0.0032532180193811655,-0.010105926543474197,0.005494149401783943,-3.543055438558993e-17,0.005200008396059275
0.006348349153995514,0.0034517748281359673,-0.010344956070184708,0.005192053969949484,-2.313361957056639e-18,0.005450187250971794
0.006552420556545258,0.0037218870129436255,-0.009788819588720798,0.0056593106128275394,-1.5104601036084143e-19,0.005197754129767418
0.006681832950562239,0.0033291850704699755,-0.011015906929969788,0.005702200345695019,-6.439328943267455e-22,0.0052824439480900764
0.006961950566619635,0.0034426208585500717,-0.0101769445464015,0.005420881789177656,-4.204421627726463e-23,0.0052449656650424
0.007146804593503475,0.0034554654266685247,-0.009737768210470676,0.005444447044283152,-2.7451870407929974e-24,0.005959749221801758
0.006949116475880146,0.0035709107760339975,-0.01056012324988842,0.005387233104556799,-1.7924110453550206e-25,0.006419933866709471
0.007318235468119383,0.0033142040483653545,-0.009785527363419533,0.006057477090507746,-1.1703163677961809e-26,0.005470862612128258
0.007719060406088829,0.0032090237364172935,-0.00936866644769907,0.006168993189930916,-7.641329758483005e-28,0.004919528029859066
0.007721790112555027,0.003333532949909568,-0.010244161821901798,0.0059163677506148815,-4.9892424934097663e-29,0.0051447306759655476
0.007547907996922731,0.0036552282981574535,-0.010056691244244576,0.0061688716523349285,-3.257618718332097e-30,0.005577063653618097
0.0075804488733410835,0.003247048007324338,-0.010159282013773918,0.005811507813632488,-2.126992140524764e-31,0.006038814317435026
0.007619582116603851,0.003316133515909314,-0.010115650482475758,0.006218033377081156,-1.3887739887203694e-32,0.0058578443713486195
0.007717898581176996,0.003532144706696272,-0.00990116037428379,0.0066430638544261456,-9.0677018924607e-34,0.005586862564086914
0.00783838052302599,0.0034896177239716053,-0.010098475031554699,0.006513950880616903,-5.920561542880618e-35,0.005836191587150097
0.00778851518407464,0.003536681644618511,-0.01028457935899496,0.005853527691215277,-3.865704003724511e-36,0.00621083052828908
0.008086008951067924,0.003246607258915901,-0.009809373877942562,0.006237950641661882,-2.5240282106675408e-37,0.006682675797492266
0.008135939948260784,0.0035393941216170788,-0.010314582847058773,0.006649182643741369,-1.648009950915073e-38,0.006520915776491165
0.007539659272879362,0.0033178525045514107,-0.010472845286130905,0.00641779275611043,-1.0760332686811335e-39,0.006374782882630825
0.008304188027977943,0.003551786532625556,-0.010053375735878944,0.006162512581795454,-7.025690110585335e-41,0.00633432948961854
0.008569209836423397,0.0032916534692049026,-0.010276594199240208,0.006225222256034613,-4.587851172199451e-42,0.006557872984558344
0.008569209836423397,0.0032916534692049026,-0.010276594199240208,0.006225222256034613,-4.587851172199451e-42,0.006557872984558344
0.008511357009410858,0.00331739685498178,-0.010905015282332897,0.006288515403866768,-2.9987787136551085e-43,0.00672098807990551
0.007933386601507664,0.0034637711942195892,-0.00978068821132183,0.006387488450855017,-1.961817850054744e-44,0.006372717209160328
0.008830147795379162,0.003504745662212372,-0.010082226246595383,0.0060423980467021465,-1.401298464324817e-45,0.006291546858847141
0.00872031319886446,0.00339362770318985,-0.009889420121908188,0.006088780704885721,-0.0,0.006691715680062771
0.008937017992138863,0.0031815567053854465,-0.009850109927356243,0.006143135484308004,-0.0,0.00688791461288929
0.008999071083962917,0.003440595231950283,-0.01049382146447897,0.006653556600213051,-0.0,0.006793488748371601
0.009067499078810215,0.0036621405743062496,-0.010195030830800533,0.006762649863958359,-0.0,0.0067593613639473915
0.00873649027198553,0.0037636724300682545,-0.009344830177724361,0.006581817753612995,-0.0,0.006653851829469204
0.009105372242629528,0.0038065691478550434,-0.009932941757142544,0.006449165288358927,-0.0,0.0067686159163713455
0.009199202992022038,0.0034374473616480827,-0.010069472715258598,0.006828343495726585,-0.0,0.006785891018807888
0.009054096415638924,0.0035202407743781805,-0.009578904137015343,0.007004788611084223,-0.0,0.006250679027289152
0.009248602204024792,0.0036152435932308435,-0.010401222854852676,0.00678624352440238,-0.0,0.006307107396423817
0.00941459834575653,0.0033340619411319494,-0.010406069457530975,0.006606045179069042,-0.0,0.007424977142363787
0.010120374150574207,0.0033594153355807066,-0.011071866378188133,0.007189552765339613,-0.0,0.0069909957237541676
0.009869342669844627,0.0035066227428615093,-0.010129942558705807,0.007113611325621605,-0.0,0.007248076610267162
0.008618930354714394,0.00360055617056787,-0.010218084789812565,0.0068377903662621975,-0.0,0.007417347282171249
0.010561230592429638,0.0035782603081315756,-0.010613917373120785,0.006625224836170673,-0.0,0.008023844100534916
0.010589618235826492,0.003481393214315176,-0.0104102473706007,0.00647798040881753,-0.0,0.007887505926191807
0.010288065299391747,0.003577978117391467,-0.011293414980173111,0.006553159095346928,-0.0,0.007508514914661646
0.010020118206739426,0.0037325697485357523,-0.01056128554046154,0.006480236072093248,-0.0,0.007702330593019724
0.01065647229552269,0.003360964823514223,-0.010509839281439781,0.005805662367492914,-0.0,0.0079187685623765
0.010092658922076225,0.003463948145508766,-0.011132384650409222,0.006089644972234964,-0.0,0.007936868816614151
0.010523978620767593,0.0037111102137714624,-0.010370268486440182,0.006925769150257111,-0.0,0.007695790380239487
0.010410168208181858,0.0035376406740397215,-0.010294592007994652,0.007092106621712446,-0.0,0.008695632219314575
0.010549343191087246,0.0034595404285937548,-0.010720754973590374,0.007096402812749147,-0.0,0.008430195972323418
0.00933054555207491,0.0036465702578425407,-0.01038983091711998,0.006535474676638842,-0.0,0.008066010661423206
0.009150133468210697,0.003875392023473978,-0.010527369566261768,0.007035712245851755,-0.0,0.008127759210765362
0.008532950654625893,0.0039309668354690075,-0.010977178812026978,0.0073844254948198795,-0.0,0.008761526085436344
0.010262209922075272,0.003464415902271867,-0.01007869467139244,0.006911426316946745,-0.0,0.008535671979188919
0.010262209922075272,0.003464415902271867,-0.01007869467139244,0.006911426316946745,-0.0,0.008535671979188919
0.009516090154647827,0.003187700407579541,-0.010089837945997715,0.006790144834667444,-0.0,0.008256955072283745
0.009405426681041718,0.0032335231080651283,-0.010725599713623524,0.006929854396730661,-0.0,0.007902574725449085
0.00963248685002327,0.0036056675016880035,-0.010105891153216362,0.007330131251364946,-0.0,0.008590253069996834
0.009861650876700878,0.0038292945828288794,-0.010145544074475765,0.00743930833414197,-0.0,0.008724752813577652
0.009748428128659725,0.00382800935767591,-0.01078839786350727,0.007254163268953562,-0.0,0.00894276611506939
0.010825591161847115,0.0038110341411083937,-0.010058995336294174,0.007380528841167688,-0.0,0.008784753270447254
0.009998285211622715,0.0034868153743445873,-0.010750324465334415,0.007411995902657509,-0.0,0.008905233815312386
0.009319428354501724,0.003397286869585514,-0.010085799731314182,0.00730253616347909,-0.0,0.009183883666992188
0.010733585804700851,0.003203292842954397,-0.009887433610856533,0.007697544991970062,-0.0,0.00897846557199955
0.010425413027405739,0.003489577444270253,-0.010875167325139046,0.007198086939752102,-0.0,0.0089109530672431
0.010248408652842045,0.003773942356929183,-0.01100888941437006,0.007135528139770031,-0.0,0.008795109577476978
0.010512509383261204,0.003427171381190419,-0.010331070981919765,0.007612820249050856,-0.0,0.009143294766545296
0.010118421167135239,0.003562171244993806,-0.010048667900264263,0.007554515264928341,-0.0,0.009176231920719147
0.010788812302052975,0.0037806995678693056,-0.010102890431880951,0.007914319634437561,-5.472102657222422e-06,0.008965149521827698
0.010688182897865772,0.004247717559337616,-0.010892936959862709,0.007674360182136297,-3.572892239844805e-07,0.009761182591319084
0.010604332201182842,0.004003850743174553,-0.010205979458987713,0.007383580319583416,-2.3328436071778924e-08,0.009150238707661629
0.01102505624294281,0.0039137895219028,-0.010503919795155525,0.007475861348211765,-1.5231801375747978e-09,0.009031417779624462
0.01058330200612545,0.00391869992017746,-0.01034892164170742,0.0077677215449512005,-9.945277934519936e-11,0.008831636980175972
0.010991171933710575,0.0039046609308570623,-0.010109273716807365,0.008138265460729599,-6.4935552594735935e-12,0.008692018687725067
0.011201029643416405,0.003827333450317383,-0.010357217863202095,0.007935960777103901,-4.2398276187648187e-13,0.008336675353348255
0.010654446668922901,0.003765673143789172,-0.0107197230681777,0.007801345083862543,-2.7683045878421422e-14,0.00843250285834074
0.010849776677787304,0.004333769902586937,-0.009873506613075733,0.007895510643720627,-1.8075052054861065e-15,0.009753726422786713
0.010915549471974373,0.004145448561757803,-0.010827518068253994,0.008187462575733662,-1.1801716671539067e-16,0.009205513633787632
0.011246491223573685,0.003967546857893467,-0.010168081149458885,0.0076826480217278,-7.705677924034697e-18,0.008296855725347996
0.011542276479303837,0.0034513650462031364,-0.009592952206730843,0.007781460881233215,-5.0312567994774895e-19,0.008961278945207596
0.011271905153989792,0.0035943470429629087,-0.010692241601645947,0.008416468277573586,-3.2850511906437426e-20,0.009623151272535324
0.011702178977429867,0.0036922546569257975,-0.010170145891606808,0.008077803999185562,-2.144903562157009e-21,0.009927424602210522
0.012106836773455143,0.0036720111966133118,-0.01008020993322134,0.008670692332088947,-1.400468804006697e-22,0.009881422854959965
0.011618401855230331,0.00410198699682951,-0.010713422670960426,0.0088892737403512,-9.144059883624917e-24,0.009524747729301453
0.011549821123480797,0.004228245001286268,-0.010334592312574387,0.00875311903655529,-5.970417340265035e-25,0.009781465865671635
0.011549821123480797,0.004228245001286268,-0.010334592312574387,0.00875311903655529,-5.970417340265035e-25,0.009781465865671635
0.011443525552749634,0.004035692196339369,-0.010135671123862267,0.008345922455191612,-3.898255695209156e-26,0.01065740268677473
0.01183769479393959,0.0034842942841351032,-0.010403153486549854,0.00845174677670002,-2.5452826292619328e-27,0.010368991643190384
0.01258567813783884,0.0035308864898979664,-0.010733279399573803,0.008806777186691761,-1.6618877175360409e-28,0.009912787936627865
0.011585015803575516,0.0037914130371063948,-0.01027644518762827,0.008065912872552872,-1.0850939828033734e-29,0.01016659289598465
0.011891968548297882,0.003898564027622342,-0.010671226307749748,0.008049563504755497,-7.084888299722395e-31,0.01007881946861744
0.011658217757940292,0.003857004689052701,-0.010001689195632935,0.008280366659164429,-4.6259255636532374e-32,0.009615705348551273
0.011859875172376633,0.003823421662673354,-0.010230563580989838,0.008174283429980278,-0.0001499607169535011,0.009500212036073208
0.012165678665041924,0.0038132478948682547,-0.010600774548947811,0.007236911915242672,-0.00018169805116485804,0.009916030801832676
0.012284701690077782,0.0037706145085394382,-0.010139506310224533,0.007329813204705715,-0.00017702014883980155,0.009909202344715595
0.012282317504286766,0.004254376981407404,-0.011944197118282318,0.008527940139174461,-0.00017047450819518417,0.010011786594986916
0.012093573808670044,0.0035932925529778004,-0.010632233694195747,0.008568749763071537,-0.00016426121874246746,0.010125011205673218
0.012483336962759495,0.0035557590890675783,-0.010286678560078144,0.008159021846950054,-0.0001584763522259891,0.01040719449520111
0.012189052999019623,0.0036749166902154684,-0.010518021881580353,0.00869747530668974,-0.00016809056978672743,0.010755837894976139
0.012275934219360352,0.0041565606370568275,-0.011041657999157906,0.008358809165656567,-0.00017193102394230664,0.010905520990490913
0.01218631211668253,0.00424435269087553,-0.012325994670391083,0.008253109641373158,-0.00016668348689563572,0.011098847724497318
0.012582930736243725,0.004058161750435829,-0.011601783335208893,0.008723939768970013,-0.00018508388893678784,0.011597665026783943
0.012636304832994938,0.0034800292924046516,-0.011736896820366383,0.008485986851155758,-0.00018292794993612915,0.011597095988690853
0.012927166186273098,0.003591015702113509,-0.011653926223516464,0.00880785658955574,-0.00017797031614463776,0.011260717175900936
0.01260782964527607,0.004139489959925413,-0.011562012135982513,0.009104520082473755,-0.000194560328964144,0.01076563261449337
0.012949854135513306,0.004232548642903566,-0.012070623226463795,0.009095154702663422,-0.0001923194358823821,0.0107956537976861
0.013174064457416534,0.004008524585515261,-0.01155548170208931,0.008551095612347126,-0.00018750388699118048,0.010823152028024197
0.013527060858905315,0.003884078934788704,-0.012142006307840347,0.008416745811700821,-0.00025141955120489,0.011123442091047764
0.013528576120734215,0.004194708075374365,-0.011671063490211964,0.008676206693053246,-0.00025928288232535124,0.010981304571032524
0.013153322041034698,0.004249054938554764,-0.012175770476460457,0.008116727694869041,-0.00024653636501170695,0.010588064789772034
0.013105998747050762,0.004070395603775978,-0.012375724501907825,0.008082088083028793,-0.0002566286420915276,0.010976933874189854
0.013058683834969997,0.003933500964194536,-0.011657784692943096,0.00860144104808569,-0.00026516124489717185,0.011007438413798809
0.01369229145348072,0.003517229575663805,-0.01255241222679615,0.008302230387926102,-0.0002540652931202203,0.011062003672122955
0.01317321415990591,0.0035408996045589447,-0.012526707723736763,0.007633006200194359,-0.00024273258168250322,0.011475726030766964
0.01397044025361538,0.004175793845206499,-0.012949291616678238,0.008113718591630459,-0.0002512242936063558,0.011399082839488983
0.013683084398508072,0.004122169688344002,-0.012449651956558228,0.00865224376320839,-0.00025853869738057256,0.011303970590233803
0.013858477585017681,0.0038899253122508526,-0.01284561026841402,0.00843882467597723,-0.00024945306358858943,0.011107753030955791
0.013475485146045685,0.0036760917864739895,-0.013170876540243626,0.008054802194237709,-0.00024002247664611787,0.010905928909778595
0.013475485146045685,0.0036760917864739895,-0.013170876540243626,0.008054802194237709,-0.00024002247664611787,0.010905928909778595
0.014139538630843163,0.0036321524530649185,-0.012292614206671715,0.00881313718855381,-0.0002312172728125006,0.011580441147089005
0.013894773088395596,0.003670609788969159,-0.01259843073785305,0.008353819139301777,-0.00023864101967774332,0.011294841766357422
0.014132926240563393,0.00372107676230371,-0.012177812866866589,0.008353314362466335,-0.00024511507945135236,0.01144312508404255
0.014129428192973137,0.003738266881555319,-0.013016651384532452,0.009201916866004467,-0.00023796687310095876,0.011499465443193913
0.014346088282763958,0.0037532502319663763,-0.012390193529427052,0.009054246358573437,-0.00028229341842234135,0.011883541941642761
0.014497515745460987,0.003806875552982092,-0.012994117103517056,0.009010854177176952,-0.00027293001767247915,0.012026111595332623
0.014621124602854252,0.0038686133921146393,-0.01304711401462555,0.008964663371443748,-0.0003057909198105335,0.011677182279527187
0.014425065368413925,0.0038252973463386297,-0.01328725554049015,0.00916045717895031,-0.00033459547557868063,0.01308357622474432
0.01478272583335638,0.003403446404263377,-0.012494571506977081,0.00982857309281826,-0.00034596852492541075,0.011922704055905342
0.014837440103292465,0.0038122304249554873,-0.013159695081412792,0.008154764771461487,-0.000617366109509021,0.011713115498423576
0.015031399205327034,0.0034388576168566942,-0.012632457539439201,0.008954775519669056,-0.0006871111108921468,0.01191357709467411
0.015559726394712925,0.003590385429561138,-0.013283615931868553,0.00882289931178093,-0.0006933342083357275,0.01254722848534584
0.014754262752830982,0.003379981964826584,-0.01308960746973753,0.009080739691853523,-0.0006458394345827401,0.012391293421387672
0.015420498326420784,0.0033891124185174704,-0.013340429402887821,0.00913719367235899,-0.0006649839924648404,0.012286467477679253
0.01550854742527008,0.0034089693799614906,-0.012868767604231834,0.009102347306907177,-0.0007320629083551466,0.012194542214274406
0.01582549884915352,0.0033159174490720034,-0.012846103869378567,0.008732959628105164,-0.0007631198968738317,0.012197339907288551
0.015416603535413742,0.003432578407227993,-0.01303795538842678,0.009029051288962364,-0.0006966652581468225,0.01243547908961773
0.015721453353762627,0.0032537351362407207,-0.012509704567492008,0.009246999397873878,-0.0007143470575101674,0.012255862355232239
0.015676068142056465,0.003118399530649185,-0.01424982026219368,0.008961162529885769,-0.0006472368258982897,0.01247367076575756
0.0156357754021883,0.0030360245145857334,-0.012430625036358833,0.00951029546558857,-0.0006651003495790064,0.012418648228049278
0.01572798192501068,0.0030704617965966463,-0.012949038296937943,0.009565858170390129,-0.0006134858122095466,0.012668820098042488
0.015731271356344223,0.0032661259174346924,-0.012598848901689053,0.009462844580411911,-0.0005680890171788633,0.013222415931522846
0.015731271356344223,0.0032661259174346924,-0.012598848901689053,0.009462844580411911,-0.0005680890171788633,0.013222415931522846
0.016110369935631752,0.0034161615185439587,-0.01341619435697794,0.010028691962361336,-0.0005288507090881467,0.012992960400879383
0.015830567106604576,0.0035893633030354977,-0.01297054160386324,0.009665978141129017,-0.00047478146734647453,0.012703550048172474
0.01632312498986721,0.0033017073292285204,-0.01324746198952198,0.009175754152238369,-0.00047092378372326493,0.012647010385990143
0.01672399789094925,0.0032727913931012154,-0.013205960392951965,0.009779926389455795,-0.00043254095362499356,0.013659685850143433
0.01669297367334366,0.0035044474061578512,-0.013279683887958527,0.009972376748919487,-0.0004005883529316634,0.013482589274644852
0.01669297367334366,0.0035044474061578512,-0.013279683887958527,0.009972376748919487,-0.0004005883529316634,0.013482589274644852
0.0158871840685606,0.00370122236199677,-0.012900836765766144,0.010247131809592247,-0.000430707965278998,0.013154235668480396
0.016543982550501823,0.003307556500658393,-0.013465807773172855,0.009680114686489105,-0.00040666316635906696,0.013436608016490936
0.016442060470581055,0.0032588571775704622,-0.012837298214435577,0.009255139157176018,-0.00038222558214329183,0.013654559850692749
0.01695832423865795,0.003433702513575554,-0.013567221350967884,0.01039116457104683,-0.000404899736167863,0.014039317145943642
0.016634471714496613,0.003484267508611083,-0.013340339064598083,0.00998219009488821,-0.0003891035448759794,0.013903910294175148
0.01673051156103611,0.0035511478781700134,-0.013967791572213173,0.009256129153072834,-0.0003695250197779387,0.013952692039310932
0.01686057075858116,0.003729378804564476,-0.013523281551897526,0.009715499356389046,-0.00035150558687746525,0.013876671902835369
0.016658876091241837,0.003795912954956293,-0.013766215182840824,0.009936928749084473,-0.0003254452021792531,0.014381217770278454
0.017283761873841286,0.003414245555177331,-0.013222604990005493,0.009922461584210396,-0.00030304171377792954,0.014409509487450123
0.01707901805639267,0.003216015873476863,-0.013672162778675556,0.009626400656998158,-0.00031992822187021375,0.014421177096664906
0.01707901805639267,0.003216015873476863,-0.013672162778675556,0.009626400656998158,-0.00031992822187021375,0.014421177096664906
0.016982728615403175,0.003768314141780138,-0.013724880293011665,0.009640466421842575,-0.00032773695420473814,0.014838926494121552
0.01762748882174492,0.003348808502778411,-0.013519949279725552,0.009378370828926563,-0.0003169045376125723,0.014872100204229355
0.01720530167222023,0.003148649586364627,-0.01386924460530281,0.009177873842418194,-0.0003394499944988638,0.014604880474507809
0.0173623189330101,0.003284190548583865,-0.013303947634994984,0.00966095831245184,-0.000329078349750489,0.014905443415045738
0.01757528819143772,0.003242254024371505,-0.013730849139392376,0.010023904033005238,-0.00042698931065388024,0.014856222085654736
0.017090676352381706,0.0036107900086790323,-0.013235822319984436,0.009716990403831005,-0.0004238384426571429,0.014921952970325947
0.017670879140496254,0.0035237658303231,-0.014084427617490292,0.010137376375496387,-0.0003895510162692517,0.015174098312854767
0.017636574804782867,0.0034303301945328712,-0.013483073562383652,0.010210034437477589,-0.00035863398807123303,0.015265217050909996
0.017413362860679626,0.003161268774420023,-0.013926024548709393,0.009441000409424305,-0.0003809545305557549,0.01400851272046566
0.0185475442558527,0.003180979983881116,-0.013780124485492706,0.010180345736443996,-0.0003700165543705225,0.01431602519005537
0.017641127109527588,0.0032176815439015627,-0.014125920832157135,0.010142501443624496,-0.0003753454948309809,0.014992957934737206
0.017641127109527588,0.0032176815439015627,-0.014125920832157135,0.010142501443624496,-0.0003753454948309809,0.014992957934737206
0.017883364111185074,0.0032672977540642023,-0.013966393657028675,0.010590673424303532,-0.00035884074168279767,0.014784308150410652
0.017883364111185074,0.0032672977540642023,-0.013966393657028675,0.010590673424303532,-0.00035884074168279767,0.014784308150410652
0.01605912856757641,0.003084510797634721,-0.01377038098871708,0.010761379264295101,-0.00038476864574477077,0.015374237671494484
0.0185171440243721,0.002834996907040477,-0.01436444278806448,0.011170524172484875,-0.0003680468362290412,0.015722351148724556
0.01925240457057953,0.0029350672848522663,-0.013868596404790878,0.011431382037699223,-0.00035032667801715434,0.015767188742756844
0.01846315525472164,0.003066478995606303,-0.014560231007635593,0.010489142499864101,-0.00035365752410143614,0.015659382566809654
0.018415575847029686,0.003323698416352272,-0.013703166507184505,0.010065136477351189,-0.0003346330486238003,0.016120679676532745
0.01819172315299511,0.003308573504909873,-0.013977554626762867,0.010731855407357216,-0.0003119014436379075,0.015747521072626114
0.019009137526154518,0.003384585725143552,-0.014055410400032997,0.01058222260326147,-0.00034212105674669147,0.015303302556276321
0.018991846591234207,0.002986146602779627,-0.014453207142651081,0.010937853716313839,-0.0003282075049355626,0.015676487237215042
0.019009901210665703,0.003022860735654831,-0.014231512323021889,0.01076508779078722,-0.00033497344702482224,0.015980832278728485
0.01923576556146145,0.0030175389256328344,-0.014284941367805004,0.010092362761497498,-0.00034013966796919703,0.016016649082303047
0.019393088296055794,0.003962182905524969,-0.014310923404991627,0.010783360339701176,-0.00032415511668659747,0.016060732305049896
0.018643291667103767,0.004154538735747337,-0.01458190381526947,0.011136435903608799,-0.00034653034526854753,0.016225097700953484
0.01906280405819416,0.003961668349802494,-0.01440147589892149,0.011264602653682232,-0.0003356076485943049,0.015979908406734467
0.01928829774260521,0.003812474198639393,-0.015017000027000904,0.011237595230340958,-0.0003209845453966409,0.01619095727801323
0.019972553476691246,0.00404909485951066,-0.014674985781311989,0.011157202534377575,-0.00039385518175549805,0.01648060418665409
0.019977886229753494,0.003990727476775646,-0.014901228249073029,0.011387558653950691,-0.00039798219222575426,0.016977448016405106
0.019724421203136444,0.0038972257170826197,-0.014709741808474064,0.011461788788437843,-0.0004304558096919209,0.016474705189466476
0.019859125837683678,0.003826683387160301,-0.014141524210572243,0.011854377575218678,-0.000449349608970806,0.016247231513261795
0.019995223730802536,0.0038309867959469557,-0.014938832260668278,0.011220882646739483,-0.00043867662316188216,0.01596377231180668
0.01994422636926174,0.003902829485014081,-0.014681789092719555,0.011785956099629402,-0.0007365146884694695,0.016469890251755714
0.02021411620080471,0.003489833092316985,-0.015131876803934574,0.011736943386495113,-0.0007737378473393619,0.016718976199626923
0.020615089684724808,0.003537881188094616,-0.014848968014121056,0.011532491073012352,-0.0007897617178969085,0.01641233079135418
0.020273815840482712,0.004142467398196459,-0.015237298794090748,0.012208286672830582,-0.0009173134458251297,0.016855575144290924
0.020334728062152863,0.004154188092797995,-0.014505492523312569,0.011434141546487808,-0.0010266810422763228,0.016746528446674347
0.020937925204634666,0.003543473780155182,-0.014867318794131279,0.011664111167192459,-0.0009754316415637732,0.017169933766126633
0.02094273827970028,0.0035074157640337944,-0.01460691262036562,0.011521400883793831,-0.0009010776993818581,0.016902010887861252
0.02082785964012146,0.0036717369221150875,-0.01603744924068451,0.011020917445421219,-0.0008889042655937374,0.01719464734196663
0.021062754094600677,0.0037500662729144096,-0.015040119178593159,0.011811497621238232,-0.0008643826004117727,0.017431208863854408
0.02146054059267044,0.004213172476738691,-0.015029506757855415,0.011617325246334076,-0.0009588603861629963,0.017278224229812622
0.02146054059267044,0.004213172476738691,-0.015029506757855415,0.011617325246334076,-0.0009588603861629963,0.017278224229812622
0.021403843536973,0.0042069898918271065,-0.01518448255956173,0.011370284482836723,-0.0009885714389383793,0.01870485208928585
0.020447641611099243,0.004047373775392771,-0.0156521238386631,0.011663997545838356,-0.0013943541562184691,0.0171547532081604
0.020911293104290962,0.00346954632550478,-0.014492405578494072,0.011361591517925262,-0.0014203677419573069,0.0174617487937212
0.021687138825654984,0.0038835848681628704,-0.015622729435563087,0.011249375529587269,-0.0012269369326531887,0.017523564398288727
0.021687138825654984,0.0038835848681628704,-0.015622729435563087,0.011249375529587269,-0.0012269369326531887,0.017523564398288727
0.021596327424049377,0.004005356226116419,-0.015453299507498741,0.011424083262681961,-0.0010936311446130276,0.01760750263929367
0.021799540147185326,0.0034856132697314024,-0.016148587688803673,0.01175974402576685,-0.0009770928882062435,0.01794918067753315
0.02229352667927742,0.003520459169521928,-0.015611842274665833,0.01121074240654707,-0.0008315065060742199,0.018091557547450066
0.02207047864794731,0.0036495039239525795,-0.0158291757106781,0.012531280517578125,-0.0008077497477643192,0.018125120550394058
0.021660594269633293,0.004329743329435587,-0.014962213113904,0.012090399861335754,-0.0007393276900984347,0.017651040107011795
0.021817032247781754,0.004084993619471788,-0.015539444051682949,0.012258189730346203,-0.0006631249561905861,0.018010631203651428
0.02278602309525013,0.0034601425286382437,-0.014906665310263634,0.011922557838261127,-0.000673780043143779,0.018258025869727135
0.022824391722679138,0.003565266029909253,-0.015632404014468193,0.01145621296018362,-0.0006252433522604406,0.01813393644988537
0.022906774654984474,0.0033116342965513468,-0.015121759846806526,0.011821064166724682,-0.0005317427567206323,0.018262717872858047
0.023287903517484665,0.0034743272699415684,-0.01560802012681961,0.011434536427259445,-0.0004405907529871911,0.018201246857643127
0.023228541016578674,0.003588888794183731,-0.01546432077884674,0.01166457962244749,-0.00039890522020868957,0.018452994525432587
0.0231392290443182,0.004178775940090418,-0.015915347263216972,0.012328974902629852,-0.000419968506321311,0.018599146977066994
0.02219398505985737,0.004133399575948715,-0.0157233364880085,0.01189472060650587,-0.0004050949646625668,0.01857142336666584
0.023832770064473152,0.00328217726200819,-0.015966974198818207,0.012138154357671738,-0.0004040355561301112,0.018915116786956787
0.02348933555185795,0.00333072105422616,-0.015869924798607826,0.012658468447625637,-0.0003862079174723476,0.01938958466053009
0.023784326389431953,0.0037234325427562,-0.016343768686056137,0.012479173019528389,-0.0003896684502251446,0.019527964293956757
0.024376850575208664,0.003867805004119873,-0.01563526690006256,0.012458407320082188,-0.0003918849106412381,0.019424522295594215
0.023752311244606972,0.0037151463329792023,-0.015929583460092545,0.01264136377722025,-0.000373104092432186,0.018888652324676514
0.023505937308073044,0.0035004413221031427,-0.01560151670128107,0.012433122843503952,-0.0003773523203562945,0.018920529633760452
0.02417745627462864,0.0035934720654040575,-0.015875354409217834,0.012570822611451149,-0.000368853856343776,0.019156740978360176
0.024339184165000916,0.0040453216060996056,-0.01537438202649355,0.011884781531989574,-0.00039253479917533696,0.01916757971048355
0.02371593564748764,0.00404265895485878,-0.015580017119646072,0.01255534403026104,-0.0003805767628364265,0.019778577610850334
0.024310706183314323,0.003847601357847452,-0.015811461955308914,0.012430760078132153,-0.0003564704966265708,0.019684264436364174
0.02536650374531746,0.0036993050016462803,-0.01568726822733879,0.012741221114993095,-0.00037548935506492853,0.019164448603987694
0.02494407258927822,0.003720406210049987,-0.016373256221413612,0.012455090880393982,-0.00036646606167778373,0.019366363063454628
0.02418910712003708,0.0037587503902614117,-0.015996970236301422,0.012507000006735325,-0.0003836695686914027,0.019461777061223984
0.02418910712003708,0.0037587503902614117,-0.015996970236301422,0.012507000006735325,-0.0003836695686914027,0.019461777061223984
0.024038130417466164,0.004089639987796545,-0.01568557694554329,0.01266760379076004,-0.0003573097346816212,0.019888924434781075
0.024038130417466164,0.004089639987796545,-0.01568557694554329,0.01266760379076004,-0.0003573097346816212,0.019888924434781075
0.024340515956282616,0.0042791650630533695,-0.016119353473186493,0.01322261430323124,-0.0003404581220820546,0.01983301155269146
0.02524711564183235,0.0042357174679636955,-0.01603911817073822,0.013004373759031296,-0.0003611438150983304,0.01971709169447422
0.025423526763916016,0.0041315387934446335,-0.016140691936016083,0.012996142730116844,-0.0003674795152619481,0.01990620046854019
0.025214064866304398,0.004156976006925106,-0.016323590651154518,0.012978799641132355,-0.00034189378493465483,0.01949283666908741
0.025393282994627953,0.004025042522698641,-0.016251131892204285,0.01350316684693098,-0.0003178783517796546,0.020394116640090942
0.02523559145629406,0.004300274886190891,-0.01642755977809429,0.013324758969247341,-0.00035213062074035406,0.02065194956958294
0.02490244060754776,0.00414864718914032,-0.01573360525071621,0.013103343546390533,-0.0003339478571433574,0.02082006074488163
0.02536701411008835,0.00394046725705266,-0.016291530802845955,0.013451989740133286,-0.0003600818454287946,0.020465128123760223
0.025207694619894028,0.0039541469886898994,-0.0159493125975132,0.013211536221206188,-0.0003464918409008533,0.02045559696853161
0.02564069628715515,0.00388206634670496,-0.016862498596310616,0.013396069407463074,-0.00035172110074199736,0.020686201751232147
0.025592073798179626,0.003808192675933242,-0.017013520002365112,0.013033028692007065,-0.00035559339448809624,0.02077525295317173
0.025945134460926056,0.0037340717390179634,-0.017693253234028816,0.0132215591147542,-0.00032491429010406137,0.020836230367422104
0.02544878050684929,0.00376205169595778,-0.016687147319316864,0.013850931078195572,-0.0003560883633326739,0.020893635228276253
0.02591840736567974,0.003929569385945797,-0.016963854432106018,0.013318270444869995,-0.00034449558006599545,0.020992642268538475
0.0260164812207222,0.004302880726754665,-0.017011675983667374,0.013635561801493168,-0.00038062685052864254,0.021170569583773613
0.025778084993362427,0.004024282563477755,-0.017368141561746597,0.013329364359378815,-0.00040333616198040545,0.021047450602054596
0.026691904291510582,0.003821734804660082,-0.017653146758675575,0.013797909021377563,-0.0004195508372504264,0.021482495591044426
0.026563743129372597,0.0043461741879582405,-0.017325202003121376,0.014057092368602753,-0.00042108629713766277,0.021686047315597534
0.026142753660678864,0.0041832453571259975,-0.017742961645126343,0.013786151073873043,-0.0006162417703308165,0.02175210230052471
0.026856375858187675,0.004405447281897068,-0.017719991505146027,0.013714516535401344,-0.000717585498932749,0.022177398204803467
0.026506761088967323,0.004176814574748278,-0.017843881621956825,0.013448212295770645,-0.0007435205625370145,0.022460555657744408
0.026465892791748047,0.00420061219483614,-0.017967885360121727,0.013553310185670853,-0.0007604561396874487,0.02197500318288803
0.027554983273148537,0.0039170715026557446,-0.016939373686909676,0.013167324475944042,-0.0009588494431227446,0.021980375051498413
0.028048135340213776,0.00365665415301919,-0.01795157417654991,0.013541561551392078,-0.0008272317936643958,0.022184541448950768
0.027296502143144608,0.0034589956048876047,-0.018635183572769165,0.013369725085794926,-0.0008205558988265693,0.022414222359657288
0.025950495153665543,0.0038962748367339373,-0.017952486872673035,0.013890106230974197,-0.0007262268336489797,0.02258795127272606
0.02682710438966751,0.00458679860457778,-0.017817866057157516,0.013792576268315315,-0.0007398199522867799,0.022551828995347023
0.0273022148758173,0.004238455090671778,-0.017803212627768517,0.014461699873209,-0.0006678137579001486,0.02228885143995285
0.026873236522078514,0.003899235278367996,-0.018141482025384903,0.014206858351826668,-0.0006784017896279693,0.02249373495578766
0.026873236522078514,0.003899235278367996,-0.018141482025384903,0.014206858351826668,-0.0006784017896279693,0.02249373495578766
0.028089499101042747,0.004186673555523157,-0.018028447404503822,0.013880455866456032,-0.0005296000163070858,0.02273666113615036
0.027874073013663292,0.004160069394856691,-0.01804310642182827,0.01419847272336483,-0.0005560105782933533,0.022835934534668922
0.027874073013663292,0.004160069394856691,-0.01804310642182827,0.01419847272336483,-0.0005560105782933533,0.022835934534668922
0.027547983452677727,0.004020685330033302,-0.018725009635090828,0.014107218012213707,-0.0005819712532684207,0.022720584645867348
0.027344003319740295,0.00431083282455802,-0.017520273104310036,0.014539055526256561,-0.0006089733797125518,0.023058319464325905
0.02783017046749592,0.004348245449364185,-0.01791195571422577,0.013981572352349758,-0.00083448167424649,0.023408988490700722
0.028605710715055466,0.004450952634215355,-0.018232185393571854,0.014407834969460964,-0.0009139658068306744,0.023176558315753937
0.028508303686976433,0.00404555955901742,-0.01805645227432251,0.014165060594677925,-0.0008655405836179852,0.023631345480680466
0.028510039672255516,0.0036942032165825367,-0.01878930628299713,0.014714634045958519,-0.0008113562944345176,0.023279421031475067
0.02886476181447506,0.0036385885905474424,-0.018286846578121185,0.014820249751210213,-0.0007714568637311459,0.02322791889309883
0.02865005098283291,0.00418788893148303,-0.018279770389199257,0.014887968078255653,-0.0007733002421446145,0.023642610758543015
0.027229223400354385,0.0040071336552500725,-0.017922870814800262,0.015127946622669697,-0.0007328072679229081,0.023175865411758423
0.02875150740146637,0.0043210722506046295,-0.018125567585229874,0.0143433203920722,-0.000749009835999459,0.023470580577850342
0.02921966090798378,0.004342222586274147,-0.018343131989240646,0.014533653855323792,-0.0007649207254871726,0.024318614974617958
0.028958741575479507,0.004031706601381302,-0.01798289641737938,0.014448505826294422,-0.000865142559632659,0.024474728852510452
0.02951093763113022,0.0038658955600112677,-0.01837601326406002,0.01499736588448286,-0.0008892714395187795,0.023102223873138428
0.029441993683576584,0.0037735316436737776,-0.018512893468141556,0.014235492795705795,-0.0007957795751281083,0.022791465744376183
0.02952582575380802,0.0037310535553842783,-0.0185187179595232,0.014934278093278408,-0.0007948763086460531,0.023847198113799095
0.02959730662405491,0.004217694979161024,-0.018771324306726456,0.014850934967398643,-0.0007177483639679849,0.02474609948694706
0.029969191178679466,0.00413870345801115,-0.01848417893052101,0.014934957958757877,-0.0007304842001758516,0.024251477792859077
0.029628224670886993,0.0042368462309241295,-0.01842905580997467,0.014749300666153431,-0.0006682488601654768,0.0243176631629467
0.02997228503227234,0.004130506422370672,-0.018912173807621002,0.015045404434204102,-0.0006117752636782825,0.025759834796190262
0.03035534732043743,0.003925790078938007,-0.018405791372060776,0.015351366251707077,-0.0005421097157523036,0.026036519557237625
0.029953140765428543,0.004232035484164953,-0.018615908920764923,0.01618344523012638,-0.0004800103197339922,0.024982107803225517
0.029953140765428543,0.004232035484164953,-0.018615908920764923,0.01618344523012638,-0.0004800103197339922,0.024982107803225517
0.03046482615172863,0.0040639666840434074,-0.018993789330124855,0.01548138726502657,-0.0004334296681918204,0.023892881348729134
0.03084561787545681,0.00390694011002779,-0.018419479951262474,0.015175162814557552,-0.00046868689241819084,0.024088332429528236
0.031062083318829536,0.004780123010277748,-0.019193202257156372,0.015119165182113647,-0.0004359762533567846,0.02592693269252777
0.031062083318829536,0.004780123010277748,-0.019193202257156372,0.015119165182113647,-0.0004359762533567846,0.02592693269252777
0.031547896564006805,0.004419044591486454,-0.018314039334654808,0.015316936187446117,-0.0004356410645414144,0.02592203952372074
0.031557757407426834,0.003935378510504961,-0.01872316375374794,0.014970413409173489,-0.0004377086297608912,0.02588633820414543
0.031800296157598495,0.0038908738642930984,-0.018966028466820717,0.015717854723334312,-0.0004373758565634489,0.0259187463670969
0.03150415048003197,0.0038419573102146387,-0.018340107053518295,0.015099513344466686,-0.0004154144262429327,0.02618928998708725
0.03201419487595558,0.0038040769286453724,-0.018973171710968018,0.01589154452085495,-0.00042806839337572455,0.026089824736118317
0.03280666470527649,0.0037903166376054287,-0.018956385552883148,0.01572275720536709,-0.0004619338142219931,0.026252228766679764
0.03210405632853508,0.0038478716742247343,-0.018649889156222343,0.015755455940961838,-0.0004967531422153115,0.026121631264686584
0.030442265793681145,0.004479253198951483,-0.018773311749100685,0.016018005087971687,-0.0005268007516860962,0.025805387645959854
0.03285422548651695,0.004229772370308638,-0.018741989508271217,0.01614028587937355,-0.0009421383147127926,0.02605442889034748
0.03271223232150078,0.004102298058569431,-0.019458189606666565,0.015720395371317863,-0.0008999805431813002,0.02615297958254814
0.03271223232150078,0.004102298058569431,-0.019458189606666565,0.015720395371317863,-0.0008999805431813002,0.02615297958254814
0.033450864255428314,0.004041130654513836,-0.018872523680329323,0.016023796051740646,-0.0008091314812190831,0.026572156697511673
0.03253098577260971,0.003981756046414375,-0.01958146132528782,0.01627216674387455,-0.0007737242267467082,0.02641591988503933
0.03245227038860321,0.0044455016031861305,-0.020174043253064156,0.01605195738375187,-0.0007431934936903417,0.02699039876461029
0.033995650708675385,0.004553523380309343,-0.019719934090971947,0.01658218540251255,-0.0007606185390613973,0.02694200910627842
0.03386804461479187,0.004192085471004248,-0.019905878230929375,0.01665680482983589,-0.0007766758790239692,0.027022575959563255
0.03400304540991783,0.004249150864779949,-0.019750120118260384,0.01640288718044758,-0.0007508420967496932,0.026749296113848686
0.03396844118833542,0.004086870234459639,-0.018901903182268143,0.016654184088110924,-0.0009206588729284704,0.026907000690698624
0.03355038911104202,0.0039792368188500404,-0.019702233374118805,0.016211561858654022,-0.0008588163182139397,0.02755703404545784
0.03415001556277275,0.004300948232412338,-0.0202915221452713,0.015989556908607483,-0.0008604457834735513,0.02755558118224144
0.034745942801237106,0.004294590093195438,-0.020096763968467712,0.015560079365968704,-0.0008648965158499777,0.026983316987752914
0.03475212678313255,0.004540485795587301,-0.019939705729484558,0.01634281314909458,-0.0008708102977834642,0.026302054524421692
0.03434627503156662,0.0042546531185507774,-0.02017824724316597,0.016606515273451805,-0.000871285970788449,0.025877857580780983
0.03429669141769409,0.004029884934425354,-0.01998324505984783,0.016295945271849632,-0.0008752591093070805,0.02683171257376671
0.03429669141769409,0.004029884934425354,-0.01998324505984783,0.016295945271849632,-0.0008752591093070805,0.02683171257376671
0.0345168374478817,0.003887750208377838,-0.020726943388581276,0.016380682587623596,-0.0008784446981735528,0.02710241824388504
0.03528660535812378,0.003851300338283181,-0.020430585369467735,0.016286661848425865,-0.0008992324001155794,0.027679292485117912
0.034783750772476196,0.004319500178098679,-0.02004837431013584,0.01653972640633583,-0.0009523506741970778,0.028161130845546722
0.03330296277999878,0.004599986132234335,-0.019827814772725105,0.016310518607497215,-0.0009477823041379452,0.028129057958722115
0.03525742143392563,0.004392207134515047,-0.020627258345484734,0.016624122858047485,-0.000941594538744539,0.02781674824655056
0.036873865872621536,0.004473771899938583,-0.020272985100746155,0.016339940950274467,-0.0010322385933250189,0.026673845946788788
0.03651225194334984,0.004109881352633238,-0.020196201279759407,0.016565674915909767,-0.0010593533515930176,0.026819352060556412
0.03436431661248207,0.0038930876180529594,-0.02100968360900879,0.01722339168190956,-0.0010360631858929992,0.028133487328886986
0.03470486402511597,0.003821524092927575,-0.020957645028829575,0.016574567183852196,-0.0010078439954668283,0.028714336454868317
0.03660440072417259,0.004007738083600998,-0.02073848620057106,0.0169379822909832,-0.0009747293661348522,0.028818201273679733
0.03622548654675484,0.003975279163569212,-0.020267874002456665,0.01687672920525074,-0.0009496932034380734,0.028852134943008423
0.036884427070617676,0.003951723221689463,-0.02083101123571396,0.01746748387813568,-0.0008397168712690473,0.0286624263972044
0.03699420392513275,0.004314496647566557,-0.02117864601314068,0.01696624420583248,-0.0007285974570550025,0.028763029724359512
0.0363849475979805,0.004084028769284487,-0.02092830091714859,0.01645710878074169,-0.0006931614479981363,0.028986407443881035
0.03704548999667168,0.004150031134486198,-0.02124900184571743,0.017488956451416016,-0.00066784379305318,0.02924567461013794
0.03742906451225281,0.0039009670726954937,-0.021185221150517464,0.017529604956507683,-0.0006291258614510298,0.029178863391280174
0.03737155348062515,0.0042325877584517,-0.02070881798863411,0.017687097191810608,-0.0005407256539911032,0.02924473024904728
0.03682422637939453,0.004236923065036535,-0.021262671798467636,0.017498549073934555,-0.0006149296532385051,0.029036130756139755
0.03659702464938164,0.004414686001837254,-0.02150149457156658,0.017459316179156303,-0.0006664730026386678,0.030005384236574173
0.03724336996674538,0.0044539435766637325,-0.021723370999097824,0.016574623063206673,-0.0013273361837491393,0.029078520834445953
0.03732529655098915,0.004501777235418558,-0.021221693605184555,0.016950171440839767,-0.0014466646825894713,0.029335496947169304
0.03722537308931351,0.004344150424003601,-0.021450694650411606,0.01712198741734028,-0.0012870925711467862,0.029547613114118576
0.03758519887924194,0.0045428150333464146,-0.021621491760015488,0.017421403899788857,-0.0012173320865258574,0.029765227809548378
0.037935543805360794,0.00413766223937273,-0.021529892459511757,0.017755163833498955,-0.000971565896179527,0.029840130358934402
0.03726105019450188,0.004198071546852589,-0.02124638855457306,0.017513159662485123,-0.000935136922635138,0.02983303740620613
0.03829161450266838,0.004614522680640221,-0.021763060241937637,0.01728876680135727,-0.0009104401688091457,0.029841437935829163
0.03828660026192665,0.0042780921794474125,-0.022111916914582253,0.017687268555164337,-0.0008784557576291263,0.02991919033229351
0.03786293417215347,0.004400948528200388,-0.021763820201158524,0.017723148688673973,-0.0008290728437714279,0.02958211861550808
0.03786293417215347,0.004400948528200388,-0.021763820201158524,0.017723148688673973,-0.0008290728437714279,0.02958211861550808
0.03826768323779106,0.004307966213673353,-0.021308667957782745,0.018951671198010445,-0.0007464118534699082,0.02958735078573227
0.03854293003678322,0.00449836440384388,-0.0219584908336401,0.019028613343834877,-0.00060478993691504,0.029679350554943085
0.038859881460666656,0.00438148807734251,-0.022135701030492783,0.018457351252436638,-0.000516798987518996,0.029608214274048805
0.03883911669254303,0.004365816712379456,-0.022379672154784203,0.01893582008779049,-0.0005418942891992629,0.029594171792268753
0.03921943157911301,0.004414364695549011,-0.02184329554438591,0.01813727244734764,-0.0005021553370170295,0.029857605695724487
0.03961591422557831,0.004038230981677771,-0.021980222314596176,0.01842917501926422,-0.00046003484749235213,0.030604088678956032
0.03969088941812515,0.004394981078803539,-0.02227529138326645,0.018591484054923058,-0.00047579186502844095,0.031095510348677635
0.039200879633426666,0.004523145966231823,-0.022548338398337364,0.018964769318699837,-0.00045733252773061395,0.030716419219970703
0.03892087563872337,0.00434857839718461,-0.02153112180531025,0.019389552995562553,-0.00042734824819490314,0.02944650687277317
0.0407637283205986,0.0044552357867360115,-0.02189319208264351,0.019583087414503098,-0.00044233721564523876,0.030056748539209366
0.04076046496629715,0.0050912960432469845,-0.022371606901288033,0.01938140019774437,-0.0004291106597520411,0.030820980668067932
0.03858904913067818,0.00491313636302948,-0.022936854511499405,0.019202005118131638,-0.00043182502849958837,0.030672956258058548
0.04009201377630234,0.004995842929929495,-0.02205772139132023,0.019311634823679924,-0.00047401300980709493,0.03211596608161926
0.04140767082571983,0.004899828229099512,-0.02207237109541893,0.018981313332915306,-0.00047201785491779447,0.03038967214524746
0.04044891893863678,0.00484833400696516,-0.022520871832966805,0.019085204228758812,-0.0004997620126232505,0.030437955632805824
0.039890166372060776,0.004769991151988506,-0.02261689305305481,0.018691521137952805,-0.0007082436350174248,0.03152292221784592
0.03954014927148819,0.004651419818401337,-0.022926535457372665,0.018937760964035988,-0.0007801988977007568,0.03253384679555893
0.041066065430641174,0.004521317780017853,-0.021525556221604347,0.01952756941318512,-0.0007124529220163822,0.031876370310783386
0.039581477642059326,0.004261021967977285,-0.022504741325974464,0.019551057368516922,-0.0007079971255734563,0.03163796290755272
0.04174242541193962,0.004531475715339184,-0.023983918130397797,0.019734986126422882,-0.0006576117011718452,0.0315970815718174
0.04176488146185875,0.0045151361264288425,-0.02378891222178936,0.019981209188699722,-0.0005967877805233002,0.03200869262218475
0.04075920954346657,0.0046747224405407906,-0.022008556872606277,0.019861580803990364,-0.0006123073981143534,0.03200874477624893
0.04128139838576317,0.004878363572061062,-0.02270350605249405,0.01969277113676071,-0.0005727026727981865,0.032054852694272995
0.04069754108786583,0.004771197214722633,-0.022680673748254776,0.020040757954120636,-0.0005412992904894054,0.032203905284404755
0.04113886132836342,0.004276319406926632,-0.023027557879686356,0.020111791789531708,-0.0005701999762095511,0.031902607530355453
0.04159050062298775,0.0040009478107094765,-0.02342299371957779,0.019413473084568977,-0.0005904181743972003,0.03232085704803467
0.04159050062298775,0.0040009478107094765,-0.02342299371957779,0.019413473084568977,-0.0005904181743972003,0.03232085704803467
0.04116375744342804,0.004260312300175428,-0.022983985021710396,0.01958410255610943,-0.0006172063294798136,0.03229418396949768
0.041068218648433685,0.00463278591632843,-0.023059988394379616,0.019834768027067184,-0.0008566271280869842,0.032719146460294724
0.042907118797302246,0.005093192681670189,-0.023098895326256752,0.019662445411086082,-0.0009459161083213985,0.03304431587457657
0.042158253490924835,0.004629454575479031,-0.023503514006733894,0.01992432028055191,-0.0009442310547456145,0.03262404352426529
0.04062962159514427,0.0042943512089550495,-0.02344488352537155,0.01992877572774887,-0.0009305381099693477,0.033081237226724625
0.042207226157188416,0.004050563555210829,-0.022960864007472992,0.01966819167137146,-0.00096894585294649,0.03317315876483917
0.04177730530500412,0.003979278262704611,-0.02265070378780365,0.01972542703151703,-0.0009624328231438994,0.03269294649362564
0.042831290513277054,0.004820250440388918,-0.023399854078888893,0.01963784359395504,-0.0009530744282528758,0.0326371006667614
0.043558910489082336,0.0045136259868741035,-0.024068718776106834,0.019778376445174217,-0.0009153062128461897,0.033776916563510895
0.04075175151228905,0.0045678927563130856,-0.02390689216554165,0.01992899179458618,-0.0008597996784374118,0.03422921150922775
0.042585693299770355,0.004448077641427517,-0.023425955325365067,0.01997530832886696,-0.0008196618291549385,0.03329435735940933
0.04332210123538971,0.004262949340045452,-0.022572260349988937,0.02002539485692978,-0.0007788968505337834,0.03223050385713577
0.042567361146211624,0.004451886285096407,-0.023214448243379593,0.01997734233736992,-0.0007334044785238802,0.03331597149372101
0.04247074946761131,0.0046164365485310555,-0.02397152967751026,0.020246468484401703,-0.000727859849575907,0.03313280642032623
0.043109696358442307,0.004397842567414045,-0.0238913893699646,0.01994330994784832,-0.0006742047844454646,0.03362077847123146
0.04336891695857048,0.004230428021401167,-0.0229856688529253,0.020298972725868225,-0.0006330627948045731,0.03435729444026947
0.0432603657245636,0.00432884506881237,-0.02296694740653038,0.02026006020605564,-0.0005931832129135728,0.033621784299612045
0.043441858142614365,0.004581186920404434,-0.023582952097058296,0.019915495067834854,-0.0005816213670186698,0.032879844307899475
0.04376698657870293,0.004191143903881311,-0.023714469745755196,0.020285550504922867,-0.0006121802143752575,0.03480139747262001
0.04411938041448593,0.004473141394555569,-0.023336002603173256,0.021420177072286606,-0.0005981138674542308,0.034921541810035706
0.04365258291363716,0.004642704501748085,-0.02319682389497757,0.02160525508224964,-0.0006063337787054479,0.03429703786969185
0.04254327341914177,0.00427609495818615,-0.023404428735375404,0.02074103243649006,-0.0005772489821538329,0.034256257116794586
0.044537268579006195,0.004455201793462038,-0.02374645508825779,0.020548231899738312,-0.0007025835802778602,0.03395479917526245
0.04447016492486,0.004447718150913715,-0.023512469604611397,0.02033907175064087,-0.0007347213686443865,0.03444866091012955
0.044041845947504044,0.0045295716263353825,-0.023905284702777863,0.01994476281106472,-0.0007550400914624333,0.03493731841444969
0.04447844624519348,0.004617336671799421,-0.02445516735315323,0.021421659737825394,-0.0007641358533874154,0.03490063175559044
0.04454091563820839,0.004338955041021109,-0.024456854909658432,0.02051563374698162,-0.0008945789886638522,0.034858718514442444
0.0449318066239357,0.004474996123462915,-0.023549789562821388,0.01961442083120346,-0.000991670647636056,0.03476101905107498
0.0449318066239357,0.004474996123462915,-0.023549789562821388,0.01961442083120346,-0.000991670647636056,0.03476101905107498
0.044754792004823685,0.00489348778501153,-0.02326948754489422,0.019974445924162865,-0.0010177702642977238,0.03511284664273262
0.04457402601838112,0.004946349188685417,-0.024156218394637108,0.021401995792984962,-0.0013918677577748895,0.03526798263192177
0.04443708807229996,0.0046393689699471,-0.024377401918172836,0.02180337905883789,-0.0014547334285452962,0.03529570251703262
0.04621877148747444,0.004313798155635595,-0.02426878549158573,0.021549690514802933,-0.0013085169484838843,0.0355813093483448
0.04515128955245018,0.004394135437905788,-0.023521095514297485,0.020993035286664963,-0.0012470015790313482,0.035367853939533234
0.043409306555986404,0.004594037309288979,-0.02404802478849888,0.020653443410992622,-0.0011323611252009869,0.03585714474320412
0.044164691120386124,0.004650128073990345,-0.02468610368669033,0.0206922497600317,-0.000970922177657485,0.035791464149951935
0.04564935714006424,0.004575441591441631,-0.02453014627099037,0.02064083144068718,-0.0008248496451415122,0.036046870052814484
0.0466981939971447,0.004656842909753323,-0.024289481341838837,0.02106723189353943,-0.000825653551146388,0.03569522127509117
0.04497824236750603,0.004762739408761263,-0.023572973906993866,0.021254515275359154,-0.0007362045580521226,0.03652781620621681
0.044531192630529404,0.004643844906240702,-0.023690706118941307,0.021058276295661926,-0.000740477058570832,0.03625037148594856
0.04640080779790878,0.0043837763369083405,-0.023715654388070107,0.020946552976965904,-0.0006014732061885297,0.03718256205320358
0.04607807472348213,0.004430854693055153,-0.024860596284270287,0.02123975194990635,-0.0006004750612191856,0.036812521517276764
0.046098481863737106,0.004591139033436775,-0.024801475927233696,0.021426446735858917,-0.0006287455908022821,0.03571172431111336
0.04597294330596924,0.004664376378059387,-0.024457376450300217,0.0212725643068552,-0.0006592835998162627,0.03593801334500313
0.04561097174882889,0.004406734835356474,-0.024068558588624,0.02146466262638569,-0.0011443010298535228,0.03688478842377663
0.045537225902080536,0.004235057160258293,-0.02415446750819683,0.021696602925658226,-0.0011305559892207384,0.03791460022330284
0.045684266835451126,0.004351593088358641,-0.02487163245677948,0.021512718871235847,-0.0014023405965417624,0.03710263967514038
0.0470377653837204,0.004551433492451906,-0.024739373475313187,0.02143319696187973,-0.0013591799652203918,0.03559917211532593
0.0467691570520401,0.004275340121239424,-0.02464480884373188,0.021860050037503242,-0.0012799110263586044,0.03614781051874161
0.04469331353902817,0.00449706194922328,-0.02490190975368023,0.022035175934433937,-0.001144562498666346,0.037600770592689514
0.04572540521621704,0.004581616725772619,-0.02502317540347576,0.021888364106416702,-0.0010399696184322238,0.03781868889927864
0.045932333916425705,0.004243244417011738,-0.024378398433327675,0.021761149168014526,-0.0009377842070534825,0.03755839914083481
0.048014234751462936,0.0043090772815048695,-0.024102000519633293,0.021774524822831154,-0.0009267153218388557,0.03720513731241226
0.04601524397730827,0.004516101907938719,-0.024466682225465775,0.02190353348851204,-0.0009148299577645957,0.0370471216738224
0.04520074278116226,0.0041398401372134686,-0.024694019928574562,0.021812595427036285,-0.0008387829875573516,0.03723336383700371
0.04693271964788437,0.004466196056455374,-0.024547206237912178,0.021644417196512222,-0.0007269794004969299,0.03722786530852318
0.047255732119083405,0.004711452405899763,-0.025203844532370567,0.021724186837673187,-0.0007428470999002457,0.037161681801080704
0.047255732119083405,0.004711452405899763,-0.025203844532370567,0.021724186837673187,-0.0007428470999002457,0.037161681801080704
0.04728834331035614,0.004542523063719273,-0.025324184447526932,0.021879637613892555,-0.0007122501265257597,0.037982042878866196
0.046784840524196625,0.004639191087335348,-0.025531107559800148,0.021761594340205193,-0.0007294876268133521,0.03844490647315979
0.047245997935533524,0.004681590478867292,-0.02570076286792755,0.02149205096065998,-0.0007108235731720924,0.03792786970734596
0.04763977602124214,0.004365839995443821,-0.025506693869829178,0.02197948470711708,-0.0008364201639778912,0.038767941296100616
0.04723435640335083,0.004462873097509146,-0.025593578815460205,0.0224053505808115,-0.0009289653971791267,0.03855491802096367
0.04739605635404587,0.004222674760967493,-0.02581721730530262,0.023513954132795334,-0.0011550280032679439,0.038541488349437714
0.04784709960222244,0.004343617707490921,-0.02615118958055973,0.022832445800304413,-0.001493837684392929,0.03854794427752495
0.04742724448442459,0.004445256199687719,-0.02612575702369213,0.022186383605003357,-0.0014581246068701148,0.03788340091705322
0.04815340414643288,0.004503826145082712,-0.026156585663557053,0.022600343450903893,-0.0016053605359047651,0.03824520483613014
0.04829185828566551,0.004255600273609161,-0.02624434046447277,0.021713541820645332,-0.0015008365735411644,0.040307462215423584
0.048285480588674545,0.004534212872385979,-0.025737391784787178,0.02207070216536522,-0.0013941877987235785,0.03951527923345566
0.048556745052337646,0.004607425071299076,-0.025437399744987488,0.02329697087407112,-0.0012635658495128155,0.0371917299926281
0.04903196915984154,0.004662294406443834,-0.025924857705831528,0.02314450778067112,-0.0012342550326138735,0.03824781998991966
0.04896778613328934,0.004609532654285431,-0.026125313714146614,0.023020094260573387,-0.0011802217923104763,0.03910049423575401
0.04928647354245186,0.004629239439964294,-0.02668842300772667,0.023574696853756905,-0.0010250501800328493,0.04015783593058586
0.04953223094344139,0.004771852400153875,-0.025747746229171753,0.022314397618174553,-0.0010014941217377782,0.038348130881786346
0.04965614527463913,0.00513280276209116,-0.025995654985308647,0.022335080429911613,-0.0009234268800355494,0.038070403039455414
0.049870237708091736,0.004952655639499426,-0.027317006140947342,0.02221354842185974,-0.0009160758927464485,0.039787594228982925
0.05169453099370003,0.004932625684887171,-0.027311300858855247,0.02271028608083725,-0.000883482163771987,0.03882541134953499
0.04859134927392006,0.004692836664617062,-0.026662103831768036,0.023105692118406296,-0.0008903631241992116,0.04090305417776108
0.049508146941661835,0.00482064438983798,-0.02732967585325241,0.023797836154699326,-0.0009531652322039008,0.040777914226055145
0.050321780145168304,0.004679269157350063,-0.027862686663866043,0.0238629300147295,-0.0010411909315735102,0.04022349789738655
0.051579490303993225,0.004824616480618715,-0.026880739256739616,0.023981697857379913,-0.001134290941990912,0.040242139250040054
0.05064886808395386,0.00479762302711606,-0.026190588250756264,0.02424589917063713,-0.0011875502532348037,0.0402972437441349
0.04918752983212471,0.004930664785206318,-0.026387374848127365,0.023991141468286514,-0.0010855927830561996,0.04053199291229248
0.05084202066063881,0.0044044493697583675,-0.027243882417678833,0.023272255435585976,-0.0010862572817131877,0.04065772891044617
0.05136037617921829,0.00439310260117054,-0.027882510796189308,0.023111218586564064,-0.0010637653758749366,0.04073205217719078
0.05045212805271149,0.004956086631864309,-0.027491416782140732,0.023821307346224785,-0.001037068897858262,0.040682949125766754
0.05103176087141037,0.004935744218528271,-0.02682795561850071,0.024064257740974426,-0.0010173121700063348,0.041075535118579865
0.05103176087141037,0.004935744218528271,-0.02682795561850071,0.024064257740974426,-0.0010173121700063348,0.041075535118579865
0.05132205784320831,0.004721366334706545,-0.026934297755360603,0.02449551597237587,-0.0010415143333375454,0.04104665294289589
0.05114445462822914,0.005034006666392088,-0.02718055620789528,0.024321088567376137,-0.0010654577054083347,0.041615452617406845
0.0520838163793087,0.004849784541875124,-0.026863064616918564,0.023661186918616295,-0.0010662211570888758,0.04176156967878342
0.05225979909300804,0.004782616626471281,-0.027808893471956253,0.02343476004898548,-0.0013973639579489827,0.04189560189843178
0.04992800951004028,0.005077152047306299,-0.02854837290942669,0.023917589336633682,-0.001340664573945105,0.04059808701276779
0.051188692450523376,0.004972115624696016,-0.028196802362799644,0.024435658007860184,-0.00124342180788517,0.04301249608397484
0.052485957741737366,0.0048283967189490795,-0.028201263397932053,0.024425648152828217,-0.0010969198774546385,0.04384186863899231
0.05312545225024223,0.005104124080389738,-0.028165435418486595,0.024646593257784843,-0.0009365850710310042,0.04090602695941925
0.050648510456085205,0.004911933094263077,-0.028195224702358246,0.024281907826662064,-0.0008517359383404255,0.04134844243526459
0.05197808891534805,0.004655942320823669,-0.02844426967203617,0.02398080565035343,-0.0007907068938948214,0.04183145985007286
0.05228113755583763,0.005031467881053686,-0.02852572500705719,0.02496289648115635,-0.000811115256510675,0.04421691223978996
0.05228113755583763,0.005031467881053686,-0.02852572500705719,0.02496289648115635,-0.000811115256510675,0.04421691223978996
0.05234414339065552,0.004910857416689396,-0.028958197683095932,0.024057073518633842,-0.0008839492802508175,0.04195818677544594
0.05262281745672226,0.005338435061275959,-0.02893741987645626,0.024725299328565598,-0.0009189789416268468,0.043248288333415985
0.052024729549884796,0.005210766103118658,-0.028330732136964798,0.024738438427448273,-0.001497312099672854,0.04348112642765045
0.05267861485481262,0.0048127127811312675,-0.028661996126174927,0.025006653741002083,-0.0014718709280714393,0.04308551549911499
0.053108248859643936,0.0054055387154221535,-0.029904549941420555,0.025242870673537254,-0.001457822392694652,0.04247652366757393
0.05282231420278549,0.005248107947409153,-0.02968195639550686,0.02526482567191124,-0.0014855805784463882,0.04417111724615097
0.05342138931155205,0.0049990033730864525,-0.028609277680516243,0.025224043056368828,-0.0014223117614164948,0.04436461254954338
0.053259968757629395,0.0052681611850857735,-0.02893419750034809,0.025326136499643326,-0.0012558521702885628,0.04384167864918709
0.05331568047404289,0.0050242580473423,-0.029486462473869324,0.025684094056487083,-0.0011835594195872545,0.044247061014175415
0.05378428474068642,0.004611196927726269,-0.02919371798634529,0.025270991027355194,-0.001131539698690176,0.04437672346830368
0.05425287410616875,0.005014979746192694,-0.029439032077789307,0.025624794885516167,-0.0010954003082588315,0.04424813762307167
0.05472533032298088,0.005508978385478258,-0.03031562641263008,0.026381218805909157,-0.0010025312658399343,0.04418082907795906
0.05538428947329521,0.005144480615854263,-0.030044017359614372,0.026542851701378822,-0.0009425685275346041,0.04432159662246704
0.0537419468164444,0.005179380066692829,-0.029984936118125916,0.02581157349050045,-0.000933120958507061,0.04419448599219322
0.0536607950925827,0.005054650362581015,-0.029220813885331154,0.02551918290555477,-0.0009758618543855846,0.04425663501024246
0.054621290415525436,0.004785826429724693,-0.029358334839344025,0.025460563600063324,-0.0010357687715440989,0.04634222760796547
0.05683146417140961,0.004810608457773924,-0.03011314757168293,0.02581111341714859,-0.0011402657255530357,0.04483037069439888
0.05683146417140961,0.004810608457773924,-0.03011314757168293,0.02581111341714859,-0.0011402657255530357,0.04483037069439888
0.054868679493665695,0.005181118380278349,-0.029858889058232307,0.0260264091193676,-0.0011093236971646547,0.044624052941799164
0.05426755174994469,0.005236850585788488,-0.029523177072405815,0.025280309841036797,-0.0010272006038576365,0.04508206248283386
0.05490428954362869,0.0053008380346000195,-0.02986139804124832,0.02568291686475277,-0.0010855825385078788,0.04631618410348892
0.056856703013181686,0.004957196768373251,-0.030253993347287178,0.02657727524638176,-0.0010985982371494174,0.04684719815850258
0.0554141141474247,0.005059059243649244,-0.030018659308552742,0.02555382438004017,-0.0010710490169003606,0.04502382501959801
0.05524633079767227,0.0054001593962311745,-0.02984054945409298,0.025009479373693466,-0.0010495410533621907,0.04453587159514427
0.05623171105980873,0.005067902151495218,-0.03003550134599209,0.025082120671868324,-0.0010815231362357736,0.04585722088813782
0.05563569813966751,0.0054319859482347965,-0.030251936987042427,0.02562694251537323,-0.0011763009242713451,0.04613952711224556
0.05617130920290947,0.00509814266115427,-0.030169885605573654,0.026730891317129135,-0.0014055311912670732,0.04643099382519722
0.05583155155181885,0.004820093512535095,-0.030771249905228615,0.02695406787097454,-0.0014215793926268816,0.04590802267193794
0.05624771490693092,0.005132732912898064,-0.030936233699321747,0.026313913986086845,-0.0013302314328029752,0.04566526040434837
0.054435428231954575,0.004896614234894514,-0.030753618106245995,0.025668270885944366,-0.0011474838247522712,0.04704229533672333
0.05571047216653824,0.005219622980803251,-0.030867189168930054,0.026423601433634758,-0.0011025290004909039,0.04596369341015816
0.05825769901275635,0.00503295473754406,-0.030845312401652336,0.027077004313468933,-0.000970634981058538,0.046409089118242264
0.05734263360500336,0.005227092653512955,-0.030473394319415092,0.026790617033839226,-0.0009542815969325602,0.04639868065714836
0.0553642176091671,0.0050593530759215355,-0.030886096879839897,0.027257980778813362,-0.0008550652419216931,0.04672999307513237
0.0569690577685833,0.004862986039370298,-0.030543118715286255,0.027436761185526848,-0.0007978813373483717,0.04700973629951477
0.0573667474091053,0.005131374578922987,-0.030600382015109062,0.027273626998066902,-0.0008392419549636543,0.046978939324617386
0.05706704780459404,0.005469910800457001,-0.03043045476078987,0.027558213099837303,-0.0011623963946476579,0.04713545739650726
0.05721176415681839,0.005178259685635567,-0.030569270253181458,0.027682695537805557,-0.0015271296724677086,0.04641343280673027
0.05772722512483597,0.00483526848256588,-0.030858421698212624,0.02759692072868347,-0.0017267696093767881,0.04727368429303169
0.0569426566362381,0.004644330590963364,-0.030440963804721832,0.028164450079202652,-0.0017006585840135813,0.04923515394330025
0.0569545142352581,0.004610002506524324,-0.030691316351294518,0.02830662578344345,-0.0015335481148213148,0.04862137511372566
0.05800490826368332,0.004383829887956381,-0.03075510822236538,0.028089337050914764,-0.0014174801763147116,0.046655163168907166
0.05763845518231392,0.004912406671792269,-0.030474700033664703,0.028123682364821434,-0.0012704828986898065,0.04705427587032318
0.05774718523025513,0.005233022850006819,-0.03233860060572624,0.02854181081056595,-0.0013023798819631338,0.04860217869281769
0.05790971219539642,0.0048883589915931225,-0.031588125973939896,0.02916506491601467,-0.001354201347567141,0.049783140420913696
0.057709477841854095,0.004922413732856512,-0.03094264306128025,0.028679853305220604,-0.0015033091185614467,0.04805499687790871
0.057709477841854095,0.004922413732856512,-0.03094264306128025,0.028679853305220604,-0.0015033091185614467,0.04805499687790871
0.058231111615896225,0.00483822962269187,-0.030439862981438637,0.02791603095829487,-0.0014419942162930965,0.04764451086521149
0.058026839047670364,0.004933834541589022,-0.03128693252801895,0.02767128124833107,-0.0013160672970116138,0.04907010495662689
0.05853799730539322,0.00487339124083519,-0.030997857451438904,0.028297722339630127,-0.001080731744877994,0.04859081655740738
0.058746639639139175,0.004818618763238192,-0.030768446624279022,0.02824762836098671,-0.0010354756377637386,0.05017983168363571
0.05842065438628197,0.0046571530401706696,-0.03159492835402489,0.02790949121117592,-0.0010022720089182258,0.049482543021440506
0.05882077291607857,0.004728144966065884,-0.031080562621355057,0.028470072895288467,-0.0009871392976492643,0.0491294302046299
0.05805102363228798,0.005090320482850075,-0.030473511666059494,0.02935810387134552,-0.0008590961806476116,0.04934753105044365
0.06013103574514389,0.004939622711390257,-0.03010440059006214,0.028911732137203217,-0.0008471806067973375,0.049958888441324234
0.058048371225595474,0.0048202211037278175,-0.03142305836081505,0.028680970892310143,-0.0009211274445988238,0.04970908537507057
0.058357950299978256,0.004824398085474968,-0.031854212284088135,0.026353750377893448,-0.0010818038135766983,0.05007897689938545
0.059025418013334274,0.004983196966350079,-0.0314614400267601,0.026407841593027115,-0.001218432211317122,0.04992661997675896
0.06066674366593361,0.004995723254978657,-0.031236303970217705,0.02760271728038788,-0.0012620501220226288,0.049714721739292145
0.05781218037009239,0.004755706992000341,-0.03186769783496857,0.028140855953097343,-0.0012802741257473826,0.05090556666254997
0.05850309506058693,0.004860525950789452,-0.03155186027288437,0.027888255193829536,-0.0013258589897304773,0.04937397688627243
0.059297457337379456,0.004926194436848164,-0.03132995590567589,0.028206421062350273,-0.001276350230909884,0.04981118440628052
0.058888524770736694,0.005065483041107655,-0.031239395961165428,0.028148604556918144,-0.001418471452780068,0.052399955689907074
0.06037463620305061,0.005364793818444014,-0.031828656792640686,0.028301527723670006,-0.001623752643354237,0.051597028970718384
0.05996821075677872,0.004977796226739883,-0.03190293535590172,0.02824915573000908,-0.0018360461108386517,0.0491456612944603
0.05865980312228203,0.0049640885554254055,-0.0315227136015892,0.0285427737981081,-0.001813406590372324,0.05082236975431442
0.059062741696834564,0.005339314229786396,-0.0318915918469429,0.028732309117913246,-0.001776316436007619,0.05107388645410538
0.061577532440423965,0.005123476032167673,-0.03169336915016174,0.02875812165439129,-0.001651652972213924,0.050492580980062485
0.05915188416838646,0.005432900972664356,-0.03217748925089836,0.02873273193836212,-0.001401666086167097,0.050885338336229324
0.05995957553386688,0.005245352163910866,-0.03157150745391846,0.028998058289289474,-0.0011961866402998567,0.051720742136240005
0.061061643064022064,0.005122548434883356,-0.03171374276280403,0.029003549367189407,-0.0010497410548850894,0.0513574443757534
0.06083350628614426,0.005296109244227409,-0.032527126371860504,0.028892753645777702,-0.0010086423717439175,0.05153125524520874
0.060960352420806885,0.005262105725705624,-0.03231653943657875,0.02904074266552925,-0.0009756697108969092,0.05190398916602135
0.06092808023095131,0.005595491733402014,-0.030886558815836906,0.0296673234552145,-0.0008966205641627312,0.051740147173404694
0.06152739375829697,0.005283011123538017,-0.03215641528367996,0.0295101348310709,-0.0008406084380112588,0.052089493721723557
0.06092450022697449,0.004766690079122782,-0.033233530819416046,0.029086830094456673,-0.0008616814156994224,0.05219540745019913
0.060798559337854385,0.005477141123265028,-0.03279111534357071,0.02935197949409485,-0.0012835909146815538,0.05187218636274338
