davideferrari95/blind_handover_controller/data/Test 232 - [2024-02-08 -- 12-29-08]/joint_states_data.csv
shoulder_pan_joint,shoulder_lift_joint,elbow_joint,wrist_1_joint,wrist_2_joint,wrist_3_joint
0.010256228037178516,0.005645412020385265,-0.012325775809586048,0.004476988222450018,-0.0014090703334659338,0.008418159559369087
0.009844060987234116,0.005782065913081169,-0.012271090410649776,0.0045476993545889854,-0.0014604047173634171,0.008172239176928997
0.010018269531428814,0.005794305820018053,-0.012975260615348816,0.00479894457384944,-0.0012092124670743942,0.008361184038221836
0.010018269531428814,0.005794305820018053,-0.012975260615348816,0.00479894457384944,-0.0012092124670743942,0.008361184038221836
0.010345824994146824,0.0060658701695501804,-0.012117219157516956,0.004822504241019487,-0.0011524000437930226,0.008612812496721745
0.010345824994146824,0.0060658701695501804,-0.012117219157516956,0.004822504241019487,-0.0011524000437930226,0.008612812496721745
0.009272916242480278,0.005542144179344177,-0.011797009035944939,0.004763797856867313,-0.0010753604583442211,0.008091215044260025
0.009764040820300579,0.005859548691660166,-0.012520997785031796,0.005031530279666185,-0.0010128573048859835,0.008100618608295918
0.009607965126633644,0.006063678301870823,-0.011890050955116749,0.004823575261980295,-0.0009365565492771566,0.008534369058907032
0.009099369868636131,0.006168471183627844,-0.01259084977209568,0.004345835652202368,-0.0008640892920084298,0.00883782934397459
0.009258296340703964,0.006027117371559143,-0.011999833397567272,0.004506265744566917,-0.0008651576354168355,0.008880806155502796
0.008907515555620193,0.005865088198333979,-0.011796663515269756,0.004795145243406296,-0.0008986493921838701,0.008808571845293045
0.008661026135087013,0.006137143354862928,-0.011682456359267235,0.005260948557406664,-0.0009572253911755979,0.00877513736486435
0.008871848694980145,0.005984813906252384,-0.011301442980766296,0.00507649639621377,-0.0010478835320100188,0.008462692610919476
0.008699169382452965,0.006442195735871792,-0.012164638377726078,0.004833696875721216,-0.001029915176331997,0.00830821692943573
0.008674383163452148,0.006454987917095423,-0.011518527753651142,0.005276922136545181,-0.0009626790415495634,0.008476686663925648
0.00859029684215784,0.006377312354743481,-0.011823443695902824,0.0053711505606770515,-0.000897731282748282,0.008361111395061016
0.008598328568041325,0.006174873095005751,-0.012055196799337864,0.005445239134132862,-0.0008489142637699842,0.008328013122081757
0.008362788707017899,0.0065805972553789616,-0.01169331930577755,0.005474166013300419,-0.0008483214187435806,0.008364616893231869
0.007630334701389074,0.007001038640737534,-0.011658288538455963,0.005151607096195221,-0.0008548983605578542,0.008302789181470871
0.00888088159263134,0.006343782413750887,-0.011150595732033253,0.005135677754878998,-0.000818758038803935,0.008957475423812866
0.008122248575091362,0.006381995044648647,-0.011872798204421997,0.00509700458496809,-0.0007779512670822442,0.008482636883854866
0.007754741236567497,0.006620279513299465,-0.011663627810776234,0.005576165392994881,-0.0007794181001372635,0.008616892620921135
0.007581123150885105,0.006845803000032902,-0.010899685323238373,0.005392623599618673,-0.0008027922594919801,0.00841883011162281
0.0077790929935872555,0.006453271955251694,-0.011672674678266048,0.00502878800034523,-0.0008157972479239106,0.008244166150689125
0.007927128113806248,0.006502912379801273,-0.011289685033261776,0.0051696645095944405,-0.0008255108841694891,0.008725120685994625
0.0076256622560322285,0.006496040150523186,-0.011929613538086414,0.00513511011376977,-0.0010255537927150726,0.008633410558104515
0.007425186689943075,0.006959966383874416,-0.011957554146647453,0.005012712441384792,-0.001031255698762834,0.008732338435947895
0.008084514178335667,0.006834191270172596,-0.011210281401872635,0.005152092315256596,-0.0009486247436143458,0.009381554089486599
0.00766057288274169,0.006712860427796841,-0.011802791617810726,0.004967238754034042,-0.0009298178483732045,0.008841153234243393
0.007347857113927603,0.007076884154230356,-0.011157790198922157,0.00487347599118948,-0.0008950086194090545,0.008354917168617249
0.008068117313086987,0.008000965230166912,-0.011729107238352299,0.0048992629162967205,-0.0008075786172412336,0.008783392608165741
0.007905257865786552,0.007043104153126478,-0.011060025542974472,0.005199955310672522,-0.0007957103662192822,0.008948714472353458
0.007905257865786552,0.007043104153126478,-0.011060025542974472,0.005199955310672522,-0.0007957103662192822,0.008948714472353458
0.007055437192320824,0.006543909199535847,-0.012109967879951,0.0054566566832363605,-0.000730091764125973,0.00899241492152214
0.007278429344296455,0.006714308634400368,-0.0115130003541708,0.005177038721740246,-0.0007241666316986084,0.008762161247432232
0.007457427680492401,0.00745558924973011,-0.011500786058604717,0.004981633275747299,-0.000697816489264369,0.00894351489841938
0.007374673616141081,0.0071967062540352345,-0.011224017478525639,0.005045607686042786,-0.00068825320340693,0.008585399016737938
0.007208073511719704,0.006707823369652033,-0.010827218182384968,0.004957095254212618,-0.0007118864450603724,0.008275828324258327
0.007472195662558079,0.006896032020449638,-0.011712742038071156,0.005413566716015339,-0.0007324006292037666,0.008671801537275314
0.007709589321166277,0.007463415153324604,-0.011805620975792408,0.005631519015878439,-0.0007062460645101964,0.008761031553149223
0.00679029943421483,0.007113357540220022,-0.011813265271484852,0.005734545178711414,-0.0008153391536325216,0.00827186368405819
0.0065562063828110695,0.007173443678766489,-0.011550757102668285,0.005205279681831598,-0.0007408015080727637,0.008600139059126377
0.006895974278450012,0.007528924848884344,-0.011300548911094666,0.004858131520450115,-0.0006392247159965336,0.008948825299739838
0.007096628192812204,0.007796928286552429,-0.012090824544429779,0.0050311884842813015,-0.000613289070315659,0.008246680721640587
0.006786390673369169,0.007548889145255089,-0.011848373338580132,0.004956622142344713,-0.0005934569635428488,0.008292220532894135
0.0071307639591395855,0.00743548758327961,-0.012340881861746311,0.0048941271379590034,-0.0005374500760808587,0.008759159594774246
0.0065513914451003075,0.0075147720053792,-0.012607824988663197,0.004916426260024309,-0.000559126609005034,0.008763798512518406
0.006976282224059105,0.007690014783293009,-0.012197919189929962,0.005094037391245365,-0.0005222909967415035,0.00859476812183857
0.0069107902236282825,0.007881865836679935,-0.01198947336524725,0.004944448359310627,-0.00048285265802405775,0.008535065688192844
0.007045156322419643,0.007420761976391077,-0.011640177108347416,0.004893960896879435,-0.0004955883487127721,0.008555598556995392
0.00687565328553319,0.006611877586692572,-0.012173525057733059,0.005077505949884653,-0.00047737700515426695,0.008658318780362606
0.00672281626611948,0.00924684014171362,-0.01174682192504406,0.005020901560783386,-0.0004485802783165127,0.008975092321634293
0.007167675532400608,0.006397171411663294,-0.011629338376224041,0.005385855678468943,-0.0003693905018735677,0.008699228055775166
0.006881000939756632,0.007318723481148481,-0.012128914706408978,0.005017660092562437,-0.00033522897865623236,0.00871832761913538
0.006743726320564747,0.007269468158483505,-0.012088529765605927,0.004829848650842905,-0.00036950327921658754,0.00847560539841652
0.006732931360602379,0.007508610375225544,-0.012013747356832027,0.004896046593785286,-0.0003776666126213968,0.008250621147453785
0.007325018756091595,0.007447299547493458,-0.011759346351027489,0.005542446859180927,-0.00038110290188342333,0.00827693846076727
0.0071468050591647625,0.007366482634097338,-0.011754949577152729,0.00601070374250412,-0.0003989952674601227,0.008392947725951672
0.006813806481659412,0.007279274985194206,-0.011631349101662636,0.0057898033410310745,-0.00038942089304327965,0.007427940145134926
0.006813806481659412,0.007279274985194206,-0.011631349101662636,0.0057898033410310745,-0.00038942089304327965,0.007427940145134926
0.007344122976064682,0.008234101347625256,-0.012057920917868614,0.005164974369108677,-0.0005090658087283373,0.009316127747297287
0.0075965868309140205,0.007930119521915913,-0.011777294799685478,0.0046197352930903435,-0.00046279627713374794,0.008525476790964603
0.006946983747184277,0.007679351605474949,-0.01152744609862566,0.004886099603027105,-0.0004978991346433759,0.008472810499370098
0.006364557892084122,0.007546849548816681,-0.011716146022081375,0.005465502385050058,-0.0004605166323017329,0.008263691328465939
0.00790342129766941,0.007692901883274317,-0.011312687769532204,0.005257557146251202,-0.00048566446639597416,0.008264971897006035
0.010241893120110035,0.007523931562900543,-0.011739288456737995,0.005052940454334021,-0.00045862613478675485,0.008089249953627586
0.009684649296104908,0.0076922462321817875,-0.011580796912312508,0.00503185112029314,-0.0004279973800294101,0.007975440472364426
0.00941628310829401,0.007818865589797497,-0.011485114693641663,0.005177744664251804,-0.00045405150740407407,0.008082505315542221
0.009704632684588432,0.007426643278449774,-0.011625070124864578,0.005468340124934912,-0.00045949374907650054,0.00823191273957491
0.009755650535225868,0.007333662360906601,-0.011333175003528595,0.005244632717221975,-0.000507886812556535,0.00831023883074522
0.009550976566970348,0.007480166852474213,-0.011725020594894886,0.005345134995877743,-0.0005435756756924093,0.008255370892584324
0.00944206491112709,0.007715335115790367,-0.011789219453930855,0.005013055633753538,-0.0005185792688280344,0.008192549459636211
0.00947391614317894,0.008148710243403912,-0.011445315554738045,0.004968592897057533,-0.0005395328043960035,0.008567823097109795
0.009408598765730858,0.007940134964883327,-0.011640921235084534,0.005004868842661381,-0.0006685451953671873,0.007971404120326042
0.00985381193459034,0.007620494347065687,-0.011160061694681644,0.005245888140052557,-0.0007124374969862401,0.007819077000021935
0.009554832242429256,0.00806052703410387,-0.01189594715833664,0.005528635811060667,-0.0007304162718355656,0.007623031735420227
0.009416508488357067,0.007800242863595486,-0.012003310956060886,0.00522270193323493,-0.0006564416107721627,0.00806940533220768
0.010322261601686478,0.007792580407112837,-0.011982202529907227,0.004961053375154734,-0.0006765499711036682,0.008064739406108856
0.00921190157532692,0.008013521321117878,-0.011739473789930344,0.00483555207028985,-0.0006163569632917643,0.008266597986221313
0.009808413684368134,0.007570433896034956,-0.011320387944579124,0.005345776677131653,-0.000561750668566674,0.007876704446971416
0.009366052225232124,0.007688061334192753,-0.01240838598459959,0.00550829665735364,-0.0005156629486009479,0.00761718675494194
0.009349376894533634,0.007618957199156284,-0.011803098022937775,0.0056098769418895245,-0.000539952190592885,0.007771420758217573
0.00931303109973669,0.007571666967123747,-0.012084729969501495,0.0051290905103087425,-0.000506121723446995,0.007727812975645065
0.009393834508955479,0.007283071521669626,-0.012076443061232567,0.005294740200042725,-0.00047311477828770876,0.008014210499823093
0.009348106570541859,0.007315791677683592,-0.011638876982033253,0.005648855585604906,-0.00044389371760189533,0.007732992060482502
0.008889701217412949,0.007701176218688488,-0.011946829035878181,0.006235743407160044,-0.0003960361937060952,0.008015057072043419
0.009229881688952446,0.007151308469474316,-0.012410162948071957,0.005617179442197084,-0.0003197024925611913,0.007951313629746437
0.009229881688952446,0.007151308469474316,-0.012410162948071957,0.005617179442197084,-0.0003197024925611913,0.007951313629746437
0.009046358987689018,0.007010043133050203,-0.011667435988783836,0.005526281427592039,-0.0002984092861879617,0.0079282745718956
0.009374207817018032,0.007022385485470295,-0.011368165723979473,0.005698722321540117,-0.0003070608654525131,0.007681903429329395
0.009720313362777233,0.007621967699378729,-0.01196370180696249,0.005911538377404213,-0.0003142591449432075,0.007703401148319244
0.009328467771410942,0.006985332816839218,-0.011262821964919567,0.005816795863211155,-0.00029852145235054195,0.007747162599116564
0.009362336248159409,0.006898193154484034,-0.011867064982652664,0.006019038613885641,-0.00028297948301769793,0.007253874558955431
0.009348488412797451,0.006322031375020742,-0.011536740697920322,0.005762947723269463,-0.000268891075393185,0.007196793332695961
0.008979389443993568,0.005485439207404852,-0.01123302523046732,0.005967118311673403,-0.0002769823186099529,0.0070882211439311504
0.009095076471567154,0.006069867871701717,-0.01219227071851492,0.006225560791790485,-0.000283860950730741,0.007821054197847843
0.009521420113742352,0.0056060245260596275,-0.0112215681001544,0.006219822447746992,-0.00027283249073661864,0.007606508210301399
0.009773866273462772,0.00597913796082139,-0.011700118891894817,0.006049433723092079,-0.00026158420951105654,0.007424353156238794
0.009200988337397575,0.005821540951728821,-0.01158556342124939,0.005726195871829987,-0.00025115921744145453,0.008032566867768764
0.009626753628253937,0.006206618156284094,-0.011546741239726543,0.006136328913271427,-0.00024152900732588023,0.008479113690555096
0.009023074060678482,0.006087576504796743,-0.011931216344237328,0.006629882380366325,-0.0002326098328921944,0.008027823641896248
0.009621581062674522,0.005658537615090609,-0.011031053960323334,0.005852101370692253,-0.00022432573314290494,0.007559771183878183
0.009264235384762287,0.0053208088502287865,-0.01198553666472435,0.005679911468178034,-0.00021661209757439792,0.007347283884882927
0.00956445001065731,0.005772839300334454,-0.011264475993812084,0.00600933562964201,-0.0002094107767334208,0.007900193333625793
0.008905937895178795,0.005403262097388506,-0.01113948691636324,0.005988720804452896,-0.00020267338550183922,0.007809820584952831
0.00945485383272171,0.005312660709023476,-0.011851095594465733,0.006317818537354469,-0.00019635588978417218,0.007863001897931099
0.00945485383272171,0.005312660709023476,-0.011851095594465733,0.006317818537354469,-0.00019635588978417218,0.007863001897931099
0.009179494343698025,0.005535008851438761,-0.011838520877063274,0.005703197792172432,-0.00018483350868336856,0.007332631386816502
0.009179494343698025,0.005535008851438761,-0.011838520877063274,0.005703197792172432,-0.00018483350868336856,0.007332631386816502
0.009307891130447388,0.005204770248383284,-0.011728664860129356,0.005832449533045292,-0.00017956449300982058,0.006993849296122789
0.009134209714829922,0.005036700516939163,-0.011253547854721546,0.0057920655235648155,-0.00017458816000726074,0.007333763875067234
0.008821343071758747,0.005855397321283817,-0.011538330465555191,0.006229352671653032,-0.00016988020797725767,0.007572059985250235
0.009454735554754734,0.005685859359800816,-0.011660358868539333,0.005876223556697369,-0.00016118648636620492,0.007534226402640343
0.008948065340518951,0.0053744022734463215,-0.011559795588254929,0.0060958415269851685,-0.0001571655011503026,0.007302189711481333
0.009449465200304985,0.005628536455333233,-0.011898834258317947,0.006060092244297266,-0.00015333990450017154,0.007379540242254734
0.0096127949655056,0.005355274770408869,-0.011821500025689602,0.005951212253421545,-0.0001496960176154971,0.007291954476386309
0.009507677517831326,0.005887895356863737,-0.011097456328570843,0.006622591987252235,-6.930570816621184e-05,0.006950819864869118
0.009569976478815079,0.005571290850639343,-0.011290240101516247,0.007089720107614994,-5.665093340212479e-05,0.007206398528069258
0.009523090906441212,0.00557128619402647,-0.011295831762254238,0.006792115513235331,-5.425820927484892e-05,0.007868476212024689
0.009377103298902512,0.005547724198549986,-0.011263389140367508,0.006264216266572475,-5.262701597530395e-05,0.007870102301239967
0.009266308508813381,0.005741627421230078,-0.011569065973162651,0.0063269431702792645,-5.112905637361109e-05,0.007437593769282103
0.009889176115393639,0.00608411617577076,-0.010958611033856869,0.005978231783956289,-4.9716523790266365e-05,0.007276102900505066
0.009343245066702366,0.006025479640811682,-0.011882446706295013,0.005923628341406584,-4.8380174121120945e-05,0.007199916522949934
0.009237295016646385,0.0060173156671226025,-0.011526411399245262,0.005870350636541843,-4.711381916422397e-05,0.007186116185039282
0.010262986645102501,0.005674746818840504,-0.010802091099321842,0.006030025891959667,-4.591198012349196e-05,0.00728865060955286
0.00913714524358511,0.005773153621703386,-0.011353068053722382,0.006135419476777315,-4.476999311009422e-05,0.007432798855006695
0.009100806899368763,0.006256405264139175,-0.011411908082664013,0.005670029204338789,-4.368347435956821e-05,0.007542017847299576
0.009491226635873318,0.006181059405207634,-0.011294981464743614,0.005703941453248262,-4.2648422095226124e-05,0.007502218242734671
0.009576723910868168,0.005930293817073107,-0.011577408760786057,0.0052676391787827015,-4.1661296563688666e-05,0.006990528199821711
0.009423627518117428,0.00559596624225378,-0.011559308506548405,0.005606148391962051,-2.5621189706726e-05,0.00679602287709713
0.009549812413752079,0.005916140973567963,-0.012134565971791744,0.0059166233986616135,-2.0252569811418653e-05,0.007104555610567331
0.008309156633913517,0.006244695279747248,-0.011641507036983967,0.005927470047026873,-1.9500543203321286e-05,0.007327644154429436
0.009418782778084278,0.006328655872493982,-0.011729549616575241,0.005933163221925497,-1.9066943423240446e-05,0.00727055873721838
0.010354200378060341,0.006115666124969721,-0.011846697889268398,0.005487078335136175,-1.86700708582066e-05,0.00706217298284173
0.010020026937127113,0.006458386313170195,-0.011346220038831234,0.005790317431092262,-1.829052962420974e-05,0.007236500736325979
0.009153786115348339,0.006818254478275776,-0.011989668942987919,0.00594622828066349,-1.792620423657354e-05,0.007291341200470924
0.009153786115348339,0.006818254478275776,-0.011989668942987919,0.00594622828066349,-1.792620423657354e-05,0.007291341200470924
0.009377876296639442,0.00635830732062459,-0.011814783327281475,0.005389319732785225,-1.6915428204811178e-05,0.006821756716817617
0.0100110387429595,0.00569874094799161,-0.011504423804581165,0.005450258031487465,-4.2820715862035286e-06,0.007257435470819473
0.0100110387429595,0.00569874094799161,-0.011504423804581165,0.005450258031487465,-4.2820715862035286e-06,0.007257435470819473
0.010324242524802685,0.006360604427754879,-0.011950825341045856,0.006021237466484308,-2.7958867576671764e-07,0.006696006283164024
0.00983960647135973,0.006228515412658453,-0.012235519476234913,0.0058562601916491985,-1.8255143174883415e-08,0.006841488182544708
0.009855327196419239,0.006053997669368982,-0.012112113647162914,0.0056972987949848175,-1.1919303322116548e-09,0.0067480034194886684
0.009870389476418495,0.006480719894170761,-0.01159790251404047,0.0054683992639184,-7.782453154137059e-11,0.00698716938495636
0.010662378743290901,0.006159747019410133,-0.010923134163022041,0.0056304121389985085,-5.081385832939045e-12,0.006744950078427792
0.010144021362066269,0.006091129034757614,-0.0116272559389472,0.006088571157306433,-3.317781975802764e-13,0.006413857918232679
0.009697643108665943,0.006593388970941305,-0.011290713213384151,0.006261205300688744,-2.1662745653284327e-14,0.006279004737734795
0.009986852295696735,0.006157640367746353,-0.012071260251104832,0.006182375364005566,-1.414422519774685e-15,0.006591763813048601
0.010937072336673737,0.006043740548193455,-0.011632520705461502,0.006180136930197477,-9.235168460178115e-17,0.006800857372581959
0.010258757509291172,0.00658778753131628,-0.011073650792241096,0.005900029093027115,-6.0299047151824e-18,0.007024012506008148
0.01040317490696907,0.006986131891608238,-0.012023575603961945,0.006368884816765785,-3.937096923380495e-19,0.0068826936185359955
0.009936475194990635,0.0063951509073376656,-0.011319072917103767,0.006516456138342619,-2.5706430836803956e-20,0.006401412654668093
0.010029125958681107,0.006395042408257723,-0.011135833337903023,0.006262498442083597,-1.678446196149735e-21,0.006867165211588144
0.00997435674071312,0.0064458358101546764,-0.012042874470353127,0.006065854802727699,-1.0959053857189688e-22,0.006918200291693211
0.010161434300243855,0.006151770707219839,-0.011661319062113762,0.006366585846990347,-7.15547959222116e-24,0.006577885244041681
0.010041366331279278,0.006409032735973597,-0.011968746781349182,0.0063665821217000484,-4.672016878257864e-25,0.006263431161642075
0.010246635414659977,0.00667204475030303,-0.011072673834860325,0.006484704557806253,-3.050493381164169e-26,0.006516458000987768
0.010572483763098717,0.006247794255614281,-0.010026425123214722,0.00633441936224699,-1.9917541854335084e-27,0.006897025741636753
0.010572483763098717,0.006247794255614281,-0.010026425123214722,0.00633441936224699,-1.9917541854335084e-27,0.006897025741636753
0.00959180761128664,0.006120291072875261,-0.012489480897784233,0.005547600332647562,-1.3004730004796793e-28,0.006733422167599201
0.009904074482619762,0.006550806574523449,-0.012213428504765034,0.00578601099550724,-8.49116030943597e-30,0.006455079186707735
0.010054626502096653,0.006633233278989792,-0.012138968333601952,0.005645913537591696,-5.54412083432559e-31,0.006349402014166117
0.0097722839564085,0.006295467261224985,-0.011728649027645588,0.0062695033848285675,-3.619914282206095e-32,0.006756802089512348
0.010450826026499271,0.006320792715996504,-0.011919851414859295,0.006639560684561729,7.625816215295345e-05,0.006667815614491701
0.010095822624862194,0.006831403821706772,-0.011743113398551941,0.005833333823829889,0.0003565774823073298,0.00665645906701684
0.009980501607060432,0.006412570830434561,-0.012627494521439075,0.005850850138813257,0.0003488735237624496,0.006450519897043705
0.009830314666032791,0.006377683021128178,-0.011373966932296753,0.006200357340276241,0.00037961112684570253,0.006753216497600079
0.009954097680747509,0.0067303357645869255,-0.01186442095786333,0.006587315816432238,0.00036123019526712596,0.006727987434715033
0.010059523396193981,0.006879948079586029,-0.01126227155327797,0.00629655085504055,0.00038730757660232484,0.006282095797359943
0.01042204163968563,0.006492911372333765,-0.011491527780890465,0.00628290930762887,0.00037035936838947237,0.00631167134270072
0.009753252379596233,0.006479104049503803,-0.012078576721251011,0.00650928495451808,0.0005330619169399142,0.006575448904186487
0.01009358186274767,0.006790590938180685,-0.011573650874197483,0.007019605953246355,0.0005008124862797558,0.0063779945485293865
0.010805051773786545,0.0068482644855976105,-0.012094979174435139,0.00676835048943758,0.00045220227912068367,0.006394015159457922
0.010060987435281277,0.006028252653777599,-0.011547666043043137,0.006257158238440752,0.00048725263332016766,0.006622941233217716
0.009970794431865215,0.006378560792654753,-0.011510760523378849,0.006698783487081528,0.0004514697357080877,0.006266845390200615
0.00981089100241661,0.00587881775572896,-0.01248240191489458,0.0069540138356387615,0.0004169111489318311,0.006471308879554272
0.009993335232138634,0.005898019298911095,-0.011969583109021187,0.006416100077331066,0.00038702995516359806,0.0065658907406032085
0.01035574171692133,0.006219122558832169,-0.012327941134572029,0.006107930094003677,0.00039037028909660876,0.0057126726023852825
0.010100807063281536,0.005921635311096907,-0.012022273615002632,0.006156296003609896,0.00039287219988182187,0.006441712379455566
0.009753749705851078,0.006361265201121569,-0.011783470399677753,0.006262399256229401,0.0003714599006343633,0.006786394864320755
0.010599274188280106,0.0057441843673586845,-0.011884455569088459,0.006710890680551529,0.000394245027564466,0.006682757753878832
0.010041719302535057,0.005795425735414028,-0.011948268860578537,0.0065513476729393005,0.0003794052463490516,0.006065250840038061
0.00983091164380312,0.0055328127928078175,-0.0122128427028656,0.006444836501032114,0.0003555933362804353,0.0058265854604542255
0.01019261870533228,0.005917682312428951,-0.011622801423072815,0.006411534734070301,0.0003294500056654215,0.005453829653561115
0.01015790831297636,0.0062301140278577805,-0.012106375768780708,0.006490505766123533,0.00030695609166286886,0.005811573471873999
0.010087965987622738,0.005893347319215536,-0.012006672099232674,0.00656397407874465,0.00032964214915409684,0.006206857040524483
0.010323097929358482,0.006117559503763914,-0.011638026684522629,0.0065867784433066845,0.00032311538234353065,0.006054195575416088
0.009821620769798756,0.00558695662766695,-0.012306956574320793,0.006403916981071234,0.0003056818386539817,0.005914763081818819
0.009821620769798756,0.00558695662766695,-0.012306956574320793,0.006403916981071234,0.0003056818386539817,0.005914763081818819
0.010017934255301952,0.005975625477731228,-0.012389367446303368,0.0066621010191738605,0.00032491530873812735,0.006081962492316961
0.010704489424824715,0.005773448850959539,-0.01219152845442295,0.006674106698483229,0.0003195800818502903,0.006267812568694353
0.010216359980404377,0.005919851828366518,-0.011819603852927685,0.006337037310004234,0.0003048428043257445,0.006086875684559345
0.010038545355200768,0.005673494655638933,-0.012019370682537556,0.006610170938074589,0.00031698361271992326,0.005780050065368414
0.009852943010628223,0.005506182089447975,-0.011666527017951012,0.006586352363228798,0.00030421980773098767,0.00577049795538187
0.010548371821641922,0.0060674590058624744,-0.012581303715705872,0.006331212818622589,0.00029192352667450905,0.005589811131358147
0.010851982980966568,0.0061157881282269955,-0.011940906755626202,0.006043692585080862,0.0003295592323411256,0.005724791437387466
0.010053331032395363,0.005443966016173363,-0.011956785805523396,0.006296838168054819,0.0003142303030472249,0.005757971666753292
0.010070090182125568,0.005942157004028559,-0.012098031118512154,0.006874844431877136,0.0003489132213871926,0.005939409136772156
0.010457655414938927,0.005834622774273157,-0.012207902036607265,0.006901981309056282,0.00033111355151049793,0.006065696943551302
0.010405989363789558,0.006304281763732433,-0.012089627794921398,0.00650652265176177,0.0003375397645868361,0.005617437418550253
0.010736174881458282,0.005705087445676327,-0.011609097942709923,0.00609929533675313,0.0003425908216740936,0.005702667403966188
0.010448118671774864,0.0056912945583462715,-0.011838773265480995,0.00653949985280633,0.00032636881223879755,0.005409828387200832
0.010831382125616074,0.006485368125140667,-0.011978198774158955,0.0072712404653429985,0.00031038650195114315,0.005767869297415018
0.011058025993406773,0.006200375501066446,-0.011526570655405521,0.007527682930231094,0.000316454388666898,0.005810928996652365
0.010187176987528801,0.006651834584772587,-0.012276358902454376,0.006439893506467342,0.0003214955795556307,0.005939277820289135
0.010884151794016361,0.005778398830443621,-0.012129580602049828,0.0060675074346363544,0.00030895310919731855,0.005799591541290283
0.010744042694568634,0.005639232229441404,-0.01215293537825346,0.006711006164550781,0.00029631631332449615,0.005667008925229311
0.010123949497938156,0.006004409398883581,-0.011574449017643929,0.006986815016716719,0.00034674021298997104,0.005500131752341986
0.0103107038885355,0.005933169275522232,-0.011823930777609348,0.007262087892740965,0.00033088045893236995,0.005485130939632654
0.01030109915882349,0.0064120045863091946,-0.012265094555914402,0.006937151309102774,0.00030879396945238113,0.0054196566343307495
0.01040575373917818,0.005753770470619202,-0.011926532723009586,0.006564093753695488,0.0003315312205813825,0.005934534594416618
0.01084661204367876,0.00561780110001564,-0.012691940180957317,0.007067165803164244,0.0003248605062253773,0.005637688096612692
0.010842552408576012,0.005473920609802008,-0.0115083958953619,0.006726550403982401,0.00034498475724831223,0.005324189085513353
0.01138486247509718,0.005757138133049011,-0.011712594889104366,0.006348186172544956,0.0003383257135283202,0.005426417104899883
0.011507546529173851,0.006622053682804108,-0.012152353301644325,0.0056266700848937035,0.00032181618735194206,0.0055470713414251804
0.010357712395489216,0.005813410971313715,-0.011730394326150417,0.00596058601513505,0.00034410078660584986,0.005712051875889301
0.010357712395489216,0.005813410971313715,-0.011730394326150417,0.00596058601513505,0.00034410078660584986,0.005712051875889301
0.010951328091323376,0.00563654163852334,-0.011813569813966751,0.006596548017114401,0.00031983977532945573,0.005554876755923033
0.010814451612532139,0.005907317157834768,-0.012507104314863682,0.006362983491271734,0.0003839066484943032,0.005240616854280233
0.01105374377220869,0.006288047414273024,-0.011933471076190472,0.006946764420717955,0.0003592382709030062,0.004919184371829033
0.011776003055274487,0.006046309135854244,-0.012026088312268257,0.007650313898921013,0.00039493903750553727,0.005168281029909849
0.011858932673931122,0.006236216984689236,-0.012417837977409363,0.007166613359004259,0.00037179916398599744,0.005519759375602007
0.011625424027442932,0.006421308498829603,-0.011975874193012714,0.007304324768483639,0.0003762881678994745,0.005166135262697935
0.011253024451434612,0.005838691722601652,-0.01243513636291027,0.00686221569776535,0.0003795678785536438,0.0050801062025129795
0.011298655532300472,0.006569072138518095,-0.011926373466849327,0.007202836684882641,0.0003595944435801357,0.004960480146110058
0.011139879003167152,0.006517344154417515,-0.0124589204788208,0.0072747208178043365,0.0003402763104531914,0.005197165068238974
0.010546788573265076,0.005578114651143551,-0.012913795188069344,0.007147391326725483,0.00036578421713784337,0.005457078106701374
0.011337796226143837,0.005969368387013674,-0.012351948767900467,0.0069410540163517,0.0003507618384901434,0.005399608518928289
0.010601131245493889,0.005874749273061752,-0.01233913004398346,0.006817436311393976,0.0003346375306136906,0.005246151704341173
0.010854178108274937,0.006286356598138809,-0.012042081914842129,0.006990822963416576,0.000319783779559657,0.005049671046435833
0.010899010114371777,0.005810536909848452,-0.013088216073811054,0.007001031655818224,0.0003262442478444427,0.004952302668243647
0.01073002815246582,0.005584468133747578,-0.012245642952620983,0.006859286222606897,0.0003230173315387219,0.004835348576307297
0.011057552881538868,0.0054632225073874,-0.01330049242824316,0.006540636997669935,0.00030260829953476787,0.0052963444031775
0.011047566309571266,0.005702270194888115,-0.012695444747805595,0.00668067391961813,0.00028361272416077554,0.005475942511111498
0.01113815139979124,0.006012573838233948,-0.012131716124713421,0.007140078116208315,0.00031293914071284235,0.005419945809990168
0.011076006107032299,0.005697027314454317,-0.012273890897631645,0.006999552249908447,0.0003017568087670952,0.00485896784812212
0.01091881562024355,0.005449158605188131,-0.012153476476669312,0.007092798128724098,0.0002861726388800889,0.0046797883696854115
0.011576096527278423,0.005615861155092716,-0.012663815170526505,0.007382150739431381,0.0002717910101637244,0.004813544452190399
0.011154682375490665,0.005884084850549698,-0.01239576656371355,0.0070632449351251125,0.00025876512518152595,0.005021537654101849
0.011926563456654549,0.005724805407226086,-0.012832271866500378,0.007184820715337992,0.00024692912120372057,0.004788850899785757
0.011926563456654549,0.005724805407226086,-0.012832271866500378,0.007184820715337992,0.00024692912120372057,0.004788850899785757
0.011465148068964481,0.005822585895657539,-0.012627958320081234,0.00673774816095829,0.00023612841323483735,0.004465002100914717
0.011103152297437191,0.005777767393738031,-0.012418074533343315,0.006998210679739714,0.00022623440600000322,0.004806185606867075
0.011492620222270489,0.005813680123537779,-0.012117085978388786,0.006894747260957956,0.00025086215464398265,0.0050627971068024635
0.011330951936542988,0.005847800523042679,-0.012543108314275742,0.006486847065389156,0.00023445488477591425,0.005181507207453251
0.011346542276442051,0.0060554081574082375,-0.011934204958379269,0.007154975086450577,0.00024186979862861335,0.005140136927366257
0.011854574084281921,0.005706040188670158,-0.012654511258006096,0.006863490212708712,0.0002483187126927078,0.004565711598843336
0.011560122482478619,0.005468953866511583,-0.011786333285272121,0.0064788926392793655,0.00024097390996757895,0.004406400956213474
0.01157186646014452,0.005408694036304951,-0.011695980094373226,0.0065132505260407925,0.00023323042842093855,0.004987725988030434
0.011253783479332924,0.005687773693352938,-0.012746749445796013,0.006779963616281748,0.00022591513697989285,0.004650732036679983
0.011366532184183598,0.005918570794165134,-0.012043471448123455,0.006672490853816271,0.00021904223831370473,0.004545446019619703
0.011467095464468002,0.006012049503624439,-0.012677398510277271,0.006970129441469908,0.00021257450862322003,0.004443127196282148
0.012237248942255974,0.005473082419484854,-0.011869054287672043,0.006823262199759483,0.0002039601531578228,0.0047320108860731125
0.011406509205698967,0.005840453319251537,-0.012379184365272522,0.0069464282132685184,0.00019485178927425295,0.004385497886687517
0.011049145832657814,0.005607915576547384,-0.012719886377453804,0.0072138686664402485,0.00018674599414225668,0.004449059721082449
0.01136173214763403,0.006021039094775915,-0.012154880911111832,0.007587815634906292,0.00017930290778167546,0.0041732764802873135
0.011512353084981441,0.005591902881860733,-0.012419880367815495,0.0072785853408277035,0.00017243048932868987,0.004003945272415876
0.011488204821944237,0.0054907468147575855,-0.012058545835316181,0.00716065289452672,0.00016606620920356363,0.004036358091980219
0.012368904426693916,0.00549119571223855,-0.012035000137984753,0.007545705884695053,0.00017584771558176726,0.0040840632282197475
0.01144972164183855,0.005650388542562723,-0.012127312831580639,0.007862338796257973,0.0001845136721385643,0.004032453056424856
0.01156916469335556,0.0060279276221990585,-0.012849896214902401,0.007166702765971422,0.0001793442206690088,0.004316343925893307
0.011550037190318108,0.005822185426950455,-0.012427574023604393,0.007213489152491093,0.0001736394624458626,0.004260286223143339
0.011671441607177258,0.006086245179176331,-0.011310998350381851,0.006912397686392069,0.00016823333862703294,0.004042154643684626
0.012003218755126,0.0056138960644602776,-0.012530663050711155,0.007248336914926767,0.00018328690202906728,0.004237515386193991
0.012003218755126,0.0056138960644602776,-0.012530663050711155,0.007248336914926767,0.00018328690202906728,0.004237515386193991
0.011605349369347095,0.005890565924346447,-0.011593539267778397,0.007165318820625544,0.00018429885676596314,0.004036202095448971
0.012200403027236462,0.005581897683441639,-0.012435625307261944,0.006640363018959761,0.00017946494335774332,0.003858704585582018
0.01247668731957674,0.005906636361032724,-0.012567490339279175,0.006768157705664635,0.00017452014435548335,0.0042596193961799145
0.011706008575856686,0.00552333565428853,-0.012135094963014126,0.006998203694820404,0.00016981757653411478,0.004404617007821798
0.011784947477281094,0.005866376683115959,-0.012207641266286373,0.0072389570996165276,0.00018739870574790984,0.004266491625458002
0.012210934422910213,0.0054938895627856255,-0.011978152208030224,0.0072982725687325,0.00017954981012735516,0.003855096874758601
0.011814232915639877,0.0055059706792235374,-0.012027096934616566,0.007323848083615303,0.00017518681124784052,0.003753493307158351
0.012108361348509789,0.005092002917081118,-0.012904590927064419,0.007288805209100246,0.00017102582205552608,0.004134261980652809
0.012098608538508415,0.005378316156566143,-0.012454455718398094,0.007330410648137331,0.00020523885905276984,0.0041733067482709885
0.012096145190298557,0.005179934203624725,-0.011698149144649506,0.007555531337857246,0.0002016701764659956,0.0036894548684358597
0.012245356105268002,0.005750350654125214,-0.012166108004748821,0.007828498259186745,0.0001933709136210382,0.0035527755971997976
0.011962701566517353,0.005580382887274027,-0.011772597208619118,0.007832562550902367,0.00020356712047941983,0.00369790056720376
0.012249802239239216,0.0057744719088077545,-0.012277373112738132,0.007787219248712063,0.00021246724645607173,0.003911059815436602
0.012231521308422089,0.00536987092345953,-0.012103967368602753,0.007829996757209301,0.0002054874348687008,0.003737369319424033
0.012163523584604263,0.005311294924467802,-0.011894520372152328,0.007324735634028912,0.00019802285532932729,0.0035143299028277397
0.01219871360808611,0.0050060441717505455,-0.012423322536051273,0.0070970566011965275,0.00019102189980912954,0.003267435822635889
0.011955379508435726,0.005260527599602938,-0.011639789678156376,0.0066779181361198425,0.0001844949583755806,0.0032692449167370796
0.012563398107886314,0.005617605987936258,-0.0119764544069767,0.006652224343270063,0.00020612432854250073,0.003522090381011367
0.011947719380259514,0.0054401555098593235,-0.012065375223755836,0.007236388511955738,0.0002013442135648802,0.004197430796921253
0.012204820290207863,0.005241755396127701,-0.012472713366150856,0.007634189911186695,0.00019522261573001742,0.004167027305811644
0.012242907658219337,0.004908920731395483,-0.011721398681402206,0.007617605850100517,0.00018936177366413176,0.003526580985635519
0.01234150305390358,0.005464124958962202,-0.011528853327035904,0.007032529916614294,0.00020328817481640726,0.0033846586011350155
0.012205669656395912,0.005326945800334215,-0.01240461878478527,0.007485172711312771,0.00020369671983644366,0.0033433903008699417
0.012362792156636715,0.005394165404140949,-0.01151888445019722,0.007763408124446869,0.0001984836853807792,0.00329398806206882
0.012728252448141575,0.005095256492495537,-0.011839461512863636,0.007549458649009466,0.00019318370323162526,0.0033624423667788506
0.012191038578748703,0.004857072606682777,-0.011930020526051521,0.007330666296184063,0.0002376512420596555,0.003568973857909441
0.012890815734863281,0.005154432728886604,-0.011417332105338573,0.007970134727656841,0.00024115068663377315,0.004034216515719891
0.01279017049819231,0.0050202845595777035,-0.011939349584281445,0.007846159860491753,0.00022989095305092633,0.0036454088985919952
0.01279017049819231,0.0050202845595777035,-0.011939349584281445,0.007846159860491753,0.00022989095305092633,0.0036454088985919952
0.010634359903633595,0.005269153509289026,-0.012050739489495754,0.007728050462901592,0.00023890512238722295,0.0029720403254032135
0.010634359903633595,0.005269153509289026,-0.012050739489495754,0.007728050462901592,0.00023890512238722295,0.0029720403254032135
0.013614660128951073,0.0049154250882565975,-0.012071065604686737,0.007641010917723179,0.00022909116523806006,0.003282831981778145
0.013198028318583965,0.005199641454964876,-0.01248106174170971,0.007594176568090916,0.00021978680160827935,0.0033855733927339315
0.013188140466809273,0.005083808209747076,-0.011608758009970188,0.006939270533621311,0.0002284185029566288,0.003210590686649084
0.012447550892829895,0.005505924578756094,-0.012199643068015575,0.0072483038529753685,0.00023594111553393304,0.0030896870885044336
0.013053249567747116,0.005544111132621765,-0.012388931587338448,0.007888591848313808,0.00022843539773020893,0.002885902766138315
0.012560168281197548,0.004997452720999718,-0.012452393770217896,0.007339589297771454,0.00022050828556530178,0.0029339855536818504
0.013044290244579315,0.004905326757580042,-0.012650630436837673,0.007124657742679119,0.0002130545035470277,0.003124655457213521
0.013211384415626526,0.005211025942116976,-0.012293661944568157,0.007981672883033752,0.00020608457271009684,0.003078698879107833
0.012856285087764263,0.004977930802851915,-0.012771512381732464,0.007735345046967268,0.0001995558850467205,0.0029330055695027113
0.013641215860843658,0.00547791225835681,-0.0121514443308115,0.007496821228414774,0.00021388956520240754,0.0028963997028768063
0.012671516276896,0.005001819226890802,-0.012709238566458225,0.008062675595283508,0.00021400688274297863,0.0029212262015789747
0.012885915115475655,0.004527714569121599,-0.011456063017249107,0.00838441587984562,0.0002082398859784007,0.0027754909824579954
0.012839255854487419,0.005010007414966822,-0.012620944529771805,0.008195050060749054,0.00020241309539414942,0.002715126145631075
0.013219599612057209,0.005361775401979685,-0.013304616324603558,0.007785218767821789,0.00019687986059579998,0.0025540797505527735
0.012983432039618492,0.005154895130544901,-0.012565329670906067,0.00869531650096178,0.00019163927936460823,0.0025452382396906614
0.013151959516108036,0.005308464169502258,-0.012328747659921646,0.008209052495658398,0.00020606443285942078,0.0025978696066886187
0.012968841940164566,0.005108168814331293,-0.012493605725467205,0.007555535063147545,0.00019996394985355437,0.002539929701015353
0.012953189201653004,0.004845188464969397,-0.013220940716564655,0.007292908150702715,0.00019164585683029145,0.0026193191297352314
0.01324037741869688,0.004819743800908327,-0.012621204368770123,0.00782199390232563,0.00018382880080025643,0.0027199345640838146
0.013345298357307911,0.005277662537992001,-0.013235476799309254,0.007499489933252335,0.000176613379153423,0.0026145316660404205
0.01354287751019001,0.004909427370876074,-0.012658928520977497,0.007321493234485388,0.00016994247562251985,0.0026851738803088665
0.013072816655039787,0.005419808905571699,-0.012690287083387375,0.007497913669794798,0.00017979928816203028,0.0024149816017597914
0.013576816767454147,0.005151796620339155,-0.012649377807974815,0.008115636184811592,0.0001885166420834139,0.002310084644705057
0.01333947665989399,0.004993675742298365,-0.012494377791881561,0.008293498307466507,0.00018310380983166397,0.0023594475351274014
0.01357069332152605,0.005062420852482319,-0.012771840207278728,0.0078176474198699,0.0001771601237123832,0.0021819351240992546
0.01357069332152605,0.005062420852482319,-0.012771840207278728,0.0078176474198699,0.0001771601237123832,0.0021819351240992546
0.013235473074018955,0.004925122018903494,-0.012639501132071018,0.008042221888899803,0.00017153611406683922,0.002275412902235985
0.013700447045266628,0.005213617812842131,-0.013113722205162048,0.008192353881895542,0.0001662545109866187,0.002386529929935932
0.013915874063968658,0.004807418677955866,-0.013006276451051235,0.007841737940907478,0.0001792654802557081,0.0024219262413680553
0.013926726765930653,0.004626271314918995,-0.013034612871706486,0.00861900020390749,0.00017733708955347538,0.0021768955048173666
0.013895053416490555,0.0049070920795202255,-0.013262651860713959,0.00818733498454094,0.00017267948715016246,0.0019296880345791578
0.013940894976258278,0.004940418992191553,-0.012699220329523087,0.007967205718159676,0.0001680853747529909,0.0018858425319194794
0.013953288085758686,0.005288938991725445,-0.012328178621828556,0.007508701644837856,0.00016371809761039913,0.0020039607770740986
0.013937853276729584,0.005107903387397528,-0.013279024511575699,0.008029267191886902,0.00015957100549712777,0.0021737373899668455
0.013947587460279465,0.004895217716693878,-0.012770507484674454,0.008165857754647732,0.0001556290517328307,0.0024531802628189325
0.01432606391608715,0.005062813870608807,-0.013033783994615078,0.008200080133974552,0.0001518770877737552,0.002446149941533804
0.014236855320632458,0.005449298769235611,-0.0127361249178648,0.007880659773945808,0.00014830194413661957,0.002273632911965251
0.01416302751749754,0.0051262956112623215,-0.01330849714577198,0.007688603829592466,0.0001448909315513447,0.0017770323902368546
0.014115709811449051,0.005530081689357758,-0.012374202720820904,0.00776977464556694,0.00014163358719088137,0.0015329084126278758
0.01438217144459486,0.005311296787112951,-0.012672945857048035,0.0076385606080293655,0.00013851917174179107,0.0014831165317445993
0.014271012507379055,0.0049362401477992535,-0.01277332752943039,0.007632237393409014,0.000135538968606852,0.001314495806582272
0.014516004361212254,0.005041284020990133,-0.012727515771985054,0.00793525855988264,0.00013268437760416418,0.0013274509692564607
0.014327309094369411,0.005051469895988703,-0.012875762768089771,0.007852747105062008,0.00012994739518035203,0.0013186793075874448
0.014890916645526886,0.00492679700255394,-0.012581851333379745,0.008142611011862755,0.00014429789735004306,0.001521698897704482
0.014246217906475067,0.005126496776938438,-0.013046519830822945,0.008665756322443485,0.00014254829147830606,0.0016089314594864845
0.014893664047122002,0.004994956776499748,-0.012496146373450756,0.009229809045791626,0.0001398518797941506,0.0018570991232991219
0.014694069512188435,0.004722072277218103,-0.01292427722364664,0.008762039244174957,0.00013719162961933762,0.0017989559564739466
0.01480875164270401,0.004670380149036646,-0.012424464337527752,0.008573167026042938,0.00013462666538544,0.0015629982808604836
0.01472528651356697,0.0051972465589642525,-0.01264207810163498,0.008794007822871208,0.0001321554882451892,0.0012492655077949166
0.014802428893744946,0.005073446314781904,-0.012694205157458782,0.008390946313738823,0.0001297736307606101,0.0011488962918519974
0.014711538329720497,0.005456951446831226,-0.012370415031909943,0.00796895194798708,0.00012747582513839006,0.000965203857049346
0.014768454246222973,0.005174490623176098,-0.013003962114453316,0.007853493094444275,0.00012525825877673924,0.0009455950930714607
0.014768454246222973,0.005174490623176098,-0.013003962114453316,0.007853493094444275,0.00012525825877673924,0.0009455950930714607
0.014891056343913078,0.004633696284145117,-0.012711838819086552,0.008055743761360645,0.0001231164060300216,0.0009151558624580503
0.01472462434321642,0.004910415969789028,-0.013201694935560226,0.008022240363061428,0.00012104635243304074,0.0008020743262022734
0.01493268646299839,0.00486596068367362,-0.012768849730491638,0.008032796904444695,0.0001190452094306238,0.0008420144440606236
0.015007358975708485,0.004999363794922829,-0.013083531521260738,0.008508214727044106,0.00011710877879522741,0.0008981914143078029
0.014996913261711597,0.005669258534908295,-0.013203379698097706,0.007812181953340769,0.00011341923527652398,0.0015838193939998746
0.015497458167374134,0.005139256361871958,-0.012995844706892967,0.008143938146531582,0.00011166028707521036,0.0013811005046591163
0.015092821791768074,0.004871280863881111,-0.01293895486742258,0.008889764547348022,0.00010995509364875033,0.0011729254620149732
0.01506076194345951,0.005197635851800442,-0.013041991740465164,0.008543482050299644,0.00010830121755134314,0.0009410488419234753
0.015072081238031387,0.005244734231382608,-0.012901682406663895,0.00808143150061369,0.0001066962577169761,0.0007782838656567037
0.015833374112844467,0.005798594560474157,-0.013323797844350338,0.008292585611343384,9.734430932439864e-05,0.000785601616371423
0.015276250429451466,0.005270128604024649,-0.012987712398171425,0.00822825450450182,9.293741459259763e-05,0.0006926244241185486
0.015786796808242798,0.004920539446175098,-0.013360293582081795,0.008068312890827656,9.090346429729834e-05,0.0006142029887996614
0.015459268353879452,0.004754377529025078,-0.012565193697810173,0.0083789536729455,8.909341704566032e-05,0.0006304487469606102
0.015599405393004417,0.005024820100516081,-0.01324070431292057,0.008434916846454144,8.736304880585521e-05,0.0005827922141179442
0.015417849645018578,0.00557083310559392,-0.013204257003962994,0.008357184939086437,8.56992119224742e-05,0.0005899792304262519
0.01501494087278843,0.005318756215274334,-0.013665582984685898,0.007919571362435818,8.409759902860969e-05,0.000561319466214627
0.01592428795993328,0.0054282150231301785,-0.013243387453258038,0.0085981460288167,8.255477587226778e-05,0.0004755380505230278
0.015597880817949772,0.005010352469980717,-0.013544399291276932,0.009013154543936253,8.106749010039493e-05,0.0003947089717257768
0.01582062989473343,0.005016683135181665,-0.013487661257386208,0.008249788545072079,7.963287498569116e-05,0.00042742639197967947
0.015675043687224388,0.004985273350030184,-0.013194347731769085,0.008287331089377403,7.82483330112882e-05,0.0003999473119620234
0.015644900500774384,0.005377134308218956,-0.013451885432004929,0.009395776316523552,7.69109683460556e-05,0.00042625126661732793
0.015177094377577305,0.005302151199430227,-0.012826579622924328,0.008895784616470337,7.56183871999383e-05,0.00040610283031128347
0.01627497188746929,0.005415439140051603,-0.01359954010695219,0.008224424906075,7.436879241140559e-05,0.0003819490666501224
0.015637943521142006,0.005065634846687317,-0.01275633368641138,0.008545536547899246,7.315963739529252e-05,0.0003601372300181538
0.015637943521142006,0.005065634846687317,-0.01275633368641138,0.008545536547899246,7.315963739529252e-05,0.0003601372300181538
0.015303157269954681,0.004932783078402281,-0.013117209076881409,0.007966327480971813,7.085577817633748e-05,0.0003691258898470551
0.015303157269954681,0.004932783078402281,-0.013117209076881409,0.007966327480971813,7.085577817633748e-05,0.0003691258898470551
0.01587703451514244,0.005254415795207024,-0.013713645748794079,0.008672082796692848,6.975734868319705e-05,0.00035130279138684273
0.015742434188723564,0.0053438786417245865,-0.013211061246693134,0.009197669103741646,6.869254866614938e-05,0.0003349676262587309
0.015914903953671455,0.00569374393671751,-0.014278288930654526,0.008428795263171196,6.765974831068888e-05,0.0003200744395144284
0.015392227098345757,0.004911777097731829,-0.013962819240987301,0.00893188826739788,6.568451499333605e-05,0.0002939351834356785
0.01613532193005085,0.004878383595496416,-0.013689490035176277,0.00900421291589737,6.473957182606682e-05,0.00028240401297807693
0.015783268958330154,0.005102685187011957,-0.013585882261395454,0.00806695967912674,6.382141873473302e-05,0.0002717441529966891
0.01676943711936474,0.0055735972709953785,-0.013700135983526707,0.008704262785613537,6.29289133939892e-05,0.00026185877504758537
0.01599501259624958,0.0050964923575520515,-0.01341335941106081,0.009395048022270203,6.206105172168463e-05,0.00025266828015446663
0.016210388392210007,0.004784626420587301,-0.014029375277459621,0.009072983637452126,6.121678597992286e-05,0.00024410152400378138
0.016083886846899986,0.005099522415548563,-0.013829042203724384,0.008947236463427544,6.0395213949959725e-05,0.00023609572963323444
0.016030963510274887,0.005057928618043661,-0.014196802861988544,0.00856081023812294,5.959534246358089e-05,0.0002145841281162575
0.016256632283329964,0.004891667049378157,-0.014166906476020813,0.009427581913769245,5.881645483896136e-05,0.00019481922208797187
0.015960687771439552,0.005267057567834854,-0.013999325223267078,0.010075559839606285,5.805758337373845e-05,0.00018814201757777482
0.016096895560622215,0.005287969019263983,-0.014050368219614029,0.009951376356184483,5.7318175095133483e-05,0.00018263158563058823
0.016192687675356865,0.004966067615896463,-0.014479044824838638,0.009394344873726368,5.659721136908047e-05,0.0001774825359461829
0.01660822704434395,0.0051262956112623215,-0.01426357589662075,0.009161603637039661,5.5894273828016594e-05,0.00017261921311728656
0.016209622845053673,0.005069650709629059,-0.01477259211242199,0.009927487932145596,5.520853301277384e-05,0.00016801530728116632
0.016148988157510757,0.005308581981807947,-0.014240425080060959,0.009175758808851242,5.4539410484721884e-05,8.998467092169449e-05
0.01637336052954197,0.00519575597718358,-0.014961570501327515,0.008986169472336769,5.388633508118801e-05,6.374190706992522e-05
0.016071796417236328,0.005241192411631346,-0.01439092680811882,0.009156409651041031,5.32486847077962e-05,3.408115662750788e-05
0.0163812804967165,0.005267594009637833,-0.014730419032275677,0.009164700284600258,5.2626004617195576e-05,1.50610312630306e-05
0.016145898029208183,0.0048935310915112495,-0.014391688629984856,0.008724180050194263,5.201764724915847e-05,9.833776175582898e-07
0.01680147647857666,0.004962093662470579,-0.01452222466468811,0.009131480008363724,5.142325608176179e-05,6.42075335122172e-08
0.016205281019210815,0.00532084284350276,-0.014126494526863098,0.009197711013257504,5.084227450424805e-05,4.19229317927261e-09
0.016634946689009666,0.005179508123546839,-0.014479792676866055,0.008923137560486794,5.027426959713921e-05,2.7372676347781066e-10
0.016734858974814415,0.004817116539925337,-0.01477973721921444,0.009144183248281479,4.971881571691483e-05,1.7872401475438338e-11
0.016259972006082535,0.0050126006826758385,-0.014942653477191925,0.009469851851463318,3.2462833132740343e-06,1.1669400255126527e-12
0.01628858409821987,0.004991006106138229,-0.014716187492012978,0.00937413889914751,1.3839414059191313e-08,-0.000896348268724978
0.01628858409821987,0.004991006106138229,-0.014716187492012978,0.00937413889914751,1.3839414059191313e-08,-0.000896348268724978
0.01667674072086811,0.005304413381963968,-0.01445433683693409,0.009671366773545742,9.036148496122109e-10,-0.0008929826435633004
0.01672910526394844,0.00523668946698308,-0.014848298393189907,0.009368807077407837,5.899959687472034e-11,-0.0008364293025806546
0.016879525035619736,0.005329953506588936,-0.014512358233332634,0.00933927670121193,3.852251850844368e-12,-0.0008328527328558266
0.01658978872001171,0.005112938582897186,-0.01485392451286316,0.009581856429576874,2.515245227808355e-13,-0.0008181502926163375
0.016208108514547348,0.004964388441294432,-0.015170754864811897,0.009135374799370766,1.642275420201452e-14,-0.0008192274253815413
0.017002765089273453,0.005218678619712591,-0.014382737688720226,0.009025060571730137,1.0722884423241359e-15,-0.0007687577162869275
0.017113078385591507,0.005160170141607523,-0.014597455970942974,0.010194490663707256,7.001277218728018e-17,-0.0008349344716407359
0.01689041219651699,0.00527234049513936,-0.014637243933975697,0.009461120702326298,4.57133341875489e-18,-0.000927335349842906
0.015464650467038155,0.005420570261776447,-0.014940871857106686,0.00951248686760664,2.984754319872362e-19,-0.0011152304941788316
0.0173606276512146,0.005030201748013496,-0.014698231592774391,0.009471283294260502,1.948831222385111e-20,-0.001170643838122487
0.017718331888318062,0.005261631682515144,-0.014669692143797874,0.009459433145821095,1.2724475338153826e-21,-0.0018282431410625577
0.01705845817923546,0.005131205543875694,-0.01450600940734148,0.00945261400192976,8.308173875438414e-23,-0.0019913131836801767
0.017157483845949173,0.005068453028798103,-0.015114081092178822,0.010350286029279232,5.4246438243802644e-24,-0.001982467481866479
0.017227843403816223,0.0057249777019023895,-0.014983768574893475,0.009848138317465782,3.5419048527185907e-25,-0.0017411204753443599
0.017007164657115936,0.005207805894315243,-0.014720830135047436,0.010013589635491371,2.3126109171247142e-26,-0.001464594854041934
0.017763694748282433,0.005483364220708609,-0.014379182830452919,0.010266008786857128,1.5099698098179167e-27,-0.0013124742545187473
0.017386550083756447,0.005338278133422136,-0.014721198007464409,0.010136930271983147,9.859023765340946e-29,-0.001369869103655219
0.017473885789513588,0.0048318905755877495,-0.014510883949697018,0.00983227789402008,6.437238026232896e-30,-0.0018096017884090543
0.017904218286275864,0.005448049400001764,-0.014635780826210976,0.010298280045390129,4.203056223399022e-31,-0.0022920630872249603
0.01795792765915394,0.005273665301501751,-0.01478633750230074,0.009384912438690662,2.74429529937109e-32,-0.002470359206199646
0.018153656274080276,0.004946507513523102,-0.015085454098880291,0.00956480111926794,1.79182881416146e-33,-0.0025813498068600893
0.01773952879011631,0.005165535490959883,-0.014180740341544151,0.010262842290103436,1.1699362370060655e-34,-0.0022561526857316494
0.018184371292591095,0.00503776827827096,-0.014841980300843716,0.010506417602300644,7.638847154364346e-36,-0.001905120792798698
0.017581554129719734,0.005241129547357559,-0.014469088055193424,0.010011830367147923,4.987621669581189e-37,-0.0018614005530253053
0.017581554129719734,0.005241129547357559,-0.014469088055193424,0.010011830367147923,4.987621669581189e-37,-0.0018614005530253053
0.01838393323123455,0.004945434629917145,-0.014537337236106396,0.010126171633601189,2.1263008624987266e-39,-0.002579641295596957
0.018159054219722748,0.004871876910328865,-0.014920128509402275,0.010522869415581226,1.3883224405451693e-40,-0.003152286633849144
0.01772756688296795,0.005229908041656017,-0.014296120032668114,0.010850300081074238,9.064999765717242e-42,-0.003036585869267583
0.017811419442296028,0.005146986339241266,-0.014838043600320816,0.010211678221821785,5.913479519450728e-43,-0.002660364145413041
0.017904508858919144,0.005384320858865976,-0.014128045178949833,0.010497622191905975,3.923635700109488e-44,-0.0023106869775801897
0.018230149522423744,0.005148778669536114,-0.014485470950603485,0.010047591291368008,2.802596928649634e-45,-0.002277649939060211
0.01844901777803898,0.004864848684519529,-0.013960151001811028,0.00993862934410572,0.0,-0.002577577717602253
0.01862206496298313,0.005129068158566952,-0.01485392265021801,0.00997321866452694,0.0,-0.0029208094347268343
0.0184836033731699,0.005129373166710138,-0.014467069879174232,0.010648984462022781,0.0,-0.00340063264593482
0.01908015087246895,0.004983229096978903,-0.014839471317827702,0.009906785562634468,0.0,-0.0032837651669979095
0.018470099195837975,0.005295491311699152,-0.014202115125954151,0.010237493552267551,0.0,-0.0031912880949676037
0.01842966303229332,0.005130123812705278,-0.014794278889894485,0.010373204946517944,0.0,-0.0032256629783660173
0.018903905525803566,0.004872278776019812,-0.014522976242005825,0.010731815360486507,0.0,-0.00344636058434844
0.018560273572802544,0.005134977400302887,-0.014941154979169369,0.01044198777526617,0.0,-0.0032782566267997026
0.019230782985687256,0.0053774514235556126,-0.014261073432862759,0.010357816703617573,0.0,-0.0031052373815327883
0.01916048675775528,0.005067079793661833,-0.014817357994616032,0.01011107861995697,0.0,-0.002947407541796565
0.01870611682534218,0.005336427595466375,-0.014473063871264458,0.010298654437065125,0.0,-0.002914032433182001
0.01922866702079773,0.005509264767169952,-0.014979641884565353,0.009457693435251713,0.0,-0.002818121574819088
0.019147515296936035,0.005508603062480688,-0.014225211925804615,0.009554071351885796,0.0,-0.0027880361303687096
0.01877007447183132,0.005005086772143841,-0.015056404285132885,0.010476775467395782,0.0,-0.00338756269775331
0.019295936450362206,0.00556865194812417,-0.014425124041736126,0.010067833587527275,0.0,-0.003934252541512251
0.018953019753098488,0.005394662730395794,-0.015012340620160103,0.01036270335316658,0.0,-0.00455749174579978
0.018924091011285782,0.005032339133322239,-0.014309466816484928,0.010187655687332153,0.0,-0.004712228197604418
0.019453832879662514,0.005237078759819269,-0.014632760547101498,0.00971393845975399,0.0,-0.004348474089056253
0.01883106119930744,0.005080138333141804,-0.014135247096419334,0.009945526719093323,0.0,-0.003971931524574757
0.019794773310422897,0.005233780015259981,-0.0144803486764431,0.01007435005158186,0.0,-0.003721626941114664
0.019561870023608208,0.005016327369958162,-0.014725510030984879,0.010085413232445717,0.0,-0.003944282419979572
0.01935890130698681,0.004880821332335472,-0.014621194452047348,0.010042844340205193,0.0,-0.004596923477947712
0.020019961521029472,0.004896108061075211,-0.01505405642092228,0.010277668945491314,0.0,-0.004903294146060944
0.020019961521029472,0.004896108061075211,-0.01505405642092228,0.010277668945491314,0.0,-0.004903294146060944
0.01975792832672596,0.004724218510091305,-0.01525874063372612,0.010104894638061523,0.0,-0.004301431588828564
0.019774645566940308,0.004672708921134472,-0.015150905586779118,0.01044494565576315,0.0,-0.004201845731586218
0.020121201872825623,0.004652343224734068,-0.014709632843732834,0.009956673718988895,0.0,-0.004159086849540472
0.020233966410160065,0.005074616055935621,-0.01507594995200634,0.010267073288559914,0.0,-0.004414450842887163
0.0201448705047369,0.005023221485316753,-0.015367911197245121,0.010657211765646935,0.0,-0.005039513576775789
0.020322607830166817,0.005052853841334581,-0.014881674200296402,0.009910284541547298,0.0,-0.005065926816314459
0.02046579122543335,0.005303763318806887,-0.015048794448375702,0.01006261445581913,0.0,-0.004846612457185984
0.0201041791588068,0.004961277358233929,-0.015048595145344734,0.010169369168579578,0.0,-0.0045041111297905445
0.02021230384707451,0.004619269631803036,-0.015564720146358013,0.010169959627091885,0.0,-0.004608453251421452
0.020738061517477036,0.005025663413107395,-0.015481715090572834,0.010807380080223083,0.0,-0.00465589901432395
0.02080661617219448,0.005543760024011135,-0.015472115948796272,0.010041112080216408,0.0,-0.004537280183285475
0.020449338480830193,0.00517978984862566,-0.014727006666362286,0.009858468547463417,0.0,-0.004799444694072008
0.020885160192847252,0.004664011299610138,-0.015433714725077152,0.010702680796384811,0.0,-0.004935326520353556
0.021132443100214005,0.004605918191373348,-0.015063748694956303,0.010747857391834259,0.0,-0.004935994744300842
0.020838482305407524,0.004957474302500486,-0.016049258410930634,0.010550319217145443,0.0,-0.005137328989803791
0.02083619125187397,0.00504278764128685,-0.015220614150166512,0.010559957474470139,0.0,-0.005059211514890194
0.021247927099466324,0.005439914297312498,-0.015449772588908672,0.010720597580075264,0.0,-0.004971450660377741
0.02097521722316742,0.005056322086602449,-0.015105665661394596,0.0110940458253026,0.0,-0.005086032673716545
0.021479535847902298,0.004777558147907257,-0.015483499504625797,0.011258923448622227,0.0,-0.004819996654987335
0.021590420976281166,0.004688176326453686,-0.014881663024425507,0.011226514354348183,0.0,-0.00468615023419261
0.021811915561556816,0.004764986224472523,-0.015168529935181141,0.011562894098460674,0.0,-0.004612206947058439
0.021872185170650482,0.005036062560975552,-0.015433532185852528,0.01100255735218525,0.0,-0.0051431613974273205
0.021518606692552567,0.004291816148906946,-0.01574612967669964,0.011947776190936565,0.0,-0.0051372540183365345
0.021653350442647934,0.003907653968781233,-0.01499047689139843,0.011501104570925236,0.0,-0.005530534312129021
0.022753845900297165,0.004278390668332577,-0.015295447781682014,0.011533237062394619,0.0,-0.0054660215973854065
0.022753845900297165,0.004278390668332577,-0.015295447781682014,0.011533237062394619,0.0,-0.0054660215973854065
0.02267536148428917,0.004387817345559597,-0.014909033663570881,0.011019963771104813,0.0,-0.00578045379370451
0.022002805024385452,0.004297090228646994,-0.015530809760093689,0.011185313574969769,0.0,-0.005553090944886208
0.01987117901444435,0.004396120086312294,-0.015067202039062977,0.011281472630798817,0.0,-0.005796969402581453
0.022923586890101433,0.004212972708046436,-0.0155510064214468,0.010867511853575706,0.0,-0.005477711092680693
0.022982167080044746,0.004598160739988089,-0.014871792867779732,0.011341000907123089,0.0,-0.005343741271644831
0.02264644205570221,0.004207844380289316,-0.01569603756070137,0.011352702043950558,0.0,-0.005276843905448914
0.021864069625735283,0.0038654403761029243,-0.015306188724935055,0.011953701265156269,0.0,-0.005738637875765562
0.022871537134051323,0.004236328881233931,-0.015389913693070412,0.01143399067223072,0.0,-0.00577111542224884
0.023280417546629906,0.004106058273464441,-0.015343733131885529,0.011173989623785019,0.0,-0.006529286503791809
0.023375917226076126,0.003891261527314782,-0.015781886875629425,0.011456492356956005,0.0,-0.0062555535696446896
0.022079434245824814,0.004038352984935045,-0.01604473777115345,0.011148840188980103,0.0,-0.005976836197078228
0.021852394565939903,0.004101757891476154,-0.015283270739018917,0.010915241204202175,0.0,-0.006165072321891785
0.022001586854457855,0.0043310122564435005,-0.015556181780993938,0.011447628028690815,0.0,-0.006005241069942713
0.02231580577790737,0.0039842152036726475,-0.015350386500358582,0.011199328117072582,0.0,-0.006091590505093336
0.022843053564429283,0.0038388678804039955,-0.016272269189357758,0.011285612359642982,0.0,-0.006347257178276777
0.022158877924084663,0.004148655105382204,-0.015392180532217026,0.01154929120093584,0.0,-0.005880728829652071
0.022590434178709984,0.004250992555171251,-0.015457374043762684,0.011161264032125473,0.0,-0.0059868451207876205
0.022590434178709984,0.004250992555171251,-0.015457374043762684,0.011161264032125473,0.0,-0.0059868451207876205
0.022906983271241188,0.004003485664725304,-0.015031173825263977,0.011321226134896278,0.0,-0.006174821872264147
0.02259863168001175,0.004339595325291157,-0.016049807891249657,0.011538364924490452,0.0,-0.0060001397505402565
0.0221815537661314,0.003914637956768274,-0.015524214133620262,0.011391795240342617,0.0,-0.005955385509878397
0.02230673097074032,0.003897702321410179,-0.015066747553646564,0.01109201367944479,0.0,-0.006143850274384022
0.02277519181370735,0.004496786277741194,-0.015658045187592506,0.011569177731871605,0.0,-0.006841111928224564
0.022393297404050827,0.004228802397847176,-0.015287099406123161,0.011609339155256748,3.3867149795696605e-06,-0.006531188264489174
0.022393297404050827,0.004228802397847176,-0.015287099406123161,0.011609339155256748,3.3867149795696605e-06,-0.006531188264489174
0.0232108011841774,0.004674506839364767,-0.015021555125713348,0.011752180755138397,1.443809694023912e-08,-0.006496974732726812
0.0232108011841774,0.004674506839364767,-0.015021555125713348,0.011752180755138397,1.443809694023912e-08,-0.006496974732726812
0.022731639444828033,0.004323850851505995,-0.015996074303984642,0.012057755142450333,9.427045810639356e-10,-0.0071431598626077175
0.022683793678879738,0.0042289188131690025,-0.015263671055436134,0.011464926414191723,6.15518747082433e-11,-0.006890133023262024
0.02270728535950184,0.004803196527063847,-0.015602086670696735,0.011644403450191021,4.018897627883211e-12,-0.006489959079772234
0.02331406995654106,0.0049747563898563385,-0.015423495322465897,0.01176688726991415,2.624053047333569e-13,-0.006858837325125933
0.023608632385730743,0.004857744090259075,-0.016140714287757874,0.011854899115860462,1.7133191228062804e-14,-0.00684176804497838
0.022850219160318375,0.0051453495398163795,-0.0162817370146513,0.012489669024944305,1.1186749311310968e-15,-0.00687600951641798
0.023038694635033607,0.004858794622123241,-0.01626681722700596,0.011555936187505722,7.304147083908593e-17,-0.0066885557025671005
0.021811839193105698,0.004321851767599583,-0.016239190474152565,0.011929049156606197,4.769086247027023e-18,-0.007158359512686729
0.023510603234171867,0.004480482544749975,-0.01611708104610443,0.01213158667087555,3.113872560600944e-19,-0.0069311573170125484
0.023299193009734154,0.004400815814733505,-0.016273951157927513,0.01128365471959114,2.0331362748820365e-20,-0.006827998906373978
0.02390933223068714,0.004820344969630241,-0.015498975291848183,0.011735913343727589,1.3274927079252178e-21,-0.006613471079617739
0.023910431191325188,0.004850354976952076,-0.01624167524278164,0.011392737738788128,8.667578272768383e-23,-0.007349521387368441
0.023088227957487106,0.004913344047963619,-0.01594429649412632,0.011564206331968307,5.659309827730432e-24,-0.007090860046446323
0.022598663344979286,0.004589607007801533,-0.01685483194887638,0.012182200327515602,-0.00020774769654963166,-0.007156752049922943
0.023626316338777542,0.004227661062031984,-0.0166630819439888,0.012034576386213303,-0.00025685332366265357,-0.007281520403921604
0.02438938431441784,0.004465971142053604,-0.015995381399989128,0.012089450843632221,-0.0002467566228006035,-0.007312303874641657
0.02438938431441784,0.004465971142053604,-0.015995381399989128,0.012089450843632221,-0.0002467566228006035,-0.007312303874641657
0.02412583865225315,0.00475064292550087,-0.016490565612912178,0.011927163228392601,-0.00026872067246586084,-0.007665433920919895
0.02309042401611805,0.0048126173205673695,-0.016597971320152283,0.012480138801038265,-0.0002663194027263671,-0.007696032524108887
0.023358456790447235,0.004784359131008387,-0.017545776441693306,0.011996977031230927,-0.0002544766466598958,-0.007397462613880634
0.024029457941651344,0.0045837960205972195,-0.016339126974344254,0.012227545492351055,-0.0002711809938773513,-0.007523343898355961
0.024299079552292824,0.00430218456313014,-0.017075521871447563,0.011804474517703056,-0.0002783223462756723,-0.007328307256102562
0.023599684238433838,0.004576859995722771,-0.017143424600362778,0.012155353091657162,-0.0002842856047209352,-0.007152541074901819
0.023648422211408615,0.005052455700933933,-0.016693510115146637,0.011936595663428307,-0.00027455270173959434,-0.007116936147212982
0.023897279053926468,0.004873164929449558,-0.01568540930747986,0.011862613260746002,-0.0003621435025706887,-0.0071957833133637905
0.02421414665877819,0.004860208835452795,-0.016521139070391655,0.012174561619758606,-0.0003649710852187127,-0.007869676686823368
0.024004889652132988,0.00430729053914547,-0.016785578802227974,0.011955579742789268,-0.00040267119766213,-0.007697266526520252
0.023960743099451065,0.004348226822912693,-0.016931017860770226,0.012007727287709713,-0.0003786759916692972,-0.007761490065604448
0.024341899901628494,0.004596633370965719,-0.016882620751857758,0.011579716578125954,-0.00040511126280762255,-0.007667515426874161
0.024054676294326782,0.0047208103351294994,-0.016367055475711823,0.011667163111269474,-0.0003871869412250817,-0.007580307312309742
0.023710066452622414,0.004738604184240103,-0.016749979928135872,0.012500847689807415,-0.00036518939305096865,-0.007422046270221472
0.023727381601929665,0.004667862318456173,-0.016221506521105766,0.012341425754129887,-0.0003452019882388413,-0.007910708896815777
0.02429955080151558,0.004529454279690981,-0.01701309159398079,0.012655303813517094,-0.0003677317872643471,-0.007831914350390434
0.02453363686800003,0.004610226955264807,-0.016582883894443512,0.01242158468812704,-0.00035513073089532554,-0.00815657339990139
0.024583637714385986,0.004676023498177528,-0.016487950459122658,0.013015654869377613,-0.0003387792385183275,-0.007258991245180368
0.024127356708049774,0.004688450135290623,-0.01680506393313408,0.012093915604054928,-0.00038531763129867613,-0.0071691167540848255
0.024422036483883858,0.004720995668321848,-0.016434624791145325,0.012403169646859169,-0.0003638814378064126,-0.008523993194103241
0.024137787520885468,0.0051060826517641544,-0.01700599677860737,0.012550323270261288,-0.000395450450014323,-0.008051703684031963
0.024632103741168976,0.004637662786990404,-0.016437264159321785,0.012502127327024937,-0.00037588909617625177,-0.008091221563518047
0.024963654577732086,0.0045416392385959625,-0.01671997830271721,0.01242251880466938,-0.0004064624081365764,-0.00768207898363471
0.02278631553053856,0.004580490291118622,-0.016735926270484924,0.01217646338045597,-0.00038519222289323807,-0.008048147894442081
0.025634827092289925,0.004630468785762787,-0.01665312983095646,0.012900149449706078,-0.0004080943763256073,-0.00795335229486227
0.025634827092289925,0.004630468785762787,-0.01665312983095646,0.012900149449706078,-0.0004080943763256073,-0.00795335229486227
0.02488708682358265,0.004620814695954323,-0.016894744709134102,0.01233727391809225,-0.00039202155312523246,-0.007651271298527718
0.02473568730056286,0.004697965458035469,-0.016244925558567047,0.012806533835828304,-0.00037326820893213153,-0.007995156571269035
0.024453332647681236,0.005169396288692951,-0.016985299065709114,0.01298853661864996,-0.0004577149811666459,-0.008226409554481506
0.025233831256628036,0.00446449127048254,-0.016771243885159492,0.013285723514854908,-0.0004614052304532379,-0.008438831195235252
0.02530454844236374,0.004824168514460325,-0.017220089212059975,0.013146772980690002,-0.00048878975212574,-0.008192538283765316
0.025287406519055367,0.004881157074123621,-0.016926268115639687,0.013357556425035,-0.0004614972276613116,-0.008389735594391823
0.025127548724412918,0.004873984958976507,-0.017165906727313995,0.01295075286179781,-0.0004305003094486892,-0.008454504422843456
0.025411175563931465,0.005310490727424622,-0.016494059935212135,0.013523852452635765,-0.00045273947762325406,-0.008547039702534676
0.025339359417557716,0.005435252096503973,-0.017141103744506836,0.01286155916750431,-0.0004323430184740573,-0.008783558383584023
0.024991272017359734,0.004845656920224428,-0.016842070966959,0.013274114578962326,-0.0004091021546628326,-0.008942772634327412
0.025571653619408607,0.004841197747737169,-0.016781264916062355,0.013012475334107876,-0.00045045686420053244,-0.008901549503207207
0.025478867813944817,0.004817048087716103,-0.01707330532371998,0.013506398536264896,-0.00041435519233345985,-0.009520039893686771
0.025898706167936325,0.004881324712187052,-0.01617921143770218,0.013279575854539871,-0.00037970964331179857,-0.008804070763289928
0.025465361773967743,0.004942976403981447,-0.01701360195875168,0.012780675664544106,-0.00041523377876728773,-0.00918029248714447
0.025501076132059097,0.005078312009572983,-0.016724789515137672,0.01283386442810297,-0.0003895116678904742,-0.009013357572257519
0.02529323846101761,0.004935138393193483,-0.016672879457473755,0.012288015335798264,-0.0003635504108387977,-0.008966142311692238
0.025671109557151794,0.0048896982334554195,-0.01683380827307701,0.012560827657580376,-0.0003824138839263469,-0.009220747277140617
0.02603866346180439,0.005019792355597019,-0.016628354787826538,0.012673833407461643,-0.0003728258016053587,-0.009512899443507195
0.026193559169769287,0.004949264228343964,-0.017023878172039986,0.01364193856716156,-0.00035279401345178485,-0.009217248298227787
0.02653716877102852,0.004909551236778498,-0.016286436468362808,0.013179134577512741,-0.00036933660157956183,-0.008688971400260925
0.025012897327542305,0.005216541234403849,-0.016926908865571022,0.013301163911819458,-0.00036181180621497333,-0.008839386515319347
0.02554767020046711,0.005069591570645571,-0.016907338052988052,0.013286260887980461,-0.0003451842931099236,-0.009074904955923557
0.026384077966213226,0.004681039601564407,-0.017007768154144287,0.012907398864626884,-0.0003393257793504745,-0.009055367670953274
0.0264191422611475,0.004893817473202944,-0.017746157944202423,0.01267881691455841,-0.0003251193556934595,-0.009484419599175453
0.026112141087651253,0.004813558887690306,-0.01679285243153572,0.012378430925309658,-0.00034853321267291903,-0.00967469997704029
0.026112141087651253,0.004813558887690306,-0.01679285243153572,0.012378430925309658,-0.00034853321267291903,-0.00967469997704029
0.026613574475049973,0.004876350983977318,-0.01693258434534073,0.012945734895765781,-0.00034052744740620255,-0.009674631990492344
0.026563813909888268,0.005286290310323238,-0.017053814604878426,0.01247538160532713,-0.0003710030287038535,-0.009111504070460796
0.02576807141304016,0.005059750284999609,-0.01772231236100197,0.013078199699521065,-0.00039073554216884077,-0.00963686965405941
0.025746716186404228,0.0047500357031822205,-0.016682429239153862,0.013380619697272778,-0.0005519725964404643,-0.00953721534460783
0.02600949816405773,0.004925686866044998,-0.016970891505479813,0.013324623927474022,-0.0005467577720992267,-0.00987462792545557
0.02677520364522934,0.004985411651432514,-0.017732538282871246,0.013913425616919994,-0.0004910876741632819,-0.00966667290776968
0.026956118643283844,0.0050069354474544525,-0.01754414290189743,0.01376174483448267,-0.0004429392283782363,-0.009950651787221432
0.026068300008773804,0.0050148870795965195,-0.017566818743944168,0.013584189116954803,-0.00040321648702956736,-0.009385536424815655
0.02736053615808487,0.0048973215743899345,-0.016664627939462662,0.013244890607893467,-0.00040583053487353027,-0.009472789242863655
0.027029020711779594,0.004855349659919739,-0.017168870195746422,0.013022078201174736,-0.0004077726334799081,-0.009620008058845997
0.02688155695796013,0.005000641569495201,-0.017001252621412277,0.013002986088395119,-0.0003811166388913989,-0.009487508796155453
0.026645641773939133,0.00497286394238472,-0.01731729693710804,0.012652060948312283,-0.0003561070770956576,-0.009536681696772575
0.027112429961562157,0.0052094003185629845,-0.017758911475539207,0.01348208449780941,-0.00033407285809516907,-0.00927548948675394
0.027428485453128815,0.004855134058743715,-0.017064807936549187,0.013454304076731205,-0.0003633989836089313,-0.0098050432279706
0.026756003499031067,0.004842012654989958,-0.01721121557056904,0.013793851248919964,-0.000346583517966792,-0.00976551603525877
0.026603860780596733,0.004716881550848484,-0.017489295452833176,0.01348108146339655,-0.0003633398737292737,-0.009511183016002178
0.02712562307715416,0.005365706980228424,-0.017855247482657433,0.013658992946147919,-0.00035623557050712407,-0.009235112927854061
0.027461862191557884,0.005311718676239252,-0.017588026821613312,0.012973029166460037,-0.0003401153953745961,-0.00959708821028471
0.027147630229592323,0.004799441434442997,-0.017365623265504837,0.013107446022331715,-0.00029543833807110786,-0.010274299420416355
0.0272050891071558,0.004830425139516592,-0.017850812524557114,0.013258608989417553,-0.0002740143972914666,-0.01024880725890398
0.027057930827140808,0.005040555261075497,-0.01801563799381256,0.0135107496753335,-0.0002832070749718696,-0.009764092043042183
0.02736324444413185,0.0049369377084076405,-0.01735466718673706,0.013362273573875427,-0.00029113382333889604,-0.009497917257249355
0.028472907841205597,0.004775329492986202,-0.018604351207613945,0.01284469198435545,-0.00031775428215041757,-0.010446269065141678
0.02828613668680191,0.004921017214655876,-0.0169394351541996,0.01311134546995163,-0.0003293095505796373,-0.010214355774223804
0.02828613668680191,0.004921017214655876,-0.0169394351541996,0.01311134546995163,-0.0003293095505796373,-0.010214355774223804
0.026997089385986328,0.005027380306273699,-0.016885507851839066,0.012721732258796692,-0.0003343272546771914,-0.010105322115123272
0.02730492874979973,0.005127365235239267,-0.018422594293951988,0.013766752555966377,-0.0005157937412150204,-0.01011866144835949
0.028077388182282448,0.004907050170004368,-0.017673855647444725,0.01349386852234602,-0.0005961240967735648,-0.010473979637026787
0.02801109291613102,0.0048064542934298515,-0.01763693243265152,0.013842488639056683,-0.0005616622511297464,-0.009944213554263115
0.028881682083010674,0.005059937480837107,-0.01772327907383442,0.013889454305171967,-0.0006102612242102623,-0.010235833935439587
0.02882983908057213,0.0049513219855725765,-0.017829367890954018,0.01362148392945528,-0.0006862476002424955,-0.010065791197121143
0.029042109847068787,0.005065334495157003,-0.017167434096336365,0.013893556781113148,-0.0007561527891084552,-0.010715793818235397
0.027403825893998146,0.004868424963206053,-0.017814267426729202,0.013494685292243958,-0.0007204388384707272,-0.011065182276070118
0.027791419997811317,0.004881521686911583,-0.017594989389181137,0.01371829304844141,-0.0007307880441658199,-0.011467499658465385
0.02885269559919834,0.004861068446189165,-0.01788228191435337,0.013456297107040882,-0.0007356571732088923,-0.011295286007225513
0.028711695224046707,0.0044241962023079395,-0.017920466139912605,0.013793897815048695,-0.0006923145265318453,-0.011192680336534977
0.0282315444201231,0.0035418649204075336,-0.017080985009670258,0.013952139765024185,-0.0007154790800996125,-0.01120524201542139
0.027918238192796707,0.0034638657234609127,-0.018002629280090332,0.014652039855718613,-0.0007403689087368548,-0.011249011382460594
0.028620533645153046,0.004184055142104626,-0.018091589212417603,0.014298871159553528,-0.0008122698054648936,-0.011251907795667648
0.028235429897904396,0.004557555541396141,-0.01754157431423664,0.014054086059331894,-0.0009432837832719088,-0.011118686757981777
0.02839605323970318,0.004644267726689577,-0.01804436556994915,0.013947436586022377,-0.0010676197707653046,-0.010995307937264442
0.028165774419903755,0.004293543286621571,-0.01733332872390747,0.013760230503976345,-0.0010586089920252562,-0.010569412261247635
0.028426935896277428,0.004036676604300737,-0.017590168863534927,0.013503008522093296,-0.0010365991620346904,-0.010737654753029346
0.028246700763702393,0.0039682332426309586,-0.01782143861055374,0.013456396758556366,-0.0009219556231983006,-0.010803650133311749
0.028493989259004593,0.003900655312463641,-0.017743241041898727,0.014294316992163658,-0.0008570880745537579,-0.011099123395979404
0.02837488427758217,0.00395980617031455,-0.017684508115053177,0.01438527274876833,-0.0008596818661317229,-0.011329466477036476
0.028681917116045952,0.004002213943749666,-0.017313726246356964,0.015019270591437817,-0.0009243855602107942,-0.010670879855751991
0.02916472963988781,0.0038999593816697598,-0.017595214769244194,0.014687936753034592,-0.0009889018256217241,-0.01071337703615427
0.028909582644701004,0.0038144795689731836,-0.017740538343787193,0.013954594731330872,-0.001045373035594821,-0.011312378570437431
0.02862738072872162,0.0037941571790724993,-0.01743926852941513,0.013638993725180626,-0.0009153226856142282,-0.011030539870262146
0.02862738072872162,0.0037941571790724993,-0.01743926852941513,0.013638993725180626,-0.0009153226856142282,-0.011030539870262146
0.029196904972195625,0.00430297339335084,-0.018263142555952072,0.014087537303566933,-0.0009058203431777656,-0.010953180491924286
0.0290757454931736,0.004098484292626381,-0.018304510042071342,0.013374973088502884,-0.0009044836624525487,-0.010612196289002895
0.0282453540712595,0.004357279743999243,-0.017360739409923553,0.014341293834149837,-0.0008805223042145371,-0.010161999613046646
0.029880551621317863,0.003607437713071704,-0.01765010692179203,0.013787820935249329,-0.0008880083914846182,-0.01038794219493866
0.029659094288945198,0.004107062704861164,-0.01775377430021763,0.014018063433468342,-0.0007710093050263822,-0.009929727762937546
0.02943580225110054,0.00445167301222682,-0.018105244264006615,0.014312135986983776,-0.0006960767786949873,-0.009487155824899673
0.029681365936994553,0.004119432531297207,-0.017749672755599022,0.013728185556828976,-0.0006728890584781766,-0.010801205411553383
0.029927527531981468,0.004229336977005005,-0.018106946721673012,0.014456767588853836,-0.0006512356922030449,-0.010933543555438519
0.02986728586256504,0.0040855566039681435,-0.018288718536496162,0.014255412854254246,-0.0005995383835397661,-0.010783041827380657
0.029460692778229713,0.003857929492369294,-0.017805831506848335,0.01506101991981268,-0.0005235981661826372,-0.010298371315002441
0.029994579032063484,0.004218308255076408,-0.018521364778280258,0.014549682848155499,-0.000507982331328094,-0.0104537857696414
0.029974009841680527,0.004043807741254568,-0.018034610897302628,0.014973411336541176,-0.0005005488055758178,-0.01028540451079607
0.029765794053673744,0.004437058232724667,-0.017674393951892853,0.014499279670417309,-0.0005317284376360476,-0.010487843304872513
0.02981499955058098,0.004208273719996214,-0.017920810729265213,0.014902539551258087,-0.0005557857220992446,-0.010639349929988384
0.029375780373811722,0.004346030298620462,-0.017563555389642715,0.014579962939023972,-0.0007519072969444096,-0.010241148062050343
0.02984597347676754,0.004343978129327297,-0.018291709944605827,0.014713478274643421,-0.0008336285827681422,-0.01050114631652832
0.030964506790041924,0.004094346426427364,-0.018346941098570824,0.014739399775862694,-0.0008466498693451285,-0.010140564292669296
0.030350718647241592,0.0035010180436074734,-0.017582256346940994,0.015450510196387768,-0.0008392242598347366,-0.010635057464241982
0.028978560119867325,0.0039091878570616245,-0.01781468838453293,0.014859023503959179,-0.0007753318059258163,-0.010882720351219177
0.029330376535654068,0.004250958561897278,-0.017713677138090134,0.014938026666641235,-0.0008433170733042061,-0.010817167349159718
0.029979361221194267,0.004052096977829933,-0.018749861046671867,0.014137527905404568,-0.0008552251383662224,-0.010792085900902748
0.02938232757151127,0.0038401922211050987,-0.018566589802503586,0.014412608928978443,-0.0008529700571671128,-0.01102673914283514
0.0301519762724638,0.004098738543689251,-0.017787432298064232,0.014123767614364624,-0.000843904388602823,-0.010524083860218525
0.031184101477265358,0.004483814351260662,-0.018978964537382126,0.014480527490377426,-0.0007778958533890545,-0.010812625288963318
0.03016652725636959,0.0041617946699261665,-0.018333716318011284,0.014013082720339298,-0.000765558797866106,-0.011372019536793232
0.029713120311498642,0.003920868970453739,-0.01783289946615696,0.014190430752933025,-0.0007792201358824968,-0.011272593401372433
0.029190467670559883,0.004262354224920273,-0.018457109108567238,0.013958806172013283,-0.000779289985075593,-0.011344263330101967
0.03025846742093563,0.0043156142346560955,-0.01871972717344761,0.014201649464666843,-0.0007172098266892135,-0.011192450299859047
0.030704190954566002,0.004512458108365536,-0.01898595318198204,0.014032647013664246,-0.0007308898493647575,-0.011721169576048851
0.030704190954566002,0.004512458108365536,-0.01898595318198204,0.014032647013664246,-0.0007308898493647575,-0.011721169576048851
0.03036494366824627,0.00448724115267396,-0.0189887173473835,0.014339720830321312,-0.0006686373963020742,-0.011434479616582394
0.03124427981674671,0.004362563136965036,-0.018412446603178978,0.014217027463018894,-0.0005806966801173985,-0.011347124353051186
0.030939513817429543,0.004388674162328243,-0.0188180822879076,0.013883229345083237,-0.0005167380440980196,-0.010960094630718231
0.03070857748389244,0.00428263284265995,-0.01858438178896904,0.014084210619330406,-0.0005313362926244736,-0.011066421866416931
0.03117622248828411,0.004521896131336689,-0.018575208261609077,0.014050653204321861,-0.0005026703584007919,-0.011704249307513237
0.031199879944324493,0.004622624255716801,-0.018775977194309235,0.01525769755244255,-0.000527329568285495,-0.011665579862892628
0.03070281445980072,0.005246463231742382,-0.018146874383091927,0.01572926715016365,-0.0004949732101522386,-0.011825882829725742
0.030885742977261543,0.004616419784724712,-0.01856819912791252,0.016299359500408173,-0.0005161165609024465,-0.011250622570514679
0.03066367842257023,0.004520530812442303,-0.018955934792757034,0.015977801755070686,-0.0004888279945589602,-0.0112776393070817
0.03091074712574482,0.004389433190226555,-0.018677547574043274,0.015427014790475368,-0.00046160168130882084,-0.011749387718737125
0.03116248920559883,0.004284057766199112,-0.019146636128425598,0.015319965779781342,-0.00045009644236415625,-0.011361957527697086
0.031640585511922836,0.004832316190004349,-0.01869925856590271,0.015194217674434185,-0.00048757114564068615,-0.011691553518176079
0.03121142089366913,0.005065613891929388,-0.018351120874285698,0.016004933044314384,-0.00045187093201093376,-0.011856945231556892
0.03038688190281391,0.004920542240142822,-0.019237585365772247,0.015416180714964867,-0.0004683186416514218,-0.011705618351697922
0.030962036922574043,0.004667186643928289,-0.018650824204087257,0.015304522588849068,-0.0004506791301537305,-0.011847116984426975
0.031392455101013184,0.004552105441689491,-0.01825927011668682,0.014884771779179573,-0.00042154639959335327,-0.011912605725228786
0.031058751046657562,0.004399729426950216,-0.01883981004357338,0.01533356960862875,-0.000447678379714489,-0.012001991271972656
0.031701814383268356,0.004580885637551546,-0.01854240708053112,0.015150882303714752,-0.0004246915632393211,-0.011740930378437042
0.0320967435836792,0.004663465078920126,-0.018399786204099655,0.015533031895756721,-0.00048534173402003944,-0.011632720939815044
0.030824434012174606,0.004798125941306353,-0.019022058695554733,0.01526772603392601,-0.000516353698913008,-0.011983901262283325
0.03009019047021866,0.004667262081056833,-0.018587011843919754,0.015355357900261879,-0.0004906170652247965,-0.01204707846045494
0.03122134506702423,0.0046193948946893215,-0.018629418686032295,0.015295193530619144,-0.0004873606376349926,-0.01239894051104784
0.03185165673494339,0.004344362299889326,-0.018832528963685036,0.015536635182797909,-0.0004831393307540566,-0.012547507882118225
0.03185165673494339,0.004344362299889326,-0.018832528963685036,0.015536635182797909,-0.0004831393307540566,-0.012547507882118225
0.031776126474142075,0.00425887992605567,-0.017875639721751213,0.015668338164687157,-0.0004980668309144676,-0.012584084644913673
0.03170442208647728,0.004446248058229685,-0.01876809075474739,0.015669872984290123,-0.00047974271001294255,-0.012272167019546032
0.032204173505306244,0.004691170994192362,-0.018396807834506035,0.01555041503161192,-0.0005150959477759898,-0.012474333867430687
0.032105423510074615,0.004537620581686497,-0.01883740723133087,0.016027193516492844,-0.0005375113105401397,-0.012558205053210258
0.03241930902004242,0.004505068529397249,-0.01878519356250763,0.0159109178930521,-0.0005084358854219317,-0.013162792660295963
0.03245237469673157,0.004604726564139128,-0.018321411684155464,0.016320740804076195,-0.0004659394617192447,-0.012561699375510216
0.0317566879093647,0.004377163480967283,-0.01875423640012741,0.01661335676908493,-0.0004906581016257405,-0.012514255940914154
0.031985312700271606,0.004532183520495892,-0.01875024288892746,0.017002008855342865,-0.0004629853356163949,-0.012424216605722904
0.032342374324798584,0.004581124521791935,-0.018841493874788284,0.017022259533405304,-0.0004771455132868141,-0.01249193586409092
0.03277536481618881,0.004685921128839254,-0.01973998360335827,0.016498666256666183,-0.00046076870057731867,-0.012743135914206505
0.03304193541407585,0.0046199019998312,-0.019333647564053535,0.016612093895673752,-0.00048620084999129176,-0.013369414024055004
0.03294995427131653,0.004624906927347183,-0.019310740754008293,0.01608683168888092,-0.00045632224646396935,-0.013643383048474789
0.03307854011654854,0.004253150895237923,-0.019983485341072083,0.016682356595993042,-0.00041542699909769,-0.013315337710082531
0.03314996510744095,0.004354530014097691,-0.020488960668444633,0.016331763938069344,-0.00045100224087946117,-0.012969170697033405
0.03269435837864876,0.0045381877571344376,-0.019330378621816635,0.016564415767788887,-0.0004204785218462348,-0.012568339705467224
0.032782427966594696,0.004635128192603588,-0.019781075417995453,0.01665196381509304,-0.00043817469850182533,-0.012936962768435478
0.03336615115404129,0.0043024239130318165,-0.020008649677038193,0.015802636742591858,-0.000423596182372421,-0.013012206181883812
0.033425576984882355,0.004501981195062399,-0.01891760714352131,0.015836365520954132,-0.0004254512314219028,-0.01284133829176426
0.03371194750070572,0.004366018809378147,-0.01952194608747959,0.015154803171753883,-0.0004257875552866608,-0.01299439650028944
0.03303074464201927,0.00432191789150238,-0.020121995359659195,0.0157089214771986,-0.0004035823803860694,-0.012911241501569748
0.03307773917913437,0.004347018897533417,-0.019892999902367592,0.015120109543204308,-0.0004076023178640753,-0.013354572467505932
0.03364018350839615,0.004543461836874485,-0.01938646472990513,0.015937188640236855,-0.0003965567157138139,-0.013281327672302723
0.033871885389089584,0.004713486880064011,-0.020215287804603577,0.015632759779691696,-0.00041962406248785555,-0.013752191327512264
0.03373995050787926,0.004291125573217869,-0.019733652472496033,0.016122356057167053,-0.00040490279207006097,-0.013682646676898003
0.034235335886478424,0.004321664571762085,-0.019826974719762802,0.015524506568908691,-0.0004320383013691753,-0.013406422920525074
0.03390346094965935,0.0045393481850624084,-0.019755354151129723,0.015436241403222084,-0.0004546052950900048,-0.013093600049614906
0.03390346094965935,0.0045393481850624084,-0.019755354151129723,0.015436241403222084,-0.0004546052950900048,-0.013093600049614906
0.033740684390068054,0.004147364757955074,-0.019780060276389122,0.015851687639951706,-0.0005702466587536037,-0.013327045366168022
0.03378140553832054,0.004374498035758734,-0.01898271217942238,0.016210060566663742,-0.0006158669129945338,-0.013421649113297462
0.03529517725110054,0.004706282634288073,-0.019494609907269478,0.016661562025547028,-0.0006430759094655514,-0.01394454762339592
0.03486333414912224,0.004378288518637419,-0.019751423969864845,0.016294365748763084,-0.0006578759639523923,-0.01390742789953947
0.0332602858543396,0.004180131945759058,-0.019605662673711777,0.015950225293636322,-0.000658784294500947,-0.013766458258032799
0.032958984375,0.003995856270194054,-0.02037675864994526,0.01571313850581646,-0.0006400647689588368,-0.013182069174945354
0.0346934013068676,0.003913422115147114,-0.01913919672369957,0.016012614592909813,-0.0006240088259801269,-0.01368280965834856
0.03509528934955597,0.004244798328727484,-0.01934416964650154,0.016441600397229195,-0.0006422122824005783,-0.013172519393265247
0.03556889295578003,0.004100664518773556,-0.01999383606016636,0.016648072749376297,-0.0005970003549009562,-0.013717724941670895
0.03458360955119133,0.003980439621955156,-0.01955801248550415,0.01608823984861374,-0.0006163330399431288,-0.013963812962174416
0.03351087123155594,0.004388508852571249,-0.0197564959526062,0.016455471515655518,-0.0006308390875346959,-0.014117165468633175
0.035154588520526886,0.004118515644222498,-0.019927171990275383,0.016073957085609436,-0.0006018041749484837,-0.014156722463667393
0.03516852483153343,0.0038939660880714655,-0.019499043002724648,0.01618359610438347,-0.0006749953026883304,-0.01462489552795887
0.03495519608259201,0.004283915273845196,-0.019715597853064537,0.016317294910550117,-0.0006985128857195377,-0.01429030206054449
0.03480776399374008,0.004198488313704729,-0.02014814503490925,0.016627293080091476,-0.0006312503828667104,-0.014288073405623436
0.03419536352157593,0.0039055291563272476,-0.019947949796915054,0.01676519773900509,-0.0006348291062749922,-0.014005145989358425
0.03509180247783661,0.00408998504281044,-0.019509518519043922,0.01638844609260559,-0.0005959486588835716,-0.014479847624897957
0.03488820791244507,0.004095443524420261,-0.01983269676566124,0.016876930370926857,-0.000612864678259939,-0.014201759360730648
0.0349523089826107,0.004330244846642017,-0.019696205854415894,0.016578612849116325,-0.0005732631543651223,-0.01433709915727377
0.034615565091371536,0.004043948836624622,-0.019558247178792953,0.016957037150859833,-0.0005315151065587997,-0.014317689463496208
0.03468431904911995,0.003883542027324438,-0.01996583491563797,0.016959218308329582,-0.000502132112160325,-0.014658953994512558
0.036043930798769,0.004242322873324156,-0.01987372525036335,0.016871705651283264,-0.000520586094353348,-0.014372320845723152
0.03622041270136833,0.004213742911815643,-0.01937226764857769,0.01695387251675129,-0.0005334033630788326,-0.014165535569190979
0.03362816199660301,0.0040112147107720375,-0.019856074824929237,0.01622307300567627,-0.0005262538907118142,-0.01442223135381937
0.034119971096515656,0.004388347268104553,-0.019999202340841293,0.016680654138326645,-0.0005480902036651969,-0.014738980680704117
0.034119971096515656,0.004388347268104553,-0.019999202340841293,0.016680654138326645,-0.0005480902036651969,-0.014738980680704117
0.036327868700027466,0.003994589205831289,-0.01995128020644188,0.016580063849687576,-0.0006841091671958566,-0.015075610019266605
0.036327868700027466,0.003994589205831289,-0.01995128020644188,0.016580063849687576,-0.0006841091671958566,-0.015075610019266605
0.03564601019024849,0.004023417364805937,-0.019698726013302803,0.016794435679912567,-0.0006949258386157453,-0.014836536720395088
0.03470693901181221,0.003982373978942633,-0.020123330876231194,0.01654314249753952,-0.000666494423057884,-0.014634999446570873
0.03612485155463219,0.004101843107491732,-0.019996006041765213,0.017100652679800987,-0.0006158897886052728,-0.014744587242603302
0.03607281669974327,0.004464201163500547,-0.019786907359957695,0.017354531213641167,-0.0006301910616457462,-0.014933289028704166
0.03607281669974327,0.004464201163500547,-0.019786907359957695,0.017354531213641167,-0.0006301910616457462,-0.014933289028704166
0.035698261111974716,0.004136467818170786,-0.020029332488775253,0.01706955023109913,-0.0006398229743354023,-0.014949971809983253
0.035613998770713806,0.0038928710855543613,-0.01953473500907421,0.01718677207827568,-0.0005945473094470799,-0.014760062098503113
0.03584805130958557,0.003895041299983859,-0.01972843147814274,0.01667160354554653,-0.0006200279458425939,-0.014444651082158089
0.035590507090091705,0.003974848426878452,-0.020412832498550415,0.017115458846092224,-0.0006290774326771498,-0.014519207179546356
0.03589850291609764,0.003914698492735624,-0.02109483629465103,0.01673462986946106,-0.0005957682151347399,-0.014936194755136967
0.03622877970337868,0.004361558705568314,-0.02066086232662201,0.01703210547566414,-0.000628532434348017,-0.01524314470589161
0.0360131561756134,0.004121881444007158,-0.020895376801490784,0.017492001876235008,-0.0005767433322034776,-0.015273861587047577
0.03555411472916603,0.0035051892045885324,-0.020549587905406952,0.017553754150867462,-0.0005875860806554556,-0.015218871645629406
0.03609834983944893,0.0035515071358531713,-0.020113715901970863,0.01822194643318653,-0.0005506305024027824,-0.015112788416445255
0.03685127571225166,0.004130927845835686,-0.020569641143083572,0.018073560670018196,-0.0005009983433410525,-0.014981277287006378
0.036672938615083694,0.004283924121409655,-0.02153371088206768,0.017422929406166077,-0.0004954506293870509,-0.014714276418089867
0.03658388555049896,0.004062269348651171,-0.021214256063103676,0.017265863716602325,-0.0004904540837742388,-0.014831729233264923
0.03650813549757004,0.003930913284420967,-0.020065579563379288,0.016624122858047485,-0.000457053683931008,-0.01518473494797945
0.03695894405245781,0.004008764401078224,-0.020844098180532455,0.0175962932407856,-0.00047885996173135936,-0.015143848024308681
0.036335933953523636,0.0041337329894304276,-0.021895432844758034,0.017651662230491638,-0.00045572759700007737,-0.015039592981338501
0.03667081519961357,0.004131284076720476,-0.021603843197226524,0.01738489232957363,-0.00043178084888495505,-0.014975410886108875
0.036899589002132416,0.0035576950758695602,-0.02020609937608242,0.017337823286652565,-0.0003963070921599865,-0.01519815158098936
0.03713594749569893,0.004166916012763977,-0.02052181027829647,0.01689884252846241,-0.00043205273686908185,-0.015397591516375542
0.036892544478178024,0.004144290927797556,-0.021505063399672508,0.01747767999768257,-0.0004536406195256859,-0.015694448724389076
0.03691639006137848,0.004047180525958538,-0.02070876583456993,0.017531460151076317,-0.00043778304825536907,-0.014897886663675308
0.03728390857577324,0.004066380672156811,-0.02157106064260006,0.017526593059301376,-0.0005586797487922013,-0.01590229757130146
0.03837842494249344,0.00415319949388504,-0.021610241383314133,0.016903456300497055,-0.0006841202266514301,-0.01581139676272869
0.03716523200273514,0.0035752574913203716,-0.02133365161716938,0.01761734113097191,-0.0007151070167310536,-0.015599805861711502
0.037030674517154694,0.0035800125915557146,-0.020825905725359917,0.017447585240006447,-0.0007351247477345169,-0.014818208292126656
0.03728313371539116,0.004235760308802128,-0.021262498572468758,0.0172721017152071,-0.000859134248457849,-0.015198086388409138
0.03728313371539116,0.004235760308802128,-0.021262498572468758,0.0172721017152071,-0.000859134248457849,-0.015198086388409138
0.037353917956352234,0.0041340128518640995,-0.021749312058091164,0.017777269706130028,-0.0009407541365362704,-0.015705512836575508
0.03908310458064079,0.003966691438108683,-0.02135738916695118,0.017807088792324066,-0.0008701735059730709,-0.01654173992574215
0.037855956703424454,0.004274099599570036,-0.021056557074189186,0.018120788037776947,-0.0008449105662293732,-0.016323750838637352
0.036566417664289474,0.00419601472094655,-0.021644432097673416,0.018123695626854897,-0.0007695294334553182,-0.015985455363988876
0.037443697452545166,0.004288883879780769,-0.021754547953605652,0.017692890018224716,-0.0007782744942232966,-0.015898361802101135
0.037653181701898575,0.004132398404181004,-0.02113150991499424,0.01803114078938961,-0.0007972113671712577,-0.01598241925239563
0.03770570456981659,0.004337293561547995,-0.02136514149606228,0.01772044412791729,-0.0008142176084220409,-0.016196388751268387
0.038982685655355453,0.004132573492825031,-0.021369097754359245,0.017259428277611732,-0.0008250833489000797,-0.016727264970541
0.03851122409105301,0.004479617346078157,-0.02179882489144802,0.017466889694333076,-0.000789451296441257,-0.016717882826924324
0.036332398653030396,0.004653155338019133,-0.021088959649205208,0.01707390695810318,-0.0009474456892348826,-0.016077792271971703
0.038194362074136734,0.004331761505454779,-0.02135360799729824,0.017480233684182167,-0.0009478125721216202,-0.016044937074184418
0.038614045828580856,0.004357871599495411,-0.022088533267378807,0.017691142857074738,-0.0008799138595350087,-0.015727685764431953
