davideferrari95/blind_handover_controller/data/Test 291 - [2024-02-08 -- 13-59-32]/joint_states_data.csv
shoulder_pan_joint,shoulder_lift_joint,elbow_joint,wrist_1_joint,wrist_2_joint,wrist_3_joint
0.003098728833720088,0.007857856340706348,-0.00916197244077921,0.0016869152896106243,-0.00021570939861703664,0.0037995888851583004
0.0033027802128344774,0.007497683633118868,-0.009130138903856277,0.0022613070905208588,-0.0002397302887402475,0.0035028457641601562
0.0033027802128344774,0.007497683633118868,-0.009130138903856277,0.0022613070905208588,-0.0002397302887402475,0.0035028457641601562
0.0031761282589286566,0.008488981053233147,-0.009141401387751102,0.002181184245273471,-0.00023297073494177312,0.0031175606418401003
0.003418286796659231,0.008488306775689125,-0.00940682739019394,0.002360355341807008,-0.00022479498875327408,0.003071005456149578
0.0032000080682337284,0.007721000351011753,-0.008726993575692177,0.0020194959361106157,-0.0002459689858369529,0.003318818286061287
0.0030433423817157745,0.007774443831294775,-0.009097600355744362,0.0017366927349939942,-0.00023966662411112338,0.0036950057838112116
0.0031446171924471855,0.008122461847960949,-0.0093388007953763,0.0016606001881882548,-0.0002320641215192154,0.003880897304043174
0.0031914080027490854,0.008378108963370323,-0.00931610632687807,0.0017340012127533555,-0.0002254865103168413,0.003815577132627368
0.0031323886942118406,0.007905429229140282,-0.008999099023640156,0.0017784415977075696,-0.00032720109447836876,0.003762975800782442
0.0034449915401637554,0.008230326697230339,-0.010308194905519485,0.0018729186849668622,-0.0003122267662547529,0.0037083239294588566
0.003288676030933857,0.008319131098687649,-0.009277989156544209,0.0017758999019861221,-0.00029243313474580646,0.0037691739853471518
0.0036433159839361906,0.00817146711051464,-0.009782085195183754,0.0015523943584412336,-0.0003103254712186754,0.0034260875545442104
0.003235445823520422,0.008271186612546444,-0.009382524527609348,0.0015206827083602548,-0.0002936610544566065,0.0036269142292439938
0.0032881307415664196,0.00815763883292675,-0.009538361802697182,0.0014070774195715785,-0.00027852290077134967,0.003409865079447627
0.0034608468413352966,0.00803590752184391,-0.010099107399582863,0.0013337235432118177,-0.00030308280838653445,0.003533032024279237
0.003444608533754945,0.008261923678219318,-0.009527198038995266,0.0013469125842675567,-0.0002941644052043557,0.003646682947874069
0.0036298006307333708,0.008567784912884235,-0.009020768105983734,0.00133647455368191,-0.0002813657629303634,0.003765758126974106
0.003804773325100541,0.00843118131160736,-0.009726055897772312,0.0014369949931278825,-0.0002693557180464268,0.003910910803824663
0.0034628771245479584,0.00792189035564661,-0.009857929311692715,0.0013701069401577115,-0.0002583115128800273,0.003631574334576726
0.0036005668807774782,0.008245544508099556,-0.009333714842796326,0.0015588286332786083,-0.0002481354749761522,0.003451813478022814
0.003323708428069949,0.008230101317167282,-0.009914875030517578,0.0014535411028191447,-0.00023873087775427848,0.00342347240075469
0.003565247170627117,0.007972593419253826,-0.009928432293236256,0.001370933256112039,-0.00023001310182735324,0.003381418064236641
0.003318543778732419,0.008100566454231739,-0.009488886222243309,0.001366445329040289,-0.0002219105517724529,0.0036048770416527987
0.003262748708948493,0.008554891683161259,-0.009914311580359936,0.001389629440382123,-0.0002409219741821289,0.004266046453267336
0.003181301523000002,0.008423283696174622,-0.00996515341103077,0.0014682357432320714,-0.00023665426124352962,0.003678578184917569
0.003181301523000002,0.008423283696174622,-0.00996515341103077,0.0014682357432320714,-0.00023665426124352962,0.003678578184917569
0.0035078616347163916,0.008203940466046333,-0.00909825973212719,0.001568197039887309,-0.0002293538418598473,0.003209281014278531
0.0034712860360741615,0.008449275977909565,-0.01003312785178423,0.0014945791335776448,-0.000222287853830494,0.002660305006429553
0.0034648508299142122,0.008748650550842285,-0.010454611852765083,0.0015892877709120512,-0.00021563102200161666,0.0028213283512741327
0.0031891637481749058,0.007897981442511082,-0.008930600248277187,0.001610441948287189,-0.00020936033979523927,0.00375371309928596
0.00308819068595767,0.007812552154064178,-0.009915836155414581,0.0016170848393812776,-0.0001977990905288607,0.004114779643714428
0.0030594095587730408,0.008274899795651436,-0.009838279336690903,0.0015412415377795696,-0.0001881430798675865,0.003976663574576378
0.003154211211949587,0.008186436258256435,-0.009765862487256527,0.0015913076931610703,-0.00018050437211059034,0.0038022329099476337
0.0030671092681586742,0.008345956914126873,-0.010134775191545486,0.001643429626710713,-0.00017353644943796098,0.003376319771632552
0.003016919130459428,0.008181753568351269,-0.009400242939591408,0.0015575670404359698,-0.00016709111514501274,0.003524806583300233
0.003255447605624795,0.008803719654679298,-0.010575545951724052,0.001485771150328219,-0.00015553880075458437,0.0035484253894537687
0.0032914788462221622,0.008574869483709335,-0.010150685906410217,0.001374578452669084,-0.0001503419625805691,0.0041781398467719555
0.003217703429982066,0.00909901037812233,-0.009409444406628609,0.0012430802453309298,-0.0001454807206755504,0.004159965552389622
0.0030307131819427013,0.008555695414543152,-0.01010291650891304,0.0011850375449284911,-0.00014092426863498986,0.0039541469886898994
0.003399877343326807,0.007974639534950256,-0.009741227142512798,0.0012107548536732793,-0.00016036124725360423,0.003797757439315319
0.0033074389211833477,0.00885180663317442,-0.009518601931631565,0.0012360449181869626,-0.00015890487702563405,0.0037197405472397804
0.003477305406704545,0.009222174994647503,-0.010262678377330303,0.0013553310418501496,-0.000154569570440799,0.0035199769772589207
0.003197045996785164,0.008043259382247925,-0.010298596695065498,0.0013103921664878726,-0.00015028120833449066,0.003419591346755624
0.0030798842199146748,0.008158435113728046,-0.009106343612074852,0.0015470869839191437,-0.0001462126529077068,0.0036167146172374487
0.003211542498320341,0.009747501462697983,-0.0099322609603405,0.0014471985632553697,-0.00014235815615393221,0.0033446874003857374
0.0037491731345653534,0.008553573861718178,-0.010503046214580536,0.0014455291675403714,-0.0001500569051131606,0.0033491605427116156
0.0037013008259236813,0.008455016650259495,-0.009662024676799774,0.0013923181686550379,-0.0001569978630868718,0.003326859325170517
0.0035252762027084827,0.009275916032493114,-0.009837186895310879,0.0013957498595118523,-0.00015386112499982119,0.003469772171229124
0.0032242105808109045,0.009004004299640656,-0.009466048330068588,0.0013481670757755637,-0.00015023749438114464,0.003534022020176053
0.0036268760450184345,0.008757720701396465,-0.009250874631106853,0.0013162074610590935,-0.00014674096019007266,0.0034242765977978706
0.004029597155749798,0.008748252876102924,-0.010327858850359917,0.0013346883933991194,-0.00014340088819153607,0.003150901524350047
0.004029597155749798,0.008748252876102924,-0.010327858850359917,0.0013346883933991194,-0.00014340088819153607,0.003150901524350047
0.0035450789146125317,0.00882561132311821,-0.010143456049263477,0.0012832514476031065,-0.00014020944945514202,0.003037873422726989
0.0035235509276390076,0.009031170979142189,-0.009456329979002476,0.0013686276506632566,-0.00015168858226388693,0.00324635929428041
0.00370713509619236,0.008199810050427914,-0.009714523330330849,0.001356152119114995,-0.000153079949086532,0.004118930548429489
0.003795475699007511,0.008947824127972126,-0.010215065442025661,0.0015504027251154184,-0.0001501885271864012,0.004096352029591799
0.003786711487919092,0.0090616000816226,-0.009746413677930832,0.0015777823282405734,-0.00014713866403326392,0.003655652515590191
0.003768282476812601,0.0077085234224796295,-0.01021623332053423,0.0014858526410534978,-0.0001441932690795511,0.0033982961904257536
0.0035052807070314884,0.010860176756978035,-0.009672570042312145,0.0014165407046675682,-0.0001413624413544312,0.003441457636654377
0.00336654344573617,0.00780826760455966,-0.009464660659432411,0.0014144618762657046,-0.00013864031643606722,0.003473154967650771
0.0033983236644417048,0.008432175032794476,-0.010470961220562458,0.0013570395531132817,-0.00013602108811028302,0.0035231278743594885
0.003529402194544673,0.008978394791483879,-0.008940165862441063,0.001382453367114067,-0.0001310687803197652,0.003986133728176355
0.003526531858369708,0.009002956561744213,-0.009809120558202267,0.0015489665092900395,-0.0001287254854105413,0.003727572737261653
0.003631328232586384,0.00866726879030466,-0.009381785988807678,0.001445333007723093,-0.00012646440882235765,0.003550345078110695
0.00372417364269495,0.009755746461451054,-0.010666334070265293,0.0013559864601120353,-0.00012635005987249315,0.0036381292156875134
0.003802836872637272,0.009040022268891335,-0.010232046246528625,0.0012797913514077663,-0.0001237035176018253,0.0038257271517068148
0.0034029127564281225,0.008939653635025024,-0.009291520342230797,0.0012538472656160593,-0.0001204463405883871,0.0038489254657179117
0.003565047634765506,0.008838326670229435,-0.0099639268592,0.0012413009535521269,-0.00011730957339750603,0.0038084054831415415
0.0034020154271274805,0.008802804164588451,-0.010005327872931957,0.001395654515363276,-0.00011432941391831264,0.003751812968403101
0.0034041055478155613,0.009102445095777512,-0.009474498219788074,0.0013308103661984205,-0.00011149641068186611,0.003981916233897209
0.0036225421354174614,0.009121480397880077,-0.010477312840521336,0.0012816102243959904,-0.00011949383042519912,0.003969079349189997
0.0034223387483507395,0.009384538047015667,-0.010410583578050137,0.0012591744307428598,-0.00012675576726906002,0.0038614545483142138
0.00340432021766901,0.008788957260549068,-0.009367421269416809,0.0012362924171611667,-0.00012449102359823883,0.003611549036577344
0.0034521662164479494,0.008929671719670296,-0.008656385354697704,0.0012023698072880507,-0.00012172773131169379,0.0034945388324558735
0.0035639936104416847,0.009332232177257538,-0.009341868571937084,0.0013025900116190314,-0.00011904679558938369,0.0032740705646574497
0.0037038433365523815,0.008470049127936363,-0.010108417831361294,0.0012653275625780225,-0.00011647908831946552,0.003429779317229986
0.003721485147252679,0.008749894797801971,-0.00902673788368702,0.0012302674585953355,-0.00011401968367863446,0.003621191717684269
0.0036203493364155293,0.008914506994187832,-0.009924055077135563,0.0013986510457471013,-0.00012081540626240894,0.004127636551856995
0.0035994723439216614,0.008692153729498386,-0.00888162199407816,0.0013337645214051008,-0.00012701540254056454,0.004162251483649015
0.0035798968747258186,0.008587261661887169,-0.009109925478696823,0.0012587887467816472,-0.00012505815539043397,0.003942054696381092
0.003634377848356962,0.009484109468758106,-0.009521367959678173,0.0011271156836301088,-0.00012265995610505342,0.0037954458966851234
0.0037404729519039392,0.008834075182676315,-0.009603614918887615,0.001081189839169383,-0.00012031977530568838,0.0037266139406710863
0.0037404729519039392,0.008834075182676315,-0.009603614918887615,0.001081189839169383,-0.00012031977530568838,0.0037266139406710863
0.003854583716019988,0.0085300263017416,-0.00917432364076376,0.0011331815039739013,-0.0001180651452159509,0.0037761912681162357
0.003965004812926054,0.008547716774046421,-0.009180041961371899,0.0012498571304604411,-0.00011589306814130396,0.003451000899076462
0.00393151119351387,0.008652959018945694,-0.009319069795310497,0.0013380124000832438,-0.00011379969510016963,0.003560242708772421
0.004243046510964632,0.008583602495491505,-0.008970697410404682,0.0013313326053321362,-0.00012668766430579126,0.004094185307621956
0.004052043426781893,0.009229921735823154,-0.009078055620193481,0.0012963511981070042,-0.0001254527596756816,0.004187860060483217
0.003985048737376928,0.009089252911508083,-0.009304764680564404,0.0013489319244399667,-0.00012336671352386475,0.0040211728774011135
0.004128142725676298,0.008859352208673954,-0.00898114312440157,0.0011458086082711816,-0.00011928335152333602,0.0038764432538300753
0.004029786679893732,0.008861673064529896,-0.009684113785624504,0.0010002035414800048,-0.00011733943392755464,0.003903372446075082
0.003904959885403514,0.009016958065330982,-0.009342458099126816,0.0010552376043051481,-0.00011545778397703543,0.0039062038995325565
0.004276728723198175,0.008588822558522224,-0.009867078624665737,0.0010709600755944848,-0.0001136355713242665,0.00391593761742115
0.004144665785133839,0.00868925265967846,-0.009320012293756008,0.0012621129862964153,-0.00013193809718359262,0.004010722041130066
0.004021771252155304,0.00959952175617218,-0.009644427336752415,0.001298821996897459,-0.00014673326222691685,0.00398750277236104
0.004055833909660578,0.008355731144547462,-0.008651431649923325,0.0012872968800365925,-0.00014330771227832884,0.003984750714153051
0.00403578532859683,0.007570721209049225,-0.010120035149157047,0.001622104668058455,-0.00013896345626562834,0.003968309611082077
0.003961209207773209,0.0077277845703065395,-0.00881086103618145,0.001555081456899643,-0.00013480546476785094,0.00406266562640667
0.004337362479418516,0.007878408767282963,-0.008458610624074936,0.0017082791309803724,-0.00013088462583255023,0.0038816623855382204
0.0040952893905341625,0.0073475600220263,-0.009082320146262646,0.0015730179147794843,-0.00012718512152787298,0.003748226212337613
0.004082100931555033,0.007597975432872772,-0.009457753971219063,0.0014716725563630462,-0.0001236891548614949,0.003648886689916253
0.004051347728818655,0.00870796013623476,-0.008873987942934036,0.0013976102927699685,-0.00012037995475111529,0.003740763058885932
0.003812287002801895,0.007989063858985901,-0.008942052721977234,0.0013212080812081695,-0.0001172433840110898,0.00374961132183671
0.003563092090189457,0.00750431464985013,-0.009028593078255653,0.0013678912073373795,-0.00011426623677834868,0.004034222569316626
0.003546033753082156,0.007541901431977749,-0.009033188223838806,0.0014608276542276144,-0.00013223158020991832,0.004064345266669989
0.003736174665391445,0.007791453041136265,-0.009265615604817867,0.0014192446833476424,-0.0001303946046391502,0.003940001595765352
0.0044816844165325165,0.007516611833125353,-0.009569242596626282,0.0015777520602568984,-0.0001274067908525467,0.003756251186132431
0.0044816844165325165,0.007516611833125353,-0.009569242596626282,0.0015777520602568984,-0.0001274067908525467,0.003756251186132431
0.004569704644382,0.007354933302849531,-0.00921567715704441,0.0016416473081335425,-0.00012447548215277493,0.003651257837191224
0.004315034486353397,0.007567399647086859,-0.008618737570941448,0.0015684233512729406,-0.00012167112436145544,0.0036620376631617546
0.004350606352090836,0.00781581737101078,-0.009762240573763847,0.0016842030454427004,-0.00011898997763637453,0.003678704844787717
0.0043045454658567905,0.0076408893801271915,-0.0091305673122406,0.001559590920805931,-0.00011642441677395254,0.0035661051515489817
0.004098915960639715,0.007419163826853037,-0.009404716081917286,0.0015940529992803931,-0.00011396728950785473,0.003512714756652713
0.003998395521193743,0.007518284022808075,-0.009216235019266605,0.0015871034702286124,-0.00011161166185047477,0.003912433981895447
0.004338225349783897,0.008282165043056011,-0.009704637341201305,0.0014829796273261309,-0.00010935147292912006,0.004162620287388563
0.004451444838196039,0.007694334257394075,-0.009102572686970234,0.0015139325987547636,-0.00010718092380557209,0.003934804350137711
0.004079099744558334,0.00708954269066453,-0.009530048817396164,0.0014576115645468235,-0.00010509501589694992,0.003684036200866103
0.004289806354790926,0.006889706943184137,-0.009405701421201229,0.0014773034490644932,-0.00010308860510122031,0.0037316223606467247
0.004266698379069567,0.007896427996456623,-0.008970687165856361,0.0015638695331290364,-0.00010115738405147567,0.004271200392395258
0.004437029827386141,0.007792636752128601,-0.009144541807472706,0.0018324846168980002,-9.929735824698582e-05,0.004579033702611923
0.004990601446479559,0.007362136617302895,-0.00890803337097168,0.001930607482790947,-9.57750016823411e-05,0.004360993858426809
0.0050111934542655945,0.008884814567863941,-0.008975226432085037,0.001771476585417986,-9.410580969415605e-05,0.004220692906528711
0.004839816130697727,0.00806976854801178,-0.009497761726379395,0.0016079744091257453,-9.249398135580122e-05,0.004073224496096373
0.004549186211079359,0.0075312345288693905,-0.009091180749237537,0.0015244758687913418,-9.093643166124821e-05,0.00401327246800065
0.004387397784739733,0.0076210517436265945,-0.008859301917254925,0.0015140733448788524,-0.00010049483535112813,0.004327706061303616
0.004436220042407513,0.008105486631393433,-0.009311805479228497,0.001476687379181385,-0.00010238496906822547,0.004429790657013655
0.004956687334924936,0.007929018698632717,-0.00893621426075697,0.0016176060307770967,-0.0001009741026791744,0.004579081200063229
0.004676229786127806,0.008220404386520386,-0.008940180763602257,0.0016988005954772234,-9.93958892649971e-05,0.004800185561180115
0.004588091280311346,0.008727449923753738,-0.009751114062964916,0.0016290179919451475,-9.785321162780747e-05,0.004585487302392721
0.004909055773168802,0.008112289942800999,-0.009434575214982033,0.001580194104462862,-9.635656897444278e-05,0.0045595839619636536
0.004940278362482786,0.0080080796033144,-0.008963072672486305,0.0014435542980208993,-9.490501543041319e-05,0.004847455304116011
0.0047288378700613976,0.007852604612708092,-0.009371048770844936,0.0014443484833464026,-9.349652100354433e-05,0.004536577500402927
0.0046760146506130695,0.008776097558438778,-0.009748437441885471,0.001412746380083263,-9.212933946400881e-05,0.004389711655676365
0.005132518708705902,0.008606248535215855,-0.009564009495079517,0.0015267712296918035,-9.080149902729318e-05,0.00432211859151721
0.004903384018689394,0.008067998103797436,-0.009851277805864811,0.0015365773579105735,-8.951136987889186e-05,0.00412345863878727
0.004903384018689394,0.008067998103797436,-0.009851277805864811,0.0015365773579105735,-8.951136987889186e-05,0.00412345863878727
0.005433433223515749,0.007925013080239296,-0.009711083024740219,0.0014982892898842692,-8.825739496387541e-05,0.0038774507120251656
0.0052115279249846935,0.008347691968083382,-0.009734435006976128,0.001577464397996664,-8.703808998689055e-05,0.004122646059840918
0.004730692133307457,0.007803366985172033,-0.01000965666025877,0.0014951981138437986,-8.58520288602449e-05,0.004529052414000034
0.004901006817817688,0.008035018108785152,-0.010157682001590729,0.0013528837589547038,-8.469781460007653e-05,0.004278948530554771
0.005446854047477245,0.008353210054337978,-0.009897527284920216,0.0014239148003980517,-8.357422484550625e-05,0.003963346127420664
0.004844393581151962,0.00820737425237894,-0.009990956634283066,0.0013576365308836102,-8.248012454714626e-05,0.004304878413677216
0.004916301462799311,0.008286151103675365,-0.009748042561113834,0.0014700868632644415,-8.141421858454123e-05,0.004476987291127443
0.005291932728141546,0.009053654968738556,-0.009878996759653091,0.001394973834976554,-8.03755538072437e-05,0.004367910325527191
0.004971146583557129,0.008563683368265629,-0.010663128457963467,0.0014375884784385562,-7.936306792544201e-05,0.0044086528941988945
0.0054449839517474174,0.008253460749983788,-0.009767101146280766,0.0014637866988778114,-7.741266017546877e-05,0.004272813443094492
0.0054449839517474174,0.008253460749983788,-0.009767101146280766,0.0014637866988778114,-7.741266017546877e-05,0.004272813443094492
0.005600863602012396,0.008046056143939495,-0.010058075189590454,0.0014903020346537232,-7.555757474619895e-05,0.0046586086973547935
0.005079382564872503,0.00803815945982933,-0.009661003947257996,0.0014035184867680073,-7.46605874155648e-05,0.0047622439451515675
0.004976452793926001,0.008471977896988392,-0.010014122352004051,0.0013938233023509383,-7.378736336249858e-05,0.004636168479919434
0.005373374558985233,0.008549056947231293,-0.009829360991716385,0.0013775383122265339,-7.293198723345995e-05,0.00470372661948204
0.00541847525164485,0.008132931776344776,-0.009409289807081223,0.0014606271870434284,-7.209726754808798e-05,0.004807975143194199
0.005570036359131336,0.007971127517521381,-0.009745937772095203,0.001631093444302678,-8.079349936451763e-05,0.0045653278939425945
0.005224415101110935,0.008508863858878613,-0.009337810799479485,0.0017367241671308875,-8.050978794926777e-05,0.004463399760425091
0.005609470419585705,0.008553972467780113,-0.00933274906128645,0.0018765461863949895,-7.966043631313369e-05,0.004962054081261158
0.00528420927003026,0.007772507146000862,-0.010083569213747978,0.0018514125840738416,-1.0261438546876889e-05,0.005412127822637558
0.00559178926050663,0.007724099792540073,-0.009093692526221275,0.0018987063085660338,-6.69998712510278e-07,0.004418174736201763
0.005342806223779917,0.007843042723834515,-0.009594811126589775,0.0018514166586101055,-4.374612672108924e-08,0.003935791552066803
0.005515756085515022,0.008039499633014202,-0.009898385964334011,0.002058627549558878,-2.856309411214397e-09,0.0042899358086287975
0.0051810117438435555,0.008007011376321316,-0.009485487826168537,0.0022316868416965008,-1.8649659594416335e-10,0.004561020061373711
0.005372869316488504,0.007636333350092173,-0.009205367416143417,0.0021804249845445156,-1.2176895776427887e-11,0.0048860665410757065
0.00575821939855814,0.008204485289752483,-0.010046014562249184,0.002082596533000469,-7.950642097812044e-13,0.005165707785636187
0.006052078679203987,0.008409876376390457,-0.009642115794122219,0.0020126705057919025,-5.191201337068421e-14,0.004682810045778751
0.005740014836192131,0.00801467802375555,-0.009291479364037514,0.0018997832667082548,-3.3894832300845456e-15,0.00461930176243186
0.005740014836192131,0.00801467802375555,-0.009291479364037514,0.0018997832667082548,-3.3894832300845456e-15,0.00461930176243186
0.005282246042042971,0.008075506426393986,-0.009956727735698223,0.001937089255079627,-1.4449899006680633e-17,0.00508109200745821
0.005282246042042971,0.008075506426393986,-0.009956727735698223,0.001937089255079627,-1.4449899006680633e-17,0.00508109200745821
0.005492826923727989,0.008061690255999565,-0.009340723976492882,0.001922205789014697,-9.434751756427767e-19,0.005075209308415651
0.005754221696406603,0.007513450924307108,-0.009849742986261845,0.0019577264320105314,-6.160218231896121e-20,0.005212125368416309
0.006078183185309172,0.008305354043841362,-0.009805831126868725,0.0019336608238518238,-4.022182692204003e-21,0.0048928530886769295
0.005396194290369749,0.00782147329300642,-0.009595542214810848,0.0019100342178717256,-2.6261977230954842e-22,0.004879812244325876
0.005330578424036503,0.007457899395376444,-0.009987150318920612,0.001936747576110065,-5.5032589443726465e-05,0.005310320761054754
0.005624954588711262,0.008035930804908276,-0.009465989656746387,0.0021215886808931828,-5.73315228393767e-05,0.005190153140574694
0.005696007516235113,0.007466868497431278,-0.009884108789265156,0.0018210147973150015,-5.6108288845280185e-05,0.00529747549444437
0.005869433283805847,0.007759953383356333,-0.009764286689460278,0.0018262102967128158,-5.541818245546892e-05,0.005266993306577206
0.005717577878385782,0.007707247044891119,-0.009428003802895546,0.002135962713509798,-5.4744043154641986e-05,0.005537521094083786
0.005717363674193621,0.008160291239619255,-0.009694870561361313,0.0019942033104598522,-5.408606375567615e-05,0.005318173207342625
0.005829274654388428,0.008143264800310135,-0.009477123618125916,0.002121616154909134,-5.344373494153842e-05,0.00518040033057332
0.006171816494315863,0.008256027474999428,-0.009978514164686203,0.00227071694098413,-5.281652192934416e-05,0.005339623894542456
0.006221882998943329,0.00800370890647173,-0.01003316044807434,0.002325758570805192,-5.220380990067497e-05,0.005483057349920273
0.0057971361093223095,0.008134699426591396,-0.009455299004912376,0.0024437524843961,-5.1605122280307114e-05,0.0052157677710056305
0.005605822894722223,0.007991592399775982,-0.008993078954517841,0.002200137125328183,-5.1020062528550625e-05,0.005207412410527468
0.005921620409935713,0.007555070333182812,-0.009550079703330994,0.002168115461245179,-5.04480667586904e-05,0.00543935177847743
0.006208093371242285,0.007686217315495014,-0.00981923658400774,0.002010105177760124,-4.988882938050665e-05,0.005274496506899595
0.005992524325847626,0.008290128782391548,-0.009533554315567017,0.0023057584185153246,-6.426252184610348e-06,0.005539007484912872
0.005601427983492613,0.007644187193363905,-0.00996230635792017,0.002467966405674815,-4.195883320790017e-07,0.005256842356175184
0.006077225785702467,0.008049818687140942,-0.009649118408560753,0.002418660558760166,-2.7396120927392076e-08,0.0048243398778140545
0.00596948666498065,0.0080801323056221,-0.009322874248027802,0.0023052948527038097,-1.788771131217004e-09,0.004804159048944712
0.005882262717932463,0.007930371910333633,-0.009625197388231754,0.0021761166863143444,-1.1679396338948322e-10,0.005143094342201948
0.005882262717932463,0.007930371910333633,-0.009625197388231754,0.0021761166863143444,-1.1679396338948322e-10,0.005143094342201948
0.005948112811893225,0.007826190441846848,-0.009861286729574203,0.002105369698256254,-7.625810573286262e-12,0.005598704796284437
0.005803238600492477,0.007550059352070093,-0.009345491416752338,0.0019702392164617777,-4.979109572561535e-13,0.00574954180046916
0.005980291403830051,0.008109798654913902,-0.009356934577226639,0.002123706042766571,-3.2510029146807715e-14,0.005624792538583279
0.006605849601328373,0.008154742419719696,-0.00956887286156416,0.0022388522047549486,-2.1226728243905124e-15,0.005201658234000206
0.0062989480793476105,0.0077749271877110004,-0.009329849854111671,0.0021750745363533497,-1.3859536894779087e-16,0.004984360653907061
0.0061876471154391766,0.0077821905724704266,-0.010054240934550762,0.0022983113303780556,-9.049287245339281e-18,0.00513130147010088
0.006242602597922087,0.007840005680918694,-0.00970181543380022,0.0021217535249888897,-5.908537673781323e-19,0.005425517912954092
0.0059565091505646706,0.007797067519277334,-0.009297283366322517,0.0021816855296492577,-3.857853408438827e-20,0.00563144451007247
0.006656247656792402,0.0077081890776753426,-0.00937674380838871,0.002321892650797963,-2.518902492078742e-21,0.005234804004430771
0.006446587387472391,0.00782952830195427,-0.009743766859173775,0.002349011367186904,-1.6446632846816303e-22,0.004998934920877218
0.006248177960515022,0.008254848420619965,-0.009543175809085369,0.0025543924421072006,-1.0738475568543228e-23,0.005717139225453138
0.006741509772837162,0.0075350007973611355,-0.00963432714343071,0.0025441893376410007,-4.5779804675319605e-26,0.0060992310754954815
0.006741509772837162,0.0075350007973611355,-0.00963432714343071,0.0025441893376410007,-4.5779804675319605e-26,0.0060992310754954815
0.0062591759487986565,0.007502580527216196,-0.010081859305500984,0.0023455601185560226,-1.2742977166981677e-29,0.005711960140615702
0.0062591759487986565,0.007502580527216196,-0.010081859305500984,0.0023455601185560226,-1.2742977166981677e-29,0.005711960140615702
0.006594271399080753,0.007483046967536211,-0.009195941500365734,0.002334820106625557,-8.320253399018504e-31,0.005795633420348167
0.006819199305027723,0.008144065737724304,-0.009606260806322098,0.002555041341111064,-5.432531273151466e-32,0.006108978763222694
0.007429198361933231,0.008433892391622066,-0.009846644476056099,0.00258758757263422,-3.547054570948237e-33,0.005767552647739649
0.006772538181394339,0.00797337107360363,-0.009211666882038116,0.002967426786199212,-2.315972974903235e-34,0.005786043591797352
0.006525615230202675,0.007791406009346247,-0.008954920805990696,0.0030123437754809856,-1.5121648581600735e-35,0.0055566029623150826
0.006885353941470385,0.008250323124229908,-0.009916997514665127,0.002688442124053836,-9.87335616096397e-37,0.0053570023737847805
0.006871086545288563,0.007815567776560783,-0.00963675044476986,0.002663674531504512,-6.44659623345109e-38,0.005599268712103367
0.007163190748542547,0.007437049876898527,-0.009069985710084438,0.0027482190635055304,-4.209167077797241e-39,0.006080993451178074
0.006861980073153973,0.007918297313153744,-0.009699561633169651,0.002843473106622696,-2.7482826001724042e-40,0.005752564873546362
0.006650357507169247,0.007955729030072689,-0.009813392534852028,0.0027980804443359375,-1.7945028134143607e-41,0.005917184520512819
0.006942874286323786,0.007469105068594217,-0.0090068019926548,0.002886606380343437,-6.332121120067313e-05,0.006144347600638866
0.007337711751461029,0.00730740325525403,-0.009782567620277405,0.0028908937238156796,-9.433415834791958e-05,0.006099327001720667
0.0072402055375278,0.0076265581883490086,-0.00960097648203373,0.0028880436439067125,-9.446532203583047e-05,0.006331813056021929
0.006988800596445799,0.00763015216216445,-0.009288857690989971,0.002841012319549918,-9.265813423553482e-05,0.006289772689342499
0.006836065091192722,0.008227435871958733,-0.010119917802512646,0.0029678004793822765,-9.079748997464776e-05,0.0060637774877250195
0.006956446450203657,0.007908844389021397,-0.01035599410533905,0.0029475667979568243,-8.900227840058506e-05,0.006217744201421738
0.007173664402216673,0.0077415951527655125,-0.00915575586259365,0.002909210743382573,-8.727607200853527e-05,0.0064069656655192375
0.007147537544369698,0.007497082464396954,-0.009824635460972786,0.002725429367274046,-8.561552385799587e-05,0.006137669086456299
0.007147537544369698,0.007497082464396954,-0.009824635460972786,0.002725429367274046,-8.561552385799587e-05,0.006137669086456299
0.007469214033335447,0.008020834065973759,-0.010678828693926334,0.0027478940319269896,-8.401713421335444e-05,0.0061744628474116325
0.007357588969171047,0.007192587945610285,-0.009582504630088806,0.0027733598835766315,-8.247722871601582e-05,0.006086696404963732
0.007311648689210415,0.007960190996527672,-0.00982070341706276,0.002803526818752289,-8.099268598016351e-05,0.006174488924443722
0.007319031283259392,0.007903508841991425,-0.009577851742506027,0.002722212579101324,-7.956075569381937e-05,0.006766404025256634
0.007584164850413799,0.006960160098969936,-0.009408031590282917,0.0030331569723784924,-7.81785201979801e-05,0.006866988725960255
0.007407784461975098,0.0073248413391411304,-0.010453585535287857,0.003403972601518035,-7.68434620113112e-05,0.00625226367264986
0.007227615918964148,0.008253823034465313,-0.010108686983585358,0.003290212946012616,-7.55534420022741e-05,0.005981058347970247
0.007628435734659433,0.00731215626001358,-0.009961473755538464,0.002836519153788686,-7.309877400984988e-05,0.006265365052968264
0.007224165368825197,0.006556956563144922,-0.010183282196521759,0.0029180580750107765,-7.193033525254577e-05,0.006185931619256735
0.007225148845463991,0.007230550982058048,-0.009770086035132408,0.003304039593786001,-7.079861825332046e-05,0.006512866355478764
0.007051579654216766,0.007461644243448973,-0.010251045227050781,0.0032393692526966333,-6.970195681788027e-05,0.006633426062762737
0.007419796660542488,0.006748663727194071,-0.00983315147459507,0.0031049740500748158,-6.863884482299909e-05,0.006738037336617708
0.007718913722783327,0.006870693527162075,-0.01026123110204935,0.0033105553593486547,-6.760764517821372e-05,0.006447251886129379
0.007294791750609875,0.007115229498594999,-0.010214143432676792,0.003095208900049329,-6.660690996795893e-05,0.006464238278567791
0.007046932820230722,0.0073622907511889935,-0.01033387053757906,0.003337215632200241,-6.563545321114361e-05,0.006622487213462591
0.007982703857123852,0.0073926071636378765,-0.010110904462635517,0.0036005459260195494,-6.469184882007539e-05,0.006595363840460777
0.00821318943053484,0.007040197961032391,-0.010627773590385914,0.0034634198527783155,-6.377501267706975e-05,0.006769202649593353
0.007576250936836004,0.006699727848172188,-0.010432758368551731,0.003144195070490241,-6.288386066444218e-05,0.006574468221515417
0.0073350234888494015,0.008047127164900303,-0.010881454683840275,0.003004682483151555,-6.201720680110157e-05,0.0067796953953802586
0.008624669164419174,0.0071234069764614105,-0.010440951213240623,0.002866387367248535,-7.259905396495014e-05,0.007567340973764658
0.007954132743179798,0.007020278368145227,-0.01076123770326376,0.00295436754822731,-7.237157842610031e-05,0.006792469881474972
0.007493648212403059,0.007174182683229446,-0.01057987380772829,0.003108405275270343,-7.146245479816571e-05,0.006275207735598087
0.00804680772125721,0.007417498622089624,-0.010464569553732872,0.0030639925971627235,-7.053220906527713e-05,0.006472277920693159
0.008297087624669075,0.0070340596139431,-0.009659536182880402,0.0029094365891069174,-6.962309271330014e-05,0.007037767209112644
0.008253723382949829,0.006662389263510704,-0.010425438173115253,0.0029157574754208326,-6.873695383546874e-05,0.0075438302010297775
0.007679287809878588,0.006423729471862316,-0.010377749800682068,0.0029679518193006516,-6.787293386878446e-05,0.007233279757201672
0.008297563530504704,0.007258071098476648,-0.009798561222851276,0.0031177797354757786,-6.703046528855339e-05,0.007066391408443451
0.008297563530504704,0.007258071098476648,-0.009798561222851276,0.0031177797354757786,-6.703046528855339e-05,0.007066391408443451
0.008680238388478756,0.006579357665032148,-0.010570485144853592,0.0032276080455631018,-6.62086094962433e-05,0.006897820625454187
0.007998591288924217,0.0064399950206279755,-0.009953124448657036,0.0034325863234698772,-6.540666799992323e-05,0.006914128083735704
0.007965445518493652,0.006792891770601273,-0.009884334169328213,0.0036049431655555964,-6.462394958361983e-05,0.007529929280281067
0.008291276171803474,0.006745996885001659,-0.009429674595594406,0.0032846431713551283,-6.385971937561408e-05,0.0074795749969780445
0.008116518147289753,0.00735608022660017,-0.010216725058853626,0.0033842953853309155,-6.311335891950876e-05,0.007182216737419367
0.007792194373905659,0.0065904296934604645,-0.010539517737925053,0.003161251312121749,-6.23842715867795e-05,0.006796772126108408
0.008227521553635597,0.006702336482703686,-0.009501319378614426,0.003634199034422636,-6.097542427596636e-05,0.007304759230464697
0.008416675962507725,0.007243129890412092,-0.01077546551823616,0.0036290748976171017,-6.0294580180197954e-05,0.007105780299752951
0.007935639470815659,0.007513107731938362,-0.010298249311745167,0.0035912049934267998,-5.9628822782542557e-05,0.006987362634390593
0.00862517487257719,0.006957413163036108,-0.00965269934386015,0.0035277358256280422,-3.893336270266445e-06,0.007237134966999292
0.00859327707439661,0.006551598664373159,-0.01029912568628788,0.0033770864829421043,-2.5420703764211794e-07,0.007386717479676008
0.008577970787882805,0.006921776570379734,-0.010437692515552044,0.0031377000268548727,-1.6597903496062827e-08,0.00772684533149004
0.008087867870926857,0.007044120691716671,-0.009764938615262508,0.0030418303795158863,-1.0837244435180082e-09,0.00738746952265501
0.008376370184123516,0.006566524971276522,-0.010757564567029476,0.0033182064071297646,-7.075945385182081e-11,0.007131971884518862
0.008785623125731945,0.006837830878794193,-0.010237867012619972,0.00362770794890821,-4.620086865164685e-12,0.007236226927489042
0.008585769683122635,0.006816691253334284,-0.009868464432656765,0.0037255592178553343,-3.016586817578687e-13,0.007322967518121004
0.008779034949839115,0.006622628308832645,-0.010600963607430458,0.0037277303636074066,-1.9696157072392022e-14,0.007365829776972532
0.008984922431409359,0.00646017724648118,-0.010578403249382973,0.0032693371176719666,-1.2860183600806822e-15,0.007513042539358139
0.008538458496332169,0.006384311243891716,-0.009901076555252075,0.003183745313435793,-8.396781204686218e-17,0.007442191243171692
0.008228262886404991,0.006556391716003418,-0.010760730132460594,0.0031546023674309254,-5.482498506081039e-18,0.007622341625392437
0.008685650303959846,0.007228028494864702,-0.010049463249742985,0.003243210958316922,-3.5796794185266917e-19,0.007256764452904463
0.008705182000994682,0.006684810388833284,-0.00989446323364973,0.003626338904723525,-2.3372747533638726e-20,0.007225707173347473
0.008144698105752468,0.006182773504406214,-0.010398159734904766,0.003917576279491186,-1.5260734082811977e-21,0.007263478823006153
0.008144698105752468,0.006182773504406214,-0.010398159734904766,0.003917576279491186,-1.5260734082811977e-21,0.007263478823006153
0.008556935004889965,0.006635840982198715,-0.01079673320055008,0.003747712355107069,-9.964169620340087e-23,0.00781800877302885
0.008928871713578701,0.00743879284709692,-0.01037872675806284,0.003497977741062641,-6.50589089652556e-24,0.007514629513025284
0.008266957476735115,0.007136463653296232,-0.010687394067645073,0.003575284266844392,-4.247881868261261e-25,0.00792880542576313
0.008467289619147778,0.006687203422188759,-0.00976291112601757,0.0036956635303795338,-6.124889478087425e-05,0.00772369047626853
0.008858270943164825,0.006578977685421705,-0.010248200967907906,0.0037386745680123568,-6.941521860426292e-05,0.0075116828083992004
0.008854548446834087,0.006653595250099897,-0.010565248318016529,0.0037671776954084635,-6.89465960022062e-05,0.007493454497307539
0.008534904569387436,0.006999274715781212,-0.010064437054097652,0.003767188172787428,-6.794450746383518e-05,0.008150658570230007
0.008797743357717991,0.0065626827999949455,-0.010833422653377056,0.0038103435654193163,-6.693636532872915e-05,0.008172732777893543
0.009213250130414963,0.00620077271014452,-0.010718310251832008,0.004285809583961964,-7.742366869933903e-05,0.008035155944526196
0.008715875446796417,0.006270833313465118,-0.010075406171381474,0.004185767844319344,-7.789084338583052e-05,0.008179905824363232
0.009257110767066479,0.006639618892222643,-0.010452407412230968,0.004012014716863632,-8.203817560570315e-05,0.008509187027812004
0.009048504754900932,0.0062455469742417336,-0.010153220035135746,0.003955808002501726,-8.680544124217704e-05,0.00797859113663435
0.009381712414324284,0.0061207725666463375,-0.010659667663276196,0.004343369044363499,-8.600563160143793e-05,0.007729764562100172
0.009568050503730774,0.006606949493288994,-0.010505654849112034,0.004288238473236561,-8.487208106089383e-05,0.007948956452310085
0.00892743468284607,0.006810180842876434,-0.010116626508533955,0.004204784985631704,-8.964123844634742e-05,0.007987485267221928
0.009239153005182743,0.006327889394015074,-0.01075847540050745,0.004041900858283043,-9.405754099134356e-05,0.008366016671061516
0.009635892696678638,0.006273119710385799,-0.010020008310675621,0.004312331788241863,-9.320487879449502e-05,0.00862369779497385
0.009047322906553745,0.0067419735714793205,-0.010626866482198238,0.004104300867766142,-0.00018911284860223532,0.00825469195842743
0.009107155725359917,0.006890460848808289,-0.010794159956276417,0.003944132011383772,-0.00026832649018615484,0.008188924752175808
0.009740245528519154,0.007416603621095419,-0.010283580981194973,0.0038524202536791563,-0.0002588127099443227,0.008049915544688702
0.009294955059885979,0.006571886595338583,-0.010651725344359875,0.004278694279491901,-0.0002689939574338496,0.00856164563447237
0.009204520843923092,0.006207408383488655,-0.01066225953400135,0.004128652159124613,-0.00027730880538001657,0.008154971525073051
0.009862984530627728,0.006214069202542305,-0.010520871728658676,0.004274844657629728,-0.0002651374088600278,0.008084877394139767
0.009553568437695503,0.006754335947334766,-0.01078746560961008,0.004299768712371588,-0.00025281624402850866,0.00836220197379589
0.009713937528431416,0.0068732923828065395,-0.010911376215517521,0.0041070543229579926,-0.00027901268913410604,0.008823798038065434
0.00968001876026392,0.006492553278803825,-0.011438964866101742,0.003905214834958315,-0.0002695198345463723,0.008628198876976967
0.009455196559429169,0.0066479165107011795,-0.011181446723639965,0.004170461557805538,-0.00029063562396913767,0.008550393395125866
0.009151246398687363,0.006876850035041571,-0.01105515006929636,0.004083101637661457,-0.00028359281714074314,0.00878162682056427
0.009512970224022865,0.006863071583211422,-0.010606971569359303,0.004272886551916599,-0.00027312105521559715,0.008344973437488079
0.009818158112466335,0.006644193083047867,-0.010563330724835396,0.004515212960541248,-0.00034406440681777894,0.008488050661981106
0.009372980333864689,0.006360921543091536,-0.010375496000051498,0.004394616931676865,-0.00034438143484294415,0.009142632596194744
0.009600868448615074,0.006503500510007143,-0.011398687958717346,0.004506836645305157,-0.00035272361128591,0.009495553560554981
0.009648519568145275,0.006544278468936682,-0.010490195825695992,0.004160661716014147,-0.00035803779610432684,0.00840739905834198
0.009648519568145275,0.006544278468936682,-0.010490195825695992,0.004160661716014147,-0.00035803779610432684,0.00840739905834198
0.009337037801742554,0.006711662281304598,-0.010710895992815495,0.0039759911596775055,-0.0003375307423993945,0.00844046100974083
0.009914507158100605,0.0065973359160125256,-0.011539962142705917,0.004315294325351715,-0.00031778248376213014,0.008841975592076778
0.010558056645095348,0.006459943018853664,-0.010482932440936565,0.004952291026711464,-0.0003001209697686136,0.009277177974581718
0.009369153529405594,0.00612470181658864,-0.010920913890004158,0.005056198686361313,-0.00032843236112967134,0.008807333186268806
0.010272274725139141,0.00666716368868947,-0.010592970065772533,0.004364835098385811,-0.00030007478198967874,0.009167947806417942
0.00972734484821558,0.006370715796947479,-0.01117949653416872,0.004855419043451548,-0.0003218873462174088,0.00946852844208479
0.010419431142508984,0.006215412635356188,-0.01106301136314869,0.004978206008672714,-0.0003127644886262715,0.009694480337202549
0.010021818801760674,0.006456068251281977,-0.010499176569283009,0.00486646918579936,-0.0003430278738960624,0.009661435149610043
0.009703812189400196,0.006871819496154785,-0.011015334166586399,0.004767514765262604,-0.00033260780037380755,0.009658385068178177
0.010855426080524921,0.006875957362353802,-0.010657425038516521,0.004699096083641052,-0.0003563079808373004,0.009781530126929283
0.010005450807511806,0.006181159056723118,-0.011159100569784641,0.004665600601583719,-0.0003476572164800018,0.009561890736222267
0.009725905954837799,0.006268681958317757,-0.01114455796778202,0.004705633968114853,-0.0003275008057244122,0.009440166875720024
0.010108270682394505,0.0066385893151164055,-0.010431051254272461,0.0045568374916911125,-0.00035334695712663233,0.009742495603859425
0.010022575035691261,0.006347563583403826,-0.011602363549172878,0.0048490650951862335,-0.0003403478185646236,0.009677654132246971
0.0103691341355443,0.0063820770010352135,-0.010981567203998566,0.00476338854059577,-0.00032327594817616045,0.009608527645468712
0.010091850534081459,0.006094501819461584,-0.010969145223498344,0.0050360471941530704,-0.00034555705497041345,0.009526747278869152
0.009839187376201153,0.006601881235837936,-0.011235586367547512,0.005162674468010664,-0.0003347038582433015,0.009848318062722683
0.009933567605912685,0.006761003285646439,-0.01159551739692688,0.004943183157593012,-0.0003215464821550995,0.009694444946944714
0.010412980802357197,0.006248248275369406,-0.012437702156603336,0.004985395818948746,-0.00038892688462510705,0.009391975589096546
0.00978683028370142,0.006429003085941076,-0.011177991516888142,0.004861393943428993,-0.00036372023168951273,0.009479762054979801
0.00978683028370142,0.006429003085941076,-0.011177991516888142,0.004861393943428993,-0.00036372023168951273,0.009479762054979801
0.010086027905344963,0.006395639851689339,-0.011258016340434551,0.005110648460686207,-0.0003368802135810256,0.010077142156660557
0.01089711207896471,0.0063623227179050446,-0.011906269937753677,0.005583760794252157,-0.00031342508736997843,0.010374653153121471
0.010092245414853096,0.0063379863277077675,-0.011389045044779778,0.005236487369984388,-0.00033612866536714137,0.009900114499032497
0.01019957847893238,0.006610372103750706,-0.012369899079203606,0.00490019703283906,-0.00032909141737036407,0.00954513717442751
0.010354374535381794,0.006610821466892958,-0.011473898775875568,0.0048464564606547356,-0.00031101208878681064,0.009801281616091728
0.009904371574521065,0.005973033607006073,-0.011576960794627666,0.0043521448969841,-0.00029412368894554675,0.009906750172376633
0.01065382082015276,0.006323115434497595,-0.011987696401774883,0.004397876560688019,-0.0002789290447253734,0.010477455332875252
0.011027190834283829,0.006552867591381073,-0.011653203517198563,0.00549639668315649,-0.00028680198010988533,0.010772536508738995
0.010301186703145504,0.006286263465881348,-0.012069704942405224,0.005486795213073492,-0.0002934610820375383,0.010016330517828465
0.010781553573906422,0.00612253462895751,-0.01161542721092701,0.004964124411344528,-0.00028164894320070744,0.009725361131131649
0.010360426269471645,0.006983653176575899,-0.011968492530286312,0.005178436171263456,-0.00029303759220056236,0.010541383177042007
0.010578482411801815,0.006442884914577007,-0.011786815710365772,0.0053088972344994545,-0.0002837329520843923,0.009658606722950935
0.010328801348805428,0.006510003004223108,-0.012488937936723232,0.005038307048380375,-0.00027311546728014946,0.009780346415936947
0.01017051376402378,0.0067176795564591885,-0.011989085003733635,0.004788678605109453,-0.0002631419338285923,0.010322929359972477
0.010609583929181099,0.0072848377749323845,-0.012450466863811016,0.00479944096878171,-0.0002538632834330201,0.010026865638792515
0.010088259354233742,0.006956678815186024,-0.012014013715088367,0.005297943018376827,-0.0002452158951200545,0.00979129783809185
0.010684848763048649,0.006506376434117556,-0.011417391709983349,0.005532766226679087,-0.0002376684860792011,0.009429513476788998
0.010800785385072231,0.0063513764180243015,-0.012339110486209393,0.005586758255958557,-0.0002157237468054518,0.009524613618850708
0.012234603986144066,0.006872088182717562,-0.012011990882456303,0.005172820296138525,-0.00020519396639429033,0.010111981071531773
0.012989021837711334,0.007112439256161451,-0.012469599954783916,0.004830307327210903,-0.00019619971862994134,0.010120582766830921
0.012512380257248878,0.006297841668128967,-0.01185881532728672,0.004813268780708313,-0.00018799799727275968,0.010806878097355366
0.012126742862164974,0.006451593711972237,-0.011714229360222816,0.0048839920200407505,-0.00018045732576865703,0.010280715301632881
0.012250110507011414,0.006766597740352154,-0.012213683687150478,0.005720414686948061,-0.00020584231242537498,0.009930470027029514
0.012227275408804417,0.007136236876249313,-0.011804415844380856,0.005859952885657549,-0.0002003139816224575,0.010426575317978859
0.012471581809222698,0.0068773915991187096,-0.012186482548713684,0.005588890518993139,-0.00022331510263029486,0.010558274574577808
0.01270949374884367,0.006229139864444733,-0.012577395886182785,0.005460154265165329,-0.0002175693807657808,0.010546027682721615
0.012853983789682388,0.0064284587278962135,-0.011938836425542831,0.00566523615270853,-0.00021043032757006586,0.011751850135624409
0.012853983789682388,0.0064284587278962135,-0.011938836425542831,0.00566523615270853,-0.00021043032757006586,0.011751850135624409
0.012589394114911556,0.006787249352782965,-0.011009871028363705,0.0057260640896856785,-0.00020363611110951751,0.010106435045599937
0.012798153795301914,0.0069650923833251,-0.010798316448926926,0.006175667978823185,-0.00019725962192751467,0.009094597771763802
0.012871944345533848,0.00665739132091403,-0.011379117146134377,0.006287498865276575,-0.00021675518655683845,0.010508984327316284
0.013125714845955372,0.006226913072168827,-0.01260387897491455,0.005622755270451307,-0.00021203316282480955,0.01127290166914463
0.012838062830269337,0.006629548966884613,-0.012130552902817726,0.005095378030091524,-0.00020607272745110095,0.010541119612753391
0.012679392471909523,0.007174795959144831,-0.011736102402210236,0.005516219884157181,-0.0002003449626499787,0.010815995745360851
0.01279262825846672,0.006504474673420191,-0.011324810795485973,0.006551126949489117,-0.0001949212746694684,0.010505120269954205
0.01302740816026926,0.006224543787539005,-0.01201835460960865,0.006610740441828966,-0.00018978319712914526,0.010715010575950146
0.01292024739086628,0.00660012848675251,-0.011496507562696934,0.005941205658018589,-0.00018490894581191242,0.010749583132565022
0.012821308337152004,0.00681157223880291,-0.011709542945027351,0.005377954803407192,-0.0001802787446649745,0.010638236999511719
0.013166254386305809,0.0068795024417340755,-0.01210656575858593,0.005384134594351053,-0.0001758748257998377,0.010503362864255905
0.012112362310290337,0.006092424504458904,-0.011334102600812912,0.005849070847034454,-0.00017199967987835407,0.010639038868248463
0.01317925751209259,0.006524767726659775,-0.011636615730822086,0.006050682161003351,-0.0001883348886622116,0.01082092896103859
0.012571068480610847,0.006827525794506073,-0.012071576900780201,0.005665740929543972,-0.00018089148215949535,0.010732840746641159
0.012711969204246998,0.006352159660309553,-0.01194063387811184,0.005974014289677143,-0.0001739075087243691,0.01084316149353981
0.012994339689612389,0.0062200515531003475,-0.011479394510388374,0.006613914389163256,-0.00016743622836656868,0.011101487092673779
0.013317917473614216,0.00651464331895113,-0.012093770317733288,0.006609601434320211,-0.00016142863023560494,0.011309185065329075
0.012899261899292469,0.0061799283139407635,-0.011691532097756863,0.006153860129415989,-0.00015583763888571411,0.01137959212064743
0.013071933761239052,0.006540790665894747,-0.012475389987230301,0.005849710665643215,-0.00015062080638017505,0.011218266561627388
0.013093697838485241,0.006299642845988274,-0.012143257074058056,0.005786824505776167,-0.00016003430937416852,0.010871988721191883
0.013442975468933582,0.005970337428152561,-0.012175638228654861,0.006278445012867451,-0.0001684336457401514,0.011108851991593838
0.013230706565082073,0.00604991614818573,-0.012299209833145142,0.006494359113276005,-0.00016418691666331142,0.010959120467305183
0.0135192247107625,0.006458042189478874,-0.01172722689807415,0.006188251078128815,-0.00015939731383696198,0.011047075502574444
0.013067694380879402,0.006355559453368187,-0.012356361374258995,0.0062277778051793575,-0.0001548303698655218,0.01129753328859806
0.012993133626878262,0.0062184869311749935,-0.01195799931883812,0.0056907362304627895,-0.00015051475202199072,0.011160381138324738
0.013286215253174305,0.006210803985595703,-0.012627421878278255,0.006110310088843107,-0.00014643302711192518,0.011386141180992126
0.013286215253174305,0.006210803985595703,-0.012627421878278255,0.006110310088843107,-0.00014643302711192518,0.011386141180992126
0.01299680769443512,0.0059581901878118515,-0.01278711762279272,0.0063246311619877815,-0.00014256664144340903,0.0111817866563797
0.013391497544944286,0.0065202671103179455,-0.011929303407669067,0.006079372949898243,-0.0001388993696309626,0.011153079569339752
0.012996810488402843,0.0067910486832261086,-0.012315825559198856,0.005694794934242964,-0.0001354161649942398,0.011759222485125065
0.013407991267740726,0.006511693354696035,-0.012318565510213375,0.005773724988102913,-0.00014842439850326627,0.011416513472795486
0.012836029753088951,0.006238795351237059,-0.012444550171494484,0.006283296272158623,-0.0001500679354649037,0.01124182902276516
0.013073258101940155,0.006036771461367607,-0.01261885929852724,0.006660343613475561,-0.00014690660464111716,0.011406389065086842
0.013040570542216301,0.0067668515257537365,-0.012515593320131302,0.006039584055542946,-0.000143580706208013,0.011418224312365055
0.013296294957399368,0.0061785089783370495,-0.012642541900277138,0.005995017942041159,-0.000140382515382953,0.011969604529440403
0.012930724769830704,0.00601290725171566,-0.012221002019941807,0.00666819466277957,-0.00013732262596022338,0.0114437872543931
0.012928353622555733,0.006456648465245962,-0.012481561861932278,0.006933324504643679,-0.0001343931508017704,0.011902570724487305
0.013125188648700714,0.006329832132905722,-0.01249311026185751,0.0062920525670051575,-0.0001379506866214797,0.011433972977101803
0.013306204229593277,0.006220618262887001,-0.012291907332837582,0.0062362393364310265,-0.00014374288730323315,0.0116402143612504
0.0131954001262784,0.006127226632088423,-0.012614008970558643,0.006101780105382204,-0.0001414767320966348,0.011568289250135422
0.013827510178089142,0.005908094812184572,-0.01279077772051096,0.006537085864692926,-0.00013878598110750318,0.011751445941627026
0.01324254460632801,0.0063173784874379635,-0.012571850791573524,0.0067850565537810326,-0.00013616358046419919,0.011687728576362133
0.013539411127567291,0.0063267480581998825,-0.012235230766236782,0.0061078863218426704,-0.0001336363930022344,0.011217622086405754
0.013189907185733318,0.005996115505695343,-0.011808281764388084,0.0063665458001196384,-0.00013120120274834335,0.012661398388445377
0.013605800457298756,0.006135700736194849,-0.012592596933245659,0.0067217289470136166,-0.00013155661872588098,0.011654945090413094
0.013499793596565723,0.006310729309916496,-0.01239139772951603,0.006885027978569269,-0.0001288741041207686,0.011589840985834599
0.013601841405034065,0.0062487125396728516,-0.012312456965446472,0.006660475395619869,-0.00012535462155938148,0.012063429690897465
0.013486554846167564,0.006279280409216881,-0.012702937237918377,0.006284128874540329,-0.0001219615078298375,0.012345363385975361
0.013399124145507812,0.006231210194528103,-0.012311536818742752,0.0065521118231117725,-0.00011874340998474509,0.012070308439433575
0.013604050502181053,0.005992894060909748,-0.012547871097922325,0.006859955377876759,-0.0001156905127572827,0.011746375821530819
0.013841202482581139,0.0062366146594285965,-0.012390881776809692,0.007211296819150448,-0.00013383783516474068,0.012449790723621845
0.014114468358457088,0.006645648740231991,-0.012795540504157543,0.0063446382991969585,-0.0001319405564572662,0.012819214724004269
0.014114468358457088,0.006645648740231991,-0.012795540504157543,0.0063446382991969585,-0.0001319405564572662,0.012819214724004269
0.013641291297972202,0.006370096933096647,-0.012227333150804043,0.0059699262492358685,-0.0001288810308324173,0.012668515555560589
0.014024305157363415,0.00610702158883214,-0.012980016879737377,0.006559685803949833,-0.00012588237586896867,0.012777675874531269
0.014053980819880962,0.0062990919686853886,-0.013040008023381233,0.006683248095214367,-0.00012301486276555806,0.01240199152380228
0.014175481162965298,0.006203214637935162,-0.012613353319466114,0.006412775255739689,-0.00013898196630179882,0.012205286882817745
0.014035466127097607,0.006524935830384493,-0.012950936332345009,0.00618844386190176,-0.0001371758262393996,0.012249303050339222
0.014569518156349659,0.006439700722694397,-0.012203237041831017,0.006688512396067381,-0.0001343305193586275,0.012457790784537792
0.014331180602312088,0.006502476520836353,-0.01290285587310791,0.007228807080537081,-0.000131531385704875,0.01252143457531929
0.01458559650927782,0.006102435756474733,-0.01255868561565876,0.0073913466185331345,-0.00012884169700555503,0.012204831466078758
0.01464846357703209,0.006382959894835949,-0.013475925661623478,0.006946983747184277,-0.00012625945964828134,0.012211509048938751
0.01494238618761301,0.006582882255315781,-0.013283847831189632,0.006503952667117119,-0.0001237787801073864,0.012336610816419125
0.015114747919142246,0.006061827763915062,-0.012753601185977459,0.00750205060467124,-0.0001317235000897199,0.01316410955041647
0.014816313982009888,0.006174964364618063,-0.01254745852202177,0.007005201652646065,-0.0001333007967332378,0.013780789449810982
0.014925290830433369,0.00616023875772953,-0.01316736824810505,0.006651335395872593,-0.0001311351516051218,0.012866111472249031
0.014566246420145035,0.006354029756039381,-0.012457290664315224,0.007165617775171995,-0.00012880642316304147,0.012845341116189957
0.014864207245409489,0.00602667685598135,-0.013633638620376587,0.007470983080565929,-0.0001265436440007761,0.013085320591926575
0.01510139275342226,0.005714252591133118,-0.013136294670403004,0.00742741022258997,-0.00015389651525765657,0.01328255794942379
0.014876296743750572,0.0060213892720639706,-0.01349323894828558,0.006968035362660885,-0.00017605906759854406,0.013204623945057392
0.015167498029768467,0.006537167821079493,-0.013104161247611046,0.007672063075006008,-0.00017120280244853348,0.012799081392586231
0.015511581674218178,0.006520628929138184,-0.013755214400589466,0.007861075922846794,-0.00016504318045917898,0.013108172453939915
0.01517023891210556,0.006055529695004225,-0.01313414704054594,0.007631511893123388,-0.00015921078738756478,0.012998916208744049
0.014870799146592617,0.006026309449225664,-0.012987365946173668,0.007007567211985588,-0.00016884232172742486,0.013374576345086098
0.015699120238423347,0.0060409908182919025,-0.013614296913146973,0.007467214483767748,-0.00017740238399710506,0.013325977139174938
0.015699120238423347,0.0060409908182919025,-0.013614296913146973,0.007467214483767748,-0.00017740238399710506,0.013325977139174938
0.01546796690672636,0.006403865292668343,-0.013414097018539906,0.0077237715013325214,-0.00017265182395931333,0.013397710397839546
0.0160098597407341,0.006516702473163605,-0.013915962539613247,0.00781279243528843,-0.00018801458645612001,0.013080041855573654
0.015563145279884338,0.005773517303168774,-0.013604936189949512,0.006971259135752916,-0.00018891607760451734,0.013415474444627762
0.016050267964601517,0.00588655099272728,-0.013626567088067532,0.007272577378898859,-0.00018383035785518587,0.014383820816874504
0.015381557866930962,0.00647869985550642,-0.012929929420351982,0.00879183504730463,-0.00020245097402948886,0.013693778775632381
0.016231141984462738,0.006352178752422333,-0.01379640307277441,0.008332350291311741,-0.00019842592882923782,0.013484407216310501
0.015444173477590084,0.006040132138878107,-0.013396098278462887,0.007836870849132538,-0.00019385031191632152,0.013648160733282566
0.015370147302746773,0.005771350581198931,-0.013522978872060776,0.007602271623909473,-0.0003105748619418591,0.01370251551270485
0.015939107164740562,0.005804276559501886,-0.013485382311046124,0.007506632711738348,-0.0002984856837429106,0.014505676925182343
0.016096077859401703,0.006300510838627815,-0.014207138679921627,0.007811405695974827,-0.0003077183791901916,0.013846831396222115
0.01670633628964424,0.006205799989402294,-0.013642755337059498,0.0076692611910402775,-0.00031493077403865755,0.013431398198008537
0.015759645029902458,0.006371107883751392,-0.013792929239571095,0.008016848005354404,-0.0002991268702317029,0.01331841666251421
0.01637699082493782,0.005858308635652065,-0.01396462507545948,0.007759361993521452,-0.00031347008189186454,0.013695192523300648
0.016554279252886772,0.006199885159730911,-0.014087977819144726,0.008068198338150978,-0.00033632482518441975,0.013662316836416721
0.016654305160045624,0.006152407731860876,-0.014105885289609432,0.008416073396801949,-0.00032620748970657587,0.01398947648704052
0.016702057793736458,0.006253858096897602,-0.013728918507695198,0.008702661842107773,-0.00042950903298333287,0.013629240915179253
0.016776682808995247,0.006364352069795132,-0.013822635635733604,0.008362247608602047,-0.0004478309419937432,0.01384323462843895
0.016201799735426903,0.005697393324226141,-0.013496519066393375,0.0087449811398983,-0.00044769232044927776,0.013673442415893078
0.016653381288051605,0.005843532737344503,-0.013181084766983986,0.008765545673668385,-0.0004800374445039779,0.014043820090591908
0.01664501428604126,0.006293437909334898,-0.013702061027288437,0.008437737822532654,-0.0005099038244225085,0.014002752490341663
0.016812140122056007,0.005932794418185949,-0.013577689416706562,0.008852721191942692,-0.0007617837400175631,0.014335613697767258
0.017151588574051857,0.006107826717197895,-0.014037095941603184,0.008631786331534386,-0.0008071186603046954,0.014553230255842209
0.016756797209382057,0.0055252620950341225,-0.013882949016988277,0.00866304337978363,-0.0007183585548773408,0.014428005553781986
0.017046798020601273,0.005860838573426008,-0.013960477896034718,0.00864078477025032,-0.0007329541840590537,0.014038563705980778
0.01684098318219185,0.006061141844838858,-0.013154811225831509,0.008715895935893059,-0.0007314165704883635,0.014638605527579784
0.017022209241986275,0.005313950590789318,-0.013480531983077526,0.008659646846354008,-0.0007350704399868846,0.014514243230223656
0.017337797209620476,0.004844617564231157,-0.013248778879642487,0.008313064463436604,-0.0007810223032720387,0.014589602127671242
0.01700141653418541,0.00473227072507143,-0.014272751286625862,0.00847919937223196,-0.000768571044318378,0.01412359718233347
0.017384599894285202,0.005280046258121729,-0.013626469299197197,0.00887254811823368,-0.0007317827548831701,0.014625223353505135
0.017384599894285202,0.005280046258121729,-0.013626469299197197,0.00887254811823368,-0.0007317827548831701,0.014625223353505135
0.017199426889419556,0.005265798885375261,-0.013882866129279137,0.008946183137595654,-0.000745889381505549,0.01483988482505083
0.017590494826436043,0.005527379456907511,-0.013489440083503723,0.008445370942354202,-0.0008281433838419616,0.014779935590922832
0.017602464184165,0.005557212047278881,-0.013991368003189564,0.009789925999939442,-0.0008538839174434543,0.01455823052674532
0.017343536019325256,0.005106677301228046,-0.01361178606748581,0.008850288577377796,-0.0007683426956646144,0.014868802390992641
0.017767231911420822,0.0054530128836631775,-0.014084546826779842,0.008506963029503822,-0.0007785847410559654,0.015075614675879478
0.017430342733860016,0.005023940000683069,-0.013798444531857967,0.008981241844594479,-0.0007719024433754385,0.015048217959702015
0.017752880230545998,0.004836029373109341,-0.013873920775949955,0.008612747304141521,-0.0007176806684583426,0.014742660336196423
0.017994193360209465,0.004959901794791222,-0.013900983147323132,0.008392003364861012,-0.0006553145358338952,0.015075773000717163
0.017863687127828598,0.0048977527767419815,-0.013704972341656685,0.008961984887719154,-0.0006158307078294456,0.015009522438049316
0.01790068857371807,0.004661322105675936,-0.013522827997803688,0.00869324617087841,-0.0004858106840401888,0.015269702300429344
0.017979305237531662,0.004615381360054016,-0.014159630984067917,0.008700606413185596,-0.00048065793816931546,0.015287034213542938
0.01857389509677887,0.0047606853768229485,-0.013718215748667717,0.00929456576704979,-0.00047637676470912993,0.015226365067064762
0.017983727157115936,0.00499709090217948,-0.014022108167409897,0.009296296164393425,-0.00044003009679727256,0.01570299081504345
0.018178844824433327,0.004666067659854889,-0.013604442588984966,0.008555916137993336,-0.0004070020222570747,0.01593843847513199
0.018297431990504265,0.004905988462269306,-0.013536489568650723,0.009293945506215096,-0.00037846752093173563,0.016407232731580734
0.01872791163623333,0.004856964573264122,-0.01326401624828577,0.009160357527434826,-0.0003823104198090732,0.015784448012709618
0.018935244530439377,0.005008437670767307,-0.01403810828924179,0.00923759676516056,-0.00038525491254404187,0.015088409185409546
0.018832391127943993,0.005188965704292059,-0.013642790727317333,0.00883032102137804,-0.0003646708792075515,0.015438530594110489
0.01857081428170204,0.005477439612150192,-0.014306917786598206,0.009158868342638016,-0.0003688252763822675,0.01567825675010681
0.01819770410656929,0.005083065014332533,-0.013487676158547401,0.008526833727955818,-0.00037197841447778046,0.015891650691628456
0.01786055602133274,0.005175331607460976,-0.014150487259030342,0.008617383427917957,-0.00035508230212144554,0.015995163470506668
0.019485851749777794,0.005076101515442133,-0.013730093836784363,0.009519757702946663,-0.00033848054590635,0.016382338479161263
0.01975094899535179,0.005346918944269419,-0.014123731292784214,0.009534569457173347,-0.00032328430097550154,0.016934525221586227
0.01929326541721821,0.0056340633891522884,-0.013589891605079174,0.009096468798816204,-0.000309389375615865,0.0164243932813406
0.018613720312714577,0.005111691541969776,-0.014601760543882847,0.009520021267235279,-0.0002966405008919537,0.0164798516780138
0.019832616671919823,0.004778093658387661,-0.014358905144035816,0.00945255532860756,-0.00025097347679547966,0.016363201662898064
0.019832616671919823,0.004778093658387661,-0.014358905144035816,0.00945255532860756,-0.00025097347679547966,0.016363201662898064
0.01925547979772091,0.005191075149923563,-0.014028633944690228,0.010050993412733078,-0.00023768882965669036,0.016338247805833817
0.01925547979772091,0.005191075149923563,-0.014028633944690228,0.010050993412733078,-0.00023768882965669036,0.016338247805833817
0.019654471427202225,0.005881923250854015,-0.014623436145484447,0.01014553289860487,-0.0002464254212100059,0.01667753979563713
0.01932857744395733,0.005432527977973223,-0.014622689224779606,0.009570533409714699,-0.00023689481895416975,0.01657857373356819
0.01888290047645569,0.005372846964746714,-0.015038407407701015,0.010367698967456818,-0.0002270167606184259,0.016650917008519173
0.019519057124853134,0.005212210118770599,-0.014311627484858036,0.010092386044561863,-0.00021786180150229484,0.016744107007980347
0.019648374989628792,0.005002519115805626,-0.014740830287337303,0.009690409526228905,-0.00023521836556028575,0.016198476776480675
0.01960879936814308,0.00531625933945179,-0.012615671381354332,0.009965851902961731,-0.00023459806106984615,0.016649169847369194
0.019889572635293007,0.005753328092396259,-0.014555600471794605,0.009584244340658188,-0.0002341663057450205,0.0169692300260067
0.019669944420456886,0.005492720287293196,-0.014844028279185295,0.009665913879871368,-0.0002406744024483487,0.01703610084950924
0.019860031083226204,0.005056391935795546,-0.014683523215353489,0.00914224423468113,-0.0002337957121198997,0.016606729477643967
0.019944801926612854,0.005239106714725494,-0.015517997555434704,0.009863397106528282,-0.00022650117170996964,0.016587575897574425
0.020003201439976692,0.005269913002848625,-0.014832884073257446,0.0100917499512434,-0.00021988112712278962,0.016240598633885384
0.020089054480195045,0.00599710876122117,-0.015082073397934437,0.009688524529337883,-0.0002886760630644858,0.01663893833756447
0.02052346058189869,0.005666831973940134,-0.014717355370521545,0.009650371968746185,-0.0002763700031209737,0.01664510741829872
0.02020823210477829,0.005087987054139376,-0.015193048864603043,0.009756150655448437,-0.00026070611784234643,0.016599396243691444
0.020118840038776398,0.005157771520316601,-0.01472032442688942,0.009732240810990334,-0.0002464462595526129,0.01725003309547901
0.02058851160109043,0.005576820578426123,-0.014904786832630634,0.009683959186077118,-0.0002336468460271135,0.017275718972086906
0.020563656464219093,0.005327931605279446,-0.015300729312002659,0.010035430081188679,-0.0002221111353719607,0.017382878810167313
0.020373530685901642,0.005785837769508362,-0.015314482152462006,0.010216642171144485,-0.0002116607065545395,0.017169052734971046
0.020614856854081154,0.005230500362813473,-0.01525061298161745,0.010596612468361855,-0.00023201103613246232,0.017233718186616898
0.020894166082143784,0.005145499482750893,-0.014856293797492981,0.010507800616323948,-0.00023145906743593514,0.01695333607494831
0.02046235278248787,0.005334555637091398,-0.015277591533958912,0.010370754636824131,-0.00022253365023061633,0.016518384218215942
0.02032475918531418,0.005337430164217949,-0.014708064496517181,0.010091551579535007,-0.0002137624251190573,0.018388601019978523
0.020947447046637535,0.005922416690737009,-0.015319139696657658,0.010468551889061928,-0.000205623684450984,0.01655859872698784
0.020947447046637535,0.005922416690737009,-0.015319139696657658,0.010468551889061928,-0.000205623684450984,0.01655859872698784
0.021049058064818382,0.0062311626970767975,-0.015357574447989464,0.009565165266394615,-0.00019808069919236004,0.01666470803320408
0.020677538588643074,0.005555243231356144,-0.015671947970986366,0.00970387551933527,-0.00019107117259409279,0.017225440591573715
0.020640520378947258,0.005450206808745861,-0.01507147029042244,0.010366222821176052,-0.00018454018572811037,0.017303865402936935
0.021033896133303642,0.005702790804207325,-0.015529665164649487,0.009944903664290905,-0.00020617331028915942,0.017611559480428696
0.021525615826249123,0.006085264962166548,-0.014310190454125404,0.009959548711776733,-0.00020139056141488254,0.017240164801478386
0.0211301501840353,0.006109628826379776,-0.015521790832281113,0.009911324828863144,-0.00019526592222973704,0.017514389008283615
0.021423444151878357,0.005931909196078777,-0.014791827648878098,0.009626555256545544,-0.00021288426069077104,0.01755945198237896
0.021535566076636314,0.005438057705760002,-0.015282387845218182,0.009824151173233986,-0.00020990932534914464,0.01732824742794037
0.021587064489722252,0.0059684631414711475,-0.015455793589353561,0.009805073961615562,-0.00020449327712412924,0.01752392388880253
0.021555306389927864,0.006001683883368969,-0.014911170117557049,0.011247259564697742,-0.0001971158926608041,0.017976868897676468
0.022106213495135307,0.006035231053829193,-0.0151519775390625,0.01137336902320385,-0.0001888843544293195,0.018062323331832886
0.02192949689924717,0.005484433379024267,-0.015434897504746914,0.011192132718861103,-0.00021506540360860527,0.017947357147932053
0.021526364609599113,0.0058095259591937065,-0.01530060637742281,0.01119321957230568,-0.0002089463669108227,0.01822901889681816
0.021661872044205666,0.006048094015568495,-0.015412203036248684,0.010470055975019932,-0.0002325761306565255,0.01794551871716976
0.021132569760084152,0.006208457052707672,-0.015479638241231441,0.010622235015034676,-0.0002262706693727523,0.017926916480064392
0.022075213491916656,0.0061053745448589325,-0.015649031847715378,0.010971867479383945,-0.0002476658846717328,0.017836926504969597
0.022359127178788185,0.005516642238944769,-0.014816331677138805,0.010797793045639992,-0.00024127263168338686,0.017452813684940338
0.022242289036512375,0.005797164048999548,-0.015317426063120365,0.010428950190544128,-0.0002335692843189463,0.018009958788752556
0.02241375483572483,0.005955352447926998,-0.01509818620979786,0.010554528795182705,-0.00038732128450646996,0.018795261159539223
0.022630205377936363,0.006115221884101629,-0.015324331820011139,0.010352552868425846,-0.00043378290138207376,0.018028270453214645
0.02206031233072281,0.006064008921384811,-0.01520489901304245,0.01093396358191967,-0.0004188987077213824,0.018267447128891945
0.021149856969714165,0.005349977873265743,-0.01583871990442276,0.011232038959860802,-0.00045028439490124583,0.017660461366176605
0.02204781398177147,0.006018046289682388,-0.015155239962041378,0.011552810668945312,-0.0004534289473667741,0.017409304156899452
0.022804250940680504,0.005685699637979269,-0.015417017973959446,0.011738569475710392,-0.00045223976485431194,0.017670487985014915
0.02269599214196205,0.006514206528663635,-0.015284737572073936,0.01146218366920948,-0.00042718322947621346,0.017703719437122345
0.022104181349277496,0.005853094160556793,-0.015390696935355663,0.011365328915417194,-0.0004919475177302957,0.01857871375977993
0.022545449435710907,0.0058279200457036495,-0.015191657468676567,0.011166117154061794,-0.0005192692624405026,0.018966471776366234
0.023705950006842613,0.005482162348926067,-0.015389375388622284,0.010747230611741543,-0.0005392368184402585,0.01851819083094597
0.023705950006842613,0.005482162348926067,-0.015389375388622284,0.010747230611741543,-0.0005392368184402585,0.01851819083094597
0.022129276767373085,0.006644122302532196,-0.015556231141090393,0.010633262805640697,-0.0005341659998521209,0.01892366260290146
0.022260190919041634,0.006149090360850096,-0.01601686142385006,0.01086390856653452,-0.0005008878652006388,0.01888728141784668
0.022260190919041634,0.006149090360850096,-0.01601686142385006,0.01086390856653452,-0.0005008878652006388,0.01888728141784668
0.022489000111818314,0.005775005556643009,-0.01533806324005127,0.010880999267101288,-0.0005262214690446854,0.018558649346232414
0.022426435723900795,0.005806799046695232,-0.015966912731528282,0.010780511423945427,-0.0004941492807120085,0.018560685217380524
0.02307399921119213,0.0061348192393779755,-0.015272851102054119,0.01100852806121111,-0.0005375696928240359,0.01811893656849861
0.023042699322104454,0.0063705360516905785,-0.01622818037867546,0.010901856236159801,-0.0004915478639304638,0.017999330535531044
0.02265564538538456,0.006219463888555765,-0.015433404594659805,0.011000811122357845,-0.0005202263710089028,0.018314778804779053
0.023026861250400543,0.006215168163180351,-0.015718184411525726,0.011344264261424541,-0.0005086912424303591,0.019029106944799423
0.023335253819823265,0.005625312682241201,-0.01653086394071579,0.011500208638608456,-0.0005119476118125021,0.01935950666666031
0.022819556295871735,0.005944691598415375,-0.017120681703090668,0.011506373062729836,-0.000506793730892241,0.01914873532950878
0.022987227886915207,0.005279940087348223,-0.015816139057278633,0.011741182766854763,-0.0005550378118641675,0.019024325534701347
0.022985165938735008,0.0050573754124343395,-0.016806665807962418,0.01232722494751215,-0.0006091144750826061,0.0189228393137455
0.023431794717907906,0.0048608253709971905,-0.016205647960305214,0.012324373237788677,-0.0006403105799108744,0.01931261271238327
0.02279297634959221,0.004916232544928789,-0.016387654468417168,0.012127712368965149,-0.0006705022533424199,0.01947997510433197
0.02265899069607258,0.005196339916437864,-0.016136588528752327,0.011759576387703419,-0.0009029391221702099,0.01974957063794136
0.022948341444134712,0.005551245529204607,-0.016522210091352463,0.011504482477903366,-0.0009527374641038477,0.019734056666493416
0.023079389706254005,0.004940665327012539,-0.01676597073674202,0.012159393168985844,-0.0009126878576353192,0.019765371456742287
0.023232687264680862,0.004819147288799286,-0.016436470672488213,0.011549237184226513,-0.0008506844169460237,0.01979869045317173
0.023254625499248505,0.005348616279661655,-0.016548926010727882,0.011810467578470707,-0.0008451894391328096,0.01951092854142189
0.022987818345427513,0.005118017550557852,-0.01610630378127098,0.011729818768799305,-0.0007736280676908791,0.019583219662308693
0.023230263963341713,0.005523495841771364,-0.01696181483566761,0.011905055493116379,-0.000692621455527842,0.01979769952595234
0.02421513944864273,0.005344283301383257,-0.017000798135995865,0.01192257646471262,-0.0007053674198687077,0.020000362768769264
0.023975249379873276,0.004983229096978903,-0.01732015050947666,0.011659420095384121,-0.0006362111307680607,0.020021259784698486
0.023615213111042976,0.005169156938791275,-0.017601419240236282,0.011916089802980423,-0.0005698810564354062,0.020014187321066856
0.02341277524828911,0.005017759744077921,-0.01685158535838127,0.011537913233041763,-0.0005951685598120093,0.020037448033690453
0.023679303005337715,0.004812550265341997,-0.017520729452371597,0.011753288097679615,-0.0005485080764628947,0.020117098465561867
0.023679303005337715,0.004812550265341997,-0.017520729452371597,0.011753288097679615,-0.0005485080764628947,0.020117098465561867
0.02342144399881363,0.005046822130680084,-0.01703888736665249,0.011545193381607533,-0.0005048526218160987,0.0199021827429533
0.02439296990633011,0.005003548692911863,-0.01717980206012726,0.011270112358033657,-0.00046739084064029157,0.019892144948244095
0.02508280612528324,0.005257464945316315,-0.017880357801914215,0.011549165472388268,-0.0004887751420028508,0.02048727311193943
0.02460608445107937,0.004938711412250996,-0.017159508541226387,0.011640474200248718,-0.0004645528388209641,0.020505990833044052
0.02413969300687313,0.004906501621007919,-0.017858080565929413,0.012496351264417171,-0.0004368324007373303,0.02072267420589924
0.023346425965428352,0.004396724049001932,-0.01820671185851097,0.013096233829855919,-0.00038670896901749074,0.02068403922021389
0.024355320259928703,0.0043288469314575195,-0.01732911542057991,0.012889033183455467,-0.0003497912548482418,0.020607102662324905
0.024886861443519592,0.0046729519963264465,-0.01788732036948204,0.01322202943265438,-0.00037176316254772246,0.020533543080091476
0.024477621540427208,0.004714510403573513,-0.017768727615475655,0.012867884710431099,-0.00033984673791565,0.020338930189609528
0.025164227932691574,0.004546877462416887,-0.017778722569346428,0.012323417700827122,-0.00035903454408980906,0.02064027450978756
0.02522817999124527,0.004697177559137344,-0.01740461401641369,0.012494062073528767,-0.00035129280877299607,0.021011129021644592
0.024585457518696785,0.004857111722230911,-0.01810973510146141,0.012355324812233448,-0.0003567309177014977,0.020734701305627823
0.02434900961816311,0.004898703191429377,-0.01774566061794758,0.012353463098406792,-0.0003604331286624074,0.02116742916405201
0.024464206770062447,0.004743735771626234,-0.017612403258681297,0.012686225585639477,-0.00034494558349251747,0.021276304498314857
0.025038857012987137,0.004477758891880512,-0.01796112023293972,0.0121450275182724,-0.0004218447138555348,0.020919308066368103
0.025841427966952324,0.004591559525579214,-0.017200330272316933,0.012928729876875877,-0.000392229383578524,0.021312590688467026
0.025557322427630424,0.00471111387014389,-0.018210861831903458,0.012620635330677032,-0.0003611880529206246,0.021282820031046867
0.02544102631509304,0.004722120705991983,-0.01838022470474243,0.012440922670066357,-0.0003965154755860567,0.021082278341054916
0.025673819705843925,0.004578317515552044,-0.017888305708765984,0.012275400571525097,-0.00041892268927767873,0.021186279132962227
0.025663604959845543,0.004630202893167734,-0.018390152603387833,0.012400462292134762,-0.0004064123204443604,0.022074216976761818
0.025299428030848503,0.004604815971106291,-0.01759354956448078,0.012761146761476994,-0.0004299423308111727,0.02108309604227543
0.02564350515604019,0.004607413895428181,-0.018140114843845367,0.012865597382187843,-0.00041186410817317665,0.020573917776346207
0.024717021733522415,0.005057440139353275,-0.018582917749881744,0.012919183820486069,-0.00044704790343530476,0.020772239193320274
0.02602393366396427,0.005096329841762781,-0.017380332574248314,0.012253599241375923,-0.00045615361887030303,0.021755680441856384
0.026607057079672813,0.004632609896361828,-0.018208468332886696,0.01274089328944683,-0.00045767772826366127,0.022448528558015823
0.026105418801307678,0.004425468854606152,-0.018163498491048813,0.012804989702999592,-0.00045574241084977984,0.021734708920121193
0.026192132383584976,0.004525567404925823,-0.018232811242341995,0.013289866037666798,-0.00045604477054439485,0.021040719002485275
0.026192132383584976,0.004525567404925823,-0.018232811242341995,0.013289866037666798,-0.00045604477054439485,0.021040719002485275
0.026089537888765335,0.004552933387458324,-0.017716286703944206,0.013162359595298767,-0.0004828712553717196,0.02218688279390335
0.026089537888765335,0.004552933387458324,-0.017716286703944206,0.013162359595298767,-0.0004828712553717196,0.02218688279390335
0.02616708166897297,0.004554196260869503,-0.01781831867992878,0.013258233666419983,-0.0005331612774170935,0.02230457216501236
0.026327673345804214,0.004561994224786758,-0.018161965534090996,0.013164345175027847,-0.0005428583826869726,0.02117486111819744
0.026775922626256943,0.004545871168375015,-0.01757832244038582,0.013529941439628601,-0.0005356753244996071,0.02147963084280491
0.026768285781145096,0.004373586270958185,-0.01771172508597374,0.014107488095760345,-0.000481769151519984,0.02289874479174614
0.026768285781145096,0.004373586270958185,-0.01771172508597374,0.014107488095760345,-0.000481769151519984,0.02289874479174614
0.02714906632900238,0.004491859581321478,-0.018277937546372414,0.013217194005846977,-0.00047640930279158056,0.021385233849287033
0.02734335884451866,0.004687466658651829,-0.018031908199191093,0.013281217776238918,-0.0005023247795179486,0.021403921768069267
0.02757737599313259,0.00496673583984375,-0.017910631373524666,0.013492166064679623,-0.0005078453687019646,0.022059252485632896
0.027398306876420975,0.0047783260233700275,-0.01778564415872097,0.013165004551410675,-0.0005357522168196738,0.022679749876260757
0.027949685230851173,0.00485644768923521,-0.017302732914686203,0.013589752838015556,-0.0005707155214622617,0.022722939029335976
0.027979789301753044,0.004254793748259544,-0.0181562602519989,0.013652562163770199,-0.0006002308800816536,0.022655963897705078
0.028348298743367195,0.00445581367239356,-0.018171021714806557,0.013443779200315475,-0.0005934209912084043,0.022631153464317322
0.028740359470248222,0.004692492075264454,-0.017784463241696358,0.01336283516138792,-0.0009816262172535062,0.02258460782468319
0.028551094233989716,0.005126315169036388,-0.018019497394561768,0.013463041745126247,-0.0009536912548355758,0.02244783192873001
0.028371455147862434,0.005048362538218498,-0.01792541891336441,0.013345479965209961,-0.0008847303106449544,0.022632451727986336
0.028791924938559532,0.004913737531751394,-0.018414776772260666,0.013485556468367577,-0.0008824286051094532,0.022798769176006317
0.02943192422389984,0.005026876926422119,-0.01821858249604702,0.01381012238562107,-0.0008456996292807162,0.02326234057545662
0.029805023223161697,0.004976748023182154,-0.017748123034834862,0.013544158078730106,-0.0008297874592244625,0.022886445745825768
0.028653323650360107,0.004834899678826332,-0.018120931461453438,0.01404400635510683,-0.0007764906040392816,0.02261642925441265
0.028312839567661285,0.004760550335049629,-0.01861041784286499,0.01337170135229826,-0.000736874237190932,0.02297052927315235
0.029919248074293137,0.005160272587090731,-0.018243638798594475,0.014278487302362919,-0.0007031629793345928,0.023133939132094383
0.029919248074293137,0.005160272587090731,-0.018243638798594475,0.014278487302362919,-0.0007031629793345928,0.023133939132094383
0.02941773645579815,0.005161411128938198,-0.018669206649065018,0.013995921239256859,-0.0006353474454954267,0.023032888770103455
0.028912194073200226,0.0051478855311870575,-0.01839332841336727,0.014311653561890125,-0.0006482881726697087,0.023164216428995132
0.029998311772942543,0.004858486820012331,-0.018277371302247047,0.013725651428103447,-0.0006035653641447425,0.023194916546344757
0.030589792877435684,0.004809723235666752,-0.01883317157626152,0.014731725677847862,-0.000548357202205807,0.02335803583264351
0.030090996995568275,0.004715609829872847,-0.01840280368924141,0.014101112261414528,-0.000560685177333653,0.023154111579060555
0.0291447713971138,0.004982769954949617,-0.018642444163560867,0.014267214573919773,-0.0005702896742150187,0.023252680897712708
0.029648108407855034,0.00507019879296422,-0.018956826999783516,0.013816016726195812,-0.0005594373214989901,0.02318021096289158
0.030448228120803833,0.005162476096302271,-0.018564274534583092,0.014086112380027771,-0.0005702837952412665,0.02302425540983677
0.030066154897212982,0.004962992388755083,-0.018447529524564743,0.013912602327764034,-0.0005441074026748538,0.02333742007613182
0.030299238860607147,0.0048081292770802975,-0.01914188638329506,0.014668963849544525,-0.000677583971992135,0.023213107138872147
0.02965272217988968,0.00556484330445528,-0.019730836153030396,0.014459163881838322,-0.0007408593082800508,0.02409556321799755
0.030280282720923424,0.005303550511598587,-0.019493041560053825,0.013795481063425541,-0.000764513504691422,0.024292293936014175
0.03036036528646946,0.004726159851998091,-0.018413476645946503,0.014652367681264877,-0.0009482794557698071,0.024062760174274445
0.030008381232619286,0.004607729613780975,-0.019070863723754883,0.014425109140574932,-0.0009581600315868855,0.023316940292716026
0.029822925105690956,0.004786259029060602,-0.019088126718997955,0.013448193669319153,-0.0008317552274093032,0.02295929752290249
0.03020506352186203,0.005118844099342823,-0.01831367053091526,0.012891504913568497,-0.0008090218179859221,0.02378246746957302
0.030230609700083733,0.004872105550020933,-0.01920531503856182,0.013727997429668903,-0.0007404260104522109,0.0246033426374197
0.029998265206813812,0.005089135374873877,-0.019676951691508293,0.014033772051334381,-0.0007519631762988865,0.02449953183531761
0.030405016615986824,0.005524677690118551,-0.01886284165084362,0.014030620455741882,-0.0006788450991734862,0.02443142607808113
0.03004726953804493,0.005343915428966284,-0.01929955743253231,0.014274521730840206,-0.0006777875241823494,0.024461833760142326
0.030382126569747925,0.004745014011859894,-0.01929297298192978,0.01444893516600132,-0.0006254917243495584,0.02419784665107727
0.029924482107162476,0.00486714718863368,-0.018794864416122437,0.014143720269203186,-0.0006425861502066255,0.024469025433063507
0.03099178522825241,0.0054692053236067295,-0.019254416227340698,0.013947434723377228,-0.0006339718238450587,0.02376195229589939
0.03160008043050766,0.005261469632387161,-0.019398272037506104,0.014136328361928463,-0.000617309648077935,0.02347872033715248
0.031437136232852936,0.005432696081697941,-0.019191104918718338,0.013825015164911747,-0.0006603093934245408,0.02403528429567814
0.029823435470461845,0.00501912459731102,-0.019543394446372986,0.014550506137311459,-0.0007080614450387657,0.02501746639609337
0.030044034123420715,0.0048112510703504086,-0.019581381231546402,0.014116081409156322,-0.0007180410902947187,0.02490508370101452
0.031052032485604286,0.004948271904140711,-0.01882774755358696,0.014252785593271255,-0.0006668247515335679,0.024562250822782516
0.03086109645664692,0.005438410211354494,-0.019342733547091484,0.014269971288740635,-0.0006845179595984519,0.024549121037125587
0.03114009089767933,0.005152164027094841,-0.019725076854228973,0.014499489217996597,-0.000764001568313688,0.024566518142819405
0.03114009089767933,0.005152164027094841,-0.019725076854228973,0.014499489217996597,-0.000764001568313688,0.024566518142819405
0.03139775991439819,0.005159764550626278,-0.019266800954937935,0.013536825776100159,-0.0006950958049856126,0.024921029806137085
0.03125395625829697,0.00494122039526701,-0.019911615177989006,0.014261853881180286,-0.0007082964293658733,0.025135941803455353
0.030897358432412148,0.005020455922931433,-0.01948339119553566,0.014151458628475666,-0.0006896441918797791,0.025114281103014946
0.030618375167250633,0.0053515126928687096,-0.01871924288570881,0.014810662716627121,-0.0006634650635533035,0.02489493601024151
0.03154296055436134,0.005208945367485285,-0.01960034854710102,0.015203322283923626,-0.0006771275075152516,0.025244301185011864
0.03143824264407158,0.005070419982075691,-0.019729992374777794,0.015063656494021416,-0.000628262001555413,0.025335118174552917
0.03174832835793495,0.004748586565256119,-0.019304940477013588,0.015777748078107834,-0.0005929250037297606,0.025405609980225563
0.03144697844982147,0.005108147393912077,-0.019509490579366684,0.01591193489730358,-0.0005763212684541941,0.025938643142580986
0.03092482127249241,0.005445175804197788,-0.01920562982559204,0.01575002260506153,-0.0006464835605584085,0.02488962560892105
0.03170163184404373,0.005549927707761526,-0.019328709691762924,0.01601984351873398,-0.0007906423415988684,0.02508859895169735
0.03184371069073677,0.005669691599905491,-0.019626151770353317,0.015111434273421764,-0.0009210065472871065,0.025594905018806458
0.03199146315455437,0.005029930733144283,-0.018640616908669472,0.015448725782334805,-0.0008254210697486997,0.025650227442383766
0.03201615437865257,0.005367910023778677,-0.019013354554772377,0.014799381606280804,-0.000820883724372834,0.025716442614793777
0.032061874866485596,0.005344829522073269,-0.019628839567303658,0.015272987075150013,-0.0007891345303505659,0.02556367963552475
0.032289907336235046,0.00468855444341898,-0.019998330622911453,0.015143593773245811,-0.0007526861154474318,0.025455305352807045
0.03170216456055641,0.004898136015981436,-0.020261969417333603,0.015732476487755775,-0.0007251037750393152,0.025516405701637268
0.03223849833011627,0.0048269350081682205,-0.020166514441370964,0.015948625281453133,-0.0007329150685109198,0.02570752426981926
0.031680621206760406,0.004851505160331726,-0.019147606566548347,0.016122952103614807,-0.0007247216417454183,0.02575901709496975
0.0320841446518898,0.004344427492469549,-0.018811436370015144,0.01603350043296814,-0.0006944438209757209,0.025477617979049683
0.0319381020963192,0.004361381754279137,-0.020007064566016197,0.01546911895275116,-0.0007056143367663026,0.0255887433886528
0.03215949609875679,0.0045011271722614765,-0.020586764439940453,0.01566416397690773,-0.0006523241754621267,0.025789249688386917
0.03231591358780861,0.005164151079952717,-0.020415818318724632,0.015175544656813145,-0.0006798415561206639,0.025874100625514984
0.03246885538101196,0.005000471603125334,-0.019811460748314857,0.016067540273070335,-0.0006616156897507608,0.02602873370051384
0.03246885538101196,0.005000471603125334,-0.019811460748314857,0.016067540273070335,-0.0006616156897507608,0.02602873370051384
0.03274970501661301,0.004550501704216003,-0.02013220638036728,0.015911877155303955,-0.0006357469828799367,0.026131892576813698
0.03262519836425781,0.004376573953777552,-0.020308148115873337,0.016112390905618668,-0.000653723138384521,0.02619556337594986
0.032580871134996414,0.004476448986679316,-0.02082049660384655,0.015621626749634743,-0.0006440127035602927,0.02643422596156597
0.03289088234305382,0.004375092685222626,-0.020008817315101624,0.015763964504003525,-0.0006262511014938354,0.0266367606818676
0.032951101660728455,0.004573448561131954,-0.020375244319438934,0.015834243968129158,-0.0006696808850392699,0.026391152292490005
0.033053673803806305,0.004616596270352602,-0.02055724710226059,0.01583135686814785,-0.0006842350121587515,0.02515793778002262
0.03294254466891289,0.004605692345649004,-0.019741861149668694,0.01597677357494831,-0.0006316419458016753,0.02548021823167801
0.033195819705724716,0.004143923986703157,-0.020124459639191628,0.01573631353676319,-0.0006546522490680218,0.02628687582910061
0.034256257116794586,0.004269849043339491,-0.0204002745449543,0.016310840845108032,-0.0006608402472920716,0.026539472863078117
0.03224603086709976,0.004528621677309275,-0.020374424755573273,0.016244616359472275,-0.0006488440558314323,0.027570558711886406
0.03340820223093033,0.0046033128164708614,-0.020054420456290245,0.015873823314905167,-0.000590853625908494,0.027830397710204124
0.03449546545743942,0.004757303278893232,-0.020488731563091278,0.016544492915272713,-0.0006207798724062741,0.027206378057599068
0.03412352129817009,0.004642199724912643,-0.020771509036421776,0.01669551618397236,-0.0006076019490137696,0.025941945612430573
0.03473509103059769,0.0045250700786709785,-0.02075183019042015,0.01667010970413685,-0.0005915252841077745,0.026720833033323288
0.03366274759173393,0.004384015221148729,-0.02028760313987732,0.017265601083636284,-0.0006100722239352763,0.027179844677448273
0.03338848054409027,0.004426054190844297,-0.020729534327983856,0.016575898975133896,-0.0006556842126883566,0.027567079290747643
0.03326103836297989,0.004729852080345154,-0.02071872539818287,0.016315406188368797,-0.0007114174077287316,0.027303583920001984
0.034782618284225464,0.004719083663076162,-0.020279118791222572,0.016448132693767548,-0.0007351783569902182,0.027139749377965927
0.03474649041891098,0.00483583752065897,-0.020508943125605583,0.016605300828814507,-0.0007526496774517,0.027043502777814865
0.03370797634124756,0.004350756295025349,-0.020513886585831642,0.016378048807382584,-0.0006869728676974773,0.02684728614985943
0.034919485449790955,0.004247731063514948,-0.02044132724404335,0.01601586677134037,-0.0007984061958268285,0.026993675157427788
0.03512353077530861,0.004522394854575396,-0.020279519259929657,0.0167491864413023,-0.0007027225219644606,0.02712557651102543
0.034835927188396454,0.004288504831492901,-0.020803099498152733,0.016528120264410973,-0.0007135783089324832,0.02759772166609764
0.035236600786447525,0.004476191475987434,-0.02082405611872673,0.01650749146938324,-0.0006940773455426097,0.027568060904741287
0.03488830104470253,0.0046979221515357494,-0.020340124145150185,0.0162280835211277,-0.0006672758609056473,0.02749975584447384
0.034590158611536026,0.004337929654866457,-0.02083887904882431,0.01633765920996666,-0.0006060803425498307,0.027784930542111397
0.03537307307124138,0.004217770881950855,-0.021057041361927986,0.016528474166989326,-0.0006263647228479385,0.0276003610342741
0.03561537712812424,0.003976034466177225,-0.020916476845741272,0.016969822347164154,-0.0005842078244313598,0.027867287397384644
0.035308074206113815,0.0038734141271561384,-0.020203322172164917,0.017174474895000458,-0.0005234744166955352,0.02768442966043949
0.035208042711019516,0.004255463369190693,-0.020535677671432495,0.01684553548693657,-0.0005499767139554024,0.0281517431139946
0.035208042711019516,0.004255463369190693,-0.020535677671432495,0.01684553548693657,-0.0005499767139554024,0.0281517431139946
0.03651484102010727,0.004539486952126026,-0.02087508887052536,0.017156356945633888,-0.0005090534104965627,0.027850480750203133
0.03674829751253128,0.004683664068579674,-0.02089325524866581,0.016608042642474174,-0.0005379090434871614,0.028582412749528885
0.03470872342586517,0.004570508375763893,-0.020687565207481384,0.01645101234316826,-0.0005523940199054778,0.028525566682219505
0.035195399075746536,0.004279433283954859,-0.021132955327630043,0.016913289204239845,-0.0005320905474945903,0.028312260285019875
0.03649811074137688,0.004318808205425739,-0.021000999957323074,0.01688511110842228,-0.0006787896272726357,0.02795596607029438
0.036113619804382324,0.0045975204557180405,-0.020570222288370132,0.017830578610301018,-0.0007125029806047678,0.028205323964357376
0.037129197269678116,0.004756351001560688,-0.02094964310526848,0.017899559810757637,-0.0007335707196034491,0.02940707467496395
0.03543687239289284,0.004307209048420191,-0.021333957090973854,0.017301827669143677,-0.0008881287649273872,0.028663920238614082
0.03557392209768295,0.004189867060631514,-0.020616626366972923,0.017241116613149643,-0.0008994358358904719,0.02754555642604828
0.03684164211153984,0.00434991205111146,-0.021055545657873154,0.01762770302593708,-0.0008910532924346626,0.027993476018309593
0.03674228489398956,0.004106332082301378,-0.021067362278699875,0.017723506316542625,-0.0007941848016344011,0.029065510258078575
0.03626358136534691,0.004386416636407375,-0.021156957373023033,0.017608027905225754,-0.0007060308707877994,0.028398392722010612
0.03661360591650009,0.004390816669911146,-0.02099105343222618,0.018019074574112892,-0.0007189363241195679,0.028904655948281288
0.03662260249257088,0.004528459627181292,-0.020891841500997543,0.017593739554286003,-0.000658597971778363,0.02982492744922638
0.03642410412430763,0.004584106616675854,-0.021472129970788956,0.017638813704252243,-0.0005897957016713917,0.028760362416505814
0.03681671991944313,0.004781009163707495,-0.02168518863618374,0.0179431289434433,-0.0005134152015671134,0.0286885816603899
0.036701858043670654,0.004234328866004944,-0.021609216928482056,0.017482981085777283,-0.0005455569480545819,0.02815302275121212
0.03646855428814888,0.004481474403291941,-0.021366463974118233,0.018043316900730133,-0.0005723674548789859,0.02881387248635292
0.03702983632683754,0.004701415076851845,-0.021443957462906837,0.018281668424606323,-0.0006056060083210468,0.029896240681409836
0.036944735795259476,0.004550633020699024,-0.020958518609404564,0.017826644703745842,-0.0009770748438313603,0.029522964730858803
0.036987822502851486,0.004817509558051825,-0.021119967103004456,0.017739633098244667,-0.001085092080757022,0.02921491488814354
0.03742586448788643,0.004983915016055107,-0.022010231390595436,0.017527472227811813,-0.0010173780610784888,0.029245320707559586
0.037320807576179504,0.004812483675777912,-0.022013166919350624,0.018043480813503265,-0.0012760546524077654,0.02896444872021675
0.03698889911174774,0.004386599641293287,-0.021125536412000656,0.017919540405273438,-0.0011283543426543474,0.029069505631923676
0.037780068814754486,0.004200789146125317,-0.021463075652718544,0.01787542551755905,-0.0009391464991495013,0.029274562373757362
0.037780068814754486,0.004200789146125317,-0.021463075652718544,0.01787542551755905,-0.0009391464991495013,0.029274562373757362
0.03792911022901535,0.004481803625822067,-0.02231524884700775,0.018213540315628052,-0.0009230590658262372,0.02948126383125782
0.03671456500887871,0.004727011080831289,-0.021234743297100067,0.017751621082425117,-0.0007195016951300204,0.02981562912464142
0.03723642975091934,0.004507786128669977,-0.02126052975654602,0.017782138660550117,-0.000724988873116672,0.029793065041303635
0.03714076429605484,0.004487581551074982,-0.022382179275155067,0.017522089183330536,-0.0006683759274892509,0.02981877513229847
0.037360161542892456,0.004580148495733738,-0.021317770704627037,0.017814259976148605,-0.0004570583114400506,0.030199313536286354
0.037360161542892456,0.004580148495733738,-0.021317770704627037,0.017814259976148605,-0.0004570583114400506,0.030199313536286354
0.0377461314201355,0.0043151481077075005,-0.022239049896597862,0.017683159559965134,-0.0004846857045777142,0.029963843524456024
0.03694171831011772,0.004440431483089924,-0.021969784051179886,0.01804194413125515,-0.0004901294596493244,0.030046382918953896
0.03778744116425514,0.0044145346619188786,-0.02226363494992256,0.01784166693687439,-0.0004862145578954369,0.02982553094625473
0.038824789226055145,0.004345182329416275,-0.02206999436020851,0.018100343644618988,-0.000513662351295352,0.029900452122092247
0.03698161616921425,0.004332372918725014,-0.021938685327768326,0.01822075806558132,-0.0006614411249756813,0.030145607888698578
0.03651806712150574,0.00406038761138916,-0.021788740530610085,0.018063070252537727,-0.0007130776648409665,0.030294623225927353
0.03787281736731529,0.004375431686639786,-0.021984463557600975,0.018866779282689095,-0.0007292433292604983,0.029881024733185768
0.037997182458639145,0.004335482604801655,-0.02198595553636551,0.018534453585743904,-0.0006651158328168094,0.03038610890507698
0.03931590914726257,0.004474459681659937,-0.021977925673127174,0.01797579787671566,-0.0006437630509026349,0.030914507806301117
0.03887485712766647,0.004282176960259676,-0.022535808384418488,0.018493078649044037,-0.0006253531901165843,0.030585236847400665
0.03719453513622284,0.004350624978542328,-0.022269289940595627,0.01881737820804119,-0.0005796814803034067,0.031615935266017914
0.03743334487080574,0.004515104461461306,-0.021715890616178513,0.01845374144613743,-0.0005847770371474326,0.032063599675893784
0.039040107280015945,0.004241057671606541,-0.021286223083734512,0.01875634677708149,-0.0006118433084338903,0.030874233692884445
0.039040107280015945,0.004241057671606541,-0.021286223083734512,0.01875634677708149,-0.0006118433084338903,0.030874233692884445
0.03884114697575569,0.004493707325309515,-0.0218964796513319,0.018284115940332413,-0.0006291053141467273,0.03003547713160515
0.03853138908743858,0.004578566178679466,-0.02239077165722847,0.018135830760002136,-0.0006326750735752285,0.03063216060400009
0.03871029615402222,0.00421929731965065,-0.022237837314605713,0.018341239541769028,-0.0006202324293553829,0.03106210194528103
0.03840523213148117,0.00436061667278409,-0.02181965485215187,0.01851256564259529,-0.0008268395904451609,0.030648570507764816
0.038894616067409515,0.004562725778669119,-0.022121811285614967,0.01894397661089897,-0.0008813440799713135,0.03200932964682579
0.03867287561297417,0.004591965116560459,-0.022320440039038658,0.019382687285542488,-0.0008580112480558455,0.031932532787323
0.03866315633058548,0.004115748684853315,-0.022277308627963066,0.019330551847815514,-0.0009594995644874871,0.031043661758303642
0.038666799664497375,0.0043894755654037,-0.021815668791532516,0.019007308408617973,-0.0010480766650289297,0.03017948567867279
0.03903853893280029,0.004249915014952421,-0.02199701778590679,0.01904807612299919,-0.0010296758264303207,0.030537378042936325
0.03995398432016373,0.004282921086996794,-0.02222207933664322,0.01874786615371704,-0.0009785157162696123,0.03177911043167114
0.039460983127355576,0.004175752867013216,-0.022647395730018616,0.019534306600689888,-0.0009117176523432136,0.031988564878702164
0.03807170316576958,0.00430170726031065,-0.022198662161827087,0.01999550499022007,-0.000812431622762233,0.0317939892411232
0.0385625995695591,0.004310845863074064,-0.022109108045697212,0.019640037789940834,-0.0007532936870120466,0.031380392611026764
0.04017258808016777,0.004260530695319176,-0.022989846765995026,0.020472288131713867,-0.0007561960374005139,0.03165775164961815
0.039877913892269135,0.0045347134582698345,-0.022823048755526543,0.020402591675519943,-0.0006982532213442028,0.031564269214868546
