davideferrari95/blind_handover_controller/data/Test 96 - [2024-02-07 -- 16-14-08]/joint_states_data.csv
shoulder_pan_joint,shoulder_lift_joint,elbow_joint,wrist_1_joint,wrist_2_joint,wrist_3_joint
0.005943139549344778,0.0029694668482989073,-0.0065733385272324085,0.003868377534672618,0.0,0.005560556426644325
0.005943139549344778,0.0029694668482989073,-0.0065733385272324085,0.003868377534672618,0.0,0.005560556426644325
0.005322712939232588,0.002873101970180869,-0.007023341488093138,0.004154503811150789,0.0,0.00557251600548625
0.005322712939232588,0.002873101970180869,-0.007023341488093138,0.004154503811150789,0.0,0.00557251600548625
0.0051145972684025764,0.0034360233694314957,-0.007241182029247284,0.004229220561683178,0.0,0.005632568150758743
0.005467598792165518,0.0031003060285001993,-0.007385153789073229,0.0035293453838676214,0.0,0.005712026264518499
0.005467598792165518,0.0031003060285001993,-0.007385153789073229,0.0035293453838676214,0.0,0.005712026264518499
0.005526221822947264,0.0030588365625590086,-0.00783559400588274,0.0035208887420594692,0.0,0.005433055572211742
0.005704536102712154,0.003148747608065605,-0.007431944832205772,0.0037447214126586914,0.0,0.005173271056264639
0.005246848799288273,0.003490000730380416,-0.006767662242054939,0.004399081692099571,0.0,0.005697487387806177
0.005184815265238285,0.0033352794125676155,-0.006918947212398052,0.004246365744620562,0.0,0.005824719555675983
0.0052405307069420815,0.0031802011653780937,-0.007449822966009378,0.0043944441713392735,0.0,0.006212885025888681
0.005601442884653807,0.003112315433099866,-0.007415685337036848,0.004207291640341282,0.0,0.005409173667430878
0.0055347708985209465,0.003200199455022812,-0.006903170142322779,0.004549308214336634,0.0,0.005323313642293215
0.005200575105845928,0.0032425073441118,-0.007442852482199669,0.004584343172609806,0.0,0.005431140772998333
0.0056612142361700535,0.003449543844908476,-0.007929667830467224,0.0043225665576756,0.0,0.005489108618348837
0.005418008659034967,0.0036851069889962673,-0.0073236445896327496,0.004486371763050556,0.0,0.005459754727780819
0.005961288698017597,0.003396307583898306,-0.007025636732578278,0.0046026743948459625,0.0,0.0055857449769973755
0.0054276613518595695,0.00344673590734601,-0.007708615157753229,0.004711009096354246,0.0,0.005268628243356943
0.005059858784079552,0.0032105580903589725,-0.008407412096858025,0.004517734982073307,0.0,0.005245426669716835
0.0056091658771038055,0.002911921823397279,-0.007910411804914474,0.004279922228306532,0.0,0.005018170457333326
0.005245405249297619,0.003182131564244628,-0.0077068679966032505,0.0040902611799538136,0.0,0.005579262040555477
0.005518730264157057,0.0034010533709079027,-0.007996843196451664,0.0044127898290753365,0.0,0.0053588878363370895
0.005270668305456638,0.0032772214617580175,-0.008352306671440601,0.004312652628868818,0.0,0.005210482981055975
0.0057913511991500854,0.0033817181829363108,-0.0078772297129035,0.004391268361359835,0.0,0.005354141350835562
0.005309702828526497,0.0037152760196477175,-0.007453569211065769,0.004576692823320627,0.0,0.0052365465089678764
0.0048964302986860275,0.003921496216207743,-0.007987137883901596,0.0045823706313967705,0.0,0.005776857491582632
0.005147423595190048,0.003449835581704974,-0.0075174300000071526,0.004348537884652615,0.0,0.005767762195318937
0.005559020675718784,0.0031382201705127954,-0.0077146245166659355,0.00448115449398756,0.0,0.005593596491962671
0.0061438665725290775,0.0030621157493442297,-0.007542178966104984,0.004286196548491716,0.0,0.005216909106820822
0.005474823527038097,0.0032278376165777445,-0.008296778425574303,0.004358368460088968,0.0,0.005404521711170673
0.005329243838787079,0.0031742604915052652,-0.008396044373512268,0.0047149998135864735,0.0,0.005222395062446594
0.00526766711845994,0.0035517774522304535,-0.007712101098150015,0.004735827445983887,0.0,0.004896306898444891
0.00526766711845994,0.0035517774522304535,-0.007712101098150015,0.004735827445983887,0.0,0.004896306898444891
0.005634961184114218,0.0038784088101238012,-0.007484344765543938,0.00424834992736578,0.0,0.005331588443368673
0.0057662418112158775,0.003505745204165578,-0.008111856877803802,0.004277375061064959,0.0,0.005176621954888105
0.0056416792795062065,0.0035184843000024557,-0.00796119961887598,0.004199692979454994,0.0,0.004947553388774395
0.0050971307791769505,0.0036978775169700384,-0.007608496118336916,0.004064899403601885,0.0,0.005246854852885008
0.004722777754068375,0.003396738553419709,-0.008181002922356129,0.00400855066254735,0.0,0.005132613237947226
0.005107448901981115,0.0034036554861813784,-0.007608376443386078,0.004346463363617659,0.0,0.005533242132514715
0.005218910053372383,0.003378861118108034,-0.007421528920531273,0.004433911759406328,0.0,0.005560779944062233
0.005567483603954315,0.0035016273614019156,-0.008217446506023407,0.004411506000906229,0.0,0.0055578602477908134
0.005209528375416994,0.0037220569793134928,-0.008162537589669228,0.00425763288512826,0.0,0.0051382919773459435
0.004873167257755995,0.0037420117296278477,-0.007686191238462925,0.0044026500545442104,0.0,0.005119761452078819
0.00527150509878993,0.0038649989292025566,-0.0073608397506177425,0.004135851748287678,0.0,0.005734067875891924
0.005144792143255472,0.003603764111176133,-0.007949216291308403,0.004259916488081217,0.0,0.005202151369303465
0.0049534752033650875,0.0035850286949425936,-0.008094601333141327,0.004584460984915495,0.0,0.0049059041775763035
0.0056491997092962265,0.0037428729701787233,-0.007652271073311567,0.004342090804129839,0.0,0.005302853882312775
0.00527981948107481,0.003362926421687007,-0.007654073182493448,0.003992358222603798,0.0,0.005580362863838673
0.005414253566414118,0.003505449742078781,-0.00835070013999939,0.0042605153284966946,0.0,0.005355298984795809
0.005200326908379793,0.0038236896507441998,-0.007623834069818258,0.0041123004630208015,0.0,0.005115807522088289
0.005849645473062992,0.003952749073505402,-0.007222975138574839,0.003973035607486963,0.0,0.0056962259113788605
0.005379116162657738,0.0038606123998761177,-0.0076222908683121204,0.0043983301147818565,0.0,0.0055588725954294205
0.005441902205348015,0.003709648735821247,-0.0083426209166646,0.00467506842687726,0.0,0.005361768417060375
0.005566027015447617,0.003671326907351613,-0.008415021933615208,0.004529602825641632,0.0,0.004619193729013205
0.00519951619207859,0.0037311622872948647,-0.008036777377128601,0.004397107753902674,0.0,0.004612206015735865
0.005477683153003454,0.003854131093248725,-0.00791887566447258,0.00431996351107955,0.0,0.005091025028377771
0.005177380982786417,0.003630364313721657,-0.007812151685357094,0.004371531307697296,0.0,0.005397827830165625
0.005847557447850704,0.00409587612375617,-0.00739078875631094,0.004365087021142244,0.0,0.005211212672293186
0.005787096451967955,0.004166989121586084,-0.007433891762048006,0.004499240778386593,0.0,0.00542704202234745
0.005787096451967955,0.004166989121586084,-0.007433891762048006,0.004499240778386593,0.0,0.00542704202234745
0.005656471475958824,0.0037151069846004248,-0.008295143954455853,0.0046868277713656425,0.0,0.00473205279558897
0.005190423224121332,0.003514892188832164,-0.008256410248577595,0.004645535256713629,0.0,0.004602767061442137
0.005266026593744755,0.003989710006862879,-0.007622590288519859,0.0041493880562484264,0.0,0.004611602518707514
0.005573319271206856,0.004229135811328888,-0.008059347048401833,0.004406907595694065,0.0,0.004999564029276371
0.0061344122514128685,0.004024316091090441,-0.007863087579607964,0.004170065745711327,0.0,0.005214819218963385
0.005565271712839603,0.003389644669368863,-0.007520316634327173,0.004269304219633341,0.0,0.005596193950623274
0.005953394342213869,0.003811741014942527,-0.007077597081661224,0.004498110618442297,0.0,0.0051169549115002155
0.005052646156400442,0.004012832418084145,-0.008528502658009529,0.004319529514759779,0.0,0.004676164593547583
0.00572151318192482,0.003936442546546459,-0.008208949118852615,0.004248693585395813,0.0,0.004933645483106375
0.005887819919735193,0.0036071366630494595,-0.00714894151315093,0.004494214430451393,0.0,0.0050560045056045055
0.005813963711261749,0.00376441259868443,-0.007160895504057407,0.0043307277373969555,0.0,0.005088600795716047
0.006168803200125694,0.0038603886496275663,-0.008101159706711769,0.004486938007175922,0.0,0.004942769650369883
0.005456353072077036,0.00362580013461411,-0.008216743357479572,0.0048935916274785995,0.0,0.004776332527399063
0.005869310814887285,0.003569285850971937,-0.007174483500421047,0.004538622684776783,0.0,0.004995232913643122
0.005426881834864616,0.00393830519169569,-0.008061308413743973,0.0044819144532084465,0.0,0.0048756892792880535
0.0060293651185929775,0.00386425550095737,-0.008084824308753014,0.004234047140926123,0.0,0.004868941847234964
0.006154126953333616,0.00369532173499465,-0.007491761352866888,0.0042951456271111965,4.124840415897779e-06,0.004934839904308319
0.006263629999011755,0.0036822003312408924,-0.007181129883974791,0.004168813582509756,2.6932258379019913e-07,0.005534639582037926
0.005619140341877937,0.003733355551958084,-0.00787289347499609,0.004306188318878412,1.7584842026963088e-08,0.005203667096793652
0.0056444499641656876,0.003716415725648403,-0.007892857305705547,0.0045095523819327354,1.1481645634248139e-09,0.004945792723447084
0.006489895284175873,0.0037122780922800303,-0.007582236081361771,0.004475571680814028,7.496694237607571e-11,0.004673232790082693
0.006204845849424601,0.0037765190936625004,-0.008244981057941914,0.004389594309031963,4.8948054810760144e-12,0.00469204830005765
0.005762934684753418,0.003829412627965212,-0.008517235517501831,0.004308463539928198,3.1959583091968613e-13,0.004756459034979343
0.005809909198433161,0.0038188742473721504,-0.007874565199017525,0.004305345006287098,2.0867324117572125e-14,0.004898219369351864
0.006055235862731934,0.0038462025113403797,-0.007562018930912018,0.004496309906244278,1.3624871181302611e-15,0.0049850125797092915
0.006345362402498722,0.004325733985751867,-0.007565173786133528,0.004634194076061249,8.896067422423226e-17,0.004955310840159655
0.006362875457853079,0.0042198472656309605,-0.008265647105872631,0.004669545218348503,5.808496589342781e-18,0.0051130857318639755
0.006119582336395979,0.0044854506850242615,-0.007992117665708065,0.00446067051962018,3.792533411157958e-19,0.005007629282772541
0.006119582336395979,0.0044854506850242615,-0.007992117665708065,0.00446067051962018,3.792533411157958e-19,0.005007629282772541
0.006180088501423597,0.004181821830570698,-0.007310907356441021,0.004122477024793625,2.4762532131762855e-20,0.004879036918282509
0.005896181799471378,0.004027883987873793,-0.007460620254278183,0.003976832143962383,1.6168163937531327e-21,0.004610723350197077
0.006213446147739887,0.003969982732087374,-0.008031818084418774,0.0042975121177732944,1.0556655909436449e-22,0.004705327097326517
0.006651410833001137,0.003903845092281699,-0.008217724040150642,0.00453914375975728,6.892742367989155e-24,0.005118168890476227
0.0063756369054317474,0.004348202142864466,-0.007809755392372608,0.004662447143346071,4.500468227580108e-25,0.004649344366043806
0.006195548921823502,0.00413133529946208,-0.007951422594487667,0.004709439817816019,2.9384840689377274e-26,0.004319332540035248
0.006127254571765661,0.004108963534235954,-0.008318508975207806,0.004710064735263586,1.918620077283314e-27,0.004268800839781761
0.006202060263603926,0.0039217667654156685,-0.007152978330850601,0.004241635091602802,1.2527217341797852e-28,0.004448294639587402
0.006389607209712267,0.004371207673102617,-0.00817157607525587,0.0043005566112697124,5.3405487226501865e-31,0.0047423881478607655
0.006494997534900904,0.004168889485299587,-0.008282065391540527,0.004547928459942341,3.4869967278548034e-32,0.004655568394809961
0.0061632259748876095,0.003971191588789225,-0.00775692006573081,0.004721338860690594,2.276759906809994e-33,0.004472038708627224
0.006600953638553619,0.003938722889870405,-0.007610608823597431,0.005097170826047659,1.4865613801185585e-34,0.004449998959898949
0.00686275027692318,0.003924003802239895,-0.008234799839556217,0.0049629188142716885,9.706184706969435e-36,0.004549033474177122
0.006854689214378595,0.004418809432536364,-0.00719233974814415,0.004729375243186951,6.337445620844639e-37,0.004209245089441538
0.006213653367012739,0.00468546012416482,-0.007335349451750517,0.004571367520838976,4.137898999719531e-38,0.004369153641164303
0.006406422704458237,0.004261879716068506,-0.008214788511395454,0.004873374477028847,2.7017524846644987e-39,0.004381582606583834
0.0067731537856161594,0.0038977826479822397,-0.008042007684707642,0.004640751518309116,1.7640525977845825e-40,0.0046989805996418
0.00722151855006814,0.003808596869930625,-0.0076473066583275795,0.004652680363506079,1.1518673376749996e-41,0.004716682713478804
0.00749716954305768,0.0039973449893295765,-0.007436966989189386,0.004944971296936274,7.524972753424268e-43,0.004901561886072159
0.006417322903871536,0.00423158286139369,-0.007283844519406557,0.004751675762236118,4.90454462513686e-44,0.004450342617928982
0.006629996933043003,0.004462287761271,-0.008125700987875462,0.004441294353455305,2.802596928649634e-45,0.004352648742496967
0.0070035685785114765,0.004555566236376762,-0.00796306598931551,0.004368082154542208,0.0,0.004496406763792038
0.0067770276218652725,0.0039990744553506374,-0.007435586303472519,0.00457256194204092,0.0,0.004584256559610367
0.006455300375819206,0.0032413366716355085,-0.00883125513792038,0.00483495369553566,0.0,0.004682112019509077
0.006100562401115894,0.0024762337561696768,-0.008120653219521046,0.00487132603302598,0.0,0.0044831461273133755
0.006474608089774847,0.0024896226823329926,-0.007647218648344278,0.005032957065850496,0.0,0.004496031440794468
0.006705773528665304,0.00322781247086823,-0.007066469173878431,0.004461807664483786,0.0,0.004572540055960417
0.006294384598731995,0.0037555263843387365,-0.008186758495867252,0.004446064587682486,0.0,0.0041510616429150105
0.006294384598731995,0.0037555263843387365,-0.008186758495867252,0.004446064587682486,0.0,0.0041510616429150105
0.006035224534571171,0.0038305833004415035,-0.008120561949908733,0.004414178431034088,0.0,0.0038268559146672487
0.006559956353157759,0.0031706499867141247,-0.007530009374022484,0.004747937899082899,0.0,0.004274530801922083
0.0064118411391973495,0.003070188919082284,-0.007219130638986826,0.005399043206125498,0.0,0.00419596815481782
0.006340919062495232,0.003081290517002344,-0.008044225163757801,0.005308322608470917,0.0,0.004405697342008352
0.006230364553630352,0.003075206885114312,-0.008493822067975998,0.005262765102088451,0.0,0.0044443546794354916
0.006033497396856546,0.0029379494953900576,-0.007920444943010807,0.005196325480937958,0.0,0.004261310212314129
0.0067729102447628975,0.002755088033154607,-0.008465687744319439,0.005369570106267929,0.0,0.0041688717901706696
0.006171375047415495,0.002802634611725807,-0.007610817905515432,0.00527902040630579,0.0,0.004043348133563995
0.006038257386535406,0.0032761269249022007,-0.007125616539269686,0.00501718046143651,0.0,0.004336028825491667
0.006532439962029457,0.003034158842638135,-0.007842568680644035,0.004852822981774807,0.0,0.004687559325248003
0.006684548687189817,0.003076412947848439,-0.008386889472603798,0.004603595472872257,0.0,0.00455555459484458
0.006342457141727209,0.002913734642788768,-0.008212229236960411,0.00422136252745986,0.0,0.004546628333628178
0.0064117382280528545,0.0029152745846658945,-0.007557200733572245,0.0044370777904987335,0.0,0.004078518133610487
0.006678082048892975,0.0030298109631985426,-0.007616683840751648,0.005227428860962391,0.0,0.003675907850265503
0.007012752816081047,0.0030621441546827555,-0.007887757383286953,0.005561343394219875,0.0,0.004141090903431177
0.006928084418177605,0.003155292244628072,-0.007749574724584818,0.00481661781668663,0.0,0.004536561667919159
0.006511721294373274,0.0030475107487291098,-0.007584745530039072,0.004360799212008715,0.0,0.004683941137045622
0.006637226790189743,0.0030429763719439507,-0.008568314835429192,0.004391944035887718,0.0,0.004359905607998371
0.006788346916437149,0.0028361205477267504,-0.007926358841359615,0.004890672396868467,0.0,0.004004467744380236
0.0069643729366362095,0.003051979700103402,-0.008068216033279896,0.0052963257767260075,0.0,0.004053385928273201
0.007833592593669891,0.003107831347733736,-0.007794179487973452,0.005444821901619434,0.0,0.003957792650908232
0.00667082192376256,0.0032799378968775272,-0.007863350212574005,0.0051616160199046135,0.0,0.0038307493086904287
0.00603264756500721,0.00318214506842196,-0.007857116870582104,0.004951693583279848,0.0,0.0037211081944406033
0.006963400635868311,0.0035026080440729856,-0.007599449250847101,0.004735145717859268,0.0,0.0035132314078509808
0.006914602126926184,0.003284209407866001,-0.009014839306473732,0.004732462577521801,0.0,0.003589702071622014
0.007133706472814083,0.0031812884844839573,-0.008193735964596272,0.004850425757467747,0.0,0.003837449010461569
0.007443957030773163,0.003173108445480466,-0.007381824776530266,0.005170459859073162,0.0,0.004004189744591713
0.007780799176543951,0.003087913617491722,-0.007657632231712341,0.0054695140570402145,0.0,0.003697361098602414
0.007780799176543951,0.003087913617491722,-0.007657632231712341,0.0054695140570402145,0.0,0.003697361098602414
0.0071459123864769936,0.003204270964488387,-0.007942164316773415,0.004850327968597412,0.0,0.0035136814694851637
0.007475521415472031,0.0033546662889420986,-0.007847677916288376,0.00445287162438035,0.0,0.003851020708680153
0.006803772412240505,0.003580002812668681,-0.007615129929035902,0.004829172510653734,0.0,0.00399521179497242
0.0069017186760902405,0.00323519972153008,-0.00740389060229063,0.004924925044178963,0.0,0.0038628531619906425
0.007403141353279352,0.003403393318876624,-0.008728080429136753,0.005028167739510536,0.0,0.0038252724334597588
0.007311089430004358,0.0035408528055995703,-0.008046629838645458,0.005290578119456768,0.0,0.003809950780123472
0.00676344521343708,0.0033541263546794653,-0.007050253916531801,0.004949256777763367,0.0,0.003808707231655717
0.006752866320312023,0.0033568362705409527,-0.008153531700372696,0.004462831653654575,0.0,0.00417760293930769
0.007222341373562813,0.003215665463358164,-0.008845757693052292,0.005657361354678869,0.0,0.003671214682981372
0.007280729245394468,0.003753124736249447,-0.0077300784178078175,0.005590880289673805,0.0,0.0032115692738443613
0.007282632403075695,0.0038037889171391726,-0.007909886538982391,0.005027297884225845,0.0,0.0034024424385279417
0.007505567744374275,0.003387391334399581,-0.007814350537955761,0.004991997964680195,0.0,0.0037240220699459314
0.007458265870809555,0.003591021290048957,-0.0079403817653656,0.005126018542796373,0.0,0.003905648598447442
0.007547368295490742,0.0037517899181693792,-0.008014995604753494,0.004704759921878576,0.0,0.004104192368686199
0.0076526771299541,0.0037529505789279938,-0.008288759738206863,0.004719345364719629,0.0,0.0037998068146407604
0.007767301984131336,0.003266605082899332,-0.008240336552262306,0.005083828698843718,0.0,0.0035481241066008806
0.00754674943163991,0.0030760171357542276,-0.007846354506909847,0.00525365024805069,0.0,0.003651404520496726
0.007636018097400665,0.0032981678377836943,-0.007717825472354889,0.005095736123621464,0.0,0.003494826378300786
0.007460521999746561,0.003703204682096839,-0.008830910548567772,0.004706677980720997,0.0,0.0035248929634690285
0.007624750025570393,0.00339948246255517,-0.009289894253015518,0.004665373358875513,0.0,0.0036248553078621626
0.007560314144939184,0.0035215888638049364,-0.008097480982542038,0.005081633571535349,0.0,0.003698403248563409
0.007541681174188852,0.0032562019769102335,-0.00791485607624054,0.005419575143605471,0.0,0.0037197440396994352
0.007429184392094612,0.003429068485274911,-0.008082859218120575,0.0053329491056501865,0.0,0.0036590902600437403
0.007998977787792683,0.0031149869319051504,-0.007928009144961834,0.005195231642574072,0.0,0.0034516353625804186
0.008366480469703674,0.0031983363442122936,-0.008292751386761665,0.004954759497195482,0.0,0.0033441251143813133
0.008436436764895916,0.0032944842241704464,-0.008842009119689465,0.004894539713859558,0.0,0.003564987098798156
0.008436436764895916,0.0032944842241704464,-0.008842009119689465,0.004894539713859558,0.0,0.003564987098798156
0.0077347541227936745,0.003391025587916374,-0.008274364285171032,0.005228197202086449,0.0,0.0031456327997148037
0.00808956939727068,0.0034978764597326517,-0.008546033874154091,0.004978623706847429,0.0,0.0032831348944455385
0.00808956939727068,0.0034978764597326517,-0.008546033874154091,0.004978623706847429,0.0,0.0032831348944455385
0.007904794067144394,0.0037725609727203846,-0.008524819277226925,0.004806677810847759,0.0,0.003251006593927741
0.008543060161173344,0.003948112949728966,-0.008163098245859146,0.005077727138996124,0.0,0.0035729750525206327
0.007956989109516144,0.0036205649375915527,-0.008236602880060673,0.005292234942317009,0.0,0.0037380442954599857
0.008185899816453457,0.0034788348712027073,-0.00877222791314125,0.0053910440765321255,0.0,0.003344515571370721
0.00773945776745677,0.0036328542046248913,-0.008550724014639854,0.005185011774301529,0.0,0.003360142232850194
0.00817914865911007,0.0037309646140784025,-0.007886689156293869,0.0050868443213403225,0.0,0.0030724292155355215
0.008200356736779213,0.0033720280043780804,-0.00903621967881918,0.0053252363577485085,0.0,0.003573075868189335
0.007910545915365219,0.003375145373865962,-0.008516206406056881,0.005778507329523563,0.0,0.0034602954983711243
0.008197869174182415,0.0035122123081237078,-0.008464894257485867,0.005332892294973135,0.0,0.0035521395038813353
0.008226084522902966,0.0035486153792589903,-0.00895418506115675,0.004990641493350267,0.0,0.0034125973470509052
0.007689821068197489,0.0034171147271990776,-0.008509451523423195,0.005341503769159317,0.0,0.003198398509994149
0.008010351099073887,0.003501067403703928,-0.00838429294526577,0.00507613830268383,0.0,0.0028651871252804995
0.008832555264234543,0.0037299341056495905,-0.008616217412054539,0.005316847003996372,0.0,0.0027531704399734735
0.008082754909992218,0.0033918318804353476,-0.008755135349929333,0.0055840774439275265,0.0,0.00259400880895555
0.007996522821485996,0.0035649898927658796,-0.008415274322032928,0.0056609176099300385,0.0,0.0024826007429510355
0.008319058455526829,0.0037359660491347313,-0.008725021034479141,0.005237102508544922,0.0,0.0026310705579817295
0.008805460296571255,0.0033793910406529903,-0.00853382982313633,0.005344209261238575,0.0,0.0028144032694399357
0.008071144111454487,0.003534500254318118,-0.008335676975548267,0.005652636755257845,0.0,0.0028910755645483732
0.008400528691709042,0.003671221202239394,-0.0077623482793569565,0.005560674238950014,0.0,0.0027953817043453455
0.008624068461358547,0.0033881354611366987,-0.008448915556073189,0.0055177584290504456,0.0,0.0028670441824942827
0.008537325076758862,0.003371452447026968,-0.00869689229875803,0.005158201325684786,0.0,0.0026861168444156647
0.00831875391304493,0.0034212416503578424,-0.008441704325377941,0.0051781777292490005,0.0,0.0025112528819590807
0.00864742137491703,0.003429967677220702,-0.0086975721642375,0.0054159765131771564,0.0,0.002311516320332885
0.008788767270743847,0.003387205768376589,-0.009036189876496792,0.006086410954594612,0.0,0.0024046620819717646
0.008524577133357525,0.003586821025237441,-0.008062712848186493,0.006009590346366167,0.0,0.002389651956036687
0.008524577133357525,0.003586821025237441,-0.008062712848186493,0.006009590346366167,0.0,0.002389651956036687
0.009705900214612484,0.0034908705856651068,-0.008198821917176247,0.005877077579498291,0.0,0.0023204016033560038
0.008523019030690193,0.003569220192730427,-0.009624449536204338,0.0054705338552594185,0.0,0.0022972410079091787
0.008402823470532894,0.004094772506505251,-0.00854581594467163,0.00541753089055419,0.0,0.0024676492903381586
0.008540276437997818,0.003678028006106615,-0.008297722786664963,0.005215825513005257,0.0,0.0023658035788685083
0.00931118056178093,0.0035789727699011564,-0.00932262558490038,0.0054533048532903194,0.0,0.0023192474618554115
0.008847190998494625,0.003642482217401266,-0.008418502286076546,0.005468943156301975,0.0,0.002348481910303235
0.008609890006482601,0.0037128084804862738,-0.00840123649686575,0.005593462847173214,0.0,0.002265439135953784
0.008937524631619453,0.0038012750446796417,-0.008631334640085697,0.005459688603878021,0.0,0.002421024953946471
0.008454901166260242,0.0036012728232890368,-0.0086364122107625,0.005835903342813253,0.0,0.002431199187412858
0.008625583723187447,0.004084988031536341,-0.008231276646256447,0.006053263787180185,0.0,0.0024915148969739676
0.00882912427186966,0.0036502976436167955,-0.008437014184892178,0.005737749859690666,0.0,0.0024283784441649914
0.00871041975915432,0.0035962772089987993,-0.008299576118588448,0.0058830357156693935,0.0,0.0023449580185115337
0.008778433315455914,0.004182686563581228,-0.008196575567126274,0.005555585492402315,0.0,0.0023532251361757517
0.009226822294294834,0.003779597580432892,-0.00844959169626236,0.00550526799634099,0.0,0.0021664511878043413
0.009099118411540985,0.0035419499035924673,-0.008822950534522533,0.005433348007500172,0.0,0.0020837020128965378
0.00897628627717495,0.0036404021084308624,-0.008571752347052097,0.0059131053276360035,0.0,0.0019176376517862082
0.009247112087905407,0.0037724762223660946,-0.00827343761920929,0.005782639607787132,-0.0001173153577838093,0.0018906615441665053
0.008762409910559654,0.0032898031640797853,-0.00848923809826374,0.00605623098090291,-0.00014293927233666182,0.0018521712627261877
0.008958680555224419,0.0030890614725649357,-0.008401148021221161,0.005665163975208998,-0.00014039823145139962,0.001909442595206201
0.00911489874124527,0.003079276066273451,-0.008182313293218613,0.005760217551141977,-0.00013627132284455,0.002161923563107848
0.010015236213803291,0.0035423601511865854,-0.00771546782925725,0.005537742283195257,-0.0001322738971794024,0.002126117702573538
0.008635853417217731,0.0034304948057979345,-0.008924976922571659,0.005659246351569891,-0.00014110960182733834,0.001841642428189516
0.008900614455342293,0.003590259002521634,-0.008362814784049988,0.006029785145074129,-0.000149061088450253,0.0017598513513803482
0.00960361585021019,0.003251946996897459,-0.00760656176134944,0.0056346869096159935,-0.00014580994320567697,0.0016509619308635592
0.009676024317741394,0.0030609145760536194,-0.008027398958802223,0.005877354182302952,-0.0001420251210220158,0.0015962852630764246
0.0090035954490304,0.003127103438600898,-0.00910216011106968,0.006034182850271463,-0.0001383881754009053,0.00164308852981776
0.009636037051677704,0.0033355429768562317,-0.008407402783632278,0.006077675148844719,-0.00013493068399839103,0.002001694869250059
0.009000659920275211,0.00337832048535347,-0.007849469780921936,0.005663692951202393,-0.00014242059842217714,0.0021777807269245386
0.008864938281476498,0.00348335737362504,-0.008783848024904728,0.0057634273543953896,-0.0001491975417593494,0.0022481828927993774
0.008864938281476498,0.00348335737362504,-0.008783848024904728,0.0057634273543953896,-0.0001491975417593494,0.0022481828927993774
0.009217939339578152,0.0032245407346636057,-0.00848317053169012,0.006418988108634949,-0.00014639367873314768,0.002023323904722929
0.009790048003196716,0.0035096509382128716,-0.007853992283344269,0.006170689594000578,-0.0001431113196304068,0.0017488532466813922
0.009078564122319221,0.0032994572538882494,-0.008408347144722939,0.005959927570074797,-0.0001399352913722396,0.0017158017726615071
0.009420495480298996,0.0034122997894883156,-0.008896949701011181,0.006098630838096142,-0.0001368945959256962,0.0016198338707908988
0.00943571887910366,0.003072671592235565,-0.008348535746335983,0.006012691184878349,-0.00013398304872680455,0.001649566343985498
0.009228949435055256,0.0033226169180125,-0.008348486386239529,0.0067057241685688496,-0.0001375463034491986,0.0019910114351660013
0.009488789364695549,0.0032174738589674234,-0.008954199962317944,0.006026534829288721,-0.00014333068975247443,0.0022275468800216913
0.009799187071621418,0.0035283511970192194,-0.008178153075277805,0.006012598052620888,-0.00014107880997471511,0.0019743521697819233
0.009678567759692669,0.003836397547274828,-0.008539638482034206,0.006164328195154667,-0.00013840310566592962,0.0015925336629152298
0.009538965299725533,0.0034384639002382755,-0.008525167591869831,0.006295518018305302,-0.0001357951114187017,0.0013012835988774896
0.009484855458140373,0.0035783813800662756,-0.008272114209830761,0.006295722909271717,-0.00017147256585303694,0.0012560664908960462
0.009765979833900928,0.003226724686101079,-0.008034555241465569,0.00637059984728694,-0.0001771993556758389,0.0012301129754632711
0.009656114503741264,0.0032717667054384947,-0.008321113884449005,0.006000319495797157,-0.00017126947932410985,0.001265522907488048
0.009489240124821663,0.0034146481193602085,-0.008961641229689121,0.0062368023209273815,-0.0001650409831199795,0.0013399056624621153
0.00991093274205923,0.0034507554955780506,-0.008112536743283272,0.006537779700011015,-0.00015920426812954247,0.0017095759976655245
0.009665053337812424,0.0036070102360099554,-0.008212605491280556,0.00579436682164669,-0.00015376385999843478,0.0017770994454622269
0.00928883720189333,0.003377488348633051,-0.00870120245963335,0.0058698495849967,-0.00014868302969262004,0.0017984911100938916
0.009718609042465687,0.0036119683645665646,-0.008395534008741379,0.005501303356140852,-0.00014392673620022833,0.0018296006601303816
0.009847869165241718,0.003341148141771555,-0.007595366798341274,0.006009567063301802,-0.00013946597755420953,0.001715887919999659
0.009766023606061935,0.003549391170963645,-0.008170758374035358,0.006297193001955748,-0.0001352730905637145,0.00166468252427876
0.00971810519695282,0.0036707574035972357,-0.008356006816029549,0.006296208128333092,-0.0001313250104431063,0.0015543692279607058
0.009638365358114243,0.0033471316564828157,-0.008024155162274837,0.006044118665158749,-0.00012760088429786265,0.0013376375427469611
0.009386750869452953,0.003274238435551524,-0.008226235397160053,0.0059319003485143185,-0.00012408212933223695,0.0013404913479462266
0.011091156862676144,0.0032403504010289907,-0.008897093124687672,0.006520948838442564,-0.000120752134534996,0.0013288961490616202
0.009512694552540779,0.0033880150876939297,-0.008413939736783504,0.007207368966192007,-0.00013801663590129465,0.001399646862410009
0.008993602357804775,0.003213249146938324,-0.008358796127140522,0.006582363974303007,-0.00013731938088312745,0.0013903934741392732
0.008993602357804775,0.003213249146938324,-0.008358796127140522,0.006582363974303007,-0.00013731938088312745,0.0013903934741392732
0.010185718536376953,0.0035628587938845158,-0.008210446685552597,0.006047012750059366,-0.0001340932649327442,0.0014613305684179068
0.010115406475961208,0.0033066810574382544,-0.008525857701897621,0.006343229208141565,-0.00013085555110592395,0.001557509764097631
0.009645028039813042,0.0034457524307072163,-0.007939130999147892,0.006891755387187004,-0.0001277601986657828,0.001526141189970076
0.010010957717895508,0.0030442234128713608,-0.00815870426595211,0.006981069687753916,-0.00012480758596211672,0.0016736435936763883
0.009999284520745277,0.0030157254077494144,-0.008522412739694118,0.0063179973512887955,-0.0001319815928582102,0.0017094562062993646
0.009418023750185966,0.0033870760817080736,-0.008215365000069141,0.006242601200938225,-0.0001385000068694353,0.001546367653645575
0.009762330912053585,0.0033003694843500853,-0.008106409572064877,0.00674774032086134,-0.0001361230679322034,0.0014166876208037138
0.010207459330558777,0.003360441653057933,-0.008410499431192875,0.00659486697986722,-0.00013052432041149586,0.0012266639387235045
0.009936883114278316,0.003003718564286828,-0.007533734198659658,0.006567905656993389,-0.00012787508603651077,0.0010272302897647023
0.009702011942863464,0.003078240668401122,-0.008673713542521,0.006604994647204876,-0.00012533101835288107,0.0010559526272118092
0.010301471687853336,0.003040518146008253,-0.009556001052260399,0.006875006482005119,-0.0001228863839060068,0.0010806694626808167
0.010187758132815361,0.0033567287027835846,-0.009589332155883312,0.006945344619452953,-0.00012053525279043242,0.0013240743428468704
0.009984980337321758,0.0032121273688971996,-0.009124619886279106,0.007217546459287405,-0.0001340438611805439,0.0014832380693405867
0.00979711301624775,0.0034938447643071413,-0.009396680630743504,0.006657142657786608,-0.00013260408013593405,0.0015238452469930053
0.010654279962182045,0.0032422849908471107,-0.009401772171258926,0.0067794108763337135,-0.00013027206296101213,0.0015073902904987335
0.010005852207541466,0.0031895276624709368,-0.00913277454674244,0.006983373314142227,-0.00012796114606317133,0.001210054149851203
0.009613016620278358,0.003228043206036091,-0.010332941077649593,0.006878129206597805,-0.00012572687410283834,0.0011415524641051888
0.01029649842530489,0.003140331245958805,-0.009315689094364643,0.00660522049292922,-0.00012356918887235224,0.0009744536364451051
0.010162587277591228,0.003555400762706995,-0.009579896926879883,0.00610258849337697,-0.00012148421228630468,0.000844125053845346
0.009636478498578072,0.003919387236237526,-0.010047506541013718,0.006586366333067417,-0.00011955950321862474,0.000842641806229949
0.010018114931881428,0.0034759794361889362,-0.009875291958451271,0.0070020402781665325,-0.00012026086187688634,0.0007599966484121978
0.010302911512553692,0.003561293240636587,-0.00950516015291214,0.006481229793280363,-0.00011737851309590042,0.0005690408870577812
0.009891165420413017,0.003369283163920045,-0.010780254378914833,0.005730169825255871,-0.00011441056994954124,0.0005759561317972839
0.010677352547645569,0.0033867156598716974,-0.009936042129993439,0.006362828891724348,-0.00013239563850220293,0.0005945147131569684
0.010062514804303646,0.003443764057010412,-0.009402935393154621,0.006654494907706976,-0.00013055303134024143,0.0006210276042111218
0.010062514804303646,0.003443764057010412,-0.009402935393154621,0.006654494907706976,-0.00013055303134024143,0.0006210276042111218
0.009946901351213455,0.0034297730308026075,-0.010397521778941154,0.0071945153176784515,-0.00012755734496749938,0.0007541736704297364
0.010346793569624424,0.0033702112268656492,-0.009967786259949207,0.006201288662850857,-0.00014265924983192235,0.0007774824043735862
0.009928412735462189,0.003571950364857912,-0.009874241426587105,0.006270177662372589,-0.0001419317559339106,0.000795522122643888
0.009755328297615051,0.0033842017874121666,-0.01058171410113573,0.0068695759400725365,-0.00013896355812903494,0.0007008453831076622
0.01011516060680151,0.003499529790133238,-0.009829657152295113,0.007502266671508551,-0.00013597462384495884,0.0006206962279975414
0.009902444668114185,0.0037212760653346777,-0.009815176017582417,0.006789395119994879,-0.00013310261419974267,0.0006364219589158893
0.010402216576039791,0.0034149799030274153,-0.01061787735670805,0.006415432784706354,-0.00014772826398257166,0.0005877983057871461
0.010152020491659641,0.003548586741089821,-0.010475030168890953,0.006399207282811403,-0.00014586886391043663,0.000538236228749156
0.01039618905633688,0.0031622806563973427,-0.010398144833743572,0.007370229810476303,-0.0002187288337154314,0.0005250129615888
0.010061788372695446,0.003036212408915162,-0.009831391274929047,0.007003715727478266,-0.00027877939282916486,0.000489570782519877
0.010598428547382355,0.0033343778923153877,-0.009860322810709476,0.006803917232900858,-0.000267049006652087,0.0004584025882650167
0.010598428547382355,0.0033343778923153877,-0.009860322810709476,0.006803917232900858,-0.000267049006652087,0.0004584025882650167
0.010561302304267883,0.0034739382099360228,-0.010281456634402275,0.00706053152680397,-0.00028634752379730344,0.00034879331360571086
0.009810436517000198,0.003676569787785411,-0.0097719831392169,0.006969241891056299,-0.00027229601982980967,0.00031703876447863877
0.010067207738757133,0.0033725255634635687,-0.009901424869894981,0.007400157395750284,-0.0002592446398921311,0.00029571991763077676
0.010144336149096489,0.003518354147672653,-0.009890207089483738,0.007124521769583225,-0.0002473679487593472,0.0002774468157440424
0.010158312506973743,0.0036135578993707895,-0.009589145891368389,0.007370855659246445,-0.00027068634517490864,0.0002613254764582962
0.010128282941877842,0.003255779156461358,-0.009975199587643147,0.0069906506687402725,-0.0002640259626787156,0.0002469773171469569
0.010019146837294102,0.0030436033848673105,-0.009738926775753498,0.006837172899395227,-0.00025369797367602587,0.00023412288282997906
0.010566182434558868,0.0029763211496174335,-0.009671338833868504,0.006988252513110638,-0.00024389471218455583,0.0002553872182033956
0.0102407056838274,0.0032908387947827578,-0.009893451817333698,0.007537312339991331,-0.00023480427626054734,0.00025369966169819236
0.009935254231095314,0.003653156105428934,-0.009825702756643295,0.006803307682275772,-0.00024220749037340283,0.00024295826733577996
0.00996062345802784,0.0037813670933246613,-0.010529984720051289,0.006807099562138319,-0.00024865317391231656,0.0002325379173271358
0.010337444953620434,0.003347111400216818,-0.009837189689278603,0.00688524404540658,-0.00024128764925990254,0.0002229381207143888
0.009793072938919067,0.003472926327958703,-0.009324287064373493,0.007525897119194269,-0.00023352380958385766,0.0002140974102076143
0.00999700091779232,0.0036801956593990326,-0.010501482523977757,0.006928747985512018,-0.0002261906338389963,0.00020593185035977513
0.010602951049804688,0.003233097493648529,-0.010104377754032612,0.006590850651264191,-0.0002447075385134667,0.00019836565479636192
0.01023149210959673,0.00327502004802227,-0.009313782677054405,0.006748397834599018,-0.0002359192440053448,0.00019133587193209678
0.01031285896897316,0.0033587482757866383,-0.010230988264083862,0.006976074073463678,-0.00022441516921389848,0.00018478804850019515
0.01031285896897316,0.0033587482757866383,-0.010230988264083862,0.006976074073463678,-0.00022441516921389848,0.00018478804850019515
0.01109395083039999,0.0032263544853776693,-0.009386949241161346,0.007249589078128338,-0.0002137688861694187,0.0001786731882020831
0.010245428420603275,0.0034384464379400015,-0.009446966461837292,0.0071618761867284775,-0.0002394291223026812,0.00017294977442361414
0.010719836689531803,0.00336386077105999,-0.009678435511887074,0.007266804110258818,-0.00023390456044580787,0.00016758205310907215
0.010536018759012222,0.0033942253794521093,-0.009712600149214268,0.0070926230400800705,-0.00025214964989572763,0.0001625377481104806
0.010154488496482372,0.0036120617296546698,-0.009707066230475903,0.007296190597116947,-0.00025084204389713705,0.00015778788656461984
0.010251053608953953,0.003321852767840028,-0.009586254134774208,0.00725592952221632,-0.00024178408784791827,0.00017223594477400184
0.010609748773276806,0.0031640573870390654,-0.009800269268453121,0.0072952755726873875,-0.00023288291413336992,0.00017348903929814696
0.011158145032823086,0.003196143079549074,-0.009448024444282055,0.007958251982927322,-0.00022458218154497445,0.0001692200021352619
0.01043929997831583,0.003520611673593521,-0.009777477011084557,0.007610857952386141,-0.00023905641864985228,0.00016061817586887628
0.010567614808678627,0.003718635765835643,-0.009509566240012646,0.00651908153668046,-0.0002318317856406793,0.00015662511577829719
0.01094892155379057,0.0037737684324383736,-0.009619148448109627,0.006917073391377926,-0.00022462877677753568,0.00015282521781045943
0.010316825471818447,0.00333635276183486,-0.009976323693990707,0.008010347373783588,-0.00021783461852464825,0.0001492059527663514
0.01211301889270544,0.0030946123879402876,-0.009699606336653233,0.0079148905351758,-0.00025581082445569336,8.128704939736053e-05
0.012579947710037231,0.0031534291338175535,-0.009528198279440403,0.007444224786013365,-0.00025596184423193336,5.849066292284988e-05
0.012541575357317924,0.003338801907375455,-0.01015161070972681,0.00711792754009366,-0.0002430923777865246,5.537254401133396e-05
0.012592419981956482,0.003400457324460149,-0.009773259982466698,0.007285958621650934,-0.0002306900278199464,5.3636333177564666e-05
0.012104405090212822,0.0031276249792426825,-0.009497120045125484,0.00737021816894412,-0.00021944080071989447,5.20786561537534e-05
0.012671752832829952,0.003110927762463689,-0.009946734644472599,0.0073448228649795055,-0.00024547980865463614,5.0613794883247465e-05
0.01229880191385746,0.0032926390413194895,-0.0094707440584898,0.0077738091349601746,-0.0002395577757852152,4.922945299767889e-05
0.012512832880020142,0.0030160057358443737,-0.009334715083241463,0.007507242728024721,-0.00022969066048972309,4.7918827476678416e-05
0.012329396791756153,0.0030554893892258406,-0.009980347938835621,0.0070463018491864204,-0.00022033820278011262,4.6676159399794415e-05
0.01231491006910801,0.003343299962580204,-0.009454410523176193,0.007161994930356741,-0.00021169940009713173,4.549631194095127e-05
0.012837158516049385,0.003346014069393277,-0.009168669581413269,0.0076148733496665955,-0.0002288210525875911,3.3472326322225854e-05
0.012444956228137016,0.003342687850818038,-0.00954968761652708,0.00785042904317379,-0.0002284456859342754,2.239033710793592e-05
0.013400504365563393,0.0031099726911634207,-0.008890013210475445,0.00743043003603816,-0.00022095050371717662,2.119289456459228e-05
0.013400504365563393,0.0031099726911634207,-0.008890013210475445,0.00743043003603816,-0.00022095050371717662,2.119289456459228e-05
0.012740026228129864,0.0028135923203080893,-0.008860315196216106,0.007435997016727924,-0.00021349583403207362,2.0662502720369957e-05
0.012880304828286171,0.002991696586832404,-0.009804509580135345,0.00781389232724905,-0.00020649952057283372,2.0196048353682272e-05
0.012673642486333847,0.003037438029423356,-0.009637382812798023,0.007756455335766077,-0.00019994514877907932,1.0039787412097212e-05
0.013139108195900917,0.0030693563167005777,-0.009454865008592606,0.007632758934050798,-0.0001937940833158791,6.555263780683163e-07
0.012650570832192898,0.0028798202984035015,-0.009842630475759506,0.007668104954063892,-0.00018801023543346673,4.280119370037028e-08
0.013262744061648846,0.002928131492808461,-0.009830398485064507,0.0076980083249509335,-0.0001825616491260007,2.794612097289928e-09
0.013062010519206524,0.0031424127519130707,-0.00914157647639513,0.007919840514659882,-0.00017741993360687047,1.824682072104622e-10
0.012598245404660702,0.0031980748753994703,-0.009881565347313881,0.007695341017097235,-0.00017255991406273097,1.191387006410638e-11
0.012851809151470661,0.002978260861709714,-0.01047434937208891,0.007559766061604023,-0.00016795915144030005,7.778905557892513e-13
0.013278048485517502,0.0028096833266317844,-0.009820833802223206,0.008011101745069027,-0.00018145955982618034,3.3162693020139097e-15
0.013030702248215675,0.003046846715733409,-0.009781007654964924,0.007603863719850779,-0.00017768624820746481,-0.0001460975909139961
0.013213986530900002,0.003083257470279932,-0.009353866800665855,0.007409372366964817,-0.0001734516117721796,-0.0009627420222386718
0.013026374392211437,0.0030641944613307714,-0.009921119548380375,0.007613237481564283,-0.00016937423788476735,-0.000997821451164782
0.013108659535646439,0.002946235937997699,-0.009651748463511467,0.007911709137260914,-0.00016548152780160308,-0.0008941065752878785
0.013478548265993595,0.002969634486362338,-0.0092433737590909,0.007764712441712618,-0.00016181985847651958,-0.0008887514122761786
0.014248674735426903,0.002966130618005991,-0.009997778572142124,0.007185508497059345,-0.00015297606296371669,-0.0007971396553330123
0.013292756862938404,0.0032423483207821846,-0.008590154349803925,0.007212245836853981,-0.00014773437578696758,-0.0007374181295745075
0.012838774360716343,0.0031320650596171618,-0.009948685765266418,0.007585421670228243,-0.0001430245174560696,-0.0007144002011045814
0.013514191843569279,0.0028653263580054045,-0.01098948996514082,0.00754338875412941,-0.00013861735351383686,-0.0007349774823524058
0.013165712356567383,0.0030181393958628178,-0.01027359813451767,0.007628097198903561,-0.00014767058019060642,-0.000778691319283098
0.013501638546586037,0.0030111195519566536,-0.009994564577937126,0.00816798210144043,-0.0001557922805659473,-0.0011637520510703325
0.013186194933950901,0.0029289221856743097,-0.010686875320971012,0.00793313980102539,-0.0001522095553809777,-0.0013202993432059884
0.013362890109419823,0.0029246187768876553,-0.009865626692771912,0.008139535784721375,-0.00016020632756408304,-0.0019077365286648273
0.013295341283082962,0.002992461435496807,-0.009838387370109558,0.007871021516621113,-0.0001673414371907711,-0.0018850993365049362
0.013569892384111881,0.003143779467791319,-0.010516312904655933,0.007845630869269371,-0.0001637361419852823,-0.0016353670507669449
0.013390111736953259,0.003053562482818961,-0.01003001444041729,0.007484798319637775,-0.00017083891725633293,-0.0014719031751155853
0.013262712396681309,0.0033480715937912464,-0.010583383962512016,0.007362891919910908,-0.0001771780225681141,-0.0014538407558575273
0.013569646514952183,0.0032126526348292828,-0.010907919146120548,0.007750961929559708,-0.0001735947298584506,-0.0013848051894456148
0.013690647669136524,0.0030271911527961493,-0.010038189589977264,0.008065899834036827,-0.00016955182945821434,-0.0014662450412288308
0.014138994738459587,0.0030312470626085997,-0.01010388508439064,0.007848186418414116,-0.00016565337136853486,-0.0018191803246736526
0.014138994738459587,0.0030312470626085997,-0.01010388508439064,0.007848186418414116,-0.00016565337136853486,-0.0018191803246736526
0.013765904121100903,0.003121960209682584,-0.010361370630562305,0.0074730971828103065,-0.0002679972385521978,-0.002077623503282666
0.013832285068929195,0.00303820101544261,-0.009922466240823269,0.008146556094288826,-0.0002672592527233064,-0.0022406100761145353
0.013723264448344707,0.0030469330959022045,-0.011033776216208935,0.008240913040935993,-0.00025320996064692736,-0.0021476158872246742
0.013904280960559845,0.0032447539269924164,-0.010368063114583492,0.007951830513775349,-0.0002631612296681851,-0.001947919954545796
0.014405757188796997,0.003268852597102523,-0.010540197603404522,0.008312269113957882,-0.00025991525035351515,-0.0018325885757803917
0.013941076584160328,0.00327273178845644,-0.010124824941158295,0.008185614831745625,-0.00024806431611068547,-0.0019119976786896586
0.014203231781721115,0.003108095610514283,-0.010443231090903282,0.007751208730041981,-0.00026637379778549075,-0.002105733845382929
0.013672275468707085,0.0032209022901952267,-0.01128799095749855,0.008146116510033607,-0.00026438318309374154,-0.0019700354896485806
0.014017077162861824,0.003133589867502451,-0.010496251285076141,0.008476614020764828,-0.00025431052199564874,-0.001869716215878725
0.014069998636841774,0.0029937184881418943,-0.010797116905450821,0.008285563439130783,-0.0002615751000121236,-0.001975091639906168
0.014544191770255566,0.0030226288363337517,-0.010496862232685089,0.007829775102436543,-0.0002678043965715915,-0.002819362562149763
0.013787556439638138,0.003184883389621973,-0.010621054098010063,0.008570045232772827,-0.00025920491316355765,-0.0035844158846884966
0.014082591980695724,0.003083441872149706,-0.011451906524598598,0.008495560847222805,-0.0002892250777222216,-0.003544892417266965
0.013684156350791454,0.0030450071208178997,-0.01046929694712162,0.007739544380456209,-0.00030729029094800353,-0.0027989549562335014
0.014170195907354355,0.003458961145952344,-0.010342534631490707,0.007825019769370556,-0.0003326670848764479,-0.0024745508562773466
0.01395293790847063,0.0031049198005348444,-0.011056318879127502,0.008316763676702976,-0.00032606421154923737,-0.0025097436737269163
0.014523457735776901,0.003117566928267479,-0.01091906800866127,0.00838253553956747,-0.00030832391348667443,-0.0028621938545256853
0.014420689083635807,0.003010000567883253,-0.010545541532337666,0.008269614540040493,-0.0003369831247255206,-0.0038866426330059767
0.01403692178428173,0.003343596588820219,-0.010869965888559818,0.00862192828208208,-0.0003226746921427548,-0.003933030180633068
0.013995258137583733,0.0032187174074351788,-0.010604209266602993,0.0086065623909235,-0.0003395180974621326,-0.0033080882858484983
0.013995258137583733,0.0032187174074351788,-0.010604209266602993,0.0086065623909235,-0.0003395180974621326,-0.0033080882858484983
0.01454729400575161,0.0030387321021407843,-0.010954261757433414,0.008098987862467766,-0.0003339500690344721,-0.0028960462659597397
0.014644676819443703,0.003115335712209344,-0.010853709653019905,0.008823425509035587,-0.0004276147810742259,-0.0027451887726783752
0.014121840707957745,0.003475099802017212,-0.011945696547627449,0.008174914866685867,-0.00040718508535064757,-0.0030199610628187656
0.014913929626345634,0.003749595955014229,-0.011315107345581055,0.007568542845547199,-0.00037446897476911545,-0.003345611970871687
0.014913929626345634,0.003749595955014229,-0.011315107345581055,0.007568542845547199,-0.00037446897476911545,-0.003345611970871687
0.014614775776863098,0.0033915971871465445,-0.011283733882009983,0.008580299094319344,-0.00034575106110423803,-0.0032935100607573986
0.014030378311872482,0.0030471866484731436,-0.011348552070558071,0.008531328290700912,-0.00037651730235666037,-0.0032229290809482336
0.014052854850888252,0.0033483856823295355,-0.01107704732567072,0.008219472132623196,-0.00035903562093153596,-0.0031914538703858852
0.014818446710705757,0.0030474523082375526,-0.012441566213965416,0.007718914188444614,-0.00033710699062794447,-0.0034154418390244246
0.01461134571582079,0.0032993170898407698,-0.010995391756296158,0.007915642112493515,-0.000317319791065529,-0.0032461988739669323
0.014964412897825241,0.00348675693385303,-0.01149161346256733,0.008172687143087387,-0.00032489775912836194,-0.0037205859553068876
0.015130333602428436,0.0032443644013255835,-0.010926706716418266,0.00864096637815237,-0.0003142933128401637,-0.0038097542710602283
0.0143940020352602,0.0034458888694643974,-0.011472874321043491,0.009067360311746597,-0.0002997040865011513,-0.0037746282760053873
0.015060052275657654,0.003245343454182148,-0.011346890591084957,0.009050407446920872,-0.00028611448942683637,-0.004118091892451048
0.014778264798223972,0.0030656640883535147,-0.011690030805766582,0.009188875555992126,-0.0002736830210778862,-0.004222622141242027
0.01591985858976841,0.003091308055445552,-0.012128958478569984,0.009287460707128048,-0.0002622863685246557,-0.0040404112078249454
0.015560619533061981,0.003195560537278652,-0.011191703379154205,0.009216628037393093,-0.0002518007531762123,-0.0038959693629294634
0.015388473868370056,0.003513636067509651,-0.011692158877849579,0.00912583339959383,-0.00024212266725953668,-0.003532709553837776
0.014686941169202328,0.0033589713275432587,-0.011708343401551247,0.009170153178274632,-0.0002331597643205896,-0.0035159995313733816
0.015041084960103035,0.0030751347076147795,-0.011289719492197037,0.008838653564453125,-0.00022483734937850386,-0.003673567669466138
0.015403185971081257,0.003339757677167654,-0.011542568914592266,0.00829761940985918,-0.0002170889638364315,-0.003847997635602951
0.015320848673582077,0.0031430311501026154,-0.011514113284647465,0.008831683546304703,-0.00023781087656971067,-0.0038763382472097874
0.015261626802384853,0.0031766530591994524,-0.011968650855123997,0.008669992908835411,-0.0002319715276826173,-0.004265220370143652
0.01532529853284359,0.0032291028182953596,-0.011731239035725594,0.008701516315340996,-0.00022484592045657337,-0.004173092544078827
0.01569216325879097,0.003166159149259329,-0.011743921786546707,0.009177729487419128,-0.00021804359857924283,-0.004044231027364731
0.01569216325879097,0.003166159149259329,-0.011743921786546707,0.009177729487419128,-0.00021804359857924283,-0.004044231027364731
0.015295788645744324,0.0034336294047534466,-0.012029679492115974,0.008798708207905293,-0.00021163458586670458,-0.003971052821725607
0.015408508479595184,0.0037223631516098976,-0.011530658230185509,0.008928285911679268,-0.00018351056496612728,-0.004062133841216564
0.015019241720438004,0.0033863817807286978,-0.012235168367624283,0.009579136036336422,-0.00016996079648379236,-0.0041861580684781075
0.01604381389915943,0.003131898818537593,-0.01158036570996046,0.009641612879931927,-0.00016335726832039654,-0.004040971864014864
0.015618515200912952,0.003115961793810129,-0.011694301851093769,0.009374628774821758,-0.00015760677342768759,-0.004319213796406984
0.015847746282815933,0.0033647476229816675,-0.012021911330521107,0.009443683549761772,-0.00018066680058836937,-0.004055477678775787
0.015621423721313477,0.0034590470604598522,-0.011632627807557583,0.009878267534077168,-0.00017660924640949816,-0.004114808514714241
0.016043415293097496,0.0035988581366837025,-0.011895091272890568,0.00905587151646614,-0.00017113292415160686,-0.004249990452080965
0.0161972027271986,0.0032855221070349216,-0.011358796618878841,0.009080661460757256,-0.00016588332073297352,-0.004074137657880783
0.015966787934303284,0.0032384595833718777,-0.011986210942268372,0.009098603390157223,-0.00018209681729786098,-0.004187182988971472
0.01594814471900463,0.0034782320726662874,-0.011782733723521233,0.008748826570808887,-0.0001771844399627298,-0.004001589957624674
0.01660248264670372,0.003737878752872348,-0.012003020383417606,0.009298981167376041,-0.0001905928656924516,-0.0041929204016923904
0.016036050394177437,0.0038971062749624252,-0.011562095023691654,0.009527422487735748,-0.00019131088629364967,-0.004141774028539658
0.016494298353791237,0.0034513676073402166,-0.012051250785589218,0.009159433655440807,-0.00026001365040428936,-0.004434636794030666
0.016156919300556183,0.003511730581521988,-0.01141525711864233,0.009107157588005066,-0.0003108408418484032,-0.0045068045146763325
0.016668016090989113,0.0035839411430060863,-0.0124732106924057,0.009118049405515194,-0.00033841983531601727,-0.00433354964479804
0.01685791276395321,0.0036342497915029526,-0.012233023531734943,0.00882190652191639,-0.0003314916102681309,-0.00404513580724597
0.01618310436606407,0.0036704903468489647,-0.011416926048696041,0.009335285052657127,-0.0003516312863212079,-0.004394881892949343
0.01648295857012272,0.004188416060060263,-0.011727930046617985,0.00915506947785616,-0.0003444952890276909,-0.004705044906586409
0.01605292037129402,0.0035957670770585537,-0.011864904314279556,0.009282789193093777,-0.00032737961737439036,-0.004971429705619812
0.01697741076350212,0.0034384571481496096,-0.01228466909378767,0.008983123116195202,-0.00034406600752845407,-0.00487347599118948
0.016861088573932648,0.003487394656985998,-0.012145964428782463,0.009426586329936981,-0.0003382076392881572,-0.004526645410805941
0.016804758459329605,0.003633932676166296,-0.011266711167991161,0.009115594439208508,-0.0003236745542380959,-0.004083344712853432
0.01679210551083088,0.0035004946403205395,-0.012432017363607883,0.008525745943188667,-0.00037187329144217074,-0.004126407206058502
0.016789019107818604,0.003475388279184699,-0.012113634496927261,0.009009444154798985,-0.0003979670873377472,-0.004651015158742666
0.0167276319116354,0.0036459986586123705,-0.01238422840833664,0.009063320234417915,-0.0004049211274832487,-0.004790686070919037
0.016630923375487328,0.0034419812727719545,-0.01175297237932682,0.009344500489532948,-0.00040718523086979985,-0.004864847287535667
0.0174010768532753,0.003505599917843938,-0.011719605885446072,0.009677131660282612,-0.0003806210297625512,-0.004823443945497274
0.0174010768532753,0.003505599917843938,-0.011719605885446072,0.009677131660282612,-0.0003806210297625512,-0.004823443945497274
0.01679564267396927,0.003502035513520241,-0.011895108968019485,0.008214650675654411,-0.000374643161194399,-0.004550541751086712
0.017069512978196144,0.0038952594622969627,-0.012493972666561604,0.00881118979305029,-0.0003656848275568336,-0.004687661770731211
0.017069512978196144,0.0038952594622969627,-0.012493972666561604,0.00881118979305029,-0.0003656848275568336,-0.004687661770731211
0.016914984211325645,0.003473722143098712,-0.01259461697191,0.009388452395796776,-0.00034640912781469524,-0.0049051218666136265
0.017143700271844864,0.0034096769522875547,-0.012390402145683765,0.009194578044116497,-0.00032839964842423797,-0.0051292600110173225
0.017264535650610924,0.0033913019578903913,-0.012698936276137829,0.009097576141357422,-0.000333890609908849,-0.0054266368970274925
0.017247667536139488,0.0032076663337647915,-0.012759220786392689,0.00925148744136095,-0.0003244522667955607,-0.00469417916610837
0.01720348745584488,0.0034396196715533733,-0.011885344050824642,0.009381293319165707,-0.0003323252312839031,-0.0045487056486308575
0.01756158657371998,0.0032200939022004604,-0.012384464032948017,0.009645783342421055,-0.0003171800053678453,-0.004735010210424662
0.017830949276685715,0.0034930629190057516,-0.012204902246594429,0.009869658388197422,-0.0002967922482639551,-0.005196732468903065
0.017142249271273613,0.003285422222688794,-0.012509990483522415,0.010316324420273304,-0.00031945735099725425,-0.0055265664122998714
0.01783517748117447,0.003356091445311904,-0.01268788892775774,0.0100844232365489,-0.000313707219902426,-0.005659854039549828
0.01798570342361927,0.003332433057948947,-0.012033979408442974,0.009680354967713356,-0.0002972703950945288,-0.005201349034905434
0.018015509471297264,0.003345673903822899,-0.012434685602784157,0.010103288106620312,-0.0003047147474717349,-0.004946285393089056
0.018497681245207787,0.0035844941157847643,-0.011805742979049683,0.010084602981805801,-0.00031089517869986594,-0.005188977811485529
0.01791207119822502,0.003424694063141942,-0.012852801010012627,0.010005607269704342,-0.0002975943498313427,-0.0052253794856369495
0.018253974616527557,0.0035163031425327063,-0.012531694024801254,0.009928193874657154,-0.00028425423079170287,-0.005736345890909433
0.0182114876806736,0.003676084568724036,-0.012345490977168083,0.010379182174801826,-0.00030818916275165975,-0.005626717582345009
0.017732568085193634,0.0039196498692035675,-0.012357419356703758,0.009874982759356499,-0.00029780069598928094,-0.005510495509952307
0.018444666638970375,0.0035016194451600313,-0.012271564453840256,0.009811303578317165,-0.00032360866316594183,-0.005299922078847885
0.01828112080693245,0.003559910925105214,-0.012815332971513271,0.010311225429177284,-0.00033601175528019667,-0.005788874346762896
0.01851227506995201,0.0036995834670960903,-0.01238289661705494,0.01026945374906063,-0.0003148856631014496,-0.006015658378601074
0.01851227506995201,0.0036995834670960903,-0.01238289661705494,0.01026945374906063,-0.0003148856631014496,-0.006015658378601074
0.01850346475839615,0.003782574785873294,-0.012966984882950783,0.010639521293342113,-0.0003377571702003479,-0.00598878925666213
0.01822696067392826,0.003821148769930005,-0.012361111119389534,0.010970915667712688,-0.0003306007420178503,-0.006312869489192963
0.018555494025349617,0.0034169035498052835,-0.012725724838674068,0.010206379927694798,-0.00031235505593940616,-0.006247811485081911
0.018812021240592003,0.0032814147416502237,-0.012380830012261868,0.009607764892280102,-0.0003379153204150498,-0.006296349223703146
0.01924142800271511,0.003192567266523838,-0.012651352211833,0.010282048024237156,-0.00032624477171339095,-0.006458335090428591
0.01930183544754982,0.003404270624741912,-0.01297676283866167,0.010206840001046658,-0.00033219586475752294,-0.006190549116581678
0.01989613100886345,0.00362731353379786,-0.012654189951717854,0.010413160547614098,-0.0003367701137904078,-0.006242400500923395
0.018807271495461464,0.003444287460297346,-0.012585649266839027,0.009501293301582336,-0.00039203945198096335,-0.005973263178020716
0.01955179125070572,0.0033685730304569006,-0.013000535778701305,0.010149344801902771,-0.000427051680162549,-0.006470460910350084
0.019248563796281815,0.003168545663356781,-0.012907659634947777,0.01037580519914627,-0.00041223864536732435,-0.006660106126219034
0.019902676343917847,0.0035913302563130856,-0.013228928670287132,0.009664090350270271,-0.0004393549170345068,-0.006261156406253576
0.019832374528050423,0.0033179721795022488,-0.013209806755185127,0.009887737222015858,-0.0004178210219834,-0.006415314972400665
0.019155355170369148,0.0034074329305440187,-0.01332525722682476,0.009966694749891758,-0.00044443400111049414,-0.0067048207856714725
0.019419539719820023,0.0034913108684122562,-0.013335391879081726,0.009721473790705204,-0.0004218190151732415,-0.0072554172948002815
0.019712673500180244,0.0034982101060450077,-0.01319947000592947,0.010319032706320286,-0.00048745289677754045,-0.00695780711248517
0.01951310969889164,0.003392169950529933,-0.013374642468988895,0.010287714190781116,-0.0005164654576219618,-0.006513523403555155
0.020150085911154747,0.0035535115748643875,-0.012908506207168102,0.010019893757998943,-0.00046825659228488803,-0.006502291187644005
0.0200412105768919,0.00372164323925972,-0.013768307864665985,0.009973456151783466,-0.00046533203567378223,-0.00691177835687995
0.019608667120337486,0.003787427907809615,-0.013207192532718182,0.009817110374569893,-0.0004625002620741725,-0.007183322682976723
0.019654862582683563,0.0035049438010901213,-0.013732493855059147,0.009902424179017544,-0.0004806263605132699,-0.007023786660283804
0.020542094483971596,0.0034181170631200075,-0.013367140665650368,0.01029134076088667,-0.00046179702621884644,-0.007151831407099962
0.020270587876439095,0.0032299580052495003,-0.01463403832167387,0.009829943999648094,-0.00047655607340857387,-0.0076247649267315865
0.020270587876439095,0.0032299580052495003,-0.01463403832167387,0.009829943999648094,-0.00047655607340857387,-0.0076247649267315865
0.0195400919765234,0.003484009997919202,-0.013883884996175766,0.009872427210211754,-0.0004602680273819715,-0.006893456447869539
0.020178018137812614,0.0036239554174244404,-0.01416262798011303,0.01025567390024662,-0.0004334744007792324,-0.006643663626164198
0.020321670919656754,0.0036418845411390066,-0.013704913668334484,0.010036376304924488,-0.00040927028749138117,-0.007023012265563011
0.02005566656589508,0.0036224178038537502,-0.013950789347290993,0.01082666590809822,-0.00040433387039229274,-0.007349709514528513
0.02014966681599617,0.0036300732754170895,-0.013635262846946716,0.010418396443128586,-0.0003728907904587686,-0.007154938764870167
0.020517852157354355,0.0036063340958207846,-0.01388769131153822,0.009808594360947609,-0.0003444607718847692,-0.0073222145438194275
0.020369211211800575,0.0036250180564820766,-0.013912253081798553,0.009949413128197193,-0.00037945268559269607,-0.007492543663829565
0.020638111978769302,0.003833087394014001,-0.013744070194661617,0.01077919453382492,-0.00038822423084639013,-0.0071073309518396854
0.020660923793911934,0.003306447295472026,-0.014947302639484406,0.011170861311256886,-0.000368899927707389,-0.007274654693901539
0.019981110468506813,0.0033050819765776396,-0.014026275835931301,0.011139326728880405,-0.00038541940739378333,-0.007966695353388786
0.020789735019207,0.003567345440387726,-0.013867956586182117,0.010939130559563637,-0.0003767629968933761,-0.007907425053417683
0.02085971273481846,0.0037122115027159452,-0.013858909718692303,0.010951034724712372,-0.0003587398387026042,-0.007603053003549576
0.020622216165065765,0.0035440693609416485,-0.014807249419391155,0.010671590454876423,-0.0003417568514123559,-0.007672600448131561
0.02068508043885231,0.0036124803591519594,-0.014746180735528469,0.010819196701049805,-0.0003734828787855804,-0.0075728679075837135
0.020963171496987343,0.0038303444162011147,-0.013842649757862091,0.0111545380204916,-0.00035194912925362587,-0.007650275249034166
0.020986130461096764,0.0034812428057193756,-0.014119604602456093,0.010547744110226631,-0.00032687108614481986,-0.007537590339779854
0.020620141178369522,0.003592968685552478,-0.01400443073362112,0.010709727182984352,-0.00030475357198156416,-0.007560839876532555
0.020491156727075577,0.00334699684754014,-0.01432786975055933,0.01027322094887495,-0.0002854146296158433,-0.007952108047902584
0.021272342652082443,0.0033421958796679974,-0.013843676075339317,0.010625000111758709,-0.000294511643005535,-0.008301476016640663
0.021948236972093582,0.0031431890092790127,-0.013928721658885479,0.011269675567746162,-0.0003021269803866744,-0.008207893930375576
0.02105957828462124,0.0033113048411905766,-0.013686461374163628,0.01171312015503645,-0.0002876086800824851,-0.007713392376899719
0.02117225155234337,0.003519629593938589,-0.013999568298459053,0.011553658172488213,-0.0002731580170802772,-0.007814816199243069
0.020790966227650642,0.003615845460444689,-0.014148117043077946,0.011923578567802906,-0.0002600073639769107,-0.008149422705173492
0.020672420039772987,0.003535941708832979,-0.014435628429055214,0.011547345668077469,-0.00024806143483147025,-0.007691640872508287
0.021024860441684723,0.0035057009663432837,-0.013415072113275528,0.011884442530572414,-0.0002714107686188072,-0.0073829409666359425
0.021277708932757378,0.003430927637964487,-0.013914504088461399,0.011551016941666603,-0.0002647032088134438,-0.007304972968995571
0.020955633372068405,0.0035442975349724293,-0.013833773322403431,0.011453484185039997,-0.00025432227994315326,-0.008049319498240948
0.020955633372068405,0.0035442975349724293,-0.013833773322403431,0.011453484185039997,-0.00025432227994315326,-0.008049319498240948
0.020686043426394463,0.0037456327117979527,-0.014714960940182209,0.011700348928570747,-0.00024447200121358037,-0.007800504565238953
0.021319938823580742,0.003551292000338435,-0.013917142525315285,0.011232170276343822,-0.00025180273223668337,-0.008094415999948978
0.022340986877679825,0.0035822733771055937,-0.014390751719474792,0.012046410702168941,-0.00025815190747380257,-0.00665627745911479
0.02146107144653797,0.004089288879185915,-0.013956251554191113,0.01170918345451355,-0.0002501861017663032,-0.0064202649518847466
0.021041620522737503,0.004145354498177767,-0.014392855577170849,0.011266783811151981,-0.00024184765061363578,-0.006960226688534021
0.021139249205589294,0.003573562251403928,-0.014376272447407246,0.010647458955645561,-0.0002188473445130512,-0.007310515735298395
0.02149236761033535,0.003705244278535247,-0.013677570968866348,0.011789383366703987,-0.00020843242236878723,-0.0078289108350873
0.021526331081986427,0.003765643574297428,-0.014268068596720695,0.011853010393679142,-0.0001991859608097002,-0.007417972665280104
0.01987646520137787,0.0033770701847970486,-0.013758556917309761,0.011404696851968765,-0.00021892841323278844,-0.007301374338567257
0.022142764180898666,0.0035936736967414618,-0.014518192037940025,0.011741734109818935,-0.0002189279766753316,-0.007038561627268791
0.021673599258065224,0.003742211265489459,-0.013832498341798782,0.011188159696757793,-0.0002109548368025571,-0.007603887468576431
0.02109440229833126,0.0037650943268090487,-0.014614463783800602,0.01185022946447134,-0.00023460653028450906,-0.007788247894495726
0.021239737048745155,0.00338851660490036,-0.01386996265500784,0.011966024525463581,-0.00025229615857824683,-0.008126059547066689
0.021685026586055756,0.003260980825871229,-0.014509104192256927,0.012433568015694618,-0.00025149949942715466,-0.008142872713506222
0.021644052118062973,0.0031676709186285734,-0.013771900907158852,0.012577658519148827,-0.0004398667369969189,-0.007885041646659374
0.021724293008446693,0.0034217427019029856,-0.014505008235573769,0.012387597002089024,-0.00048481259727850556,-0.008018921129405499
0.021622762084007263,0.00329887168481946,-0.014145382679998875,0.012335328385233879,-0.00045459289685823023,-0.008056019432842731
0.021991200745105743,0.0035821765195578337,-0.01438149157911539,0.011953406035900116,-0.00047129037557169795,-0.00849514827132225
0.02203582040965557,0.0037919695023447275,-0.014024488627910614,0.012174418196082115,-0.00045335778850130737,-0.008477650582790375
0.021783560514450073,0.003734675468876958,-0.014881174080073833,0.01198693085461855,-0.00042388448491692543,-0.00859533529728651
0.02190677635371685,0.0036396891809999943,-0.01468998845666647,0.011783450841903687,-0.0004500041250139475,-0.008270733058452606
0.02223890647292137,0.003647294593974948,-0.01502632349729538,0.012344161979854107,-0.00042676826706156135,-0.008668478578329086
0.022165555506944656,0.0037635499611496925,-0.013795622624456882,0.0119145093485713,-0.0004799945745617151,-0.008469559252262115
0.021886037662625313,0.0033682764042168856,-0.014951624907553196,0.012423683889210224,-0.0004576471110340208,-0.008462869562208652
0.021870730444788933,0.003120614215731621,-0.014402828179299831,0.012106404639780521,-0.0004943509120494127,-0.007894055917859077
0.022245964035391808,0.0031525916419923306,-0.01472330093383789,0.012227610684931278,-0.0005233903066255152,-0.008298837579786777
0.022435279563069344,0.003431871300563216,-0.013990924693644047,0.012233307585120201,-0.0005258744349703193,-0.008573518134653568
0.022165678441524506,0.0036735283210873604,-0.014935792423784733,0.011871987022459507,-0.0005196136189624667,-0.008556407876312733
0.021954942494630814,0.0036715299356728792,-0.014385749585926533,0.012154665775597095,-0.0005831760936416686,-0.008374224416911602
0.021954942494630814,0.0036715299356728792,-0.014385749585926533,0.012154665775597095,-0.0005831760936416686,-0.008374224416911602
0.022667106240987778,0.003486416069790721,-0.015187122859060764,0.01216285303235054,-0.0006845670286566019,-0.008325012400746346
0.02292471192777157,0.0035026357509195805,-0.014475186355412006,0.01245203334838152,-0.0006365060689859092,-0.008867747150361538
0.0228915736079216,0.0036649710964411497,-0.014740348793566227,0.012451943941414356,-0.0006530920509248972,-0.008337922394275665
0.022682905197143555,0.003782324492931366,-0.015215510502457619,0.012318429537117481,-0.0006256697815842927,-0.008552269078791142
0.022782033309340477,0.003516169497743249,-0.015206863172352314,0.011767012067139149,-0.0006969971000216901,-0.008542513474822044
0.02306264080107212,0.003440972650423646,-0.01566714607179165,0.01233644038438797,-0.000680890865623951,-0.008783414028584957
0.023119540885090828,0.0037102007772773504,-0.014981088228523731,0.011926369741559029,-0.0006523659103550017,-0.008523518219590187
0.02268381416797638,0.003861201461404562,-0.014954068697988987,0.011703191325068474,-0.0006689547444693744,-0.008645095862448215
0.022916777059435844,0.0038792879786342382,-0.015561331994831562,0.011835065670311451,-0.0006575482548214495,-0.008598258718848228
0.02344362810254097,0.0038814961444586515,-0.01523661334067583,0.012075645849108696,-0.0006382506107911468,-0.008830161765217781
0.023956874385476112,0.0034004426561295986,-0.015305091626942158,0.012608109973371029,-0.0006688506691716611,-0.008635269477963448
0.023996656760573387,0.003100769594311714,-0.015197706408798695,0.012102048844099045,-0.0005955676315352321,-0.008770394138991833
0.02334306575357914,0.0031173890456557274,-0.015592544339597225,0.012604453600943089,-0.0006171549903228879,-0.009214087389409542
0.022605376318097115,0.003334064269438386,-0.01525113359093666,0.01284250058233738,-0.0006101512699387968,-0.008885959163308144
0.023332472890615463,0.003564384300261736,-0.015033209696412086,0.012956188060343266,-0.00059414905263111,-0.009624963626265526
0.024307578802108765,0.003652493469417095,-0.01508356537669897,0.013165853917598724,-0.0005453984485939145,-0.009412108920514584
0.023974910378456116,0.003523049410432577,-0.015960069373250008,0.012811551801860332,-0.0005639410228468478,-0.009411055594682693
0.02374720573425293,0.0037387486081570387,-0.014982837252318859,0.012891978025436401,-0.0005307773826643825,-0.009470277465879917
0.024387070909142494,0.003927819896489382,-0.015397081151604652,0.012848018668591976,-0.0005219198646955192,-0.00962706096470356
0.024141401052474976,0.00361259444616735,-0.015357363037765026,0.012851444073021412,-0.0005544709274545312,-0.009005943313241005
0.0242952648550272,0.0034872470423579216,-0.01567217893898487,0.012511552311480045,-0.0005544633022509515,-0.009030530229210854
0.024492178112268448,0.00328040006570518,-0.015353899449110031,0.013006637804210186,-0.0005445948918350041,-0.009241071529686451
0.023876316845417023,0.0034850817173719406,-0.015599463135004044,0.012520681135356426,-0.0005563386948779225,-0.009425186552107334
0.023967308923602104,0.003675781888887286,-0.015787845477461815,0.01264424342662096,-0.0005317695904523134,-0.010035829618573189
0.02500252239406109,0.004206586629152298,-0.015479987487196922,0.012548842467367649,-0.000652697985060513,-0.009816199541091919
0.024967076256871223,0.004167851991951466,-0.015746723860502243,0.012457611970603466,-0.0006936222198419273,-0.009252536110579967
0.024967076256871223,0.004167851991951466,-0.015746723860502243,0.012457611970603466,-0.0006936222198419273,-0.009252536110579967
0.02476969175040722,0.004022771492600441,-0.015289084985852242,0.012901156209409237,-0.0006282087415456772,-0.009305455721914768
0.025512825697660446,0.0036156196147203445,-0.015388485044240952,0.013050945475697517,-0.0005936801317147911,-0.009393028914928436
0.025129761546850204,0.003346686251461506,-0.015956668183207512,0.012577555142343044,-0.000581319211050868,-0.009289486333727837
0.025121599435806274,0.003535728668794036,-0.015331395901739597,0.012905041687190533,-0.0005695111467503011,-0.01004535611718893
0.025411630049347878,0.003750150091946125,-0.01593903824687004,0.013084465637803078,-0.0005298180622048676,-0.009925294667482376
0.025345075875520706,0.0038674878887832165,-0.015675250440835953,0.013621740974485874,-0.0004936173791065812,-0.00994783453643322
0.025404879823327065,0.003932052757591009,-0.015696022659540176,0.013393222354352474,-0.0004612616903614253,-0.01023072749376297
0.025522250682115555,0.004305989947170019,-0.015611240640282631,0.013367369771003723,-0.0004213773354422301,-0.009353209286928177
0.025541093200445175,0.004286346025764942,-0.01567411795258522,0.013524912297725677,-0.0003854621318168938,-0.009534640237689018
0.025626545771956444,0.003637966001406312,-0.015772495418787003,0.01309043075889349,-0.0004071501025464386,-0.009602653793990612
0.025938740000128746,0.0034530824050307274,-0.015420585870742798,0.01348397321999073,-0.0003936324792448431,-0.009658673778176308
0.02587573602795601,0.0036089085042476654,-0.01607021689414978,0.013269634917378426,-0.00036786191049031913,-0.010139442048966885
0.02604147046804428,0.003820206969976425,-0.01547498069703579,0.013543662615120411,-0.00039785681292414665,-0.009967193938791752
0.025956716388463974,0.003933115396648645,-0.016208399087190628,0.012678920291364193,-0.00037749591865576804,-0.009900535456836224
0.025937983766198158,0.004039000254124403,-0.015734471380710602,0.013054220005869865,-0.0003563631034921855,-0.010170098394155502
0.02612817846238613,0.004030118230730295,-0.01644774153828621,0.012987200170755386,-0.0003821509308181703,-0.010037005878984928
0.025862764567136765,0.0038817767053842545,-0.01638616994023323,0.013759013265371323,-0.0003656637854874134,-0.010590747930109501
0.02607116289436817,0.003750685602426529,-0.01634671539068222,0.013417410664260387,-0.0003481679887045175,-0.010405709967017174
0.02607116289436817,0.003750685602426529,-0.01634671539068222,0.013417410664260387,-0.0003481679887045175,-0.010405709967017174
0.026507094502449036,0.003792867297306657,-0.0160670205950737,0.012904168106615543,-0.0003445840848144144,-0.01040690578520298
0.026507094502449036,0.003792867297306657,-0.0160670205950737,0.012904168106615543,-0.0003445840848144144,-0.01040690578520298
0.026296189054846764,0.003855510614812374,-0.01619585230946541,0.013155266642570496,-0.0003212751471437514,-0.010255035944283009
0.026554957032203674,0.0038821708876639605,-0.01580488309264183,0.01373599935323,-0.00035176469828002155,-0.010701445862650871
0.02750025875866413,0.003962461370974779,-0.016488393768668175,0.013399782590568066,-0.0003368923789821565,-0.009888592176139355
0.027170773595571518,0.0038960569072514772,-0.0162406787276268,0.013436656445264816,-0.0003565296938177198,-0.010144075378775597
0.026379477232694626,0.0037515778094530106,-0.016308829188346863,0.013293799944221973,-0.0003490004746709019,-0.010310932993888855
0.02495887503027916,0.003686932846903801,-0.016391560435295105,0.01409123558551073,-0.0003755265206564218,-0.010455053299665451
0.02705858089029789,0.0036886895541101694,-0.016206707805395126,0.013439081609249115,-0.0004511709266807884,-0.010139916092157364
0.026255367323756218,0.0032073415350168943,-0.015764405950903893,0.01309926062822342,-0.0005287862149998546,-0.010616173036396503
0.026737798005342484,0.003200032515451312,-0.01699066162109375,0.013134158216416836,-0.000486850825836882,-0.010293231345713139
0.02726110816001892,0.003499770537018776,-0.016623418778181076,0.012485809624195099,-0.0005160841392353177,-0.01042589545249939
0.02688634768128395,0.0039303782396018505,-0.01639046147465706,0.012876264750957489,-0.000540540087968111,-0.010308871977031231
0.026674525812268257,0.003976582083851099,-0.016965556889772415,0.013638479635119438,-0.0006664583925157785,-0.010272210463881493
0.02618422918021679,0.0034214504994452,-0.016438739374279976,0.013933517038822174,-0.0007351651438511908,-0.010721194557845592
0.026548683643341064,0.003476497018709779,-0.01701752468943596,0.013749731704592705,-0.000743469106964767,-0.011666209436953068
0.027301020920276642,0.0032803197391331196,-0.01624152436852455,0.013560165651142597,-0.000687972002197057,-0.01156897097826004
0.027393775060772896,0.003559667384251952,-0.01708163134753704,0.013418727554380894,-0.0006981227779760957,-0.01051801722496748
0.02734905667603016,0.0037597166374325752,-0.017360297963023186,0.013751951046288013,-0.0006459126598201692,-0.010556675493717194
0.027343574911355972,0.0037675739731639624,-0.016936972737312317,0.013905907981097698,-0.0006619749474339187,-0.010428490117192268
0.027515223249793053,0.003328191814944148,-0.017323173582553864,0.013268700800836086,-0.0006009190692566335,-0.010526071302592754
0.02753017283976078,0.0034464357886463404,-0.016464095562696457,0.014017945155501366,-0.0006228646961972117,-0.01067944522947073
0.027093756943941116,0.004218902438879013,-0.0175829716026783,0.013763083145022392,-0.0006152483401820064,-0.011126591823995113
0.027064714580774307,0.003653796622529626,-0.01777925156056881,0.014352633617818356,-0.0005986517062410712,-0.0108254449442029
0.027064714580774307,0.003653796622529626,-0.01777925156056881,0.014352633617818356,-0.0005986517062410712,-0.0108254449442029
0.027888676151633263,0.0033977294806391,-0.017405442893505096,0.013913827016949654,-0.000616802426520735,-0.010503103956580162
0.027868591248989105,0.0032676015980541706,-0.017392611131072044,0.015049122273921967,-0.0005771371652372181,-0.010504838079214096
0.02806955575942993,0.003436560742557049,-0.017172474414110184,0.013991792686283588,-0.0006130840629339218,-0.010825863108038902
0.027939943596720695,0.003716146107763052,-0.017812632024288177,0.014182907529175282,-0.000625722692348063,-0.010880343616008759
0.027426181361079216,0.003429185366258025,-0.01856529898941517,0.013670436106622219,-0.0006297211511991918,-0.010606521740555763
0.027456849813461304,0.003604443743824959,-0.01756151206791401,0.014221545308828354,-0.0006121501210145652,-0.010948813520371914
0.02766282483935356,0.0038833548314869404,-0.01798538863658905,0.014174966141581535,-0.0006295141647569835,-0.011471649631857872
0.027699405327439308,0.0039018478710204363,-0.017516622319817543,0.013513972982764244,-0.0005876655923202634,-0.010698297061026096
0.0279698483645916,0.003407497424632311,-0.01784728467464447,0.0148934880271554,-0.000578629202209413,-0.011696484871208668
0.02790314145386219,0.003672413295134902,-0.017587579786777496,0.014495143666863441,-0.0006028012139722705,-0.011342777870595455
0.02798963338136673,0.0034809058997780085,-0.0184653140604496,0.014734324999153614,-0.0005530811031349003,-0.011177020147442818
0.02863403782248497,0.0033787458669394255,-0.018201544880867004,0.014408295974135399,-0.0005800643702968955,-0.011141976341605186
0.028464380651712418,0.0033622849732637405,-0.017221294343471527,0.014966657385230064,-0.0005728381220251322,-0.011433491483330727
0.028663968667387962,0.0034357779659330845,-0.01718209683895111,0.014677141793072224,-0.0005620918818749487,-0.01146200392395258
0.02872023917734623,0.003539197612553835,-0.018484529107809067,0.01491027045994997,-0.0005646698409691453,-0.011131277307868004
0.028755441308021545,0.0038348808884620667,-0.01871810108423233,0.01399051770567894,-0.0005393530009314418,-0.011383573524653912
0.027268895879387856,0.0036166871432214975,-0.018377650529146194,0.014294407330453396,-0.0005547355394810438,-0.011605853214859962
0.029122496023774147,0.003547231201082468,-0.017777610570192337,0.014492448419332504,-0.0005228571244515479,-0.011577252298593521
0.029602225869894028,0.0033916919492185116,-0.018760785460472107,0.015098518691956997,-0.0005363396485336125,-0.011435055173933506
0.029041539877653122,0.00340462033636868,-0.018211137503385544,0.014602255076169968,-0.0005109520279802382,-0.011779166758060455
0.029110852628946304,0.003632606938481331,-0.017614278942346573,0.01459827832877636,-0.0005321091157384217,-0.011535698547959328
0.027940334752202034,0.0038842507638037205,-0.018714699894189835,0.014195959083735943,-0.0005615876289084554,-0.011424555443227291
0.028146008029580116,0.00396305276080966,-0.018974216654896736,0.01462661474943161,-0.0005514650256372988,-0.011141357012093067
0.02944382093846798,0.003638830501586199,-0.018695693463087082,0.014778215438127518,-0.0004946290864609182,-0.011759473942220211
0.028601860627532005,0.003529872978106141,-0.01877870038151741,0.01543354894965887,-0.0005109949270263314,-0.01174958422780037
0.028992697596549988,0.0036261416971683502,-0.018345240503549576,0.015297752805054188,-0.0004851398407481611,-0.012428956106305122
0.030168304219841957,0.003701352048665285,-0.018717817962169647,0.015256798826158047,-0.0005104792071506381,-0.011865289881825447
0.02910141833126545,0.0037259203381836414,-0.019054923206567764,0.015044478699564934,-0.0005136474501341581,-0.0119230467826128
0.02910141833126545,0.0037259203381836414,-0.019054923206567764,0.015044478699564934,-0.0005136474501341581,-0.0119230467826128
0.028803013265132904,0.003726022783666849,-0.018611710518598557,0.015040681697428226,-0.0005083648720756173,-0.01207042671740055
0.02875085361301899,0.0038198456168174744,-0.018891016021370888,0.015396904200315475,-0.0005315757007338107,-0.012002273462712765
0.028811782598495483,0.003351290710270405,-0.019111163914203644,0.01526143029332161,-0.0005658770678564906,-0.012205756269395351
0.029725072905421257,0.003381644142791629,-0.018623800948262215,0.01559397578239441,-0.0005334392772056162,-0.013226155191659927
0.029553309082984924,0.003551098983734846,-0.018903698772192,0.015259327366948128,-0.0005621719174087048,-0.012428942136466503
0.02964344061911106,0.003639229340478778,-0.018956871703267097,0.015431677922606468,-0.000746367615647614,-0.012491974048316479
0.029616957530379295,0.003492330200970173,-0.018972476944327354,0.01603000797331333,-0.0008190528606064618,-0.012449578382074833
0.0295338686555624,0.0034888230729848146,-0.019113680347800255,0.015782814472913742,-0.0007289994973689318,-0.012120617553591728
0.02959056943655014,0.0036465581506490707,-0.01849934458732605,0.015622521750628948,-0.0007353422697633505,-0.012136727571487427
0.02927491068840027,0.003788101254031062,-0.019084706902503967,0.015134730376303196,-0.0006696077180095017,-0.012193078175187111
0.029349179938435555,0.003807809203863144,-0.019268061965703964,0.015559432096779346,-0.0006059370934963226,-0.012360608205199242
0.029860520735383034,0.0037798569537699223,-0.018820887431502342,0.015928827226161957,-0.0006208056001923978,-0.012697161175310612
0.029673075303435326,0.003822932718321681,-0.01912698894739151,0.016208795830607414,-0.0005800146609544754,-0.012936300598084927
0.030100785195827484,0.00397229939699173,-0.01908174157142639,0.016659200191497803,-0.0005400362424552441,-0.012686183676123619
0.028693193569779396,0.003982219845056534,-0.018468620255589485,0.016081131994724274,-0.00048353159218095243,-0.012379682622849941
0.030768966302275658,0.003794762771576643,-0.019129035994410515,0.016031496226787567,-0.00043664820259436965,-0.012621261179447174
0.031108107417821884,0.003678315319120884,-0.020033497363328934,0.015101591125130653,-0.00047188522876240313,-0.012642161920666695
0.030436217784881592,0.003708193777129054,-0.019416457042098045,0.015564548783004284,-0.0004383695195429027,-0.01245113369077444
0.030387867242097855,0.0035451508592814207,-0.019492315128445625,0.015258687548339367,-0.00046857373672537506,-0.012762520462274551
0.030227169394493103,0.0035293810069561005,-0.018465429544448853,0.015831340104341507,-0.00048619331209920347,-0.01285045687109232
0.030949974432587624,0.003913369961082935,-0.017751891165971756,0.015568138100206852,-0.0005523464060388505,-0.012876201421022415
0.03135942667722702,0.004037975799292326,-0.018779214471578598,0.015945065766572952,-0.0006484905607067049,-0.012847702018916607
0.031062008813023567,0.0038790919352322817,-0.019268758594989777,0.015585679560899734,-0.000680400466080755,-0.012860503979027271
0.031062008813023567,0.0038790919352322817,-0.019268758594989777,0.015585679560899734,-0.000680400466080755,-0.012860503979027271
0.029426051303744316,0.003693016478791833,-0.019242269918322563,0.015037164092063904,-0.0006363199790939689,-0.012803856283426285
0.030557705089449883,0.0036653787828981876,-0.019273685291409492,0.015433665364980698,-0.0006506473873741925,-0.013130112551152706
0.031185952946543694,0.004223844036459923,-0.01924300193786621,0.01580910012125969,-0.0006056643323972821,-0.013176127336919308
0.030631277710199356,0.00401210505515337,-0.019072847440838814,0.016293276101350784,-0.0007168290903791785,-0.012893197126686573
0.031000405550003052,0.003848613705486059,-0.02051113359630108,0.015908503904938698,-0.0007019246113486588,-0.012761805206537247
0.03237571194767952,0.004330242518335581,-0.020605944097042084,0.01564754918217659,-0.0006703218095935881,-0.012840880081057549
0.03276212140917778,0.004347790498286486,-0.019620850682258606,0.015103401616215706,-0.0006853151717223227,-0.013459939509630203
0.031138060614466667,0.004518510308116674,-0.01986985094845295,0.015727397054433823,-0.0006287171854637563,-0.013811236247420311
0.0320979543030262,0.004016826394945383,-0.019528426229953766,0.01558009721338749,-0.0005992172518745065,-0.013670827262103558
0.032024405896663666,0.0039784894324839115,-0.020657386630773544,0.015756692737340927,-0.0005775567260570824,-0.013938410207629204
0.03207920491695404,0.004129182547330856,-0.02105472795665264,0.01631140150129795,-0.0005974260275252163,-0.013990913517773151
0.031964026391506195,0.004050577990710735,-0.0202616136521101,0.017225855961441994,-0.0006044622277840972,-0.014259184710681438
0.03198157995939255,0.0039105722680687904,-0.020097024738788605,0.016876187175512314,-0.0006307428702712059,-0.014024528674781322
0.03250483050942421,0.004323256202042103,-0.02016729861497879,0.017255572602152824,-0.0006164387450553477,-0.013966790400445461
0.03225055709481239,0.00410313019528985,-0.02066085860133171,0.01659110002219677,-0.0007833357667550445,-0.013591315597295761
0.03334810584783554,0.004343926440924406,-0.0206756591796875,0.016451070085167885,-0.0006966611254028976,-0.013890836387872696
0.033164024353027344,0.004236445762217045,-0.020836327224969864,0.016593286767601967,-0.0007169359014369547,-0.013965235091745853
0.03295484557747841,0.004354000557214022,-0.021009737625718117,0.016386674717068672,-0.0006393632502295077,-0.014200004749000072
0.032954998314380646,0.004152532666921616,-0.02050592005252838,0.017092278227210045,-0.0005720045883208513,-0.014040890149772167
0.032963503152132034,0.004050551448017359,-0.020242776721715927,0.017229972407221794,-0.0005971435457468033,-0.014338377863168716
0.0335574708878994,0.00405256450176239,-0.02060694247484207,0.017487026751041412,-0.0005501685664057732,-0.014501522295176983
0.03420101851224899,0.004008383955806494,-0.021013358607888222,0.016997436061501503,-0.000541264598723501,-0.013433845713734627
0.033702198415994644,0.004186209291219711,-0.02056904323399067,0.01628865860402584,-0.0005331013817340136,-0.013406090438365936
0.034059420228004456,0.004109163302928209,-0.021069040521979332,0.016646940261125565,-0.000474253436550498,-0.014468745328485966
0.03366333991289139,0.004335186444222927,-0.021117115393280983,0.016079967841506004,-0.0004653166397474706,-0.014638233929872513
0.034188512712717056,0.00412325095385313,-0.020316511392593384,0.016973668709397316,-0.000462130963569507,-0.015064410865306854
0.034499529749155045,0.004018821753561497,-0.020569192245602608,0.01707419380545616,-0.0004802487092092633,-0.014697100967168808
0.034499529749155045,0.004018821753561497,-0.020569192245602608,0.01707419380545616,-0.0004802487092092633,-0.014697100967168808
0.034685615450143814,0.004463755525648594,-0.02158292382955551,0.017286647111177444,-0.00046145953820087016,-0.014929631724953651
0.03430997580289841,0.00446156645193696,-0.021489696577191353,0.01691160723567009,-0.00043094821739941835,-0.01495701726526022
0.03442930802702904,0.004534874111413956,-0.020797550678253174,0.016572387889027596,-0.0004458243784029037,-0.015266349539160728
0.03467622771859169,0.004407766740769148,-0.020582297816872597,0.017291918396949768,-0.00043229013681411743,-0.01485681813210249
0.03472518548369408,0.004269831348210573,-0.021194802597165108,0.01723555475473404,-0.0005013133632019162,-0.01507917046546936
0.034774016588926315,0.0039916010573506355,-0.02151894010603428,0.017277292907238007,-0.0005499909166246653,-0.014952505938708782
0.03642398118972778,0.004307914990931749,-0.02087651565670967,0.01701526530086994,-0.0005206277128309011,-0.015688328072428703
0.03590652719140053,0.004623859189450741,-0.020625358447432518,0.01705038920044899,-0.0005446291179396212,-0.015539412386715412
0.0355524905025959,0.004583755508065224,-0.02109573408961296,0.017297489568591118,-0.0007401081384159625,-0.014653046615421772
0.035321179777383804,0.004700423218309879,-0.020600952208042145,0.017413994297385216,-0.000814023136626929,-0.014892427250742912
0.03540974482893944,0.004755834117531776,-0.020710496231913567,0.017738256603479385,-0.0008131017675623298,-0.014305862598121166
0.036644622683525085,0.00420538941398263,-0.0210361760109663,0.017380252480506897,-0.0007960277143865824,-0.014688843861222267
0.03670147806406021,0.003918834496289492,-0.020965052768588066,0.017704492434859276,-0.0007594553753733635,-0.015016096644103527
0.03456449508666992,0.00427635433152318,-0.020729461684823036,0.017194727435708046,-0.0006897338898852468,-0.01530406717211008
0.03563613444566727,0.004271641373634338,-0.02108539268374443,0.017077814787626266,-0.0006596060702577233,-0.015604482032358646
0.03629500791430473,0.004340125247836113,-0.02085834927856922,0.017162609845399857,-0.0006024733302183449,-0.015346471220254898
0.03666470944881439,0.004448906984180212,-0.020588425919413567,0.01752653904259205,-0.0006106864893808961,-0.014909416437149048
0.0361570343375206,0.004128041677176952,-0.021399090066552162,0.018196767196059227,-0.0006158404867164791,-0.015122491866350174
0.035547081381082535,0.003932335413992405,-0.02142794243991375,0.018157344311475754,-0.0006414367817342281,-0.015164252370595932
0.03587063401937485,0.004379470366984606,-0.021096372976899147,0.018205177038908005,-0.000630254449788481,-0.014636818319559097
0.036349572241306305,0.004483918659389019,-0.02098335325717926,0.018179792910814285,-0.0007135418127290905,-0.015343758277595043
0.03639235720038414,0.0043867481872439384,-0.021364394575357437,0.01769961789250374,-0.0007421297486871481,-0.01497611217200756
0.036234188824892044,0.004287925083190203,-0.021453406661748886,0.017808031290769577,-0.0007123323157429695,-0.015166190452873707
0.03644459694623947,0.00478769838809967,-0.020981496199965477,0.017826659604907036,-0.0006825363379903138,-0.015454508364200592
0.03656884655356407,0.004764240700751543,-0.021724293008446693,0.0175321027636528,-0.0006831976352259517,-0.01562104094773531
0.03672444075345993,0.0043298108503222466,-0.021737467497587204,0.01801317185163498,-0.0007222688873298466,-0.015395249240100384
0.03601253032684326,0.004454497713595629,-0.02251121774315834,0.0177556574344635,-0.0007716740947216749,-0.016382213681936264
0.03601253032684326,0.004454497713595629,-0.02251121774315834,0.0177556574344635,-0.0007716740947216749,-0.016382213681936264
0.03577186167240143,0.0041946652345359325,-0.022472020238637924,0.017913563176989555,-0.0008439769735559821,-0.015208284370601177
0.037265270948410034,0.004237787332385778,-0.02159227803349495,0.018134763464331627,-0.0013225758448243141,-0.015712426975369453
0.03830510005354881,0.004633825272321701,-0.02129562757909298,0.01793891377747059,-0.0014384359819814563,-0.015950866043567657
0.03690016269683838,0.004328044131398201,-0.02180940844118595,0.01813054457306862,-0.0013860859908163548,-0.01554697472602129
0.0357203483581543,0.004410421941429377,-0.022318169474601746,0.01776515319943428,-0.0013487067772075534,-0.01520775817334652
0.03702138364315033,0.004068403039127588,-0.02183014713227749,0.0178163293749094,-0.0012490976369008422,-0.015438391827046871
0.03682921826839447,0.0038895918987691402,-0.021461166441440582,0.0184650756418705,-0.0010250217746943235,-0.015344041399657726
0.03757895529270172,0.004399651195853949,-0.022251170128583908,0.01807372458279133,-0.0008615917759016156,-0.015498480759561062
0.03766711801290512,0.004696693737059832,-0.022188875824213028,0.01881008967757225,-0.0007603236590512097,-0.016451304778456688
0.03681064769625664,0.004824909381568432,-0.021689191460609436,0.01876773312687874,-0.0007625329890288413,-0.0162925086915493
0.03785287216305733,0.004749808460474014,-0.02200125902891159,0.018948625773191452,-0.0006997035234235227,-0.015759693458676338
0.03836177662014961,0.004472229164093733,-0.02173883654177189,0.01901726983487606,-0.0006383417639881372,-0.015786515548825264
0.038420818746089935,0.0047111790627241135,-0.021536987274885178,0.018465813249349594,-0.0004884470254182816,-0.01568824052810669
0.038423921912908554,0.004818797577172518,-0.021585773676633835,0.019239243119955063,-0.0004139608354307711,-0.015630383044481277
0.03767641633749008,0.004439210053533316,-0.022032057866454124,0.01915866695344448,-0.00037727010203525424,-0.015588798560202122
0.03813333809375763,0.003957593347877264,-0.022258467972278595,0.018760232254862785,-0.0003479452570900321,-0.015698585659265518
0.03858031705021858,0.004281516652554274,-0.021589260548353195,0.019284948706626892,-0.00032294756965711713,-0.01583332195878029
0.03855803608894348,0.004232813138514757,-0.021174510940909386,0.018918974325060844,-0.0003013076784554869,-0.015346836298704147
0.0387616865336895,0.003996614366769791,-0.021997617557644844,0.01832115463912487,-0.00033120939042419195,-0.015358603559434414
0.0392242968082428,0.0038473682943731546,-0.02236948162317276,0.018695881590247154,-0.0003183480876032263,-0.015657590702176094
0.03831257298588753,0.004073345568031073,-0.021876197308301926,0.019166316837072372,-0.00030103218159638345,-0.016138868406414986
0.039443861693143845,0.0040403795428574085,-0.022020192816853523,0.018841899931430817,-0.00032020831713452935,-0.01572245918214321
0.0394381545484066,0.004336030688136816,-0.022540880367159843,0.019002588465809822,-0.0003151794080622494,-0.016391094774007797
0.03903844952583313,0.004120324272662401,-0.022681105881929398,0.01899922452867031,-0.00030084303580224514,-0.016386406496167183
0.03943830728530884,0.0038965169806033373,-0.02259080484509468,0.018601026386022568,-0.0003253920003771782,-0.016204478219151497
0.03936280682682991,0.003834752831608057,-0.022029560059309006,0.019047539681196213,-0.0003137080348096788,-0.01602603867650032
0.03947283327579498,0.0043250503949820995,-0.022020544856786728,0.018449854105710983,-0.0003101444453932345,-0.016023319214582443
0.03947283327579498,0.0043250503949820995,-0.022020544856786728,0.018449854105710983,-0.0003101444453932345,-0.016023319214582443
0.04020077735185623,0.004082733299583197,-0.022769035771489143,0.018329212442040443,-0.0003205348621122539,-0.016971871256828308
0.0399104580283165,0.003815515199676156,-0.023023417219519615,0.01873045042157173,-0.0003273638430982828,-0.017108138650655746
0.03996681421995163,0.004164005629718304,-0.022964177653193474,0.01919233426451683,-0.00034838818828575313,-0.017996126785874367
0.04014728218317032,0.004178524948656559,-0.022475799545645714,0.019322451204061508,-0.00036538575659506023,-0.01598399505019188
0.03977300226688385,0.004034923389554024,-0.022315053269267082,0.019083965569734573,-0.00036947938497178257,-0.016129180788993835
0.04119308292865753,0.0034740366972982883,-0.022466173395514488,0.01906638592481613,-0.0005934284999966621,-0.016968615353107452
0.04087245464324951,0.003845921950414777,-0.022850286215543747,0.01930338330566883,-0.0006241914816200733,-0.017069924622774124
0.0390041247010231,0.004172466229647398,-0.023419855162501335,0.019068384543061256,-0.0005653196130879223,-0.01745321787893772
0.040762949734926224,0.004061032086610794,-0.023176254704594612,0.019208623096346855,-0.0005912594497203827,-0.017070382833480835
0.04085465520620346,0.0038682653103023767,-0.022928494960069656,0.01981242373585701,-0.0005828996654599905,-0.0169675275683403
0.041706010699272156,0.004137167241424322,-0.022855864837765694,0.01954837515950203,-0.0005711873527616262,-0.01679864339530468
0.04068329185247421,0.004070909693837166,-0.022864406928420067,0.01934865675866604,-0.000583070155698806,-0.01703174039721489
0.03983167186379433,0.00426178053021431,-0.02288222312927246,0.01958494260907173,-0.0006730848690494895,-0.016868891194462776
0.039996977895498276,0.004076538607478142,-0.02353736385703087,0.019187312573194504,-0.0007239275728352368,-0.017242345958948135
0.04127046838402748,0.004342890810221434,-0.02330850064754486,0.019027452915906906,-0.0006833954248577356,-0.017519230023026466
0.04028868302702904,0.0042991600930690765,-0.02364111877977848,0.019835349172353745,-0.000957030220888555,-0.017621245235204697
0.04191524162888527,0.004530016798526049,-0.023923685774207115,0.019787844270467758,-0.0009504534536972642,-0.017297938466072083
0.04063135385513306,0.004321944899857044,-0.023764850571751595,0.019389865919947624,-0.0009248697897419333,-0.016903838142752647
0.04025937616825104,0.004394907969981432,-0.023859959095716476,0.01947787217795849,-0.0009204389643855393,-0.01703663542866707
0.04087836667895317,0.004482921212911606,-0.02330104634165764,0.019357731565833092,-0.0008741689380258322,-0.017496896907687187
0.04021559655666351,0.004221796523779631,-0.023181306198239326,0.01877629943192005,-0.0008798709022812545,-0.01791246421635151
0.040792904794216156,0.004497157409787178,-0.023643862456083298,0.018737800419330597,-0.0009002279257401824,-0.017703479155898094
0.04060932621359825,0.004683825187385082,-0.024212993681430817,0.01905864104628563,-0.0009013322996906936,-0.0168355293571949
0.04032670706510544,0.004592984914779663,-0.0242865439504385,0.01906692609190941,-0.0008137593977153301,-0.016746293753385544
0.04045509174466133,0.004822508431971073,-0.023905809968709946,0.02024374157190323,-0.0008615098777227104,-0.016826733946800232
0.04261518269777298,0.00467297900468111,-0.02404632978141308,0.02002125233411789,-0.0007437056046910584,-0.017061524093151093
0.04080319032073021,0.004654544871300459,-0.024020187556743622,0.019305741414427757,-0.0007574899937026203,-0.017220064997673035
0.03999899700284004,0.004407006315886974,-0.024098511785268784,0.01893845945596695,-0.0007524397224187851,-0.017128698527812958
0.041638199239969254,0.004501566290855408,-0.024018235504627228,0.018851282075047493,-0.0006947070360183716,-0.017554037272930145
0.041638199239969254,0.004501566290855408,-0.024018235504627228,0.018851282075047493,-0.0006947070360183716,-0.017554037272930145
0.04138050600886345,0.004634211305528879,-0.024145834147930145,0.01930631324648857,-0.0007102321251295507,-0.018580835312604904
0.04226952791213989,0.004687062464654446,-0.024313317611813545,0.01975996419787407,-0.0006539796595461667,-0.01673290506005287
0.04008733108639717,0.0044319527223706245,-0.025170911103487015,0.019404228776693344,-0.0006193480221554637,-0.017771447077393532
0.04196726903319359,0.004165890626609325,-0.024990685284137726,0.020701158791780472,-0.0006480182055383921,-0.017860861495137215
0.04178282245993614,0.004356089048087597,-0.025303762406110764,0.021224187687039375,-0.0006776846712455153,-0.018022239208221436
