davideferrari95/blind_handover_controller/data/Test 181 - [2024-02-08 -- 11-23-13]/joint_states_data.csv
shoulder_pan_joint,shoulder_lift_joint,elbow_joint,wrist_1_joint,wrist_2_joint,wrist_3_joint
0.0017389734275639057,-0.00014512303459923714,-0.009873404167592525,0.009505865164101124,-0.0,0.002743518678471446
0.0017553799552842975,-0.00014163755986373872,-0.010003635659813881,0.009501858614385128,-0.0,0.0026134969666600227
0.0017553799552842975,-0.00014163755986373872,-0.010003635659813881,0.009501858614385128,-0.0,0.0026134969666600227
0.0017184031894430518,-0.00013802171451970935,-0.009768317453563213,0.00971252005547285,-0.0,0.0024565246421843767
0.00180898979306221,-0.00015670385619159788,-0.009646998718380928,0.009639940224587917,-0.0,0.0024872643407434225
0.0018794406205415726,-0.00015319016529247165,-0.009861938655376434,0.009623550809919834,-0.0,0.0023486600257456303
0.002263543661683798,-0.00014955762890167534,-0.009683874435722828,0.010034296661615372,-0.0,0.002470531966537237
0.002041427418589592,-0.00014608961646445096,-0.009609282948076725,0.010229010134935379,-0.0,0.0026133060455322266
0.0021743299439549446,-0.00016235803195741028,-0.009769780561327934,0.009705747477710247,-0.0,0.0023598799016326666
0.0019233220955356956,-0.00015954872651491314,-0.009292470291256905,0.009765438735485077,-0.0,0.0023310037795454264
0.0019233220955356956,-0.00015954872651491314,-0.009292470291256905,0.009765438735485077,-0.0,0.0023310037795454264
0.001790011883713305,-0.00015610024274792522,-0.009020652621984482,0.009855774231255054,-0.0,0.0023648275528103113
0.0017920717364177108,-0.00015278799401130527,-0.00954052247107029,0.00966368056833744,-0.0,0.002366338623687625
0.002041984349489212,-0.0001498622150393203,-0.009837666526436806,0.009759824723005295,-0.0,0.0027863094583153725
0.0019218859961256385,-0.00027355164638720453,-0.008935143239796162,0.009744781069457531,-0.0,0.0030547380447387695
0.002209292957559228,-0.0002595597179606557,-0.009629962034523487,0.009249146096408367,-0.0,0.002910297131165862
0.002063024789094925,-0.00024542614119127393,-0.009454930201172829,0.009479805827140808,-0.0,0.0026370841078460217
0.0020190617069602013,-0.00023273148690350354,-0.009156464599072933,0.009446275420486927,-0.0,0.0024190577678382397
0.002177529502660036,-0.00022128726413939148,-0.009497213177382946,0.009258450008928776,-0.0,0.0026202842127531767
0.0020886273123323917,-0.000210914047784172,-0.009577336721122265,0.009620122611522675,-0.0,0.002666210290044546
0.0020872782915830612,-0.00024119866429828107,-0.009832908399403095,0.009647496044635773,-0.0,0.003060897346585989
0.002026606583967805,-0.00023139695986174047,-0.00929277203977108,0.009760914370417595,-0.0,0.002999779535457492
0.0020911283791065216,-0.000221895010326989,-0.00958759244531393,0.00988023355603218,-0.0,0.002638967242091894
0.00232293619774282,-0.0002391977031948045,-0.009646886959671974,0.009478363208472729,-0.0,0.0023679109290242195
0.0021296851336956024,-0.00023046568094287068,-0.009674250148236752,0.00951011199504137,-0.0,0.002328951144590974
0.002280434826388955,-0.00025365210603922606,-0.009187214076519012,0.00946984626352787,-0.0,0.0025491362903267145
0.002063349587842822,-0.0002454264904372394,-0.009208980947732925,0.009455946274101734,-0.0,0.002489776350557804
0.0021886122412979603,-0.00029223485034890473,-0.009825530461966991,0.010017156600952148,-0.0,0.0024119121953845024
0.0021869754418730736,-0.0002813340106513351,-0.008996052667498589,0.009576926939189434,-0.0,0.0023805717937648296
0.002093323040753603,-0.00026487043942324817,-0.008696632459759712,0.008979346603155136,-0.0,0.002424599602818489
0.0023876524064689875,-0.00029811885906383395,-0.009624609723687172,0.009496370330452919,-0.0,0.002431447384878993
0.002154763089492917,-0.0002843391557689756,-0.009418060071766376,0.009200132451951504,-0.0,0.002747606486082077
0.002219314919784665,-0.00027013960061594844,-0.009005587548017502,0.008754431270062923,-0.0,0.0028194442857056856
0.002090130466967821,-0.00029505800921469927,-0.009595401585102081,0.009373323991894722,-0.0,0.002909015864133835
0.0020364325027912855,-0.0002864283451344818,-0.009483280591666698,0.00973262544721365,-0.0,0.0028263884596526623
0.0022492168936878443,-0.00027403360581956804,-0.009032651782035828,0.009654469788074493,-0.0,0.002892310731112957
0.0022179337684065104,-0.00029568749596364796,-0.009434911422431469,0.009134702384471893,-0.0,0.00295554893091321
0.002506309188902378,-0.00028805641341023147,-0.00939701683819294,0.009533150121569633,-0.0,0.0028953973669558764
0.002506309188902378,-0.00028805641341023147,-0.00939701683819294,0.009533150121569633,-0.0,0.0028953973669558764
0.002569586271420121,-0.0002770291466731578,-0.00925090629607439,0.009048652835190296,-0.0,0.0028965759556740522
0.0024543716572225094,-0.00035775231663137674,-0.009047631174325943,0.00950261764228344,-0.0,0.002926414366811514
0.0022620235104113817,-0.0003350795595906675,-0.009414461441338062,0.009618029929697514,-0.0,0.0030630812980234623
0.00219453452154994,-0.0003119029861409217,-0.00910547561943531,0.009376637637615204,-0.0,0.002837143139913678
0.0021883375011384487,-0.00034303413121961057,-0.00922231376171112,0.009523975662887096,-0.0,0.002546793781220913
0.002420866396278143,-0.00032861626823432744,-0.009494548663496971,0.009537425823509693,-0.0,0.002329885261133313
0.002302431268617511,-0.000343651685398072,-0.009120132774114609,0.008981438353657722,-0.0,0.002437618328258395
0.00252128834836185,-0.0003416301333345473,-0.008652832359075546,0.008961263112723827,-0.0,0.002349087269976735
0.0022659413516521454,-0.0003472193784546107,-0.009273823350667953,0.009227829053997993,-0.0,0.0024439042899757624
0.002080987673252821,-0.0003359329712111503,-0.008449326269328594,0.008612790144979954,-0.0,0.0026323471684008837
0.0022368617355823517,-0.00032101990655064583,-0.009049519896507263,0.00920594297349453,-0.0,0.0026656182017177343
0.00229258113540709,-0.00030735632753930986,-0.009863082319498062,0.009629732929170132,-0.0,0.0023928543087095022
0.0023021583911031485,-0.00035426890826784074,-0.008701162412762642,0.009325682185590267,-0.0,0.002258548280224204
0.002642381004989147,-0.00032929619192145765,-0.00870808307081461,0.009439937770366669,-0.0,0.0023012838792055845
0.0024768374860286713,-0.00030685163801535964,-0.009221301414072514,0.009163638576865196,-0.0,0.002261785324662924
0.0023045483976602554,-0.0003423319139983505,-0.00870468094944954,0.008857361041009426,-0.0,0.0025046411901712418
0.0023067588917911053,-0.00032399321207776666,-0.008891841396689415,0.00927769299596548,-0.0,0.002631454262882471
0.002486526034772396,-0.00030567817157134414,-0.008811896666884422,0.009461984038352966,-0.0,0.002580072730779648
0.0023405305109918118,-0.0003317775554023683,-0.008405185304582119,0.009245422668755054,-0.0,0.0027560219168663025
0.002599477069452405,-0.00032027644920162857,-0.008182336576282978,0.009083940647542477,-0.0,0.0026502476539462805
0.0024033542722463608,-0.00030484970193356276,-0.00882048811763525,0.009772518649697304,-0.0,0.0025169737637043
0.0024846745654940605,-0.00032739309244789183,-0.009297065436840057,0.009496220387518406,-0.0,0.002658294280990958
0.0024846745654940605,-0.00032739309244789183,-0.009297065436840057,0.009496220387518406,-0.0,0.002658294280990958
0.0026061725802719593,-0.0003175912133883685,-0.008597534149885178,0.009393607266247272,-0.0,0.002480847993865609
0.0025199190713465214,-0.0003421098808757961,-0.00932561606168747,0.009603984653949738,-0.0,0.0024785795249044895
0.0025199190713465214,-0.0003421098808757961,-0.00932561606168747,0.009603984653949738,-0.0,0.0024785795249044895
0.0026699951849877834,-0.0003243050305172801,-0.008356987498700619,0.009331759065389633,-0.0,0.0025300525594502687
0.002499539405107498,-0.0003605899401009083,-0.008503340184688568,0.009298230521380901,-0.0,0.00257706455886364
0.002583048539236188,-0.0003401889989618212,-0.009127674624323845,0.009706804528832436,-0.0,0.0027423789724707603
0.002694579539820552,-0.00037119651096872985,-0.008615694008767605,0.009692934341728687,-0.0,0.0025590385776013136
0.002790838712826371,-0.00035247308551333845,-0.008259820751845837,0.009698405861854553,-0.0,0.0024564939085394144
0.0026111516635864973,-0.00037583475932478905,-0.00887525174766779,0.009067138656973839,-0.0,0.0025970942806452513
0.002638168167322874,-0.0003622358781285584,-0.009009943343698978,0.008891724981367588,-0.0,0.002539373002946377
0.0024407454766333103,-0.00047381315380334854,-0.008436796255409718,0.009248136542737484,-0.0,0.002635363256558776
0.0025948069524019957,-0.0005110556376166642,-0.008846871554851532,0.008807291276752949,-0.0,0.0027523536700755358
0.002768264152109623,-0.00046984702930785716,-0.008600189350545406,0.010051386430859566,-0.0,0.0028564834501594305
0.0026002265512943268,-0.00043226880370639265,-0.008400251157581806,0.00866796262562275,-0.0,0.002848505275323987
0.002609109040349722,-0.00046414247481152415,-0.009081578813493252,0.008270321413874626,-0.0,0.0030207831878215075
0.0023738390300422907,-0.00043466268107295036,-0.008996616117656231,0.008714924566447735,-0.0,0.00292594893835485
0.0024647433310747147,-0.00046232150634750724,-0.008283451199531555,0.008985196240246296,-0.0,0.0025242166593670845
0.0026230462826788425,-0.0004365150525700301,-0.009068198502063751,0.009234755299985409,-0.0,0.0022969443816691637
0.0026335297152400017,-0.0004246978787705302,-0.008650913834571838,0.009900304488837719,-3.5563525102588756e-07,0.0022007764782756567
0.0026364491786807775,-0.00038814626168459654,-0.008703448809683323,0.008893126621842384,-2.3220440681370746e-08,0.00250149960629642
0.0022735476959496737,-0.0004201581177767366,-0.008895077742636204,0.008427362889051437,-1.5161286670561935e-09,0.002772923093289137
0.0022735476959496737,-0.0004201581177767366,-0.008895077742636204,0.008427362889051437,-1.5161286670561935e-09,0.002772923093289137
0.0018437454709783196,-0.00039711466524749994,-0.008543051779270172,0.009007877670228481,-9.89923629179934e-11,0.0027859488036483526
0.0018437454709783196,-0.00039711466524749994,-0.008543051779270172,0.009007877670228481,-9.89923629179934e-11,0.0027859488036483526
0.001482651336118579,-0.00040316086960956454,-0.008772208355367184,0.008958464488387108,-4.2201997647352274e-13,0.0023153279908001423
0.001545239007100463,-0.00037962879287078977,-0.009180583991110325,0.008609638549387455,-2.755489148756774e-14,0.0021130831446498632
0.001545239007100463,-0.00037962879287078977,-0.009180583991110325,0.008609638549387455,-2.755489148756774e-14,0.0021130831446498632
0.002122199395671487,-0.0003871736116707325,-0.008836857974529266,0.00877719558775425,-1.1747081722952185e-16,0.00209862575866282
0.002122199395671487,-0.0003871736116707325,-0.008836857974529266,0.00877719558775425,-1.1747081722952185e-16,0.00209862575866282
0.001848722924478352,-0.00036744080716744065,-0.009209460578858852,0.008989227004349232,-7.670004932937735e-18,0.002414909191429615
0.0018029765924438834,-0.00035160515108145773,-0.008161172270774841,0.009124786593019962,-5.007965461379528e-19,0.002598889172077179
0.0016620412934571505,-0.00035839941119775176,-0.00856833066791296,0.008889502845704556,-3.2698433458349845e-20,0.00262001296505332
0.0016027976525947452,-0.00033238891046494246,-0.00942185241729021,0.008842602372169495,-2.1349739616837133e-21,0.0026286456268280745
0.0016487693646922708,-0.0003095284628216177,-0.008648772723972797,0.009320284239947796,-1.3939855033254838e-22,0.0025244546122848988
0.001855196664109826,-0.00032748712692409754,-0.008343377150595188,0.009355500340461731,-9.101730396311663e-24,0.002421148819848895
0.001881326432339847,-0.00032624189043417573,-0.009058293886482716,0.008896910585463047,-5.942779598450616e-25,0.002443249337375164
0.0019326023757457733,-0.00030788587173447013,-0.008915732614696026,0.00910172238945961,-3.880210502002225e-26,0.0022593028843402863
0.0018768247682601213,-0.0003340469265822321,-0.00913164485245943,0.008850309997797012,-2.5335001750481606e-27,0.0023278275039047003
0.002121211960911751,-0.00031942102941684425,-0.00850109662860632,0.009059667587280273,-4.604512170811483e-32,0.002787884557619691
0.002121211960911751,-0.00031942102941684425,-0.00850109662860632,0.009059667587280273,-4.604512170811483e-32,0.002787884557619691
0.00230870652012527,-0.00030587209039367735,-0.009318012744188309,0.00936860777437687,-3.0064175356982044e-33,0.002455828245729208
0.0021940921433269978,-0.00032667446066625416,-0.009323772974312305,0.008892061188817024,-1.9629756947711483e-34,0.0021713338792324066
0.0021619279868900776,-0.00032010633731260896,-0.00865799281746149,0.008554022759199142,-1.2816828740719963e-35,0.0022769374772906303
0.0020891260355710983,-0.0002990529465023428,-0.009129065088927746,0.008764547295868397,-8.368473714156262e-37,0.002294897800311446
0.0020131960045546293,-0.0003171094285789877,-0.009209858253598213,0.009190144017338753,-5.464015279096086e-38,0.002849601674824953
0.0020011935848742723,-0.000331858143908903,-0.008697926066815853,0.00895237922668457,-2.3293924502317867e-40,0.0026905490085482597
0.0020011935848742723,-0.000331858143908903,-0.008697926066815853,0.00895237922668457,-2.3293924502317867e-40,0.0026905490085482597
0.002218416426330805,-0.0003305139543954283,-0.009314537979662418,0.009559203870594501,-1.5209693531781564e-41,0.0025337161496281624
0.002366491127759218,-0.0003142433997709304,-0.00893337931483984,0.009449062868952751,-9.935206112062953e-43,0.00222450471483171
0.002366491127759218,-0.0003142433997709304,-0.00893337931483984,0.009449062868952751,-9.935206112062953e-43,0.00222450471483171
0.0022556374315172434,-0.0002993152302224189,-0.00870655570179224,0.00927500706166029,-6.445972935894159e-44,0.002089184708893299
0.0022274176590144634,-0.00028573954477906227,-0.00921595934778452,0.009501400403678417,-4.203895392974451e-45,0.002398010343313217
0.002119016135111451,-0.00027334087644703686,-0.009253816679120064,0.009224383160471916,-0.0,0.002741372212767601
0.002155314665287733,-0.00023291647084988654,-0.008537285029888153,0.00877173151820898,-0.0,0.001860179239884019
0.002155314665287733,-0.00023291647084988654,-0.008537285029888153,0.00877173151820898,-0.0,0.001860179239884019
0.0023040128871798515,-0.0002246125222882256,-0.009096345864236355,0.008512583561241627,-0.0,0.0019013460259884596
0.00224163755774498,-0.00021687998378183693,-0.00881071388721466,0.008623261004686356,-0.0,0.0024017123505473137
0.00212677288800478,-0.00020966264128219336,-0.008797659538686275,0.008781823329627514,-0.0,0.0031772975344210863
0.0020660879090428352,-0.00019657777738757432,-0.009247050620615482,0.009343883953988552,-0.0,0.002566085895523429
0.0022892842534929514,-0.0001906299585243687,-0.008868950419127941,0.008729713037610054,-0.0,0.002126873005181551
0.0025277500972151756,-0.00018503089086152613,-0.00843963772058487,0.008271739818155766,-0.0,0.002016958314925432
0.002445970429107547,-0.00017975845548789948,-0.00904631894081831,0.009049776941537857,-0.0,0.0020901761017739773
0.0025248699821531773,-0.0001747662463458255,-0.008924037218093872,0.008868026547133923,-0.0,0.0022165297996252775
0.002219195244833827,-0.00017004813707899302,-0.00852063950151205,0.008371183648705482,-0.0,0.002475929446518421
0.0021675515454262495,-0.00016557867638766766,-0.008706469088792801,0.0079317856580019,-0.0,0.002679461846128106
0.0024067910853773355,-0.00016134472389239818,-0.009330006316304207,0.00885678082704544,-0.0,0.002432319102808833
0.002338561462238431,-0.00015731522580608726,-0.007872930727899075,0.008458328433334827,6.949510407139314e-06,0.00233492162078619
0.002338561462238431,-0.00015731522580608726,-0.007872930727899075,0.008458328433334827,6.949510407139314e-06,0.00233492162078619
0.0025942884385585785,-0.00015348332817666233,-0.008169994689524174,0.008242636919021606,8.191225788323209e-05,0.00235019251704216
0.0025769053027033806,-0.0001498330821050331,-0.00906880758702755,0.008606348186731339,8.525913290213794e-05,0.0022953327279537916
0.002368566580116749,-0.00014635226398240775,-0.00912277027964592,0.008710354566574097,8.398785575991496e-05,0.0023836654145270586
0.002161582699045539,-0.00014303004718385637,-0.008085805922746658,0.008372882381081581,8.246950164902955e-05,0.002318663289770484
0.0021320327650755644,-0.0001398546592099592,-0.008612323552370071,0.008360656909644604,8.09865741757676e-05,0.0024165953509509563
0.0023491359315812588,-0.0001368174998788163,-0.008981249295175076,0.008833138272166252,9.338302334072068e-05,0.002473845612257719
0.002629779977723956,-0.0001339094014838338,-0.00826232135295868,0.008646523579955101,9.367155143991113e-05,0.0024276410695165396
0.002546074567362666,-0.0001311223313678056,-0.00875005591660738,0.008683192543685436,9.219683124683797e-05,0.002552826190367341
0.0025725930463522673,-0.00012844902812503278,-0.009167511016130447,0.008810009807348251,9.065718768397346e-05,0.0023625281173735857
0.0024822307750582695,-0.00012588252138812095,-0.008916244842112064,0.009070328436791897,8.916078513721004e-05,0.0023014559410512447
0.002281042281538248,-0.000123416495625861,-0.00901032518595457,0.008978525176644325,9.491119271842763e-05,0.002125670900568366
0.0024874103255569935,-0.00012104524648748338,-0.008655499666929245,0.008588376455008984,0.0001002112403512001,0.002039230428636074
0.002426781924441457,-0.00011876350617967546,-0.008344892412424088,0.008637751452624798,9.907992352964357e-05,0.00211013900116086
0.0026724692434072495,-0.00011444864503573626,-0.00907406210899353,0.0077110351994633675,9.608809341443703e-05,0.0023821075446903706
0.00235205190256238,-0.00011240681487834081,-0.009458289481699467,0.008016676642000675,9.464468894293532e-05,0.0024690355639904737
0.0024300513323396444,-0.00011043628910556436,-0.008437003009021282,0.00810287520289421,9.324394341092557e-05,0.0024054197128862143
0.0023831604048609734,-0.0001085337353288196,-0.008546300232410431,0.007916007190942764,9.835039963945746e-05,0.0024572189431637526
0.0025243661366403103,-0.00010669583571143448,-0.009034445509314537,0.008160632103681564,0.0001030658750096336,0.0022189796436578035
0.002733103232458234,-0.00010491887223906815,-0.008296585641801357,0.008403542451560497,0.00010200556425843388,0.002303947228938341
0.0031405624467879534,-0.00010320034198230132,-0.008536682464182377,0.007853468880057335,0.00010060636122943833,0.002320154570043087
0.003036944195628166,-0.00010153702896786854,-0.009240830317139626,0.007655945140868425,9.922161552822217e-05,0.0023129780311137438
0.002698051743209362,-9.83665231615305e-05,-0.007847231812775135,0.008057156577706337,9.656039765104651e-05,0.002433167537674308
0.0026337106246501207,-9.685423719929531e-05,-0.008504284545779228,0.007814708165824413,9.528255031909794e-05,0.0022603049874305725
0.002730380976572633,-9.538780432194471e-05,-0.008896766230463982,0.007982797920703888,0.0001327394274994731,0.0021433031652122736
0.0026619923301041126,-9.396507812198251e-05,-0.009228557348251343,0.008404026739299297,0.0001644875737838447,0.0020620550494641066
0.0026619923301041126,-9.396507812198251e-05,-0.009228557348251343,0.008404026739299297,0.0001644875737838447,0.0020620550494641066
0.003259862307459116,-8.994078234536573e-05,-0.008496187627315521,0.00820683129131794,0.0001503932726336643,0.002565564587712288
0.0029085776768624783,-8.744415390538052e-05,-0.00938396155834198,0.008278414607048035,0.00014097016537562013,0.002535151317715645
0.0029912726022303104,-8.624706242699176e-05,-0.009160327725112438,0.007975701242685318,0.00013668763858731836,0.0024123950861394405
0.0029912726022303104,-8.624706242699176e-05,-0.009160327725112438,0.007975701242685318,0.00013668763858731836,0.0024123950861394405
0.0031875129789114,-8.284477371489629e-05,-0.009107387624680996,0.008030733093619347,0.0001498893543612212,0.0023034997284412384
0.0028483301866799593,-8.176950359484181e-05,-0.0080686891451478,0.0076812091283500195,0.00014622541493736207,0.002410345710813999
0.003031444735825062,-8.072184573393315e-05,-0.007830247282981873,0.008637859486043453,0.00014239501615520567,0.002277601044625044
0.003070955630391836,-7.970075967023149e-05,-0.009415782056748867,0.007960200309753418,0.00013873810530640185,0.0019170697778463364
0.0029753295239061117,-7.870507397456095e-05,-0.008754296228289604,0.008007620461285114,0.00013526280235964805,0.0018452255753800273
0.003320870455354452,-7.773395191179588e-05,-0.0077913315035402775,0.007822549901902676,0.0001319572766078636,0.0017917375080287457
0.0030299359932541847,-7.678655674681067e-05,-0.008016460575163364,0.008026120252907276,0.00014884168922435492,0.0019602333195507526
0.0031109428964555264,-7.586197898490354e-05,-0.009202046319842339,0.007706739939749241,0.00014668266521766782,0.002100793644785881
0.0033613296691328287,-7.495933823520318e-05,-0.008716068230569363,0.007349832449108362,0.00014342836220748723,0.002173480810597539
0.0033613296691328287,-7.495933823520318e-05,-0.008716068230569363,0.007349832449108362,0.00014342836220748723,0.002173480810597539
0.003230211790651083,-7.407800876535475e-05,-0.008357872255146503,0.007734868209809065,0.0001402410416631028,0.002399302087724209
0.003101142356172204,-7.321705925278366e-05,-0.009005041792988777,0.008359274826943874,0.00013718748232349753,0.0022673225030303
0.003097259672358632,-7.155403000069782e-05,-0.007414780091494322,0.007550277281552553,0.00014539262338075787,0.001922826049849391
0.003097259672358632,-7.155403000069782e-05,-0.007414780091494322,0.007550277281552553,0.00014539262338075787,0.001922826049849391
0.0033023736905306578,-7.075048051774502e-05,-0.008235553279519081,0.00814773514866829,0.00014685447968076915,0.002047428162768483
0.003150452859699726,-6.996474985498935e-05,-0.008779036812484264,0.007838943041861057,0.0001442023494746536,0.002639325801283121
0.002920266706496477,-8.059178981056903e-06,-0.008304336108267307,0.007787809707224369,0.0001413894206052646,0.0028975047171115875
0.0026470988523215055,-1.0812417627903415e-07,-0.007958116941154003,0.007575730327516794,0.0001388053788105026,0.0027812509797513485
0.0025411215610802174,-1.4506238432687724e-09,-0.008320902474224567,0.008072256110608578,0.00016341380251105875,0.0023682427126914263
0.002998756943270564,-1.946197022983931e-11,-0.00844142958521843,0.00818728655576706,0.00015955673006828874,0.00219039642252028
0.0028865644708275795,-3.5030862301791083e-15,-0.008287282660603523,0.007653765380382538,0.00014911219477653503,0.0019328829366713762
0.002941299695521593,-4.699837415840105e-17,-0.008675681427121162,0.008114875294268131,0.0001443296205252409,0.0021789390593767166
0.0026480655651539564,-6.3054318563813365e-19,-0.008042958565056324,0.008054645732045174,0.00016055307060014457,0.0024711997248232365
0.002529023215174675,-8.459541389456435e-21,-0.008126269094645977,0.007939723320305347,0.0001622804848011583,0.0025430244859308004
0.002802264178171754,-1.134955388922602e-22,-0.008396990597248077,0.007894091308116913,0.00015796122897882015,0.0025332097429782152
0.0031951896380633116,-1.5226875210349586e-24,-0.008749933913350105,0.007814171724021435,0.00015349853492807597,0.0022402778267860413
0.003179650753736496,-2.0428794980326242e-26,-0.00872188713401556,0.007956399582326412,0.00014925726281944662,0.0020622326992452145
0.003061324590817094,-2.740783681620184e-28,-0.008275680243968964,0.00788882840424776,0.00016625848365947604,0.002281330991536379
0.0028138896450400352,-3.6771110866603266e-30,-0.008629989810287952,0.007737855426967144,0.0001648029574425891,0.0023774635046720505
0.0030048415064811707,-1.5710533034507534e-06,-0.008245914243161678,0.008104019798338413,0.00016078571206890047,0.0028815865516662598
0.003369550220668316,-2.1077683598491603e-08,-0.008255153894424438,0.00779451010748744,0.00015679607167840004,0.002958108903840184
0.003261356381699443,-2.827840184238539e-10,-0.008807385340332985,0.007531068287789822,0.00017338203906547278,0.002595256082713604
0.003261356381699443,-2.827840184238539e-10,-0.008807385340332985,0.007531068287789822,0.00017338203906547278,0.002595256082713604
0.0029755481518805027,-5.090013087123528e-14,-0.00821262039244175,0.007701290771365166,0.0001667395990807563,0.0020629940554499626
0.0031535064335912466,-6.828901911145929e-16,-0.008105526678264141,0.007509713061153889,0.00016297094407491386,0.001973722828552127
0.0033344512339681387,-9.161844192831209e-18,-0.008267727680504322,0.0074708652682602406,0.00022766945767216384,0.0022844034247100353
0.0033344512339681387,-9.161844192831209e-18,-0.008267727680504322,0.0074708652682602406,0.00022766945767216384,0.0022844034247100353
0.003419699380174279,-1.2291782410385523e-19,-0.008760840632021427,0.00763337779790163,0.00022607318533118814,0.002352842828258872
0.0031505669467151165,-1.6490995607335547e-21,-0.008222680538892746,0.007612497545778751,0.0002158696879632771,0.0027755661867558956
0.0034780316054821014,-2.2124777911950245e-23,-0.008984544314444065,0.007537439465522766,0.00022615845955442637,0.0026949397288262844
0.003316192887723446,-2.9683213768230314e-25,-0.0087733780965209,0.00743751460686326,0.0002350324357394129,0.002571471268311143
0.0034567948896437883,-3.982382087035539e-27,-0.007985251024365425,0.007664643693715334,0.00022640038514509797,0.0024123566690832376
0.0031652040779590607,-5.342873925707751e-29,-0.008125562220811844,0.007997452281415462,0.0002441461547277868,0.0021430912893265486
0.0031248272862285376,-7.168147153997917e-31,-0.008547023870050907,0.007842336781322956,0.00024316769849974662,0.0021835612133145332
0.003255373565480113,-9.616984504990038e-33,-0.008449655026197433,0.0070906165055930614,0.00023466107086278498,0.002321707084774971
0.0036299098283052444,-1.2902411961505148e-34,-0.008350685238838196,0.007519073784351349,0.00025640305830165744,0.0023590021301060915
0.0034651432652026415,-1.7310234100402854e-36,-0.00948879774659872,0.00785955972969532,0.00024948487407527864,0.002710324013605714
0.0035474938340485096,-2.3223889006369377e-38,-0.008127245120704174,0.007505730725824833,0.0003667736309580505,0.002809323836117983
0.0034278794191777706,-4.1800733190809293e-42,-0.008312592282891273,0.008289058692753315,0.000394860515370965,0.002450244501233101
0.0031597926281392574,-5.605193857299268e-44,-0.009366464801132679,0.00796956941485405,0.0004232266510371119,0.0024108602665364742
0.0031032448168843985,-1.401298464324817e-45,-0.008449551649391651,0.007127218414098024,0.0004460044438019395,0.002351611852645874
0.0031438800506293774,-0.0,-0.008077838458120823,0.007093515712767839,0.0004329239600338042,0.002573828911408782
0.003452849807217717,0.0,-0.008623355999588966,0.007933086715638638,0.0006295688799582422,0.0028080677147954702
0.003791141090914607,0.0,-0.008660231716930866,0.007819759659469128,0.0006666407571174204,0.0026337055023759604
0.003661158960312605,0.0,-0.008133134804666042,0.007133310195058584,0.0006183052901178598,0.00262221391312778
0.0032095585484057665,0.0,-0.00851944275200367,0.007661362644284964,0.0005824488471262157,0.0023048543371260166
0.0032095585484057665,0.0,-0.00851944275200367,0.007661362644284964,0.0005824488471262157,0.0023048543371260166
0.003654261352494359,0.0,-0.008437760174274445,0.007603194564580917,0.0005377838970161974,0.0023044892586767673
0.003654261352494359,0.0,-0.008437760174274445,0.007603194564580917,0.0005377838970161974,0.0023044892586767673
0.0034225773997604847,0.0,-0.007767821196466684,0.00754028744995594,0.0005300570628605783,0.002237569307908416
0.003401014255359769,0.0,-0.008374711498618126,0.007513200864195824,0.0005228579393588006,0.0021876844111829996
0.0033869785256683826,0.0,-0.008491609245538712,0.007241607178002596,0.0004654196964111179,0.0019566239789128304
0.0033869785256683826,0.0,-0.008491609245538712,0.007241607178002596,0.0004654196964111179,0.0019566239789128304
0.0037627508863806725,0.0,-0.008472335524857044,0.006847630720585585,0.00045964098535478115,0.0022632393520325422
0.0037627508863806725,0.0,-0.008472335524857044,0.006847630720585585,0.00045964098535478115,0.0022632393520325422
0.0037265783175826073,0.0,-0.008315644226968288,0.007392674218863249,0.000480283226352185,0.002581574721261859
0.0037281601689755917,0.0,-0.008189205080270767,0.007235173135995865,0.00046163538354448974,0.0027674047742038965
0.0037578516639769077,0.0,-0.008983473293483257,0.0069839539937675,0.00047641017590649426,0.0026169950142502785
0.00335043016821146,0.0,-0.008705099113285542,0.006830316502600908,0.0004601389227900654,0.0024651060812175274
0.0035608219914138317,0.0,-0.008475273847579956,0.0071864742785692215,0.0005394626641646028,0.002478421665728092
0.003866992425173521,0.0,-0.008552649058401585,0.007164715323597193,0.0005644626216962934,0.002529013901948929
0.0035204212181270123,0.0,-0.008679970167577267,0.007133106235414743,0.0005980944260954857,0.002785252407193184
0.003565029939636588,0.0,-0.008682881481945515,0.007005142513662577,0.0005857434589415789,0.002859267173334956
0.00361526757478714,0.0,-0.00892520323395729,0.0074699874967336655,0.0006099379388615489,0.0027548689395189285
0.003804170060902834,0.0,-0.009160086512565613,0.007116538472473621,0.0007123093819245696,0.0022939585614949465
0.003858877345919609,0.0,-0.008264163509011269,0.007391463033854961,0.0007285081665031612,0.0021652542054653168
0.0033764743711799383,0.0,-0.008789530955255032,0.007732192054390907,0.000654920469969511,0.002355643780902028
0.0034895918797701597,0.0,-0.008969978429377079,0.007198323030024767,0.0006559836328960955,0.002552724676206708
0.003692416939884424,0.0,-0.008151467889547348,0.006863463204354048,0.0006138893659226596,0.0025425765197724104
0.004219306167215109,0.0,-0.008734608069062233,0.006572945974767208,0.0005606374470517039,0.002771686762571335
0.003982678055763245,0.0,-0.009043837897479534,0.007264778017997742,0.0005148654454387724,0.002648361260071397
0.0038974962662905455,0.0,-0.008203280158340931,0.0076607572846114635,0.0005346207180991769,0.002650453709065914
0.0034270889591425657,0.0,-0.008237612433731556,0.007061515934765339,0.0005050930776633322,0.002703065052628517
0.004192352760583162,0.0,-0.00854527112096548,0.006624601781368256,0.0004724537138827145,0.0028920043259859085
0.004070661962032318,0.0,-0.008330091834068298,0.006967663764953613,0.0004438095784280449,0.0027760451193898916
0.004402513615787029,0.0,-0.00830468162894249,0.007428983226418495,0.00037464872002601624,0.0025937510654330254
0.004133281763643026,0.0,-0.009001404047012329,0.0074484460055828094,0.0003771841002162546,0.0024779296945780516
0.0038933895993977785,0.0,-0.008641926571726799,0.006752347107976675,0.0003808634646702558,0.0022135782055556774
0.004186294041574001,0.0,-0.007957706227898598,0.006530291400849819,0.00038658539415337145,0.002208672696724534
0.004156574606895447,0.0,-0.007909813895821571,0.007842247374355793,0.00038943070103414357,0.002302656415849924
0.004156574606895447,0.0,-0.007909813895821571,0.007842247374355793,0.00038943070103414357,0.002302656415849924
0.0040250602178275585,0.0,-0.009155826643109322,0.006467823870480061,0.0003940362366847694,0.00235159182921052
0.004176340531557798,0.0,-0.008159498684108257,0.0060796430334448814,0.000376934272935614,0.002626037923619151
0.004176340531557798,0.0,-0.008159498684108257,0.0060796430334448814,0.000376934272935614,0.002626037923619151
0.00443148473277688,0.0,-0.008327403105795383,0.00675756623968482,0.0004307881754357368,0.002574994694441557
0.00413177628070116,0.0,-0.008266841061413288,0.007415380794554949,0.00045559139107353985,0.0027847259771078825
0.00439112912863493,0.0,-0.007957941852509975,0.006956011988222599,0.0004580931272357702,0.0029329208191484213
0.0042028604075312614,0.0,-0.007987605407834053,0.006041434593498707,0.0004561847017612308,0.0028473257552832365
0.003958101384341717,0.0002470207109581679,-0.009376687929034233,0.006295596249401569,0.00042285092058591545,0.002633986296132207
0.004318587016314268,0.00024099832808133215,-0.008264108560979366,0.006794892717152834,0.0004530457954388112,0.0024804011918604374
0.004198784474283457,0.00022883855854161084,-0.00779101625084877,0.007551009301096201,0.0004263455921318382,0.002606217283755541
0.004394860472530127,0.00021776458015665412,-0.008030394092202187,0.006902302615344524,0.00044156669173389673,0.0026140520349144936
0.004501517862081528,0.00020771323761437088,-0.007994833402335644,0.006431127432733774,0.00042841932736337185,0.0029892295133322477
0.004106287378817797,0.00019854753918480128,-0.008044128306210041,0.006625245325267315,0.0004632080963347107,0.0027325425762683153
0.004330694675445557,0.0002189291117247194,-0.008823253214359283,0.006703800521790981,0.00047569035086780787,0.0025912479031831026
0.004330694675445557,0.0002189291117247194,-0.008823253214359283,0.006703800521790981,0.00047569035086780787,0.0025912479031831026
0.00447577890008688,0.00023610482458025217,-0.007845516316592693,0.006380509585142136,0.0004741985467262566,0.0024442097637802362
0.004644755274057388,0.0002277237072121352,-0.0077671571634709835,0.0067273955792188644,0.0004976572818122804,0.0028675829526036978
0.004723719321191311,0.0002507427125237882,-0.008347002789378166,0.007381231524050236,0.00047257740516215563,0.0029467344284057617
0.004292971920222044,0.00024270592257380486,-0.008103563450276852,0.0068016331642866135,0.0005222076433710754,0.002748054452240467
0.004459904506802559,0.00023589401098433882,-0.007716373540461063,0.006488177925348282,0.0005366395926102996,0.0025780489668250084
0.004621769301593304,0.0003021646698471159,-0.007966192439198494,0.006669509690254927,0.0006504108314402401,0.0024398190435022116
0.004679328296333551,0.0003213649324607104,-0.008964327163994312,0.007263064384460449,0.0006102656479924917,0.0024938329588621855
0.004749687388539314,0.00032051600283011794,-0.008133990690112114,0.00694472948089242,0.0006316649378277361,0.0024367431178689003
0.004738811403512955,0.0003472364624030888,-0.007601500954478979,0.006635855883359909,0.0006389074260368943,0.0025454529095441103
0.0045973872765898705,0.0003344160213600844,-0.008375211618840694,0.006234749220311642,0.0006100513273850083,0.0026595634408295155
0.004294801503419876,0.00035761273466050625,-0.008958437480032444,0.006645401008427143,0.0007536669727414846,0.00266731227748096
0.004800065420567989,0.0003455097321420908,-0.007809996604919434,0.006880016531795263,0.0007787368958815932,0.0028680232353508472
0.0049312422052025795,0.00033163177431561053,-0.008052444085478783,0.006533145904541016,0.0007479258929379284,0.0029472969472408295
0.004491772968322039,0.0004924981039948761,-0.008236688561737537,0.006417400669306517,0.0007169321761466563,0.0028838065918534994
0.004491772968322039,0.0004924981039948761,-0.008236688561737537,0.006417400669306517,0.0007169321761466563,0.0028838065918534994
0.0045881252735853195,0.0005044027348048985,-0.008151456713676453,0.006215566303580999,0.0007144789560697973,0.002825487870723009
0.005185667425394058,0.00048684366629458964,-0.007764904759824276,0.006207675207406282,0.000673705420922488,0.002821143949404359
0.004841823596507311,0.0004955035401508212,-0.00912279449403286,0.006139808800071478,0.0006500526797026396,0.0028108691330999136
0.004716384690254927,0.00048119109123945236,-0.00821960810571909,0.005998970475047827,0.0006295731873251498,0.002794666448608041
0.005065067671239376,0.0005085794837214053,-0.007769876625388861,0.0060623870231211185,0.0006079464801587164,0.0027260722126811743
0.0049129570834338665,0.0004825953219551593,-0.007463118992745876,0.0059316204860806465,0.0006161933415569365,0.00278760539367795
0.004779802169650793,0.0005567658809013665,-0.008181598037481308,0.005759343039244413,0.0005801976658403873,0.0028493397403508425
0.005019607488065958,0.0005949626793153584,-0.008440319448709488,0.0057661933824419975,0.000569258292671293,0.0033784739207476377
0.0048072002828121185,0.0006157101597636938,-0.008511478081345558,0.005618896801024675,0.0005586064071394503,0.0033169169910252094
0.004736428149044514,0.0006228357087820768,-0.008073949255049229,0.005731714423745871,0.0005204041372053325,0.0031692758202552795
0.00447883503511548,0.0008294613799080253,-0.007819140329957008,0.006034726742655039,0.00046442606253549457,0.002817554399371147
0.005002051126211882,0.0007581861573271453,-0.007292254362255335,0.006301396992057562,0.0004994447808712721,0.0028624834958463907
0.005081512965261936,0.0007744895992800593,-0.008351660333573818,0.00624668225646019,0.0005182923632673919,0.0027595043648034334
0.005389438010752201,0.0007854517898522317,-0.008497728034853935,0.005642141215503216,0.0005296917515806854,0.002743070712313056
0.0050918045453727245,0.0008104921435005963,-0.007594976108521223,0.005857860203832388,0.0005236631841398776,0.0025986875407397747
0.005276092328131199,0.0008562856237404048,-0.007309556473046541,0.006227429490536451,0.0006437524571083486,0.002579521620646119
0.004989365581423044,0.0008628605282865465,-0.007973616942763329,0.006165074650198221,0.0006702045211568475,0.0027938797138631344
0.004903711844235659,0.0008762572542764246,-0.007590898312628269,0.005562205798923969,0.0006704529514536262,0.0028895926661789417
0.005255259573459625,0.001010578009299934,-0.007275326643139124,0.005603954195976257,0.000647778098937124,0.0029011976439505816
0.00527093093842268,0.0011280187172815204,-0.0073827533051371574,0.006019402761012316,0.0006683352403342724,0.002754947869107127
0.00527093093842268,0.0011280187172815204,-0.0073827533051371574,0.006019402761012316,0.0006683352403342724,0.002754947869107127
0.005263646133244038,0.0012268610298633575,-0.007579975761473179,0.006339526269584894,0.0007817436708137393,0.0028584308456629515
0.005155925173312426,0.0011820823419839144,-0.007218656130135059,0.006366551388055086,0.0007117493660189211,0.0028731026686728
0.005722584202885628,0.0012406740570440888,-0.007012311369180679,0.00585677707567811,0.0007280047866515815,0.002760250587016344
0.005722584202885628,0.0012406740570440888,-0.007012311369180679,0.00585677707567811,0.0007280047866515815,0.002760250587016344
0.005319151561707258,0.0011270726099610329,-0.007926197722554207,0.005889133550226688,0.000703580619301647,0.0029454396571964025
0.005313664209097624,0.0012203709920868278,-0.00758347986266017,0.006181799340993166,0.0006783599965274334,0.0029556455556303263
0.005656316876411438,0.0012750381138175726,-0.007263718172907829,0.00614608870819211,0.0006649877759627998,0.0029314367566257715
0.0055840108543634415,0.0013183786068111658,-0.007177125196903944,0.00600859010592103,0.0006750576430931687,0.002840418368577957
0.005583990830928087,0.0013077340554445982,-0.008300213143229485,0.0060233185067772865,0.0006488241488113999,0.003034516703337431
0.005817716009914875,0.001387806492857635,-0.007852858863770962,0.006091867573559284,0.0006658192723989487,0.00310987769626081
0.005629151128232479,0.0015641821082681417,-0.007558584678918123,0.005684851203113794,0.0006125561776570976,0.0031726898159831762
0.005361548624932766,0.0014864342520013452,-0.008128311485052109,0.005608181469142437,0.0006330356118269265,0.003082514042034745
0.005248403176665306,0.0014228811487555504,-0.00829565804451704,0.005473807454109192,0.0005888714222237468,0.002938569989055395
0.005365978926420212,0.0016778426943346858,-0.008138762786984444,0.005707086995244026,0.0006149630062282085,0.002935354597866535
0.005567219108343124,0.0015802818816155195,-0.007496319245547056,0.00554667366668582,0.0006410739151760936,0.002870164578780532
0.0053036389872431755,0.0017296627629548311,-0.007652882486581802,0.005749561358243227,0.0006559789180755615,0.002866290044039488
0.005657346453517675,0.0017542195273563266,-0.008320363238453865,0.00603911466896534,0.0006570655386894941,0.0027159806340932846
0.0053654820658266544,0.0017483001574873924,-0.008201934397220612,0.005501579958945513,0.000641130143776536,0.002934924094006419
0.005241760052740574,0.0016136394115164876,-0.00820243638008833,0.005411059595644474,0.0007837688899599016,0.003325139870867133
0.00527343712747097,0.0016421416075900197,-0.008215255104005337,0.005427597556263208,0.0007949931896291673,0.003160676220431924
0.005715818144381046,0.0015621274942532182,-0.00820214208215475,0.005410967394709587,0.0007997017237357795,0.0029102640692144632
0.0052481708116829395,0.0018556199502199888,-0.008337999694049358,0.0052778460085392,0.0008943328866735101,0.003054711502045393
0.005322648212313652,0.001737545826472342,-0.008549517020583153,0.0050984821282327175,0.0009033667156472802,0.00341224973089993
0.005644320975989103,0.0020326015073806047,-0.008138463832437992,0.0054105427116155624,0.0009124453063122928,0.0037872600369155407
0.005339610856026411,0.0020847038831561804,-0.007596803829073906,0.005101543385535479,0.0009035462280735373,0.0034290198236703873
0.005887809209525585,0.0022942321375012398,-0.009046508930623531,0.005632256623357534,0.0008938389946706593,0.0031624443363398314
0.005327619146555662,0.0022294677328318357,-0.00850181095302105,0.005505169741809368,0.0008123922161757946,0.002904770663008094
0.005327619146555662,0.0022294677328318357,-0.00850181095302105,0.005505169741809368,0.0008123922161757946,0.002904770663008094
0.00575579097494483,0.0021167322993278503,-0.008206147700548172,0.005420518573373556,0.0008105935412459075,0.00289392052218318
0.005412982311099768,0.001986939460039139,-0.007857438176870346,0.0052824015729129314,0.0007187240407802165,0.0029423036612570286
0.005386024247854948,0.0020056546200066805,-0.008942398242652416,0.005577621050179005,0.0007330990629270673,0.003277189563959837
0.005493433214724064,0.002265702234581113,-0.008240283466875553,0.005402646493166685,0.0007315350230783224,0.003178464947268367
0.005701280664652586,0.002101996447890997,-0.008318088948726654,0.005152395460754633,0.0006836729007773101,0.003078760579228401
0.0055795274674892426,0.0024500798899680376,-0.008824395947158337,0.005688037723302841,0.0006248949212022126,0.003087442135438323
0.005481506232172251,0.0024569707456976175,-0.008672019466757774,0.005603452678769827,0.0006037785788066685,0.003176699159666896
0.005405229050666094,0.002412905218079686,-0.008106905966997147,0.005388959310948849,0.0005854236660525203,0.0030605001375079155
0.005644412245601416,0.002414908492937684,-0.008314244449138641,0.005088394973427057,0.0006070746458135545,0.0029110005125403404
0.0056444075889885426,0.0023784455843269825,-0.009337615221738815,0.005626050755381584,0.0006021969602443278,0.003200133331120014
0.005608518607914448,0.00228805560618639,-0.00854341872036457,0.00540097476914525,0.0005906245787627995,0.0036666560918092728
0.005246140994131565,0.0027679456397891045,-0.008464330807328224,0.0053254710510373116,0.0007132377359084785,0.003421340137720108
0.005729681346565485,0.0030636072624474764,-0.009213333949446678,0.005465247202664614,0.000744141056202352,0.0033912346698343754
0.005418789107352495,0.002709214109927416,-0.008475715294480324,0.004936136770993471,0.0007141701644286513,0.0032695005647838116
0.005565496161580086,0.0026865489780902863,-0.008220367133617401,0.004948175046592951,0.000684114231262356,0.003148427465930581
0.006114920601248741,0.0027816498186439276,-0.008603991009294987,0.004856114275753498,0.0006442781304940581,0.0036450170446187258
0.006114920601248741,0.0027816498186439276,-0.008603991009294987,0.004856114275753498,0.0006442781304940581,0.0036450170446187258
0.00505115557461977,0.0032184452284127474,-0.00894626509398222,0.004685760475695133,0.0005753959994763136,0.00320585654117167
0.005773553624749184,0.0034012370742857456,-0.008853207342326641,0.004325913265347481,0.0005989749915897846,0.0031992450822144747
0.0056251720525324345,0.003094536019489169,-0.008798723109066486,0.0044573531486094,0.0006169601692818105,0.0033769411966204643
0.005784125998616219,0.002866682130843401,-0.007959648966789246,0.004531217273324728,0.0006215764442458749,0.003395988140255213
0.005480519030243158,0.0031833976972848177,-0.008189897052943707,0.0044475942850112915,0.0006069373339414597,0.0034117368049919605
0.005290215369313955,0.003213555319234729,-0.008814266882836819,0.004525435622781515,0.0006826241151429713,0.0031774421222507954
0.005339854396879673,0.003244547639042139,-0.008556152693927288,0.004505874123424292,0.0007157246000133455,0.0030819380190223455
0.005605495069175959,0.0033630637917667627,-0.007902205921709538,0.004562797956168652,0.0007380623137578368,0.0030167221557348967
0.005658125504851341,0.003417933825403452,-0.008367753587663174,0.004720606375485659,0.0007554168114438653,0.0030712035950273275
0.006010327022522688,0.003515407908707857,-0.0083567313849926,0.005566771607846022,0.0008236285066232085,0.0033521505538374186
0.006010327022522688,0.003515407908707857,-0.0083567313849926,0.005566771607846022,0.0008236285066232085,0.0033521505538374186
0.005460982210934162,0.0036378756631165743,-0.008077546954154968,0.005382607690989971,0.0008038975647650659,0.0033949606586247683
0.005336744245141745,0.0037662279792129993,-0.008116988465189934,0.004995887167751789,0.0008162122685462236,0.0035768558736890554
0.005594685673713684,0.0034225613344460726,-0.008314392529428005,0.004962836392223835,0.0008270869147963822,0.0036942847073078156
0.00602535018697381,0.00353759597055614,-0.007567891385406256,0.004825395531952381,0.0007884008809924126,0.003404301591217518
0.005898641888052225,0.0037421241868287325,-0.007812139578163624,0.0048100766725838184,0.0007523932727053761,0.003149669850245118
0.005801052320748568,0.003831845009699464,-0.008188052102923393,0.0049572475254535675,0.0008065957226790488,0.0030674110166728497
0.005559146404266357,0.00338045135140419,-0.008436092175543308,0.005227938294410706,0.0008220318704843521,0.003129288787022233
0.005803008563816547,0.0035025004763156176,-0.008326999843120575,0.004740703850984573,0.0008598753483965993,0.00336880749091506
0.006155241280794144,0.003647996112704277,-0.007863773964345455,0.004549246747046709,0.0010671137133613229,0.0035995799116790295
0.0059269689954817295,0.003702238667756319,-0.008340984582901001,0.00454131793230772,0.0012053564423695207,0.0035219707060605288
0.0061845979653298855,0.0036873838398605585,-0.008223564364016056,0.004700495395809412,0.0011639342410489917,0.0036003265995532274
0.005612100474536419,0.0037193098105490208,-0.00759652815759182,0.004731417633593082,0.001069146441295743,0.0033305594697594643
0.005944754928350449,0.0037985763046890497,-0.0074077206663787365,0.005145561415702105,0.0010150496382266283,0.003123784437775612
0.006338384002447128,0.003869537031278014,-0.008842524141073227,0.004970503505319357,0.0009802593849599361,0.0033643324859440327
0.006069406867027283,0.0034145754761993885,-0.007940564304590225,0.004639824852347374,0.0008460608078166842,0.003210966009646654
0.006251262500882149,0.004156028851866722,-0.00766367744654417,0.00441728113219142,0.0008451106259599328,0.003296966664493084
0.005991295445710421,0.004462760407477617,-0.008121244609355927,0.00415493780747056,0.0007674962398596108,0.0034860188607126474
0.00661369226872921,0.0037474585697054863,-0.007486094255000353,0.0041211266070604324,0.0006597395986318588,0.0037624305114150047
0.006301794201135635,0.00404537096619606,-0.007303695660084486,0.004409991204738617,0.0006591265555471182,0.003613918786868453
0.006306062918156385,0.004276726394891739,-0.008791778236627579,0.004173835273832083,0.0006844463059678674,0.0034295262303203344
0.005967018660157919,0.00418257899582386,-0.008003906346857548,0.004374472424387932,0.0007063212106004357,0.0036034288350492716
0.006036740727722645,0.003545393468812108,-0.007399243768304586,0.004196266643702984,0.0008558716508559883,0.003380597336217761
0.006487109698355198,0.0035598475951701403,-0.007308273576200008,0.004100145772099495,0.0009118042653426528,0.003532752627506852
0.00675811804831028,0.0043100034818053246,-0.008141550235450268,0.0044532776810228825,0.0008625519694760442,0.0036114344839006662
0.006211222615092993,0.004165897611528635,-0.008051987737417221,0.004629096947610378,0.000808832875918597,0.0039495425298810005
0.006298079155385494,0.003907361999154091,-0.0073960511945188046,0.004628813359886408,0.0007199957617558539,0.004196943715214729
0.006298079155385494,0.003907361999154091,-0.0073960511945188046,0.004628813359886408,0.0007199957617558539,0.004196943715214729
0.006601506378501654,0.003807885805144906,-0.0074255638755857944,0.004312687087804079,0.0007318624411709607,0.004149853717535734
0.006217995658516884,0.0038440912030637264,-0.008416637778282166,0.004456632770597935,0.0006709287408739328,0.003529155859723687
0.006744918879121542,0.0030665264930576086,-0.007924383506178856,0.00395432161167264,0.000598680111579597,0.0036200431641191244
0.006272607017308474,0.001822844846174121,-0.007760255131870508,0.0038732411339879036,0.0005810040165670216,0.0038335772696882486
0.006272607017308474,0.001822844846174121,-0.007760255131870508,0.0038732411339879036,0.0005810040165670216,0.0038335772696882486
0.006101102568209171,0.0012940752785652876,-0.0077970451675355434,0.004306945949792862,0.0006029409123584628,0.003895979141816497
0.006466918159276247,0.001004067133180797,-0.007852423004806042,0.004571365192532539,0.000598462182097137,0.003387346165254712
0.006074330769479275,0.0010936171747744083,-0.00747208297252655,0.00413121422752738,0.000748029095120728,0.0029395895544439554
0.0067960890009999275,0.001014331472106278,-0.007906089536845684,0.003843690501525998,0.0007463417714461684,0.0032520433887839317
0.0067960890009999275,0.001014331472106278,-0.007906089536845684,0.003843690501525998,0.0007463417714461684,0.0032520433887839317
0.006005624309182167,0.003127973061054945,-0.007343092933297157,0.004122538026422262,0.0009127022931352258,0.004194806795567274
0.006291598547250032,0.0024681149516254663,-0.0076307496055960655,0.003928567282855511,0.0010342539753764868,0.003932313062250614
0.006291598547250032,0.0024681149516254663,-0.0076307496055960655,0.003928567282855511,0.0010342539753764868,0.003932313062250614
0.00672881631180644,0.0020206733606755733,-0.008145494386553764,0.003809964284300804,0.0009101695031858981,0.0036738181952387094
0.007054621819406748,0.0015974733978509903,-0.008214539848268032,0.003774971002712846,0.0009016994154080749,0.0033737753983587027
0.006446421146392822,0.0010573097970336676,-0.007992158643901348,0.00375934736803174,0.000900904880836606,0.0033613815903663635
0.006182171404361725,0.0011642673052847385,-0.007917934097349644,0.003427044488489628,0.0008712810231372714,0.0036278567276895046
0.007157411891967058,0.0018507492495700717,-0.0077951992861926556,0.003676044987514615,0.0007632548222318292,0.003484663786366582
0.006626228801906109,0.0022421195171773434,-0.007693433668464422,0.003838007105514407,0.00077389448415488,0.0035641712602227926
0.006475160829722881,0.0022336102556437254,-0.008333854377269745,0.0034781466238200665,0.000787359953392297,0.004132491536438465
0.006645560264587402,0.002000020584091544,-0.00836708303540945,0.003316535148769617,0.0007881320198066533,0.004276715684682131
0.006586525589227676,0.0019394539995118976,-0.007700272835791111,0.003233699593693018,0.0008098325342871249,0.004253314342349768
0.007206544280052185,0.001888243481516838,-0.007928657345473766,0.0035118903033435345,0.0008786344551481307,0.004021200351417065
0.007550276815891266,0.0019313240190967917,-0.008120432496070862,0.0038541743997484446,0.0009951129322871566,0.003902333788573742
0.0068352799862623215,0.0023470274172723293,-0.007486557122319937,0.003970552701503038,0.0011077562812715769,0.003910313360393047
0.006556800100952387,0.002348795300349593,-0.007314902730286121,0.003569110296666622,0.0010801025200635195,0.0038375845178961754
0.006556800100952387,0.002348795300349593,-0.007314902730286121,0.003569110296666622,0.0010801025200635195,0.0038375845178961754
0.0071954382583498955,0.002357218414545059,-0.0077871400862932205,0.0036815975327044725,0.0010003456845879555,0.004181702621281147
0.0071954382583498955,0.002357218414545059,-0.0077871400862932205,0.0036815975327044725,0.0010003456845879555,0.004181702621281147
0.0070406305603682995,0.002229766920208931,-0.008117424324154854,0.003540692152455449,0.0009595965966582298,0.004032235126942396
0.007348718587309122,0.0023585250601172447,-0.007760591804981232,0.003450277727097273,0.0009485282353125513,0.004317962098866701
0.007085899356752634,0.002540207700803876,-0.007898671552538872,0.0035936154890805483,0.0008814185857772827,0.004101208411157131
0.0073731085285544395,0.0024155168794095516,-0.007685979828238487,0.0042001246474683285,0.0008795988978818059,0.003956302534788847
0.007443543057888746,0.0025876068975776434,-0.007533629424870014,0.004094474017620087,0.0008441494428552687,0.003884983481839299
0.0074667371809482574,0.002619983861222863,-0.007576091680675745,0.003486387897282839,0.0008657998987473547,0.003475550329312682
0.006987025961279869,0.0025177281349897385,-0.007764700800180435,0.0030737626366317272,0.0008712937124073505,0.0038070869632065296
0.006959336344152689,0.002733066212385893,-0.008169624023139477,0.0030070175416767597,0.0008672770345583558,0.0041509331203997135
0.007145404815673828,0.0029192371293902397,-0.007183253299444914,0.0030728536657989025,0.0009312471956945956,0.0044677066616714
0.007033531088382006,0.003000985598191619,-0.00732684601098299,0.0032452470622956753,0.0009371194755658507,0.004511089995503426
0.006688830908387899,0.0028244564309716225,-0.007864288985729218,0.003134229453280568,0.0009322500554844737,0.0041352445259690285
0.007101912517100573,0.0028364507015794516,-0.008226015605032444,0.0029744040220975876,0.0009437445551156998,0.0037876018323004246
0.007352608721703291,0.0025795951951295137,-0.007726655341684818,0.0029954833444207907,0.0009842101717367768,0.0034905304200947285
0.007600168231874704,0.003024414414539933,-0.007704851217567921,0.003035613102838397,0.0010892366990447044,0.0038156539667397738
0.007173136807978153,0.00286270584911108,-0.007814128883183002,0.003158236388117075,0.0011030513560399413,0.004054905381053686
0.007660423405468464,0.0031293616630136967,-0.007362413685768843,0.0028170801233500242,0.0011939478572458029,0.004209325648844242
0.0070828041061758995,0.00328207784332335,-0.00725333159789443,0.0027251821011304855,0.0011208329815417528,0.004130961373448372
0.00724435318261385,0.0031909774988889694,-0.008009430021047592,0.0028827644418925047,0.0009831389179453254,0.003967863041907549
0.00781401339918375,0.003044094890356064,-0.0076357657089829445,0.0031473140697926283,0.0009648057748563588,0.003808695124462247
0.006916753947734833,0.0031125028617680073,-0.007166347932070494,0.00309582008048892,0.0008470237371511757,0.004271349869668484
0.007321925368160009,0.0032184154260903597,-0.007008666638284922,0.0032380896154791117,0.0007846929947845638,0.0041448380798101425
0.007225214969366789,0.0031376522965729237,-0.007935700006783009,0.003225655760616064,0.0007959462818689644,0.0042588128708302975
0.007225214969366789,0.0031376522965729237,-0.007935700006783009,0.003225655760616064,0.0007959462818689644,0.0042588128708302975
0.007315383292734623,0.003708219388499856,-0.007948399521410465,0.0033506278414279222,0.000886373280081898,0.0041176206432282925
0.007455325219780207,0.0034131251741200686,-0.007825030945241451,0.0032101429533213377,0.0009765994036570191,0.004223869182169437
0.007455325219780207,0.0034131251741200686,-0.007825030945241451,0.0032101429533213377,0.0009765994036570191,0.004223869182169437
0.007603691425174475,0.0031953719444572926,-0.007455180399119854,0.003314582398161292,0.0011530988849699497,0.004367067012935877
0.007603691425174475,0.0031953719444572926,-0.007455180399119854,0.003314582398161292,0.0011530988849699497,0.004367067012935877
0.007580078672617674,0.0034145491663366556,-0.007304454687982798,0.003033070359379053,0.001219517202116549,0.004544355440884829
0.0072469101287424564,0.003583292244002223,-0.007894221693277359,0.002844474511221051,0.0011892077745869756,0.0047219316475093365
0.007516366895288229,0.003487547393888235,-0.007484843023121357,0.0028209697920829058,0.0012152869021520019,0.004548269789665937
0.007516366895288229,0.003487547393888235,-0.007484843023121357,0.0028209697920829058,0.0012152869021520019,0.004548269789665937
0.007563333492726088,0.003389730816707015,-0.007440838031470776,0.00302924495190382,0.001205891720019281,0.004535948857665062
0.007503424771130085,0.0035212584771215916,-0.007687400095164776,0.0029319648165255785,0.00117803318426013,0.0041148173622787
0.008219627663493156,0.003717795480042696,-0.0077563440427184105,0.0028029580134898424,0.001277449307963252,0.0034954932052642107
0.008693724870681763,0.003924275748431683,-0.007753919344395399,0.002588172908872366,0.0012697736965492368,0.003476298414170742
0.008012598380446434,0.0040269335731863976,-0.007451178506016731,0.002463162876665592,0.0012305479031056166,0.004207828547805548
0.007539406884461641,0.0038180314004421234,-0.007575738709419966,0.002643820596858859,0.0013277893885970116,0.004514877684414387
0.007382161449640989,0.003678536042571068,-0.007800971157848835,0.0027371898759156466,0.0012604278745129704,0.004392008297145367
0.008061835542321205,0.003713112324476242,-0.007743815425783396,0.00308083719573915,0.0011974589433521032,0.004481426440179348
0.007563664112240076,0.0037525724619627,-0.007574418559670448,0.002792897867038846,0.0011297467863187194,0.004004983231425285
0.0072987801395356655,0.003729067509993911,-0.008127035573124886,0.002577938372269273,0.001102785230614245,0.0038237671833485365
0.007694520987570286,0.0037290030159056187,-0.00818565022200346,0.0025505158118903637,0.0010740283178165555,0.004126404412090778
0.008140935562551022,0.003921148367226124,-0.007931017316877842,0.002596875187009573,0.001205724780447781,0.004609488416463137
0.00817069411277771,0.004278009291738272,-0.00805437471717596,0.0025091874413192272,0.001201330916956067,0.004661667626351118
0.007960994727909565,0.003969206474721432,-0.008266829885542393,0.002655715448781848,0.0011745215160772204,0.004689501132816076
0.007854544557631016,0.0043457574211061,-0.007733751088380814,0.002620407845824957,0.001162722590379417,0.00436339620500803
0.00841407012194395,0.004196959547698498,-0.007292129099369049,0.0024323812685906887,0.0012125533539801836,0.003998910076916218
0.007858771830797195,0.003950812388211489,-0.008252652361989021,0.002258495893329382,0.001165164285339415,0.004060565494000912
0.008215558715164661,0.0042663500644266605,-0.0083088967949152,0.002135371556505561,0.0011418904177844524,0.004086785484105349
0.008382436819374561,0.004380840342491865,-0.007558378856629133,0.0020374534651637077,0.0011287450324743986,0.004407982341945171
0.008532267063856125,0.004366958513855934,-0.007433133665472269,0.0019810644444078207,0.0011114620137959719,0.004643176682293415
0.008532267063856125,0.004366958513855934,-0.007433133665472269,0.0019810644444078207,0.0011114620137959719,0.004643176682293415
0.00790910329669714,0.0044151050969958305,-0.008410272188484669,0.0019306485773995519,0.0010805304627865553,0.0047246916219592094
0.008850432001054287,0.004072987008839846,-0.007947382517158985,0.0019480617484077811,0.0011815703473985195,0.00515331095084548
0.008335772901773453,0.004291842691600323,-0.008042561821639538,0.0020864829421043396,0.0011913288617506623,0.004895604681223631
0.00827510841190815,0.00424787076190114,-0.008479043841362,0.0019449733663350344,0.0011669844388961792,0.004709793720394373
0.008679474703967571,0.004433091264218092,-0.008230593055486679,0.0020283798221498728,0.0012735358905047178,0.004543804097920656
0.008883469738066196,0.004472448490560055,-0.00811048224568367,0.0020487485453486443,0.0012928389478474855,0.004449294880032539
0.008688666857779026,0.004708992317318916,-0.008430763147771358,0.0022098091430962086,0.001256854273378849,0.004656021948903799
0.008243374526500702,0.0043037510477006435,-0.008542710915207863,0.002224511932581663,0.0014717982849106193,0.004881191533058882
0.008574881590902805,0.004512515850365162,-0.007843110710382462,0.0021446007303893566,0.0015001745196059346,0.004809856414794922
0.008743961341679096,0.004691952373832464,-0.008261090144515038,0.002043365966528654,0.001438118633814156,0.004588060546666384
0.008977578952908516,0.004338293801993132,-0.008822535164654255,0.0018691845471039414,0.0013849068200215697,0.004614592995494604
0.008821072988212109,0.004304742906242609,-0.008589690551161766,0.001767361187376082,0.0013018602039664984,0.004590501077473164
0.009044263511896133,0.0047042290680110455,-0.008050372824072838,0.001806174754165113,0.0012405562447384,0.004814298823475838
0.008505483157932758,0.004385704640299082,-0.008767480030655861,0.0020181124564260244,0.0011562093859538436,0.0052421120926737785
0.008849451318383217,0.004582926630973816,-0.008487100712954998,0.002111158799380064,0.001136763603426516,0.004902657587081194
0.008789253421127796,0.004583337344229221,-0.007696954999119043,0.0020742660854011774,0.0012511673849076033,0.00451846094802022
0.008674221113324165,0.00488553149625659,-0.008125708438456059,0.0018125743372365832,0.0012504042824730277,0.0049203853122889996
0.008817522786557674,0.0048622372560203075,-0.008417563512921333,0.0018116565188392997,0.0012479809811338782,0.004815358202904463
0.00904222670942545,0.004935783799737692,-0.008158670738339424,0.0016636860091239214,0.0015714302426204085,0.004995041061192751
0.009275058284401894,0.0047365096397697926,-0.007907763123512268,0.0016001572366803885,0.0015691524604335427,0.005116095766425133
0.009084479883313179,0.004100482910871506,-0.008454524911940098,0.0016406235517933965,0.0017538759857416153,0.004791425075381994
0.009487232193350792,0.0036698863841593266,-0.00878860056400299,0.0016489083645865321,0.0017418225761502981,0.004373823758214712
0.008640122599899769,0.004274073522537947,-0.00856023095548153,0.0017048551235347986,0.0015032088849693537,0.004469997715204954
0.008640122599899769,0.004274073522537947,-0.00856023095548153,0.0017048551235347986,0.0015032088849693537,0.004469997715204954
0.009342464618384838,0.00460799178108573,-0.008548702113330364,0.0018542270408943295,0.0014773214934393764,0.004659692756831646
0.009151682257652283,0.004801598377525806,-0.008349543437361717,0.0018914215033873916,0.001281356206163764,0.004937565419822931
0.00898562278598547,0.004473207518458366,-0.008260469883680344,0.0016958332853391767,0.001230083522386849,0.004931952804327011
0.00897552166134119,0.004039219114929438,-0.007945168763399124,0.0015146235236898065,0.0012043837923556566,0.004826344549655914
0.009071167558431625,0.0037522849161177874,-0.008782134391367435,0.0014039354864507914,0.001283072866499424,0.004566047340631485
0.00919432658702135,0.0039883824065327644,-0.008505554869771004,0.0013344547478482127,0.001665953896008432,0.004608791321516037
0.009269505739212036,0.004087804351001978,-0.008106221444904804,0.0012749212328344584,0.0017439589137211442,0.0046147448010742664
0.009341886267066002,0.004331476055085659,-0.008877024054527283,0.0012267986312508583,0.0019163517281413078,0.004690682049840689
0.009826038964092731,0.004033593460917473,-0.008607806637883186,0.001337605295702815,0.0018533326219767332,0.00510268472135067
0.00902711134403944,0.004233786836266518,-0.00829409621655941,0.001365353586152196,0.0016064330702647567,0.005067662801593542
0.00978922750800848,0.004246150143444538,-0.007466536946594715,0.0013781331945210695,0.00136396789457649,0.004841099493205547
0.00969469640403986,0.004107783082872629,-0.008402501232922077,0.0012440790887922049,0.0012589545221999288,0.0047553409822285175
0.009214323945343494,0.0035579742398113012,-0.008415878750383854,0.001217041164636612,0.0011186825577169657,0.005085964221507311
0.0096230274066329,0.004178143572062254,-0.007521073333919048,0.001073164283297956,0.0010800646850839257,0.005005889106541872
0.009724779054522514,0.004157782066613436,-0.00738002173602581,0.0010279730195179582,0.000989900203421712,0.005375249776989222
0.010623848997056484,0.004235375672578812,-0.008434032090008259,0.0008951955242082477,0.0012872483348473907,0.005235921125859022
0.010061521083116531,0.004051985219120979,-0.007882674224674702,0.0007668589241802692,0.001588245970197022,0.005476750899106264
0.00961713120341301,0.0038799624890089035,-0.00800639484077692,0.0007506201509386301,0.0014947192976251245,0.005168993957340717
0.010071879252791405,0.003838041564449668,-0.008653414435684681,0.0007673436775803566,0.001492116367444396,0.005198495928198099
0.010736135765910149,0.004136501345783472,-0.007718704640865326,0.0007569013396278024,0.0014260686002671719,0.005131446290761232
0.009883102029561996,0.004511541686952114,-0.007572059519588947,0.0007296384428627789,0.0013524435926228762,0.0052205347456038
0.010193577967584133,0.004179670009762049,-0.007817918434739113,0.0007996163913048804,0.0013026384403929114,0.004969976842403412
0.01044395100325346,0.004406639840453863,-0.008056201972067356,0.0008175412658601999,0.0012998477322980762,0.0048552691005170345
0.01016482524573803,0.004825769457966089,-0.007528879214078188,0.0007749658543616533,0.0012712060706689954,0.005527781788259745
0.010893652215600014,0.004669754300266504,-0.0072617605328559875,0.000735564564820379,0.0014367011608555913,0.0054327803663909435
0.011121955700218678,0.004815568216145039,-0.007600885815918446,0.0006615717429667711,0.0014426078414544463,0.005166834685951471
0.010547071695327759,0.0048073455691337585,-0.008190177381038666,0.000672470370773226,0.0015567154623568058,0.005002653691917658
0.01087939366698265,0.004930261056870222,-0.008335678838193417,0.0006241395603865385,0.0016466708621010184,0.004935136996209621
0.010652944445610046,0.0047125909477472305,-0.007980143651366234,0.0005749111296609044,0.00162009138148278,0.0051738424226641655
0.011015424504876137,0.005413225386291742,-0.008249646984040737,0.0005345655372366309,0.0017644095933064818,0.005547139793634415
0.011015424504876137,0.005413225386291742,-0.008249646984040737,0.0005345655372366309,0.0017644095933064818,0.005547139793634415
0.010801808908581734,0.0052319783717393875,-0.007759807165712118,0.0004591998877003789,0.0016461636405438185,0.00561416894197464
0.009923125617206097,0.004725877195596695,-0.007707566954195499,0.0004153821791987866,0.0017743302742019296,0.005826936103403568
0.01059884112328291,0.004846292547881603,-0.0075188628397881985,0.00038016188773326576,0.0016867255326360464,0.005341377574950457
0.010329409502446651,0.0048425644636154175,-0.008399812504649162,0.000350515911122784,0.0017303662607446313,0.005232362542301416
0.010677902027964592,0.0049994210712611675,-0.008332509547472,0.0003251672023907304,0.0017607767367735505,0.0055020470172166824
0.011290108785033226,0.005025078076869249,-0.007921865209937096,0.0003596426104195416,0.0017441449454054236,0.00595599552616477
0.010415398515760899,0.00483896117657423,-0.007816798985004425,0.00034062721533700824,0.0017789514968171716,0.005794814322143793
0.010606082156300545,0.004694276489317417,-0.008016488514840603,0.000320632680086419,0.001712418394163251,0.005720287095755339
0.01047121174633503,0.004539819899946451,-0.008319878950715065,0.0003026708436664194,0.001673464896157384,0.00517700333148241
0.01040638331323862,0.004668235778808594,-0.007804541382938623,0.000286600406980142,0.0015109077794477344,0.0052362591959536076
0.010626413859426975,0.0052139898762106895,-0.008986706845462322,0.00027215166483074427,0.001334487460553646,0.0052549103274941444
0.010448865592479706,0.005225307773798704,-0.008286147378385067,0.0002590897784102708,0.0011597060365602374,0.005991863552480936
0.010463139042258263,0.005397834815084934,-0.00784423016011715,0.0002472248743288219,0.001147740171290934,0.005875550210475922
0.010201345197856426,0.005043209996074438,-0.0076438672840595245,0.00023640035942662507,0.001129417447373271,0.0057113440707325935
0.01036626473069191,0.004683901555836201,-0.007973534986376762,0.00022648308367934078,0.0012970654061064124,0.005308645777404308
0.010210822336375713,0.005429560784250498,-0.008070413023233414,0.00021736494090873748,0.0014132809592410922,0.0057839262299239635
0.010654730722308159,0.00596161512658,-0.008018812164664268,0.00020116704399697483,0.0019197833025828004,0.006233262363821268
0.010680547915399075,0.005362934432923794,-0.008230336010456085,0.0001939411595230922,0.0021970036905258894,0.005947474390268326
0.011028594337403774,0.005247824359685183,-0.008328065276145935,0.0001872162101790309,0.0020139163825660944,0.0059718843549489975
0.01031622663140297,0.004908469505608082,-0.0075966911390423775,0.0001809422974474728,0.0017863495741039515,0.005561453755944967
0.010314876213669777,0.0049190339632332325,-0.007600143551826477,0.00017507531447336078,0.0017200640868395567,0.0057343835942447186
0.010852121748030186,0.005877227522432804,-0.008163731545209885,0.0001695773535175249,0.0015193857252597809,0.005643644370138645
0.011000744998455048,0.00545736588537693,-0.008156132884323597,0.00016441335901618004,0.0015051043592393398,0.00566911930218339
0.011135290376842022,0.005353208165615797,-0.007619301788508892,0.00015955533308442682,0.0014846768463030457,0.005981025751680136
0.011562608182430267,0.0054572285152971745,-0.008154542185366154,0.00015497600543312728,0.0017434305045753717,0.005518357269465923
0.010893129743635654,0.005238756071776152,-0.008100859820842743,0.00015065188927110285,0.0016829908126965165,0.005157836712896824
0.010636952705681324,0.005218069069087505,-0.0075533390045166016,0.00014656290295533836,0.0017454600892961025,0.005900934804230928
0.010617101565003395,0.005582572426646948,-0.007415079977363348,0.00014269018720369786,0.0017608811613172293,0.005748494993895292
0.010809287428855896,0.006104473955929279,-0.00879564881324768,0.00013901641068514436,0.0017900626407936215,0.005850809160619974
0.010880637913942337,0.005536352284252644,-0.008299482055008411,0.00013552738528233021,0.0017476751236245036,0.0064425221644341946
0.010880637913942337,0.005536352284252644,-0.008299482055008411,0.00013552738528233021,0.0017476751236245036,0.0064425221644341946
0.01078092586249113,0.005759605206549168,-0.007742078974843025,0.00013220898108556867,0.001803230494260788,0.006038816645741463
0.01248573511838913,0.005584917031228542,-0.008060186170041561,0.00011310326226521283,0.0016876766458153725,0.006039272528141737
0.01141283567994833,0.005978723987936974,-0.008879869244992733,0.00010539425420574844,0.0016940765781328082,0.006129407789558172
0.013276706449687481,0.006100617814809084,-0.008056516759097576,0.00010265917080687359,0.001787866698578,0.005902315489947796
0.013193652033805847,0.005504471715539694,-0.0076819187961518764,0.0001003481011139229,0.0018044713651761413,0.005697634071111679
0.012287626974284649,0.005728719290345907,-0.008322924375534058,9.815791418077424e-05,0.0018117920262739062,0.00562411081045866
0.012526888400316238,0.005663576070219278,-0.008262417279183865,9.606249659555033e-05,0.00190551090054214,0.006252805702388287
0.012283213436603546,0.00614822655916214,-0.007567751687020063,7.771211676299572e-05,0.0021187388338148594,0.0064055174589157104
0.012597124092280865,0.006088806316256523,-0.008086364716291428,7.38643720978871e-05,0.00217758328653872,0.0058890641666948795
0.012699134647846222,0.005851900205016136,-0.008425951935350895,7.223503780551255e-05,0.0021189062390476465,0.005849690642207861
0.013089192099869251,0.005544933490455151,-0.007651892025023699,7.080468640197068e-05,0.002158297458663583,0.00585193932056427
0.012776074931025505,0.005620270036160946,-0.007620061282068491,6.943831249373034e-05,0.0021104938350617886,0.006089817266911268
0.012837414629757404,0.006076475139707327,-0.007804579567164183,5.222668914939277e-05,0.002315790392458439,0.005600775592029095
0.01308582816272974,0.0060628983192145824,-0.008201011456549168,5.021830656914972e-05,0.0022350777871906757,0.005607183091342449
0.01271423976868391,0.005677440203726292,-0.007517717778682709,4.929713031742722e-05,0.0021668749395757914,0.005462714936584234
0.01250817533582449,0.005543183069676161,-0.008586827665567398,-3.723824193002656e-05,0.001934279571287334,0.00604915339499712
0.01309547945857048,0.005264536943286657,-0.00792698748409748,-5.282722122501582e-05,0.001855841837823391,0.005968249868601561
0.012686335481703281,0.006480494514107704,-0.007651075255125761,-5.4000582167645916e-05,0.0018131554825231433,0.006186829414218664
0.012928075157105923,0.006133510731160641,-0.007466854527592659,-6.84625847497955e-05,0.0016630336176604033,0.006335113197565079
0.012503664009273052,0.005848056171089411,-0.008145596832036972,-7.78160392655991e-05,0.001757659250870347,0.00599978631362319
0.012713623233139515,0.00598646467551589,-0.007838306948542595,-8.460266690235585e-05,0.0020838987547904253,0.005751444026827812
0.012995044700801373,0.0059216259978711605,-0.008187636733055115,-0.0005894758505746722,0.0024733992759138346,0.005615612026304007
0.012903095223009586,0.006380443926900625,-0.007985245436429977,-0.0006026037153787911,0.002680712379515171,0.0053460183553397655
0.012887353077530861,0.0066507915034890175,-0.008415687829256058,-0.0006751606706529856,0.0023644177708774805,0.006126152351498604
0.012579776346683502,0.005887470208108425,-0.007921343669295311,-0.0006637462647631764,0.0019741610158234835,0.006828577257692814
0.012579776346683502,0.005887470208108425,-0.007921343669295311,-0.0006637462647631764,0.0019741610158234835,0.006828577257692814
0.01294709462672472,0.0060631344094872475,-0.0076285055838525295,-0.0010439694160595536,0.0018481139559298754,0.006759515963494778
0.013036666437983513,0.007231282535940409,-0.008153948001563549,-0.0012485331390053034,0.0017399038188159466,0.005646775476634502
0.012902356684207916,0.00642787478864193,-0.00762548204511404,-0.0014430539449676871,0.002064275089651346,0.006193569395691156
0.013142607174813747,0.00632776552811265,-0.007459795102477074,-0.0019401105819270015,0.0020375060848891735,0.006823512725532055
0.013142607174813747,0.00632776552811265,-0.007459795102477074,-0.0019401105819270015,0.0020375060848891735,0.006823512725532055
0.01309505570679903,0.0065321847796440125,-0.008089998736977577,-0.002227880759164691,0.001915280008688569,0.006969754584133625
0.012932012788951397,0.006305173970758915,-0.008351192809641361,-0.0026731230318546295,0.0018764710985124111,0.00704599916934967
0.013123887591063976,0.0064897253178060055,-0.007724250201135874,-0.0027040618006139994,0.0018695936305448413,0.0063886987045407295
0.012530296109616756,0.006415150128304958,-0.007658625487238169,-0.002670654794201255,0.0018697570776566863,0.006331229116767645
0.012916161678731441,0.0060690040700137615,-0.0078052496537566185,-0.0027153792325407267,0.0019059242913499475,0.00655506132170558
0.012591706588864326,0.006186098325997591,-0.007807593327015638,-0.002836531260982156,0.0019069042755290866,0.006684985477477312
0.013070980086922646,0.006517018191516399,-0.007536595221608877,-0.0029088365845382214,0.002009356627240777,0.0067115528509020805
0.013014829717576504,0.006068428047001362,-0.007576809264719486,-0.003036518581211567,0.0020930124446749687,0.006325224414467812
0.012921849265694618,0.00630556046962738,-0.008173445239663124,-0.0031506880186498165,0.0025362526066601276,0.006952825002372265
0.012930018827319145,0.0063906386494636536,-0.008140110410749912,-0.003371431725099683,0.0023928657174110413,0.0070604900829494
0.012612401507794857,0.006233259569853544,-0.007715039886534214,-0.003568923333659768,0.002091651316732168,0.006547450553625822
0.012639208696782589,0.006780403200536966,-0.008415651507675648,-0.003930782433599234,0.0017725692596286535,0.006528839003294706
0.013304397463798523,0.006953011266887188,-0.007893664762377739,-0.003974446561187506,0.00198945589363575,0.00714897271245718
0.012774674221873283,0.006862465292215347,-0.008134865202009678,-0.003901978489011526,0.0020795478485524654,0.006935088895261288
0.012993168085813522,0.0075780912302434444,-0.008581935428082943,-0.0041924878023564816,0.0022810264490544796,0.0067689549177885056
0.013059930875897408,0.006729939952492714,-0.00797176267951727,-0.004029958043247461,0.00224936380982399,0.006630899850279093
0.013085391372442245,0.0064302352257072926,-0.007928187027573586,-0.003895600326359272,0.0022433374542742968,0.006671422626823187
0.013440956361591816,0.007259644102305174,-0.008304846473038197,-0.004603170789778233,0.002202579053118825,0.007043292745947838
0.013440956361591816,0.007259644102305174,-0.008304846473038197,-0.004603170789778233,0.002202579053118825,0.007043292745947838
0.012892458587884903,0.006897990126162767,-0.008752073161303997,-0.004095332231372595,0.002344273030757904,0.0067856148816645145
0.012892458587884903,0.006897990126162767,-0.008752073161303997,-0.004095332231372595,0.002344273030757904,0.0067856148816645145
0.013110743835568428,0.007222590036690235,-0.008552458137273788,-0.0037948850076645613,0.002485291799530387,0.0066816736944019794
0.012870288453996181,0.00790996104478836,-0.007994956336915493,-0.0036234448198229074,0.0023812423460185528,0.006156495306640863
0.013336364179849625,0.006090400740504265,-0.008656881749629974,-0.0036747390404343605,0.0022204031702131033,0.0061415196396410465
0.013495396822690964,0.006071423180401325,-0.008494799956679344,-0.0042772963643074036,0.001993972109630704,0.006781817879527807
0.013464401476085186,0.006867352873086929,-0.007805556524544954,-0.004572165664285421,0.0019978457130491734,0.0069293007254600525
0.013464401476085186,0.006867352873086929,-0.007805556524544954,-0.004572165664285421,0.0019978457130491734,0.0069293007254600525
0.013084146194159985,0.007310863584280014,-0.00816271360963583,-0.004357669036835432,0.0022466834634542465,0.006841837894171476
0.012876871041953564,0.007235012482851744,-0.008789059706032276,-0.003989927936345339,0.002357994206249714,0.006529147271066904
0.013225282542407513,0.006840250920504332,-0.008463449776172638,-0.0038124031852930784,0.002301143016666174,0.0067437794059515
0.013276307843625546,0.006733108777552843,-0.008483342826366425,-0.0038436835166066885,0.002147434512153268,0.006733660586178303
0.013788029551506042,0.006974432151764631,-0.008246087469160557,-0.0042777047492563725,0.0020592515356838703,0.007088565733283758
0.013098158873617649,0.007010255008935928,-0.008277986198663712,-0.004277077503502369,0.002082245657220483,0.0070654707960784435
0.013591131195425987,0.0067193880677223206,-0.007506915833801031,-0.00465143658220768,0.002046161564067006,0.006544269155710936
0.013872088864445686,0.00722504360601306,-0.008777347393333912,-0.004653178621083498,0.0020115047227591276,0.006561138667166233
0.013282093219459057,0.006864786148071289,-0.007921443320810795,-0.004434832371771336,0.002280406653881073,0.006641467101871967
0.01391100324690342,0.007162889465689659,-0.0076029240153729916,-0.00433355662971735,0.0024955146946012974,0.006902203895151615
0.013822130858898163,0.006675007753074169,-0.007735172286629677,-0.004411740694195032,0.002350487047806382,0.007516661658883095
0.01403762400150299,0.007080433424562216,-0.008458173833787441,-0.0043206834234297276,0.00212375377304852,0.007100269198417664
0.013771673664450645,0.007177777588367462,-0.0076429350301623344,-0.004766380880028009,0.002021793043240905,0.007075916510075331
0.014271540567278862,0.006828348618000746,-0.008127332665026188,-0.004530956037342548,0.0019241172121837735,0.0067138150334358215
0.014268239960074425,0.006812687497586012,-0.008252839557826519,-0.004580446518957615,0.0019799554720520973,0.00712513318285346
0.014569931663572788,0.007187207229435444,-0.00843652244657278,-0.004151670727878809,0.0022587114945054054,0.007153946440666914
0.013994521461427212,0.007571719586849213,-0.008324781432747841,-0.0042355661280453205,0.0022179088555276394,0.006732292473316193
0.013994521461427212,0.007571719586849213,-0.008324781432747841,-0.0042355661280453205,0.0022179088555276394,0.006732292473316193
0.01390353124588728,0.007566120475530624,-0.008262581191956997,-0.004141998942941427,0.0021958849392831326,0.006818804424256086
0.013987838290631771,0.00702562415972352,-0.008296530693769455,-0.004274467006325722,0.002022748813033104,0.00739365303888917
0.014429089613258839,0.007511243224143982,-0.008029627613723278,-0.004415423143655062,0.0021082523744553328,0.007561749778687954
0.014533844776451588,0.00785059668123722,-0.008239071816205978,-0.004792653955519199,0.002126250881701708,0.007536623626947403
0.014594264328479767,0.0068839373998343945,-0.008624822832643986,-0.004727772902697325,0.0021805125288665295,0.007444145157933235
0.014091628603637218,0.007123810239136219,-0.00893267709761858,-0.004805766046047211,0.0024967400822788477,0.007527045905590057
0.014407077804207802,0.007260910235345364,-0.008724914863705635,-0.005270194262266159,0.0022721360437572002,0.0076526496559381485
0.014413009397685528,0.007393424864858389,-0.007982853800058365,-0.005200433079153299,0.002341060433536768,0.007698940113186836
0.014730505645275116,0.007248522248119116,-0.008717815391719341,-0.005411139689385891,0.002181184943765402,0.007252117153257132
0.014247244223952293,0.0069661978632211685,-0.007862879894673824,-0.005132956895977259,0.002154257148504257,0.007181552238762379
0.014906340278685093,0.0070432983338832855,-0.008157518692314625,-0.004950382746756077,0.002346799010410905,0.00727101368829608
0.0149186747148633,0.00741962157189846,-0.00846042763441801,-0.00557628832757473,0.0025580294895917177,0.007751251105219126
0.014843340963125229,0.007083250675350428,-0.00840720348060131,-0.005768799688667059,0.0025314833037555218,0.0078076208010315895
0.01523427665233612,0.007261207327246666,-0.008308193646371365,-0.0055152601562440395,0.0023050974123179913,0.007652766536921263
0.01493501104414463,0.007501770276576281,-0.008513537235558033,-0.005165742244571447,0.002228186232969165,0.007104723714292049
0.015344444662332535,0.007253536023199558,-0.008046405389904976,-0.004967870190739632,0.0020736348815262318,0.0073616476729512215
0.014931176789104939,0.00758809968829155,-0.007594157941639423,-0.005533341318368912,0.002050633542239666,0.008008761331439018
0.015520768240094185,0.007723010610789061,-0.008937160484492779,-0.005430358927696943,0.002288179937750101,0.00793352909386158
0.015508142299950123,0.00827635545283556,-0.008627813309431076,-0.005911807529628277,0.002361177932471037,0.007723462302237749
0.015508142299950123,0.00827635545283556,-0.008627813309431076,-0.005911807529628277,0.002361177932471037,0.007723462302237749
0.015475697815418243,0.007783934473991394,-0.007790698669850826,-0.005364949349313974,0.00308565073646605,0.0073808301240205765
0.015499714761972427,0.008277395740151405,-0.008687843568623066,-0.005519674625247717,0.0025323310401290655,0.008146005682647228
0.015499714761972427,0.008277395740151405,-0.008687843568623066,-0.005519674625247717,0.0025323310401290655,0.008146005682647228
0.015750519931316376,0.00799786951392889,-0.0082692326977849,-0.006092040799558163,0.0022283049765974283,0.007875624112784863
0.015682607889175415,0.007583206053823233,-0.007916722446680069,-0.006257840432226658,0.001969645032659173,0.007638889364898205
0.015599534846842289,0.007470342330634594,-0.007907195016741753,-0.00621430017054081,0.0020383396185934544,0.0077324821613729
0.016232633963227272,0.007907715626060963,-0.00837466400116682,-0.005714882630854845,0.002840223256498575,0.00748824467882514
0.016232633963227272,0.007907715626060963,-0.00837466400116682,-0.005714882630854845,0.002840223256498575,0.00748824467882514
0.015821732580661774,0.007520289625972509,-0.007723241578787565,-0.006141559220850468,0.0027832044288516045,0.007814856246113777
0.01606658659875393,0.007549101021140814,-0.008143488317728043,-0.006013022270053625,0.002555747516453266,0.007886088453233242
0.015930479392409325,0.008312535472214222,-0.008061016909778118,-0.005607159808278084,0.0025518937036395073,0.008010752499103546
0.016320725902915,0.007805924396961927,-0.00821040477603674,-0.005143646150827408,0.002465547062456608,0.007835336029529572
0.016300464048981667,0.007474493235349655,-0.007836012169718742,-0.005622383207082748,0.0028510720003396273,0.007588011212646961
0.016158396378159523,0.008078712038695812,-0.008113622665405273,-0.0054961880668997765,0.0029895815532654524,0.007990964688360691
0.016385843977332115,0.007990383543074131,-0.007782854605466127,-0.0054124402813613415,0.0029804047662764788,0.007953771390020847
0.01620330661535263,0.00771677540615201,-0.007778618484735489,-0.005602254066616297,0.0028790326323360205,0.008083664812147617
0.01670818030834198,0.007452055811882019,-0.009018645621836185,-0.005503990221768618,0.003023246768862009,0.00824808795005083
0.016303159296512604,0.00746919633820653,-0.008118105120956898,-0.005598343443125486,0.002882762812077999,0.00783373974263668
0.016696805134415627,0.007990933954715729,-0.007420945912599564,-0.005262037739157677,0.0025302069261670113,0.00795587245374918
0.016746660694479942,0.00738883251324296,-0.007864555343985558,-0.005849228240549564,0.002320821164175868,0.007863398641347885
0.016802435740828514,0.007266596425324678,-0.008568610064685345,-0.00629256758838892,0.002308579394593835,0.007864875718951225
0.016427673399448395,0.00823382567614317,-0.00808061845600605,-0.006050880532711744,0.0023863057140260935,0.007684535812586546
0.016847405582666397,0.007838116027414799,-0.00797396432608366,-0.005289540626108646,0.002883987268432975,0.008094336837530136
0.01761070266366005,0.007516311481595039,-0.008358731865882874,-0.006211442407220602,0.0027960992883890867,0.007821132428944111
0.017222164198756218,0.008208565413951874,-0.008012145757675171,-0.006826706230640411,0.0026228546630591154,0.00796832237392664
0.017457405105233192,0.008939798921346664,-0.007463184185326099,-0.006431694142520428,0.00272131385281682,0.00843401812016964
0.017258014529943466,0.00856307614594698,-0.007738705724477768,-0.0061505939811468124,0.002755741123110056,0.008465120568871498
0.017043976113200188,0.007813174277544022,-0.008625994436442852,-0.0064453487284481525,0.002600566018372774,0.008240580558776855
0.01633070409297943,0.008070370182394981,-0.007868502289056778,-0.006357649806886911,0.002501060953363776,0.007737274281680584
0.018046986311674118,0.008343825116753578,-0.0075597153045237064,-0.006367565598338842,0.0025755518581718206,0.007915757596492767
0.017884405329823494,0.0077887228690087795,-0.007741277571767569,-0.006165988277643919,0.0025000758469104767,0.008481131866574287
0.017884405329823494,0.0077887228690087795,-0.007741277571767569,-0.006165988277643919,0.0025000758469104767,0.008481131866574287
0.017135269939899445,0.008266515098512173,-0.007880543358623981,-0.005811696406453848,0.002754369517788291,0.008387712761759758
0.01715027168393135,0.00866648368537426,-0.007738857995718718,-0.006277390755712986,0.002811908023431897,0.007919717580080032
0.017470302060246468,0.007813721895217896,-0.007266978733241558,-0.006770032923668623,0.0027832589112222195,0.008048062212765217
0.018075035884976387,0.007647789549082518,-0.0076051936484873295,-0.006814798340201378,0.002655471907928586,0.008529085665941238
0.01761762797832489,0.00784697663038969,-0.007993217557668686,-0.00701704528182745,0.002975463168695569,0.008715156465768814
0.018308304250240326,0.008328021503984928,-0.007995701394975185,-0.006714772433042526,0.0026065257843583822,0.008085686713457108
0.018308304250240326,0.008328021503984928,-0.007995701394975185,-0.006714772433042526,0.0026065257843583822,0.008085686713457108
0.01707913540303707,0.008436174131929874,-0.007623787969350815,-0.0070603471249341965,0.0025612344034016132,0.008664478547871113
0.01765955053269863,0.008622276596724987,-0.00735934404656291,-0.006527923047542572,0.002644857158884406,0.008130606263875961
0.01765955053269863,0.008622276596724987,-0.00735934404656291,-0.006527923047542572,0.002644857158884406,0.008130606263875961
0.017497975379228592,0.008316978812217712,-0.00770553620532155,-0.007018911186605692,0.0027188912499696016,0.008231760933995247
0.017797423526644707,0.008472472429275513,-0.008105479180812836,-0.006979173980653286,0.002685999497771263,0.008409381844103336
0.01844419166445732,0.008454279974102974,-0.0075586880557239056,-0.006850246340036392,0.002774010179564357,0.008283757604658604
0.01794663816690445,0.008324251510202885,-0.0072911446914076805,-0.006745864637196064,0.003381000831723213,0.008269842714071274
0.018298432230949402,0.008206845261156559,-0.008872680366039276,-0.00721413129940629,0.003269930835813284,0.008753763511776924
0.017911188304424286,0.00834896881133318,-0.008038107305765152,-0.00719935167580843,0.0032212024088948965,0.009134943597018719
0.017930295318365097,0.008240016177296638,-0.007312043569982052,-0.0072601004503667355,0.002869401825591922,0.008700385689735413
0.01800776645541191,0.008287572301924229,-0.008266950957477093,-0.0069306534714996815,0.0024786293506622314,0.008817085064947605
0.018565168604254723,0.008467837236821651,-0.008154494687914848,-0.007291318383067846,0.0026754147838801146,0.008505300618708134
0.018534384667873383,0.008376725018024445,-0.0070554171688854694,-0.007947263307869434,0.0030059118289500475,0.009314288385212421
0.018253279849886894,0.008778809569776058,-0.006954168435186148,-0.007274263072758913,0.003295272821560502,0.008740759454667568
0.018808623775839806,0.008718621917068958,-0.008092256262898445,-0.006636025384068489,0.003216866869479418,0.008652694523334503
0.018883343786001205,0.00846912246197462,-0.007846876978874207,-0.006867443211376667,0.0032836408354341984,0.008936562575399876
0.01853933185338974,0.008753080852329731,-0.007232385221868753,-0.007290153298527002,0.0032087380532175303,0.008892377838492393
0.018787849694490433,0.008775478228926659,-0.007158694788813591,-0.007153999526053667,0.0031804973259568214,0.008592157624661922
0.01882537268102169,0.008824821561574936,-0.008357563056051731,-0.006869642995297909,0.002852751174941659,0.008485398255288601
0.018795067444443703,0.00887611135840416,-0.008394417352974415,-0.007338418625295162,0.0026705472264438868,0.008817154914140701
0.018795067444443703,0.00887611135840416,-0.008394417352974415,-0.007338418625295162,0.0026705472264438868,0.008817154914140701
0.019364481791853905,0.008350679650902748,-0.007993368431925774,-0.007344621699303389,0.0027334424667060375,0.008647948503494263
0.01902620680630207,0.009055097587406635,-0.008153964765369892,-0.007066621445119381,0.0028320816345512867,0.008642081171274185
0.018691783770918846,0.008628981187939644,-0.008650369010865688,-0.007144681178033352,0.0029284856282174587,0.009030136279761791
0.019349832087755203,0.008635753765702248,-0.008538017980754375,-0.007532687392085791,0.0028652541805058718,0.009249257855117321
0.01910385489463806,0.009333455935120583,-0.007962475530803204,-0.007584735751152039,0.0030697123147547245,0.009203683584928513
0.018682921305298805,0.008979832753539085,-0.008486616425216198,-0.007564431522041559,0.0032384537626057863,0.009150911122560501
0.01897571049630642,0.009707383811473846,-0.008734280243515968,-0.007480346132069826,0.0031080760527402163,0.00969102792441845
0.01882261410355568,0.009227819740772247,-0.008409182541072369,-0.008058656007051468,0.0032062772661447525,0.009123804979026318
0.019149450585246086,0.009645132347941399,-0.007927381433546543,-0.008175108581781387,0.003299825359135866,0.009123839437961578
0.019495008513331413,0.00870097428560257,-0.008684355765581131,-0.007674139458686113,0.0031454632990062237,0.009429465048015118
0.018830446526408195,0.010085167363286018,-0.009007633663713932,-0.008014815859496593,0.003275583265349269,0.00945864338427782
0.01904143951833248,0.009440482594072819,-0.008215777575969696,-0.008302117697894573,0.003269200213253498,0.00946724321693182
0.01968909054994583,0.009522488340735435,-0.00882917270064354,-0.008268560282886028,0.0032396051101386547,0.009706354700028896
0.019584963098168373,0.009379671886563301,-0.008807972073554993,-0.007988888770341873,0.0033045299351215363,0.009470677934587002
0.01899884268641472,0.00924077257514,-0.008397528901696205,-0.007685835938900709,0.0033339315559715033,0.008797967806458473
0.019232546910643578,0.009076305665075779,-0.008475331589579582,-0.008193626999855042,0.0032932846806943417,0.009190937504172325
0.019367361441254616,0.009098843671381474,-0.009043091908097267,-0.008446045219898224,0.0030098450370132923,0.009477434679865837
0.019528647884726524,0.009465453214943409,-0.008511396124958992,-0.008225359953939915,0.0031888915691524744,0.010075750760734081
0.019877171143889427,0.00912307295948267,-0.008956711739301682,-0.008949880488216877,0.0027752795722335577,0.009408987127244473
0.019454212859272957,0.009727220982313156,-0.00850678887218237,-0.008291441947221756,0.002618318423628807,0.009272420778870583
0.018041864037513733,0.010049967095255852,-0.008689004927873611,-0.00855252519249916,0.0027371817268431187,0.009594972245395184
0.02002129517495632,0.009032809175550938,-0.00958473514765501,-0.00909325759857893,0.0032578245736658573,0.009967292658984661
0.01991037279367447,0.009823396801948547,-0.009477759711444378,-0.008424082770943642,0.003691144287586212,0.00913512147963047
0.01990318112075329,0.009581848978996277,-0.008750990964472294,-0.008102775551378727,0.0035382178612053394,0.009087351150810719
0.020038072019815445,0.009255042299628258,-0.009136738255620003,-0.00858625490218401,0.00317151821218431,0.0090394988656044
0.02002144418656826,0.00947367399930954,-0.009265794418752193,-0.009150226600468159,0.003176463069394231,0.009686188772320747
0.020180033519864082,0.0094068618491292,-0.00894941110163927,-0.008584611117839813,0.003562007797881961,0.00969503540545702
0.01990973763167858,0.009937557391822338,-0.008679898455739021,-0.008679519407451153,0.003500749822705984,0.009369906038045883
0.01990973763167858,0.009937557391822338,-0.008679898455739021,-0.008679519407451153,0.003500749822705984,0.009369906038045883
0.019594969227910042,0.009457419626414776,-0.00883965939283371,-0.009265509434044361,0.0033830604515969753,0.009249966591596603
0.020001251250505447,0.009641546756029129,-0.008742356672883034,-0.009249170310795307,0.0033829682506620884,0.009332158602774143
0.02058286778628826,0.009085375815629959,-0.00864047184586525,-0.008747252635657787,0.003361489623785019,0.009557109326124191
0.020221587270498276,0.009386049583554268,-0.009388376958668232,-0.009142803028225899,0.0035355633590370417,0.009173599071800709
0.019405918195843697,0.010208581574261189,-0.009097082540392876,-0.00883061159402132,0.0037114329170435667,0.009252180345356464
0.019950781017541885,0.009703407995402813,-0.0090695945546031,-0.008739468641579151,0.0037140389904379845,0.00919572077691555
0.020680639892816544,0.00962123554199934,-0.008940181694924831,-0.008982549421489239,0.003361806971952319,0.010229592211544514
0.020747072994709015,0.010372895747423172,-0.00917050614953041,-0.00897972472012043,0.0035191928036510944,0.010334470309317112
0.021211199462413788,0.0095931775867939,-0.008938860148191452,-0.008839610032737255,0.0031097850296646357,0.00896324124187231
0.021211199462413788,0.0095931775867939,-0.008938860148191452,-0.008839610032737255,0.0031097850296646357,0.00896324124187231
0.02065669186413288,0.009899892844259739,-0.009013806469738483,-0.009800778701901436,0.002998078241944313,0.009041862562298775
0.020058315247297287,0.010879202745854855,-0.008487528190016747,-0.008695482276380062,0.0029044628608971834,0.009427088312804699
0.02021910436451435,0.009477450512349606,-0.008768736384809017,-0.009270615875720978,0.0032693548128008842,0.009449909441173077
0.02087418921291828,0.009626208804547787,-0.009128490462899208,-0.009485598653554916,0.0036685634404420853,0.00936818402260542
0.021112065762281418,0.009493703953921795,-0.009873681701719761,-0.009630945511162281,0.004283586982637644,0.009774182923138142
0.020885758101940155,0.010033723898231983,-0.00862728338688612,-0.0092997457832098,0.0037088459357619286,0.009412894956767559
0.021019987761974335,0.0101298363879323,-0.008890968747437,-0.009639840573072433,0.003249847562983632,0.009111505933105946
0.020861908793449402,0.010226549580693245,-0.008957169950008392,-0.0101831229403615,0.00291157653555274,0.009480137377977371
0.02129354327917099,0.010419264435768127,-0.009238257072865963,-0.009782967157661915,0.0030142907053232193,0.009781255386769772
0.0211421400308609,0.009739934466779232,-0.008878077380359173,-0.01054550614207983,0.0035352713894098997,0.010090475901961327
0.021031202748417854,0.009580292738974094,-0.008748799562454224,-0.010128783993422985,0.003390227211639285,0.010380284860730171
0.020546959713101387,0.010394377633929253,-0.008449804037809372,-0.009715244174003601,0.003561257617548108,0.010115319862961769
0.021122176200151443,0.00974962767213583,-0.008924225345253944,-0.00937633216381073,0.004142487421631813,0.010478178039193153
0.020843850448727608,0.00969755370169878,-0.008504131808876991,-0.009604599326848984,0.004129186738282442,0.010143108665943146
0.02070637233555317,0.01032835990190506,-0.00832852628082037,-0.010477163828909397,0.003940086346119642,0.010491901077330112
0.021041251718997955,0.009664438664913177,-0.00917422492057085,-0.00992986373603344,0.00360507657751441,0.010134280659258366
0.021041251718997955,0.009664438664913177,-0.00917422492057085,-0.00992986373603344,0.00360507657751441,0.010134280659258366
0.02114342525601387,0.009703618474304676,-0.008973414078354836,-0.009593985043466091,0.0034227478317916393,0.009546468034386635
0.021134503185749054,0.00973767414689064,-0.008487165905535221,-0.009734494611620903,0.003491395153105259,0.009770410135388374
0.020694071426987648,0.00933043472468853,-0.008777353912591934,-0.009375541470944881,0.0033494553063064814,0.010039668530225754
0.01942051202058792,0.009910115972161293,-0.0084798913449049,-0.009677826426923275,0.003451261203736067,0.010103413835167885
0.021878628060221672,0.009657671675086021,-0.008875872008502483,-0.009588774293661118,0.0035366348456591368,0.010140693746507168
0.021878628060221672,0.009657671675086021,-0.008875872008502483,-0.009588774293661118,0.0035366348456591368,0.010140693746507168
0.021321658045053482,0.009670390747487545,-0.008893627673387527,-0.010141934268176556,0.0037457470316439867,0.01055285707116127
0.02144397795200348,0.010725495405495167,-0.008428746834397316,-0.010283142328262329,0.0038036939222365618,0.009877458214759827
0.02156180702149868,0.009490875527262688,-0.008328610099852085,-0.009747886098921299,0.0036267773248255253,0.010342646390199661
0.02147686295211315,0.009507295675575733,-0.008692597970366478,-0.009756868705153465,0.0034510651603341103,0.010059192776679993
0.02150636911392212,0.009579689241945744,-0.008600289933383465,-0.010706564411520958,0.0033415828365832567,0.00991606991738081
0.021742703393101692,0.009504794143140316,-0.008232269436120987,-0.010491840541362762,0.003608721075579524,0.010129961185157299
0.022288978099822998,0.010972133837640285,-0.008339918218553066,-0.010469945147633553,0.0034051076509058475,0.010522971861064434
0.023052889853715897,0.012421109713613987,-0.008955348283052444,-0.010690447874367237,0.0035446900874376297,0.009868863970041275
0.02209637686610222,0.01179556641727686,-0.009019086137413979,-0.010615485720336437,0.003723213914781809,0.009694107808172703
0.02242228016257286,0.011466987431049347,-0.00827199500054121,-0.0108407037332654,0.0038908838760107756,0.01004465389996767
0.02213132008910179,0.011293649673461914,-0.008824598975479603,-0.010295105166733265,0.003860883880406618,0.010302851907908916
0.02194494567811489,0.010293964296579361,-0.008754633367061615,-0.010518980212509632,0.003873836249113083,0.01048581674695015
0.022743703797459602,0.010926132090389729,-0.008655022829771042,-0.01029322762042284,0.0034888209775090218,0.010663795284926891
0.022471409291028976,0.01098502054810524,-0.008840921334922314,-0.009666960686445236,0.003506674896925688,0.010465621016919613
0.023079121485352516,0.011212888173758984,-0.008646736852824688,-0.0102125508710742,0.003976158797740936,0.00999513454735279
0.02344164438545704,0.010988227091729641,-0.008659733459353447,-0.01080605573952198,0.004258677829056978,0.010614253580570221
0.02339445799589157,0.011252693831920624,-0.008944756351411343,-0.010500740259885788,0.004805739037692547,0.010294460691511631
0.02308071404695511,0.010823926888406277,-0.008730079047381878,-0.010757507756352425,0.00479385768994689,0.010442208498716354
0.02314779721200466,0.012053895741701126,-0.008853754960000515,-0.010090846568346024,0.003690660698339343,0.010787373408675194
0.02284182235598564,0.011377397924661636,-0.00888470932841301,-0.010142954997718334,0.0031664364505559206,0.01037948951125145
