davideferrari95/blind_handover_controller/data/Test 191 - [2024-02-08 -- 11-29-01]/joint_states_data.csv
shoulder_pan_joint,shoulder_lift_joint,elbow_joint,wrist_1_joint,wrist_2_joint,wrist_3_joint
0.004292617551982403,-0.0019085165113210678,-0.014217589981853962,0.015109777450561523,0.0,0.005708026234060526
0.004043186083436012,-0.001738139777444303,-0.014619307592511177,0.015363291837275028,0.0,0.005461633671075106
0.004043186083436012,-0.001738139777444303,-0.014619307592511177,0.015363291837275028,0.0,0.005461633671075106
0.004447201266884804,-0.0017511508194729686,-0.014371504075825214,0.01502140797674656,0.0,0.004958936013281345
0.004142362158745527,-0.0016369969816878438,-0.014998438768088818,0.015400293283164501,0.0,0.004518941510468721
0.004393614828586578,-0.0017439039656892419,-0.014181043952703476,0.015111317858099937,0.0,0.0043124845251441
0.004261753987520933,-0.001939326641149819,-0.014719930477440357,0.015519740991294384,0.0,0.004221923649311066
0.004045358393341303,-0.002007467206567526,-0.01410385500639677,0.014677238650619984,0.0,0.004532014951109886
0.004173269961029291,-0.0019016177393496037,-0.014487210661172867,0.015264475718140602,0.0,0.004683047998696566
0.00451012933626771,-0.001844002166762948,-0.014317427761852741,0.014744378626346588,0.0,0.004328672308474779
0.004701685160398483,-0.0017347713001072407,-0.01469743624329567,0.01530607882887125,0.0,0.004000607877969742
0.0042968615889549255,-0.0018983749905601144,-0.01398360263556242,0.014882661402225494,0.0,0.0038219373673200607
0.004461846314370632,-0.0022718298714607954,-0.01437667291611433,0.015326915308833122,0.0,0.003978874068707228
0.004264032002538443,-0.002322243992239237,-0.013948055915534496,0.014970400370657444,0.0,0.004125609062612057
0.0038412713911384344,-0.002328187692910433,-0.013706565834581852,0.014954740181565285,0.0,0.004119862802326679
0.004018791019916534,-0.002428010804578662,-0.013944354839622974,0.014982960186898708,0.0,0.004323645960539579
0.004178502596914768,-0.0026471272576600313,-0.013776603154838085,0.015253012999892235,0.0,0.004412068985402584
0.004366984125226736,-0.0023494891356676817,-0.014088895171880722,0.015538280829787254,0.0,0.004394183866679668
0.004084436222910881,-0.0025736261159181595,-0.01408328302204609,0.015201110392808914,0.0,0.004015226382762194
0.004084436222910881,-0.0025736261159181595,-0.01408328302204609,0.015201110392808914,0.0,0.004015226382762194
0.004313304089009762,-0.002778124762699008,-0.014228119514882565,0.014790717512369156,0.0,0.0037921920884400606
0.004305584821850061,-0.0024445350281894207,-0.013879400677978992,0.015231609344482422,0.0,0.0040755183435976505
0.004360710736364126,-0.002511782804504037,-0.01417604275047779,0.014877363108098507,0.0,0.004430741537362337
0.004277174826711416,-0.0023574817460030317,-0.01424375455826521,0.01512784045189619,0.0,0.004268456716090441
0.004059871193021536,-0.0022945415694266558,-0.014378375373780727,0.01495425309985876,0.0,0.004470791667699814
0.004178532864898443,-0.002376062795519829,-0.013875615783035755,0.015440545044839382,0.0,0.004161247983574867
0.0039230710826814175,-0.0025259668473154306,-0.013467359356582165,0.014895802363753319,0.0,0.004274046514183283
0.0038544985000044107,-0.002423620782792568,-0.014150556176900864,0.01522839441895485,0.0,0.004193310625851154
0.004404277540743351,-0.002495621098205447,-0.014168406836688519,0.014847677201032639,0.0,0.003722273977473378
0.00456267548725009,-0.0027031146455556154,-0.014193433336913586,0.015184282325208187,0.0,0.0037599364295601845
0.004401511512696743,-0.002571249380707741,-0.014122892171144485,0.014675477519631386,0.0,0.004829741548746824
0.004554734565317631,-0.002605824964120984,-0.014361148700118065,0.015183547511696815,0.0,0.005003809928894043
0.004302491433918476,-0.0023492544423788786,-0.014344957657158375,0.014686891809105873,0.0,0.004417776595801115
0.00393762718886137,-0.0024208275135606527,-0.01451931893825531,0.014799697324633598,0.0,0.004005769267678261
0.003819250501692295,-0.0025722780264914036,-0.014171776361763477,0.014307000674307346,0.0,0.0038588850293308496
0.004005796741694212,-0.002454666653648019,-0.014339424669742584,0.014750122092664242,0.0,0.0038867297116667032
0.004000108223408461,-0.0026302889455109835,-0.014264442026615143,0.01456877775490284,0.0,0.00431166123598814
0.0038609865587204695,-0.0026713127736002207,-0.014511310495436192,0.014818488620221615,0.0,0.004529419355094433
0.0043508983217179775,-0.002370003378018737,-0.0136931287124753,0.014481090940535069,0.0,0.004489072598516941
0.004258992616087198,-0.0022284563165158033,-0.015882499516010284,0.014780476689338684,0.0,0.004341597203165293
0.004434254486113787,-0.0023274896666407585,-0.013531140983104706,0.014492473565042019,0.0,0.0040229931473731995
0.0041039977222681046,-0.0022808818612247705,-0.013964029960334301,0.014810984954237938,0.0,0.004105378407984972
0.004043795168399811,-0.0027152844704687595,-0.014333194121718407,0.014999809674918652,0.0,0.004098811186850071
0.0040688952431082726,-0.002689395099878311,-0.014020799659192562,0.015072839334607124,0.0,0.004035858437418938
0.0040124100632965565,-0.002671034075319767,-0.015061046928167343,0.01495635136961937,0.0,0.004042757209390402
0.004378624260425568,-0.00246771820820868,-0.01422486174851656,0.01458945032209158,0.0,0.003980630077421665
0.004378624260425568,-0.00246771820820868,-0.01422486174851656,0.01458945032209158,0.0,0.003980630077421665
0.004345431923866272,-0.0022927671670913696,-0.014098048210144043,0.014397796243429184,0.0,0.003932163584977388
0.004034867510199547,-0.0023340173065662384,-0.013546889647841454,0.014122597873210907,0.0,0.004242211114615202
0.0036084321327507496,-0.0025023617781698704,-0.014995209872722626,0.013916230760514736,0.0,0.004576930310577154
0.00350125296972692,-0.0024181196931749582,-0.013918215408921242,0.013651269488036633,0.0,0.004242651164531708
0.0038147172890603542,-0.0025775497779250145,-0.013953258283436298,0.014141755178570747,0.0,0.003908100537955761
0.004085534252226353,-0.002283520298078656,-0.013313093222677708,0.014345582574605942,0.0,0.0041706254705786705
0.004425462335348129,-0.00222576642408967,-0.014225201681256294,0.014736071228981018,0.0,0.004196727182716131
0.004215296357870102,-0.0023537836968898773,-0.013887700624763966,0.01416957937180996,0.0,0.004305934067815542
0.003911074250936508,-0.0022724780719727278,-0.014414845034480095,0.014515893533825874,0.0,0.004248844925314188
0.004336313810199499,-0.002177075482904911,-0.013705459423363209,0.014394762925803661,0.0,0.0044114477932453156
0.004183158278465271,-0.0015853694640100002,-0.014249579980969429,0.014876516535878181,0.0,0.004052569158375263
0.004094099160283804,-0.0012249074643477798,-0.014043958857655525,0.014543967321515083,0.0,0.004069990012794733
0.004063056316226721,-0.000997954048216343,-0.01423695869743824,0.014473258517682552,0.0,0.004181853029876947
0.003982793539762497,-0.0009647787665016949,-0.0135057233273983,0.014417608268558979,0.0,0.00410509342327714
0.004408263135701418,-0.000928106892388314,-0.014006628654897213,0.014659318141639233,0.0,0.004002014175057411
0.004133319482207298,-0.0007349468069151044,-0.013644764199852943,0.014549529179930687,0.0,0.0042669204995036125
0.004069795832037926,-0.0006872439407743514,-0.014249011874198914,0.014286073856055737,0.0,0.00449834018945694
0.004022443667054176,-0.0007190248579718173,-0.013959973119199276,0.013829367235302925,0.0,0.004338456317782402
0.004361380822956562,-0.0011535636149346828,-0.014028802514076233,0.014207862317562103,0.0,0.004395569674670696
0.0042134840041399,-0.0012804826255887747,-0.013640758581459522,0.01387120969593525,0.0,0.004117445554584265
0.004014036618173122,-0.001209269859828055,-0.013965760357677937,0.0143352709710598,0.0,0.004211295861750841
0.0044286842457950115,-0.0010199013631790876,-0.01363176666200161,0.01442566979676485,0.0,0.004536396358162165
0.004758525174111128,-0.0008777201292105019,-0.013373296707868576,0.014814120717346668,0.0,0.004463974852114916
0.004333033226430416,-0.00087866245303303,-0.013576055876910686,0.015165316872298717,0.0,0.0044475398026406765
0.004203397780656815,-0.0007072763983160257,-0.013660254888236523,0.0148452864959836,0.0,0.0043788691982626915
0.004338327795267105,-0.0006439874414354563,-0.012801324017345905,0.014632895588874817,0.0,0.004062159918248653
0.004500051494687796,-0.000525482464581728,-0.01305326260626316,0.014410429634153843,0.0,0.0038460816722363234
0.004357244819402695,-0.00044403295032680035,-0.012875702232122421,0.014498555101454258,0.0,0.004249469377100468
0.004604251589626074,-0.00048333595623262227,-0.01352451741695404,0.014346336014568806,0.0,0.004153348505496979
0.004604251589626074,-0.00048333595623262227,-0.01352451741695404,0.014346336014568806,0.0,0.004153348505496979
0.004181195981800556,-0.0005155833205208182,-0.012879515998065472,0.014273889362812042,0.0,0.003985290415585041
0.004278436303138733,-0.000544802111107856,-0.013087494298815727,0.014577004127204418,0.0,0.00419019628316164
0.004495469853281975,-0.0007406254881061614,-0.012742052786052227,0.01479275431483984,0.0,0.004302980378270149
0.004123439081013203,-0.0007321984157897532,-0.013125256635248661,0.014448819682002068,0.0,0.004072642885148525
0.004367749206721783,-0.000755178916733712,-0.012847994454205036,0.014223143458366394,0.0,0.0034790930803865194
0.00473748566582799,-0.0006639548810198903,-0.012513191439211369,0.014108254574239254,0.0,0.003955938387662172
0.004513194784522057,-0.000688283471390605,-0.013072284869849682,0.014447564259171486,0.0,0.004195091780275106
0.004311257507652044,-0.000621649029199034,-0.012294143438339233,0.014276421628892422,0.0,0.004063229076564312
0.00410081259906292,-0.0006454492104239762,-0.013173818588256836,0.015019386075437069,0.0,0.004158054478466511
0.004410351626574993,-0.0006111233378760517,-0.012519307434558868,0.014288469217717648,0.0,0.004103248007595539
0.004244501236826181,-0.0005464253481477499,-0.013154772110283375,0.014246022328734398,0.0,0.0038709621876478195
0.003999586682766676,-0.0005833377945236862,-0.012640652246773243,0.014395484700798988,0.0,0.0036571514792740345
0.004410470370203257,-0.0006118097226135433,-0.012467939406633377,0.014142121188342571,0.0,0.003447719616815448
0.004632201977074146,-0.0006311031174845994,-0.012638174928724766,0.013653292320668697,0.0,0.003748546354472637
0.004232472740113735,-0.0005922685377299786,-0.012029716745018959,0.013680935837328434,0.0,0.004158717580139637
0.004272101912647486,-0.0007105590193532407,-0.012600558809936047,0.013666646555066109,0.0,0.004812703467905521
0.004573658108711243,-0.0007373880944214761,-0.012305604293942451,0.014032051898539066,0.0,0.004888299852609634
0.004628655966371298,-0.0007205322035588324,-0.012830761261284351,0.014031993225216866,0.0,0.0045543150044977665
0.004376698285341263,-0.0006765220314264297,-0.012614312581717968,0.014512977562844753,0.0,0.004331306088715792
0.004551224876195192,-0.0006681492086499929,-0.012981586158275604,0.014161589555442333,0.0,0.004053566139191389
0.004519570618867874,-0.000636405311524868,-0.012856758199632168,0.013450072146952152,0.0,0.00389732769690454
0.004674767144024372,-0.000621718936599791,-0.012291492894291878,0.013859798200428486,0.0,0.0038451203145086765
0.004759310279041529,-0.0005630264058709145,-0.012875809334218502,0.013982517644762993,0.0,0.004604522604495287
0.004838831257075071,-0.0005992213264107704,-0.01253904215991497,0.0134804742410779,0.0,0.0045531075447797775
0.004354198928922415,-0.0005991693469695747,-0.013063152320683002,0.013865798711776733,0.0,0.004629027564078569
0.004960243124514818,-0.0005993766826577485,-0.013587095774710178,0.013952203094959259,0.0,0.0040568276308476925
0.004920279141515493,-0.0006553465500473976,-0.013193598948419094,0.013532844372093678,0.0,0.003962260205298662
0.004862050525844097,-0.0006171949207782745,-0.01328263059258461,0.013962875120341778,0.0,0.0038539262022823095
0.004862050525844097,-0.0006171949207782745,-0.01328263059258461,0.013962875120341778,0.0,0.0038539262022823095
0.005110656842589378,-0.0006472704699262977,-0.013379126787185669,0.01340000331401825,0.0,0.0038637130055576563
0.004998359363526106,-0.0006446675397455692,-0.012724187225103378,0.013629039749503136,0.0,0.004330506548285484
0.004660425242036581,-0.0006121761980466545,-0.013372196815907955,0.013358881697058678,0.0,0.004780307412147522
0.004892310127615929,-0.0006346979062072933,-0.01356538012623787,0.013388793915510178,0.0,0.004771278239786625
0.004802458919584751,-0.000586072274018079,-0.014220481738448143,0.013369908556342125,0.0,0.004389734007418156
0.004767423961311579,-0.000545803050044924,-0.013252988457679749,0.013402394950389862,0.0,0.00404217466711998
0.0051375930197536945,-0.0005495711229741573,-0.014083168469369411,0.013573557138442993,0.0,0.0038629614282399416
0.00501430407166481,-0.0005766749964095652,-0.013575787656009197,0.013411173596978188,0.0,0.0037442392203956842
0.004853473510593176,-0.0005306482198648155,-0.013524756766855717,0.013850879855453968,0.0,0.004033367615193129
0.0052244579419493675,-0.0005626436322927475,-0.013032757677137852,0.013710943050682545,0.0,0.004610264208167791
0.0050890203565359116,-0.00056571199093014,-0.013680549338459969,0.013902537524700165,0.0,0.00473872572183609
0.004872542340308428,-0.0005461769178509712,-0.01371453981846571,0.013893618248403072,0.0,0.004689429886639118
0.004794279113411903,-0.00059341243468225,-0.01409357599914074,0.013700230047106743,0.0,0.004284755792468786
0.004953046794980764,-0.0005614054389297962,-0.01348766591399908,0.012836871668696404,0.0,0.004411264788359404
0.004939689300954342,-0.0005980149726383388,-0.013583200052380562,0.013040267862379551,0.0,0.004520750138908625
0.00529442960396409,-0.0005395732005126774,-0.013658762909471989,0.012624913826584816,0.0,0.004160297568887472
0.0054046944715082645,-0.000568848685361445,-0.013874845579266548,0.012872881256043911,4.089743015356362e-06,0.00437577161937952
0.005125208757817745,-0.0005734686274081469,-0.013454207219183445,0.01271070446819067,2.670309982022445e-07,0.004131787922233343
0.005466462578624487,-0.0005531252827495337,-0.013183103874325752,0.012917672283947468,1.7435215937666726e-08,0.004290650598704815
0.005253151524811983,-0.000599603692535311,-0.013762918300926685,0.013428536243736744,1.1383949338750199e-09,0.00428355485200882
0.004923902917653322,-0.0006428029155358672,-0.013375511392951012,0.01356195006519556,7.432905679838342e-11,0.004487060476094484
0.005401633679866791,-0.0005781974759884179,-0.013158873654901981,0.014300607144832611,4.853156938822156e-12,0.004495878703892231
0.00503869354724884,-0.0005789725692011416,-0.013067285530269146,0.014201242476701736,3.168765163458209e-13,0.004443509969860315
0.005333521403372288,-0.0005551828071475029,-0.013622412458062172,0.014117248356342316,0.00046127321547828615,0.004360379185527563
0.005111135542392731,-0.0005105430027469993,-0.013031840324401855,0.013758676126599312,0.0006378577672876418,0.004113113973289728
0.004817596171051264,-0.000538754160515964,-0.013796325773000717,0.014119143597781658,0.0006619696505367756,0.004274436272680759
0.004817596171051264,-0.000538754160515964,-0.013796325773000717,0.014119143597781658,0.0006619696505367756,0.004274436272680759
0.005075416993349791,-0.000514197105076164,-0.013431924395263195,0.014346287585794926,0.000635685573797673,0.0043932246044278145
0.00483829015865922,-0.0004677318793255836,-0.013109826482832432,0.013100716285407543,0.0005970692145638168,0.004462659824639559
0.004945730324834585,-0.00046359311090782285,-0.013128221966326237,0.01272624172270298,0.0007016277522780001,0.004387154709547758
0.004945730324834585,-0.00046359311090782285,-0.013128221966326237,0.01272624172270298,0.0007016277522780001,0.004387154709547758
0.0050267712213099,-0.0004278779961168766,-0.013117422349750996,0.013199418783187866,0.0006455169641412795,0.004409263841807842
0.005038139410316944,-0.00039646841469220817,-0.013110755942761898,0.01229969784617424,0.0006609693518839777,0.004187425132840872
0.005281525198370218,-0.00043001509038731456,-0.012909473851323128,0.01205399725586176,0.0006503536715172231,0.004036745056509972
0.0048659625463187695,-0.00040330024785362184,-0.013452587649226189,0.012539466843008995,0.0006318626692518592,0.004007556475698948
0.005313489586114883,-0.00037904171040281653,-0.012612933292984962,0.012409428134560585,0.0006287916912697256,0.004125745035707951
0.005108512472361326,-0.0003575279260985553,-0.013075651600956917,0.01291241031140089,0.0006221604417078197,0.00423341803252697
0.004863916430622339,-0.00033832518965937197,-0.012726368382573128,0.012434079311788082,0.0006022718735039234,0.004397215787321329
0.005079949274659157,-0.0003663008101284504,-0.013251777738332748,0.012978407554328442,0.0006289294688031077,0.004038061946630478
0.005562243517488241,-0.00034914424759335816,-0.013012685813009739,0.01225668378174305,0.0006373831420205534,0.0037960787303745747
0.005063209682703018,-0.00033528299536556005,-0.0130562549456954,0.012257937341928482,0.0006060109590180218,0.004060468636453152
0.005267277825623751,-0.00031278576352633536,-0.013081633485853672,0.012339862994849682,0.0006855361862108111,0.0042788987047970295
0.0051258341409265995,-0.0003501171595416963,-0.0127888647839427,0.012000133283436298,0.0007166184368543327,0.004502188414335251
0.0050102220848202705,-0.0003821771533694118,-0.01286919042468071,0.012637938372790813,0.0007173888734541833,0.004167585168033838
0.0058362134732306,-0.00039619955350644886,-0.0125484773889184,0.012503040954470634,0.0006657751509919763,0.004360790364444256
0.00566138606518507,-0.0003913399123121053,-0.012882254086434841,0.01321064867079258,0.0006835148087702692,0.004527296870946884
0.0055525884963572025,-0.0003713768383022398,-0.012716534547507763,0.012480988167226315,0.0006891110097058117,0.00452722841873765
0.005402483977377415,-0.0005728352116420865,-0.01302123349159956,0.012708265334367752,0.0006518595619127154,0.004357253201305866
0.005631996784359217,-0.0005335891037248075,-0.013161585666239262,0.012390226125717163,0.0006711046444252133,0.00456507271155715
0.00569950370118022,-0.0005394157487899065,-0.013148647733032703,0.01079735066741705,0.0006088613881729543,0.004622629377990961
0.00581990834325552,-0.0005174060352146626,-0.012630872428417206,0.013004657812416553,0.0005918391398154199,0.004673659801483154
0.005486174952238798,-0.00047251663636416197,-0.012754376977682114,0.013217196799814701,0.0005772144650109112,0.004652537405490875
0.005603684112429619,-0.000503863557241857,-0.012732836417853832,0.012860890477895737,0.0005311099230311811,0.004185049794614315
0.005486929789185524,-0.00046910226228646934,-0.012443148531019688,0.012016860768198967,0.0005503344582393765,0.004315656144171953
0.005486929789185524,-0.00046910226228646934,-0.012443148531019688,0.012016860768198967,0.0005503344582393765,0.004315656144171953
0.0059813219122588634,-0.0004083183594048023,-0.012550984509289265,0.012561863288283348,0.0004917248152196407,0.003969899378716946
0.005724445916712284,-0.000435977301094681,-0.012839147821068764,0.012312482111155987,0.0004476887988857925,0.004163167905062437
0.005514226388186216,-0.0004130620800424367,-0.012721979059278965,0.012468299828469753,0.0004671089118346572,0.004422673489898443
0.005381791386753321,-0.0003906761121470481,-0.012824847362935543,0.012242002412676811,0.0004468821280170232,0.004645064473152161
0.005522136576473713,-0.00037056583096273243,-0.013154755346477032,0.012352078221738338,0.00041382317431271076,0.004443701356649399
0.005450950004160404,-0.0003524260828271508,-0.012327288277447224,0.01193436048924923,0.00044398620957508683,0.004474349785596132
0.006320929620414972,-0.00033597927540540695,-0.012530121020972729,0.012293675914406776,0.00044744351180270314,0.004269779659807682
0.006100871600210667,-0.0003012486849911511,-0.012179396115243435,0.012228231877088547,0.00044662447180598974,0.004420246463268995
0.005884874612092972,-0.0002732710854616016,-0.013102366589009762,0.01196716446429491,0.00042218936141580343,0.004514623899012804
0.005219105631113052,-0.00025750132044777274,-0.012278721667826176,0.012118738144636154,0.00046713289339095354,0.004591903183609247
0.005749388597905636,-0.00024356057110708207,-0.012421470135450363,0.011423339135944843,0.000433449080446735,0.004426428582519293
0.006439900491386652,-0.0002717682218644768,-0.012470628134906292,0.011703111231327057,0.00045404702541418374,0.004491662606596947
0.00574828265234828,-0.00026364834047853947,-0.012261200696229935,0.0117418197914958,0.0004354095726739615,0.004153577610850334
0.005914697423577309,-0.00025144065148197114,-0.012564179487526417,0.011413538828492165,0.0004039902414660901,0.0042540524154901505
0.005385246127843857,-0.0002402543177595362,-0.012070246040821075,0.011788318865001202,0.0004300397995393723,0.004378130659461021
0.006634396035224199,-0.00025516567984595895,-0.01274129282683134,0.011514415964484215,0.00040946711669676006,0.004243667237460613
0.005841266829520464,-0.0002572150551714003,-0.01207689754664898,0.011934253387153149,0.0003849196364171803,0.00453433021903038
0.005749676376581192,-0.0002472855558153242,-0.012804405763745308,0.011684979312121868,0.00036277715116739273,0.00480224983766675
0.005399635061621666,-0.00023794792650733143,-0.012667307630181313,0.012114718556404114,0.0003886361955665052,0.004761858377605677
0.005748338997364044,-0.00022928767430130392,-0.012452823109924793,0.011806635186076164,0.0003715506463777274,0.004499799571931362
0.005777418147772551,-0.00022123573580756783,-0.012676517479121685,0.011517038568854332,0.0003694617480505258,0.00438825786113739
0.00628870353102684,-0.0002137298579327762,-0.012248760089278221,0.012193767353892326,0.00035759888123720884,0.004289680160582066
0.0063081965781748295,-0.00020671702804975212,-0.012774016708135605,0.012116609141230583,0.00036456011002883315,0.004507921170443296
0.005843335296958685,-0.00020014944311697036,-0.012733406387269497,0.012196245603263378,0.00036919271224178374,0.004569681361317635
0.005741220898926258,-0.0002184380282415077,-0.012756647542119026,0.01194226648658514,0.00037552969297394156,0.0048408969305455685
0.005676715634763241,-0.00021503293828573078,-0.012770993635058403,0.011870714835822582,0.00037895821151323617,0.0047872974537312984
0.005894187837839127,-0.0002029514143941924,-0.012352352030575275,0.011633412912487984,0.0006035869009792805,0.00446621747687459
0.005894187837839127,-0.0002029514143941924,-0.012352352030575275,0.011633412912487984,0.0006035869009792805,0.00446621747687459
0.0058509656228125095,-0.0001973876205738634,-0.01275156531482935,0.011535058729350567,0.00064316630596295,0.0044214739464223385
0.005969090852886438,-0.00019212071492802352,-0.01329147256910801,0.011448935605585575,0.0006470239022746682,0.004598852246999741
0.006014243699610233,-0.00018712758901529014,-0.012236486189067364,0.011619987897574902,0.000627415778581053,0.005330291111022234
0.006327970884740353,-0.00018238724442198873,-0.01320644747465849,0.011504597030580044,0.0006437762640416622,0.0050032734870910645
0.006530547048896551,-0.00017788138939067721,-0.01232861541211605,0.011139140464365482,0.0007490341668017209,0.004452287685126066
0.00652168458327651,-0.00017359266348648816,-0.012830694206058979,0.01098063588142395,0.0008066256996244192,0.004397211130708456
0.0060801939107477665,-0.00016950575809460133,-0.012453396804630756,0.011174310930073261,0.0007758322753943503,0.004583314992487431
0.006509308237582445,-0.0001656070671742782,-0.012869966216385365,0.010562630370259285,0.0007369490340352058,0.00474773533642292
0.006460806354880333,-0.00014857390488032252,-0.01274504978209734,0.010854584164917469,0.0007505234680138528,0.00511539913713932
0.006567987613379955,-0.00013862656487617642,-0.012224516831338406,0.011023644357919693,0.0006915683625265956,0.005044177174568176
0.0061685931868851185,-8.425984560744837e-05,-0.012539674527943134,0.01117970421910286,0.000704644073266536,0.004651161842048168
0.006541431415826082,-5.60895205126144e-05,-0.011989302933216095,0.011510887183248997,0.0007300229626707733,0.004399193916469812
0.006859127432107925,-5.4061754781287163e-05,-0.012617159634828568,0.010922729037702084,0.0007289251661859453,0.004533800296485424
0.0065542589873075485,-7.835890573915094e-05,-0.012302502989768982,0.010886612348258495,0.0007218205137178302,0.004900276195257902
0.006219209637492895,-7.648617611266673e-05,-0.012754300609230995,0.011002495884895325,0.0007863957434892654,0.004618052858859301
0.007079639006406069,0.0001405131770297885,-0.011982169933617115,0.010990285314619541,0.0008347865659743547,0.00458779651671648
0.007079639006406069,0.0001405131770297885,-0.011982169933617115,0.010990285314619541,0.0008347865659743547,0.00458779651671648
0.006618387531489134,0.00012393150245770812,-0.013324794359505177,0.010822948068380356,0.0007890035049058497,0.004683034028857946
0.006426546722650528,0.00010896009189309552,-0.01257375068962574,0.010624542832374573,0.000797786342445761,0.005021861754357815
0.006164701655507088,9.718092769617215e-05,-0.013077725656330585,0.011263181455433369,0.0008408793364651501,0.0046437145210802555
0.006149465683847666,8.770967542659491e-05,-0.012572047300636768,0.010601192712783813,0.0008731270208954811,0.004574705380946398
0.006717334967106581,7.991799066076055e-05,-0.01301548071205616,0.010610214434564114,0.0008616791456006467,0.005003957077860832
0.006813534535467625,6.786198355257511e-05,-0.012471450492739677,0.010681703686714172,0.0008056936785578728,0.004822809714823961
0.0067029655911028385,6.310277240118012e-05,-0.012709714472293854,0.011018814519047737,0.0008135433308780193,0.005013485439121723
0.006648555863648653,5.896738002775237e-05,-0.012563221156597137,0.010590624995529652,0.0008261683396995068,0.005014000926166773
0.00679986784234643,5.534117735805921e-05,-0.013100182637572289,0.010362974368035793,0.0008119347621686757,0.004494349006563425
0.007099598180502653,5.213488475419581e-05,-0.012691503390669823,0.010746786370873451,0.0007942705415189266,0.004516775719821453
0.00662991451099515,4.927971531287767e-05,-0.012980181723833084,0.010380982421338558,0.0007606287254020572,0.004864925052970648
0.00662991451099515,4.927971531287767e-05,-0.012980181723833084,0.010380982421338558,0.0007606287254020572,0.004864925052970648
0.006693643052130938,4.672141949413344e-05,-0.012397786602377892,0.010601210407912731,0.0007480864878743887,0.004903352353721857
0.0069580161944031715,4.441532655619085e-05,-0.012877714820206165,0.011026689782738686,0.0007674621883779764,0.005225457716733217
0.0075455596670508385,8.292267739307135e-05,-0.012822812423110008,0.010510017164051533,0.0007762167369946837,0.005125631112605333
0.0068132393062114716,8.08272379799746e-05,-0.012711461633443832,0.010777204297482967,0.0007895465823821723,0.004905090667307377
0.006476372014731169,7.737430860288441e-05,-0.012778779491782188,0.010286142118275166,0.0008657752186991274,0.005087415687739849
0.006997665390372276,7.418559107463807e-05,-0.012425551190972328,0.010817738249897957,0.0010369624942541122,0.004892400931566954
0.0072015430778265,7.124893454601988e-05,-0.012984252534806728,0.010861958377063274,0.0010197421070188284,0.004412083420902491
0.007098275702446699,6.853595550637692e-05,-0.012777210213243961,0.010217277333140373,0.00100461405236274,0.004393286537379026
0.0066565945744514465,6.602204666705802e-05,-0.013838343322277069,0.010221599601209164,0.0010719227138906717,0.004573064856231213
0.007538029924035072,6.368611502693966e-05,-0.01254742220044136,0.01021520234644413,0.001020785071887076,0.004737531300634146
0.007237045094370842,9.18375444598496e-05,-0.012838290072977543,0.010017265565693378,0.0009998304303735495,0.004783750046044588
0.0070114051923155785,8.921015250962228e-05,-0.012818015180528164,0.009896568953990936,0.0009772115154191852,0.0048420624807477
0.0070532807148993015,8.636226266389713e-05,-0.012563986703753471,0.010426627472043037,0.0009257382480427623,0.004748466424643993
0.0072274100966751575,8.368550334125757e-05,-0.012634064070880413,0.010566053912043571,0.0008733881986699998,0.004858776926994324
0.007299796212464571,8.116954995784909e-05,-0.012334933504462242,0.01015619095414877,0.0007442167261615396,0.004251069389283657
0.006967579945921898,9.606106323190033e-05,-0.013194282539188862,0.01013898104429245,0.000745858415029943,0.004771094303578138
0.007161554880440235,0.00010196727816946805,-0.012651624158024788,0.009887157939374447,0.0007491238065995276,0.005463633686304092
0.007162559777498245,9.927143401000649e-05,-0.012930168770253658,0.010555794462561607,0.0007400307804346085,0.005329468287527561
0.007339478004723787,9.660881187301129e-05,-0.01272652205079794,0.010635366663336754,0.0007112502935342491,0.004910604562610388
0.007129201199859381,9.408395271748304e-05,-0.012578552588820457,0.009860257618129253,0.0007600791868753731,0.0045235650613904
0.007129201199859381,9.408395271748304e-05,-0.012578552588820457,0.009860257618129253,0.0007600791868753731,0.0045235650613904
0.007494066841900349,8.941073610913008e-05,-0.012694288045167923,0.009832331910729408,0.0007974545005708933,0.004827424883842468
0.007488713599741459,0.00012321706162765622,-0.012937071733176708,0.008883877657353878,0.0007958379574120045,0.005304890219122171
0.007246287539601326,0.00013903615763410926,-0.012459716759622097,0.009476735256612301,0.0008735220762901008,0.005174962803721428
0.007264519575983286,0.0001381447509629652,-0.012172854505479336,0.009045343846082687,0.0008192925597541034,0.004755499307066202
0.007570276036858559,0.00013473366561811417,-0.01258823648095131,0.009020425379276276,0.0008023210102692246,0.004715319722890854
0.007455870043486357,0.00013145420234650373,-0.01305888406932354,0.009108145721256733,0.0007857156451791525,0.004765875171869993
0.007191424258053303,0.00014942485722713172,-0.012346089817583561,0.00847324077039957,0.0007505661924369633,0.004879807122051716
0.007191424258053303,0.00014942485722713172,-0.012346089817583561,0.00847324077039957,0.0007505661924369633,0.004879807122051716
0.007222085725516081,0.00014623950119130313,-0.012415374629199505,0.008725862950086594,0.0007185580325312912,0.005360700655728579
0.007940730080008507,0.00014292553532868624,-0.011718983761966228,0.009285732172429562,0.0007454559672623873,0.005272359121590853
0.007645299658179283,0.00015738180081825703,-0.012391222640872002,0.00967186689376831,0.0007367578218691051,0.004966387525200844
0.007467185612767935,0.00015622265345882624,-0.012805650010704994,0.008670375682413578,0.0007047608960419893,0.005096009466797113
0.007737944833934307,0.00015293475007638335,-0.012625828385353088,0.00922438781708479,0.0007211464107967913,0.004624463617801666
0.00781359151005745,0.0003434695827309042,-0.01255042850971222,0.008678923361003399,0.0007974267355166376,0.004625299014151096
0.008161964826285839,0.00032652588561177254,-0.012058965861797333,0.0081343287602067,0.0007882258505560458,0.005068558268249035
0.007834591902792454,0.00036290811840444803,-0.012297513894736767,0.008455948904156685,0.0007427669479511678,0.005401364527642727
0.008242269977927208,0.0003422391600906849,-0.01192388217896223,0.009154285304248333,0.0007577831856906414,0.0051680742762982845
0.007933229207992554,0.00037329812766984105,-0.012768047861754894,0.008645023219287395,0.0007663166034035385,0.004958741366863251
0.007863098755478859,0.00035435776226222515,-0.012932997196912766,0.008031279779970646,0.0007577608339488506,0.004813828505575657
0.007373969070613384,0.00037773646181449294,-0.012491673231124878,0.008981859311461449,0.0008010551682673395,0.0047836340963840485
0.007908860221505165,0.00036397550138644874,-0.01239925716072321,0.008523943834006786,0.0007856402662582695,0.005111674312502146
0.007991796359419823,0.0004937323974445462,-0.012038664892315865,0.0079391123726964,0.0007974431500770152,0.005525166634470224
0.008773519657552242,0.0004625020083039999,-0.012376777827739716,0.008187130093574524,0.0007679531117901206,0.00510802585631609
0.008055977523326874,0.0004999851807951927,-0.012715484015643597,0.00871827732771635,0.00099957047495991,0.005179747939109802
0.0081406245008111,0.0004605333087965846,-0.013166471384465694,0.008627181872725487,0.0010166848078370094,0.005280415527522564
0.008253287523984909,0.0004921392537653446,-0.012513584457337856,0.008251586928963661,0.001002287957817316,0.005190214142203331
0.008375756442546844,0.000458980182884261,-0.012769671157002449,0.00895679835230112,0.0011083903955295682,0.005623406730592251
0.008492511697113514,0.0004864193033427,-0.012401328422129154,0.008476736955344677,0.0010921100620180368,0.0052756043151021
0.008242946118116379,0.00045782673987559974,-0.012226966209709644,0.007967223413288593,0.0010500617790967226,0.004863704554736614
0.008375875651836395,0.000567494542337954,-0.012533367611467838,0.008932692930102348,0.0009152212296612561,0.004964460153132677
0.008517752401530743,0.000592511089053005,-0.012808922678232193,0.008150896057486534,0.0008006410789676011,0.005362828262150288
0.008517752401530743,0.000592511089053005,-0.012808922678232193,0.008150896057486534,0.0008006410789676011,0.005362828262150288
0.008212078362703323,0.0005753866862505674,-0.012938759289681911,0.008328399620950222,0.0008108412730507553,0.005591689143329859
0.008212078362703323,0.0005753866862505674,-0.012938759289681911,0.008328399620950222,0.0008108412730507553,0.005591689143329859
0.008504190482199192,0.0005353573942556977,-0.012760109268128872,0.008425933308899403,0.0008211337844841182,0.005308231338858604
0.008545287884771824,0.0005026784492656589,-0.012899230234324932,0.008166208863258362,0.0009913771646097302,0.005048855673521757
0.008370911702513695,0.00057424750411883,-0.012725913897156715,0.00797371007502079,0.0009990297257900238,0.005331838503479958
0.008207425475120544,0.000611496448982507,-0.012658435851335526,0.008260236121714115,0.000986081431619823,0.005203012377023697
0.008981369435787201,0.0006383450818248093,-0.013095274567604065,0.008067909628152847,0.0009213790763169527,0.005175144411623478
0.0083925137296319,0.0006370192277245224,-0.01259329728782177,0.008113320916891098,0.0009556831209920347,0.005152652971446514
0.008461031131446362,0.0006153789581730962,-0.013564863242208958,0.008394458331167698,0.0009480435983277857,0.00549326092004776
0.00920275878161192,0.0008356207399629056,-0.012916546314954758,0.008200435899198055,0.0009407127508893609,0.005377910099923611
0.008461997844278812,0.0007647565798833966,-0.01281746756285429,0.007722931448370218,0.0009352415800094604,0.005109734833240509
0.008537516929209232,0.0007803952321410179,-0.01281431969255209,0.007767443545162678,0.0009232306620106101,0.005262228660285473
0.008398083038628101,0.000793551909737289,-0.013500036671757698,0.008395511656999588,0.0009260227088816464,0.005454896483570337
0.00865989737212658,0.0008823104435577989,-0.013202415779232979,0.007905904203653336,0.0009224407258443534,0.005575253628194332
0.008774444460868835,0.0008870164747349918,-0.012702478095889091,0.007460137363523245,0.0009194421581923962,0.005355179775506258
0.008392337709665298,0.000849348318297416,-0.012820306234061718,0.007969016209244728,0.0009081079042516649,0.005308436695486307
0.008464907296001911,0.0007826386136002839,-0.01220930926501751,0.008469982072710991,0.0009192741708829999,0.005614801310002804
0.008985988795757294,0.0007838810561224818,-0.012888436205685139,0.00824594497680664,0.0009171999408863485,0.006067945621907711
0.008957557380199432,0.0007166315917856991,-0.012714624404907227,0.007501893676817417,0.000914989854209125,0.005544455721974373
0.00839969888329506,0.0006660614744760096,-0.013577299192547798,0.007530830800533295,0.0009760917164385319,0.005443049129098654
0.008698615245521069,0.0007702737930230796,-0.01246163435280323,0.008207842707633972,0.0010575562482699752,0.005698703229427338
0.008930978365242481,0.0008319658227264881,-0.012696257792413235,0.008240905590355396,0.0010395703138783574,0.0054067387245595455
0.008311448618769646,0.0017481738468632102,-0.012540720403194427,0.007817620411515236,0.0010903837392106652,0.005854214541614056
0.009011157788336277,0.0019563292153179646,-0.012605411931872368,0.007814663462340832,0.0011300265323370695,0.005632699001580477
0.009011157788336277,0.0019563292153179646,-0.012605411931872368,0.007814663462340832,0.0011300265323370695,0.005632699001580477
0.00880653690546751,0.0020292182452976704,-0.013157660141587257,0.007819890044629574,0.0010938042541965842,0.005324968136847019
0.00847767572849989,0.00136646069586277,-0.012700759805738926,0.007147488184273243,0.0010582932736724615,0.005878271535038948
0.008832643739879131,0.0012141638435423374,-0.012115801684558392,0.008063170127570629,0.001047057332471013,0.00576226320117712
0.009270085021853447,0.0013201419496908784,-0.012514331378042698,0.008033130317926407,0.0010237966198474169,0.005695833824574947
0.008599955588579178,0.0018386321607977152,-0.012358280830085278,0.007486797869205475,0.0011451077880337834,0.005439144559204578
0.008992821909487247,0.00258106691762805,-0.012911302968859673,0.0073051536455750465,0.0013008719542995095,0.005441881716251373
0.009216426871716976,0.002388465218245983,-0.01294227596372366,0.007750149816274643,0.0013164583360776305,0.005507688503712416
0.008602986112236977,0.0021297037601470947,-0.012328029610216618,0.00721906078979373,0.0017988705076277256,0.005909340921789408
0.009159164503216743,0.002030313014984131,-0.012441647239029408,0.007182438857853413,0.0017132186330854893,0.005554179195314646
0.00903924647718668,0.0019280624110251665,-0.011929011903703213,0.007316633127629757,0.00156313122715801,0.00541596719995141
0.009108765050768852,0.0019651190377771854,-0.012384208850562572,0.007627055048942566,0.0015436174580827355,0.00525251729413867
0.00892668403685093,0.002440578071400523,-0.01227470114827156,0.0075530740432441235,0.0014172225492075086,0.005356587935239077
0.009636959992349148,0.002630803035572171,-0.012632759287953377,0.007413623388856649,0.001252884860150516,0.0053319470025599
0.009249553084373474,0.002460787072777748,-0.012041160836815834,0.007254448253661394,0.0010184675920754671,0.0055722021497786045
0.009128738194704056,0.0024492244701832533,-0.011599820107221603,0.007967640645802021,0.0009729649755172431,0.005675362888723612
0.00923241674900055,0.0023229194339364767,-0.01198209635913372,0.007940424606204033,0.0009599035838618875,0.005627994425594807
0.009887837804853916,0.002449314808472991,-0.011700877919793129,0.007547433488070965,0.0009516532300040126,0.005378989968448877
0.00908071268349886,0.0026641772128641605,-0.012163259088993073,0.007302500307559967,0.001063208095729351,0.005642968695610762
0.009509728290140629,0.0028338369447737932,-0.012002217583358288,0.007612142246216536,0.0010932586155831814,0.005893295165151358
0.00955851562321186,0.002691686386242509,-0.011924175545573235,0.007190768141299486,0.0010856596054509282,0.006079791579395533
0.008913539350032806,0.002631626557558775,-0.011584767140448093,0.007303041871637106,0.001151879085227847,0.005589991342276335
0.009281138889491558,0.0025597817730158567,-0.011116468347609043,0.00775171397253871,0.001248096232302487,0.005837425123900175
0.009320913814008236,0.0024793646298348904,-0.011725853197276592,0.007243112660944462,0.0011959932744503021,0.005610019899904728
0.009389557875692844,0.0027763769030570984,-0.0119766965508461,0.007199572864919901,0.0011718691093847156,0.005794465076178312
0.009277412667870522,0.0033280581701546907,-0.011823768727481365,0.006812327075749636,0.0011574975214898586,0.0063034589402377605
0.010063579306006432,0.003305816324427724,-0.011893178336322308,0.00644216313958168,0.0011349483393132687,0.0058798897080123425
0.00933102797716856,0.0030855603981763124,-0.01143269706517458,0.0068733845837414265,0.0012595145963132381,0.005865598097443581
0.009887473657727242,0.0033332007005810738,-0.011625419370830059,0.00706937862560153,0.0014075846411287785,0.00585491769015789
0.009887473657727242,0.0033332007005810738,-0.011625419370830059,0.00706937862560153,0.0014075846411287785,0.00585491769015789
0.009549709036946297,0.0037050279788672924,-0.011612304486334324,0.007154511753469706,0.0014036933425813913,0.006178915500640869
0.010398894548416138,0.0033741502556949854,-0.011763383634388447,0.00662302365526557,0.0016941360663622618,0.005902458913624287
0.010118705220520496,0.0035373864229768515,-0.01103536318987608,0.007152426987886429,0.0015939392615109682,0.006029709707945585
0.009301758371293545,0.0037024039775133133,-0.011396124958992004,0.007233764044940472,0.001577787334099412,0.005689334589987993
0.00957444030791521,0.0036413634661585093,-0.01149978768080473,0.007031294982880354,0.0014908219454810023,0.006002708338201046
0.009590708650648594,0.0036009373143315315,-0.011008319444954395,0.006682856474071741,0.0014143639709800482,0.006246626842767
0.00925752054899931,0.0036216950975358486,-0.01149836741387844,0.007030750624835491,0.0013638929231092334,0.005983825773000717
0.009782126173377037,0.0037173801101744175,-0.011726961471140385,0.007154510822147131,0.0013287634355947375,0.006209404207766056
0.009667378850281239,0.0036433760542422533,-0.011616709642112255,0.006852142978459597,0.0014686696231365204,0.006220619194209576
0.009432421997189522,0.003560418263077736,-0.01131052803248167,0.0065184086561203,0.0015442412113770843,0.00596616929396987
0.009979152120649815,0.0038296454586088657,-0.011018006131052971,0.006613780278712511,0.0016618291847407818,0.00611052755266428
0.009751965291798115,0.003914777189493179,-0.01180692482739687,0.006825226359069347,0.00159552157856524,0.005804874934256077
0.009426639415323734,0.0037854148540645838,-0.011723974719643593,0.007092996500432491,0.001476884470321238,0.005845516454428434
0.01005762629210949,0.0037938293535262346,-0.011322175152599812,0.006898337043821812,0.0013749640202149749,0.005804405547678471
0.009840345941483974,0.003952492028474808,-0.011814013123512268,0.006698010489344597,0.0012738622026517987,0.0059725516475737095
0.009160077199339867,0.004319893661886454,-0.01110826525837183,0.007361151278018951,0.001206428394652903,0.005986015312373638
0.010350169613957405,0.004514268599450588,-0.011651667766273022,0.006798421964049339,0.0011092681670561433,0.00574497552588582
0.009901817888021469,0.00463169626891613,-0.01139124296605587,0.006297685205936432,0.0010779582662507892,0.005977485328912735
0.009301199577748775,0.004539441782981157,-0.011008228175342083,0.006122172344475985,0.0010684331646189094,0.0063167717307806015
0.009875981137156487,0.004593842662870884,-0.011828492395579815,0.005650123581290245,0.001068795914761722,0.006193777080625296
0.00976994726806879,0.00472042104229331,-0.011615727096796036,0.005941757466644049,0.0013180198147892952,0.0062669492326676846
0.009712204337120056,0.004870385862886906,-0.011786334216594696,0.006046548951417208,0.0013966703554615378,0.005795510485768318
0.010553787462413311,0.005218954291194677,-0.011486086063086987,0.005875526461750269,0.001557631534524262,0.005984358489513397
0.009882125072181225,0.005063802469521761,-0.011616392992436886,0.005317154340445995,0.0015571300173178315,0.00621933164075017
0.009882125072181225,0.005063802469521761,-0.011616392992436886,0.005317154340445995,0.0015571300173178315,0.00621933164075017
0.009772478602826595,0.005103788338601589,-0.011966776102781296,0.005438117776066065,0.001466022222302854,0.006473324727267027
0.011999792419373989,0.004917155019938946,-0.012195426970720291,0.0057242317125201225,0.0015434372471645474,0.005999471992254257
0.011043631471693516,0.005144179333001375,-0.01211399957537651,0.005593020934611559,0.0016119728097692132,0.006015926133841276
0.011793489567935467,0.005585617385804653,-0.012136870063841343,0.005502729211002588,0.0015509143704548478,0.006021139677613974
0.011121475137770176,0.005331485066562891,-0.012203013524413109,0.005274275783449411,0.0014246311038732529,0.006247602868825197
0.011250690557062626,0.00502364756539464,-0.011178533546626568,0.0056442636996507645,0.001264982158318162,0.006289687938988209
0.011388751678168774,0.005231587681919336,-0.012124278582632542,0.005797055549919605,0.0011706504737958312,0.006261325906962156
0.011016885749995708,0.005079110153019428,-0.01198774017393589,0.006101272068917751,0.0012317089131101966,0.006171449087560177
0.01149870827794075,0.005420695524662733,-0.012410156428813934,0.005429375451058149,0.0012929427903145552,0.00683333957567811
0.011636629700660706,0.005670518148690462,-0.012166057713329792,0.005391328129917383,0.00141397793777287,0.006090229842811823
0.012116099707782269,0.0055359844118356705,-0.012351845391094685,0.005374820902943611,0.0015990735264495015,0.006371975410729647
0.011445495299994946,0.005367957055568695,-0.012420494109392166,0.006195873487740755,0.00196489947848022,0.0067723533138632774
0.011004946194589138,0.004956391640007496,-0.011391130276024342,0.006072925869375467,0.002090230816975236,0.006587021518498659
0.011336891911923885,0.005397351458668709,-0.012353283353149891,0.005739339627325535,0.0020634590182453394,0.007085199002176523
0.01123315840959549,0.005468002520501614,-0.012427452951669693,0.004816963337361813,0.001793112838640809,0.0066688209772109985
0.011159047484397888,0.005645983386784792,-0.012371963821351528,0.004559644963592291,0.0016949042910709977,0.006434766575694084
0.01148168183863163,0.006415892858058214,-0.011857887730002403,0.005052955821156502,0.0015745037235319614,0.006310885306447744
0.011056309565901756,0.005848451051861048,-0.011344419792294502,0.005038770847022533,0.0013453910360112786,0.006240753922611475
0.011229929514229298,0.004564068745821714,-0.012591172941029072,0.005188997834920883,0.001342234667390585,0.006617729086428881
0.011836634948849678,0.004967504646629095,-0.011848162859678268,0.005439157597720623,0.0013074983144178987,0.006600659806281328
0.011208024807274342,0.005636919289827347,-0.01224538404494524,0.00517566641792655,0.0013551638694480062,0.0064256698824465275
0.011247025802731514,0.005859001539647579,-0.012292014434933662,0.005167211405932903,0.0013430502731353045,0.006198396906256676
0.010956142097711563,0.006186056882143021,-0.011658793315291405,0.005052129738032818,0.0015079937875270844,0.006227510515600443
0.011248628608882427,0.006261404138058424,-0.011853090487420559,0.004966784734278917,0.0016424646601080894,0.00669187493622303
0.01163376122713089,0.005555965006351471,-0.011241516098380089,0.005112481769174337,0.001589966588653624,0.0062603759579360485
0.011441593989729881,0.005986135918647051,-0.012479141354560852,0.004964753519743681,0.0016748750349506736,0.006134059280157089
0.01129390299320221,0.006072172429412603,-0.012011279352009296,0.004395026247948408,0.0017072951886802912,0.0063988217152655125
0.011794328689575195,0.006397220306098461,-0.011726778000593185,0.004445263184607029,0.0018174946308135986,0.006635356694459915
0.01154601201415062,0.005865635350346565,-0.011253932490944862,0.004968758672475815,0.001883471617475152,0.006533528678119183
0.01136696245521307,0.006205887068063021,-0.012202396988868713,0.004672638606280088,0.0018788801971822977,0.006426122039556503
0.01136696245521307,0.006205887068063021,-0.012202396988868713,0.004672638606280088,0.0018788801971822977,0.006426122039556503
0.011548731476068497,0.00679488992318511,-0.011988064274191856,0.004821433685719967,0.002105341525748372,0.0063576409593224525
0.01126481406390667,0.006228763144463301,-0.011765840463340282,0.004408319015055895,0.0018580618780106306,0.006659776903688908
0.011748701333999634,0.005986283533275127,-0.011274948716163635,0.004569357261061668,0.0017898817313835025,0.006697681732475758
0.01113306637853384,0.005943888332694769,-0.012165207415819168,0.00522576505318284,0.0015841141575947404,0.0061407252214848995
0.01113306637853384,0.005943888332694769,-0.012165207415819168,0.00522576505318284,0.0015841141575947404,0.0061407252214848995
0.011149379424750805,0.006764011923223734,-0.012023628689348698,0.0051309214904904366,0.0015677859773859382,0.00609555235132575
0.011189633049070835,0.006692091468721628,-0.011930914595723152,0.004837460815906525,0.0015088622458279133,0.0067853559739887714
0.011457135900855064,0.006225578486919403,-0.01178691629320383,0.004312803037464619,0.0015028935158625245,0.006923050154000521
0.011415425688028336,0.006103863939642906,-0.011880549602210522,0.004165633115917444,0.001564900972880423,0.006867109332233667
0.011438951827585697,0.00622656662017107,-0.011942598037421703,0.004765423946082592,0.0017803898081183434,0.007193293888121843
0.011773485690355301,0.004822512622922659,-0.011267146095633507,0.00482791056856513,0.00184952886775136,0.006786498706787825
0.011494162492454052,0.003138324012979865,-0.011477023363113403,0.0044107637368142605,0.0017141030402854085,0.006670300383120775
0.011241542175412178,0.0027837331872433424,-0.011616197414696217,0.004406721331179142,0.0017851879820227623,0.006914024241268635
0.011653905734419823,0.0030551236122846603,-0.01148321945220232,0.004183289594948292,0.0016398623120039701,0.006861705798655748
0.011257517151534557,0.004882379900664091,-0.01178249716758728,0.003985549323260784,0.0015962726902216673,0.007082310039550066
0.011253422126173973,0.0045328643172979355,-0.011332984082400799,0.003797337645664811,0.0015851263888180256,0.006907015573233366
0.012173331342637539,0.0044255489483475685,-0.011536793783307076,0.003949770703911781,0.001661019865423441,0.006645531859248877
0.011620032601058483,0.004165548365563154,-0.011620464734733105,0.003980203066021204,0.0017234369879588485,0.007028206717222929
0.011409766972064972,0.004022668581455946,-0.011310108006000519,0.0038162877317517996,0.0018868756014853716,0.007318375166505575
0.011262617073953152,0.004181192722171545,-0.012029558420181274,0.0034796649124473333,0.001983991591259837,0.006975961849093437
0.011662046425044537,0.0041468460112810135,-0.01123949233442545,0.00321489037014544,0.0020506535656750202,0.006817590910941362
0.01216167863458395,0.004456216935068369,-0.011505011469125748,0.003352551721036434,0.0020055314525961876,0.0069731236435472965
0.011810104362666607,0.00418414082378149,-0.011346964165568352,0.003725850721821189,0.0016968767158687115,0.007225695066154003
0.0119983134791255,0.004417933523654938,-0.010919611901044846,0.0038298917934298515,0.0016832888359203935,0.007417100016027689
0.01167859137058258,0.004695584997534752,-0.0116573516279459,0.0037863014731556177,0.0015504034236073494,0.006959102116525173
0.012407442554831505,0.004331233445554972,-0.012161594815552235,0.003367051715031266,0.0015068224165588617,0.0065710945054888725
0.012546539306640625,0.003966163378208876,-0.011502235196530819,0.0034956857562065125,0.0015180043410509825,0.0067165265791118145
0.013046405278146267,0.004139171913266182,-0.011072131805121899,0.0032071105670183897,0.0017607868649065495,0.007000180892646313
0.012041587382555008,0.004678032360970974,-0.011403471231460571,0.003323534969240427,0.002258021617308259,0.007010602857917547
0.012041587382555008,0.004678032360970974,-0.011403471231460571,0.003323534969240427,0.002258021617308259,0.007010602857917547
0.0126925278455019,0.004523923620581627,-0.011263691820204258,0.003466447349637747,0.002174710389226675,0.00763323437422514
0.0126925278455019,0.004523923620581627,-0.011263691820204258,0.003466447349637747,0.002174710389226675,0.00763323437422514
0.012628158554434776,0.004691902082413435,-0.011742003262043,0.0035032506566494703,0.0020139419939368963,0.007386037614196539
0.01261737197637558,0.004673767369240522,-0.011046559549868107,0.003597073256969452,0.002063211752101779,0.007321980781853199
0.012535873800516129,0.004600160289555788,-0.011976399458944798,0.003718058578670025,0.0020623519085347652,0.007395075634121895
0.012680891901254654,0.004602184984833002,-0.011296076700091362,0.003429032163694501,0.0021109043154865503,0.00786867830902338
0.012360997498035431,0.00468822568655014,-0.011209893971681595,0.003423910355195403,0.002379395067691803,0.007426044903695583
0.012717237696051598,0.005093346815556288,-0.011525588110089302,0.0031396064441651106,0.0022355406545102596,0.0070529235526919365
0.012775215320289135,0.0051252394914627075,-0.011140740476548672,0.003205545712262392,0.0021766014397144318,0.007222245447337627
0.013264409266412258,0.00472669955343008,-0.011502562090754509,0.0032588893081992865,0.0018917531706392765,0.007658717688173056
0.01247918326407671,0.004893684294074774,-0.01146785356104374,0.0031634820625185966,0.001625918666832149,0.007561555132269859
0.012936738319694996,0.005471908953040838,-0.011041361838579178,0.003080094698816538,0.0015048154164105654,0.00699826143682003
0.012683024629950523,0.005068637430667877,-0.011533930897712708,0.0030229766853153706,0.0014113235520198941,0.00649444293230772
0.013328298926353455,0.005260319449007511,-0.010928817093372345,0.0030425721779465675,0.0014192077796906233,0.007066363003104925
0.013261599466204643,0.005195926874876022,-0.011161128990352154,0.003146591130644083,0.0015489968936890364,0.007063912693411112
0.012660786509513855,0.006026651710271835,-0.011291089467704296,0.003108413191512227,0.0023136406671255827,0.006957736797630787
0.01308585423976183,0.005459937267005444,-0.011497410014271736,0.0029143616557121277,0.0025405357591807842,0.007012085523456335
0.012826651334762573,0.005396411754190922,-0.01215058472007513,0.002662110375240445,0.0024584054481238127,0.0071763996966183186
0.01343309786170721,0.00553035456687212,-0.011669217608869076,0.0026676750276237726,0.0020879365038126707,0.0077644954435527325
0.013105174526572227,0.00584750110283494,-0.011428780853748322,0.0027491115033626556,0.0019926035311073065,0.007554840296506882
0.013328292407095432,0.0055993907153606415,-0.011541256681084633,0.0030469736084342003,0.0018321647075936198,0.006979326717555523
0.013393064960837364,0.005172953009605408,-0.011216981336474419,0.002924334956333041,0.001818076241761446,0.00711508234962821
0.013753190636634827,0.005792302545160055,-0.012319850735366344,0.0028367594350129366,0.0020151345524936914,0.007837658748030663
0.013493691571056843,0.005640106741338968,-0.011796084232628345,0.0026084352284669876,0.0019608414731919765,0.007756195496767759
0.013675843365490437,0.0059416648000478745,-0.011898251250386238,0.0024341160897165537,0.0021997326985001564,0.007334443740546703
0.013731053099036217,0.005664287135004997,-0.01164182461798191,0.002379961544647813,0.0019558174535632133,0.007305225357413292
0.01389293372631073,0.00560401938855648,-0.012445168569684029,0.002310828771442175,0.0017415379406884313,0.007294787093997002
0.01389293372631073,0.00560401938855648,-0.012445168569684029,0.002310828771442175,0.0017415379406884313,0.007294787093997002
0.013342807069420815,0.005633866880089045,-0.011236587539315224,0.002318017417564988,0.0017450638115406036,0.007027667481452227
0.013709376566112041,0.006137022748589516,-0.011618238873779774,0.002305372850969434,0.0017688513034954667,0.007166594732552767
0.01364664826542139,0.006131575908511877,-0.011594746261835098,0.0026085353456437588,0.0022274137008935213,0.0075150844641029835
0.01375638134777546,0.0062257954850792885,-0.011289172805845737,0.00274814129807055,0.002725133905187249,0.0070876628160476685
0.013254440389573574,0.005712147802114487,-0.012276473455131054,0.0026345564983785152,0.002724629594013095,0.007136039435863495
0.013783487491309643,0.005983154289424419,-0.011759280227124691,0.002542783971875906,0.002654499374330044,0.007600346580147743
0.014508102089166641,0.006161881610751152,-0.012159276753664017,0.002323911525309086,0.0021909570787101984,0.006932780146598816
0.014508102089166641,0.006161881610751152,-0.012159276753664017,0.002323911525309086,0.0021909570787101984,0.006932780146598816
0.014040683396160603,0.006147161591798067,-0.011855465359985828,0.0024396581575274467,0.0020096921361982822,0.007213711738586426
0.014210835099220276,0.005909833125770092,-0.01209645252674818,0.0022879529278725386,0.0019519479246810079,0.007543778512626886
0.013828635215759277,0.005941844079643488,-0.011474083177745342,0.0022168231662362814,0.0019794083200395107,0.007695664651691914
0.014460458420217037,0.006599123124033213,-0.012501969002187252,0.0020151869393885136,0.001967380754649639,0.008287734352052212
0.014074670150876045,0.006846266333013773,-0.012210077606141567,0.0018857871182262897,0.001761184772476554,0.008059058338403702
0.014496415853500366,0.006214877590537071,-0.012675110250711441,0.0017261758912354708,0.0017871458549052477,0.007693758234381676
0.014222254976630211,0.006219919770956039,-0.012893900275230408,0.001605186378583312,0.0020312329288572073,0.007280170451849699
0.014577076770365238,0.006310313008725643,-0.012564411386847496,0.0015022256411612034,0.002027729991823435,0.007119514048099518
0.014309529215097427,0.007231952156871557,-0.012682643719017506,0.001409790595062077,0.0021292343735694885,0.007344081066548824
0.01456328947097063,0.006429917644709349,-0.012044493108987808,0.0014411049196496606,0.002111224690452218,0.007533117663115263
0.01421356201171875,0.006338391453027725,-0.013306815177202225,0.0014593760715797544,0.0023472087923437357,0.007193160708993673
0.014816059730947018,0.006037169601768255,-0.013007511384785175,0.0017079784302040935,0.002490484155714512,0.007137305568903685
0.014408862218260765,0.006421078462153673,-0.011920209042727947,0.0016531782457605004,0.002335886936634779,0.0074729882180690765
0.014745861291885376,0.006818814668804407,-0.011800863780081272,0.0016987491399049759,0.0021278453059494495,0.0077149756252765656
0.014181581325829029,0.0067200795747339725,-0.012259796261787415,0.001805099076591432,0.002120157703757286,0.008261621929705143
0.014701968058943748,0.006540603470057249,-0.012488004751503468,0.0015169549733400345,0.0020871050655841827,0.007306279614567757
0.015150543302297592,0.0069800615310668945,-0.012562591582536697,0.0013823161134496331,0.002397214062511921,0.007423244882375002
0.015187743119895458,0.007190381176769733,-0.012283715419471264,0.0012897041160613298,0.002406025305390358,0.007467951625585556
0.015187743119895458,0.007190381176769733,-0.012283715419471264,0.0012897041160613298,0.002406025305390358,0.007467951625585556
0.01568405143916607,0.006737532094120979,-0.01250307634472847,0.001177862985059619,0.002367944922298193,0.007303925231099129
0.01513991504907608,0.007060496136546135,-0.012703148648142815,0.001079095178283751,0.002353650750592351,0.007017516065388918
0.01556459255516529,0.007167849224060774,-0.012063133530318737,0.001044215401634574,0.002122270641848445,0.007671453058719635
0.01521404180675745,0.00737979868426919,-0.01202198676764965,0.001022067735902965,0.0020861695520579815,0.007883410900831223
0.014953884296119213,0.0068254838697612286,-0.012052924372255802,0.000949052453506738,0.0023104383144527674,0.00799570232629776
0.015016171149909496,0.006613737437874079,-0.012287519872188568,0.0008912055636756122,0.0023610927164554596,0.008254180662333965
0.01602599024772644,0.006685217842459679,-0.012026101350784302,0.0008271150873042643,0.0024930164217948914,0.008034837432205677
0.015398139134049416,0.007180249784141779,-0.012060340493917465,0.000771791790612042,0.0023441333323717117,0.00804463867098093
0.015207387506961823,0.006707608699798584,-0.012360348366200924,0.0006787299062125385,0.0024853269569575787,0.008064803667366505
0.015534273348748684,0.006860062014311552,-0.01181779894977808,0.0006893867393955588,0.002517800545319915,0.008184975944459438
0.015090077184140682,0.006774888373911381,-0.012203963473439217,0.0006318616215139627,0.002305549569427967,0.008365188725292683
0.016078507527709007,0.007412000559270382,-0.01162019930779934,0.0006350411567837,0.002455661538988352,0.007826117798686028
0.015559554100036621,0.007489901967346668,-0.012020939961075783,0.0006006499752402306,0.0026990636251866817,0.007962909527122974
0.015824249014258385,0.006878313608467579,-0.012188871391117573,0.0005554920062422752,0.002586879301816225,0.008025757037103176
0.01564759574830532,0.006843483075499535,-0.012136838398873806,0.0005157524719834328,0.002650949638336897,0.008288654498755932
0.01592814363539219,0.007282625418156385,-0.01176416501402855,0.0004812618426512927,0.002453833119943738,0.007975231856107712
0.015933845192193985,0.007318179123103619,-0.011507837101817131,0.000451092142611742,0.0023804304655641317,0.007551300805062056
0.015567588619887829,0.007049036677926779,-0.012445349246263504,0.00042448510066606104,0.0026963825803250074,0.008043192327022552
0.01549775991588831,0.006930616218596697,-0.01183526124805212,0.00040084286592900753,0.0028810719959437847,0.008211160078644753
0.01537577249109745,0.0072835576720535755,-0.011602486483752728,0.00037969640106894076,0.002806012984365225,0.008208641782402992
0.015779301524162292,0.007375869434326887,-0.012020870111882687,0.0003606702957767993,0.0025319072883576155,0.007433608174324036
0.015540196560323238,0.007474649231880903,-0.01160934753715992,0.00034345980384387076,0.002329376060515642,0.0077091408893466
0.016216516494750977,0.007475233171135187,-0.012159380130469799,0.00032781832851469517,0.002111385576426983,0.008106433786451817
0.01619574800133705,0.007646940648555756,-0.01162271574139595,0.0003004531317856163,0.002039564773440361,0.00787802878767252
0.015897070989012718,0.008150567300617695,-0.012418344616889954,0.0002884157875087112,0.0023393488954752684,0.008174036629498005
0.016180286183953285,0.00789226870983839,-0.01152441743761301,0.00027730505098588765,0.0024544361513108015,0.008897553198039532
0.016180286183953285,0.00789226870983839,-0.01152441743761301,0.00027730505098588765,0.0024544361513108015,0.008897553198039532
0.016094937920570374,0.007870987989008427,-0.011729933321475983,0.00025747009203769267,0.002726922510191798,0.008036790415644646
0.016094937920570374,0.007870987989008427,-0.011729933321475983,0.00025747009203769267,0.002726922510191798,0.008036790415644646
0.01658099889755249,0.007581743877381086,-0.01244563888758421,0.0002485793665982783,0.0026841608341783285,0.008109146729111671
0.01659218780696392,0.00781176658347249,-0.011841186322271824,0.00024028266489040107,0.002555757062509656,0.00835276860743761
0.017034973949193954,0.008265434764325619,-0.011161455884575844,0.000232522317674011,0.002454908099025488,0.008939136750996113
0.016525903716683388,0.008282136172056198,-0.011735482141375542,0.0002252472477266565,0.002560193184763193,0.008833605796098709
0.01665695384144783,0.007732175290584564,-0.011504560708999634,0.00021841388661414385,0.002505314303562045,0.008978714235126972
0.017045816406607628,0.008195871487259865,-0.012232193723320961,0.00021198303147684783,0.0027079363353550434,0.008831851184368134
0.0169419813901186,0.00827022921293974,-0.011589848436415195,0.00020591969951055944,0.002431729109957814,0.009078157134354115
0.017238639295101166,0.007954551838338375,-0.011110722087323666,0.00020019352086819708,0.0023371893912553787,0.008893363177776337
0.017012471333146095,0.007621429860591888,-0.012047079391777515,0.0001947778946487233,0.0021327140275388956,0.008360452950000763
0.017302388325333595,0.009056459181010723,-0.011632701382040977,0.0001896470203064382,0.0020390592981129885,0.008784475736320019
0.017519446089863777,0.008118560537695885,-0.011994531378149986,0.000184779564733617,0.002097034128382802,0.008480534888803959
0.0169086791574955,0.007854504510760307,-0.01159791462123394,0.0001801563339540735,0.0019686126615852118,0.008511295542120934
0.01739787496626377,0.007894326001405716,-0.011061455123126507,0.00015525863273069263,0.0021858355030417442,0.008474307134747505
0.016821755096316338,0.0085254842415452,-0.0121495695784688,0.00015021937724668533,0.0023334594443440437,0.00892014242708683
0.017409445717930794,0.008639272302389145,-0.011582856066524982,0.00014663570618722588,0.002303302986547351,0.00866254884749651
0.017442958429455757,0.008016225881874561,-0.01180088147521019,0.0001432945573469624,0.0024268196430057287,0.008722896687686443
0.017062179744243622,0.008267810568213463,-0.011740127578377724,0.00014010739687364548,0.0028445255011320114,0.008639365434646606
0.017618998885154724,0.008807075209915638,-0.011360720731317997,6.76524723530747e-05,0.0031588098499923944,0.008445577695965767
0.01735493168234825,0.008496302179992199,-0.012092205695807934,4.393661947688088e-05,0.0029819465707987547,0.008661155588924885
0.017521653324365616,0.00811036117374897,-0.011721756309270859,4.148116204305552e-05,0.002776393434032798,0.00890987180173397
0.017521653324365616,0.00811036117374897,-0.011721756309270859,4.148116204305552e-05,0.002776393434032798,0.00890987180173397
0.017664168030023575,0.00877436064183712,-0.011741884984076023,2.2887779778102413e-05,0.002582336775958538,0.009166115894913673
0.017585698515176773,0.008363966830074787,-0.011003335937857628,1.3028123930780566e-06,0.0024029018823057413,0.008756876923143864
0.01772606186568737,0.008582181297242641,-0.011883546598255634,8.506432891408622e-08,0.002495455788448453,0.008595631457865238
0.017831169068813324,0.008817264810204506,-0.011915802024304867,5.554093185367037e-09,0.0024682378862053156,0.008884620852768421
0.01804819516837597,0.008401650004088879,-0.011765250004827976,3.6264261038532197e-10,0.002503047464415431,0.009259756654500961
0.017595892772078514,0.008230919949710369,-0.011497058905661106,-0.0003751175245270133,0.0023250109516084194,0.00914420373737812
0.017929289489984512,0.009201088920235634,-0.010918564163148403,-0.0015923513565212488,0.002390730893239379,0.008803848177194595
0.01761649362742901,0.008705723099410534,-0.011654221452772617,-0.001585841760970652,0.002635990036651492,0.008427987806499004
0.017858022823929787,0.008881917223334312,-0.011470058001577854,-0.0017409315332770348,0.002773362910374999,0.009358818642795086
0.018321944400668144,0.008968200534582138,-0.011203178204596043,-0.0016742503503337502,0.002758729038760066,0.009036241099238396
0.017980491742491722,0.008841210976243019,-0.010972795076668262,-0.0016271431231871247,0.0028049114625900984,0.008674380369484425
0.017939824610948563,0.00888566393405199,-0.010607772506773472,-0.0016710929339751601,0.002778935944661498,0.008701428771018982
0.018477389588952065,0.008898342959582806,-0.012174046598374844,-0.002010011114180088,0.002798795932903886,0.009210463613271713
0.017839565873146057,0.009587427601218224,-0.011373783461749554,-0.0024029016494750977,0.0026801759377121925,0.009300583973526955
0.01867133192718029,0.008708967827260494,-0.011185446754097939,-0.0027352336328476667,0.002772495849058032,0.008976160548627377
0.018357057124376297,0.008326676674187183,-0.011438250541687012,-0.002751589985564351,0.0028414695989340544,0.008944635279476643
0.018210042268037796,0.0091350506991148,-0.01127275824546814,-0.0027147450018674135,0.0027990967500954866,0.009149990975856781
0.018740948289632797,0.009146644733846188,-0.012158986181020737,-0.002632650313898921,0.0028894892893731594,0.009196515195071697
0.018687613308429718,0.009259730577468872,-0.011591484770178795,-0.0028984660748392344,0.0030605546198785305,0.00849134661257267
0.018776200711727142,0.009089598432183266,-0.011268663220107555,-0.003343431279063225,0.003032342530786991,0.008644581772387028
0.018350377678871155,0.008945179171860218,-0.011658422648906708,-0.0032910050358623266,0.0034688215237110853,0.008988781832158566
0.01789829693734646,0.008490164764225483,-0.01179482787847519,-0.0035404504742473364,0.0033031536731868982,0.009272384457290173
0.018977347761392593,0.008948498405516148,-0.01225696224719286,-0.004119638819247484,0.0030314484611153603,0.009184214286506176
0.019204920157790184,0.009160559624433517,-0.011471948586404324,-0.004163242410868406,0.0029576916713267565,0.009244052693247795
0.018831323832273483,0.008777775801718235,-0.011811168864369392,-0.003964260686188936,0.0029197372496128082,0.00919961929321289
0.018486784771084785,0.009568341076374054,-0.012364808470010757,-0.004048002418130636,0.003185414941981435,0.009262271225452423
0.01914222352206707,0.009475966915488243,-0.012631169520318508,-0.004442237317562103,0.0030506919138133526,0.009339514188468456
0.019867051392793655,0.008848844096064568,-0.012169452384114265,-0.004699495621025562,0.0030320030637085438,0.009349754080176353
0.01906828209757805,0.009794989600777626,-0.012260404415428638,-0.004755072295665741,0.0029357364401221275,0.009381379000842571
0.01906828209757805,0.009794989600777626,-0.012260404415428638,-0.004755072295665741,0.0029357364401221275,0.009381379000842571
0.019060036167502403,0.009510787203907967,-0.012373393401503563,-0.004678256344050169,0.0034273986238986254,0.00933336466550827
0.019603421911597252,0.009197352454066277,-0.011965302750468254,-0.0047471108846366405,0.0033010428305715322,0.010034535080194473
0.018997719511389732,0.009731808677315712,-0.011884481646120548,-0.004571534693241119,0.00314410706050694,0.009254543110728264
0.018906552344560623,0.009189843200147152,-0.011835416778922081,-0.004280880093574524,0.0029783579520881176,0.008998420089483261
0.018933754414319992,0.00919282715767622,-0.012403192929923534,-0.004018586594611406,0.003198270220309496,0.00939885899424553
0.019375324249267578,0.009602547623217106,-0.01148638129234314,-0.004424112383276224,0.00366565166041255,0.009588704444468021
0.019533710554242134,0.009447681717574596,-0.011626102961599827,-0.004694373346865177,0.0037848360370844603,0.009656745009124279
0.019502080976963043,0.009323323145508766,-0.01199999637901783,-0.004965218715369701,0.0035279658623039722,0.009962400421500206
0.01947997324168682,0.0094779497012496,-0.011566567234694958,-0.00492125703021884,0.003310746978968382,0.009881881065666676
0.019162818789482117,0.009046745486557484,-0.012246600352227688,-0.004746626131236553,0.0031108178663998842,0.009173176251351833
0.0196134801954031,0.00916761439293623,-0.012011811137199402,-0.004562293644994497,0.002888801973313093,0.009267465211451054
0.019792674109339714,0.010196768678724766,-0.011894588358700275,-0.004643200431019068,0.0029783882200717926,0.009957639500498772
0.019477682188153267,0.009585891850292683,-0.012117787264287472,-0.004856619983911514,0.003016640432178974,0.009782706387341022
0.019699469208717346,0.009299451485276222,-0.011702110059559345,-0.004910710267722607,0.003349327715113759,0.009766542352735996
0.01950772851705551,0.010993489064276218,-0.011894778348505497,-0.005551530979573727,0.00348009099252522,0.009538092650473118
0.019503938034176826,0.010099701583385468,-0.011520284228026867,-0.005454421509057283,0.003429398639127612,0.009414364583790302
0.01919281855225563,0.009640997275710106,-0.011900552548468113,-0.005348552484065294,0.0031255956273525953,0.009611045941710472
0.019541669636964798,0.010319547727704048,-0.01197816338390112,-0.005110529251396656,0.0031705722212791443,0.009585196152329445
0.01943439431488514,0.010844896547496319,-0.011308280751109123,-0.005260034464299679,0.0033195954747498035,0.009444310329854488
0.01947459951043129,0.00945068895816803,-0.011739489622414112,-0.005648796912282705,0.0035889255814254284,0.00977747980505228
0.019764088094234467,0.009689714759588242,-0.011876300908625126,-0.005510683171451092,0.0033401120454072952,0.009663160890340805
0.019808856770396233,0.009693383239209652,-0.011667468585073948,-0.005127019714564085,0.0027863401919603348,0.00959036871790886
0.019818617030978203,0.009275401011109352,-0.011302179656922817,-0.00522455433383584,0.0027521078009158373,0.009915542788803577
0.019945213571190834,0.010056937113404274,-0.011255339719355106,-0.006159553304314613,0.0030250949785113335,0.009940378367900848
0.018775425851345062,0.010601900517940521,-0.012208931148052216,-0.00579816335812211,0.003592102788388729,0.009855692274868488
0.021017586812376976,0.010099098086357117,-0.01165733952075243,-0.005467407871037722,0.0030889424961060286,0.009950431995093822
0.021017586812376976,0.010099098086357117,-0.01165733952075243,-0.005467407871037722,0.0030889424961060286,0.009950431995093822
0.020576344802975655,0.010257982648909092,-0.011550257913768291,-0.005678664427250624,0.003268243046477437,0.010366036556661129
0.02037864550948143,0.010209154337644577,-0.01106470637023449,-0.0056206719018518925,0.0031969109550118446,0.010283032432198524
0.020194226875901222,0.010129167698323727,-0.011940925382077694,-0.005982913076877594,0.003250818932428956,0.00882004015147686
0.02088816836476326,0.0098591772839427,-0.011524583213031292,-0.006648052949458361,0.0028927521780133247,0.010044182650744915
0.020619550719857216,0.010152551345527172,-0.01176509726792574,-0.006138795521110296,0.002867897041141987,0.010535214096307755
0.02040344849228859,0.010378909297287464,-0.011763468384742737,-0.00600636750459671,0.003135295817628503,0.0100011071190238
0.021478457376360893,0.010601242072880268,-0.011250695213675499,-0.006215778179466724,0.0038924517575651407,0.009782467968761921
0.021588943898677826,0.010033473372459412,-0.012006737291812897,-0.00599049124866724,0.004174710717052221,0.01014742162078619
0.02106533572077751,0.01088849175721407,-0.01118298526853323,-0.006254831328988075,0.00408818107098341,0.01015132013708353
0.021357113495469093,0.010719113051891327,-0.011034134775400162,-0.006252372171729803,0.0036475551314651966,0.009755143895745277
0.020634358748793602,0.01083823200315237,-0.011553570628166199,-0.006202973425388336,0.003413033438846469,0.010055560618638992
0.020840061828494072,0.010170288383960724,-0.011209244839847088,-0.006623599678277969,0.0035839269403368235,0.010139437392354012
0.021261470392346382,0.010328417643904686,-0.011589756235480309,-0.006830723024904728,0.0038765568751841784,0.010423528961837292
0.021777667105197906,0.010887215845286846,-0.011191867291927338,-0.0060095167718827724,0.003962152171880007,0.010630673728883266
0.021445807069540024,0.010664441622793674,-0.011188141070306301,-0.005838592071086168,0.003864942118525505,0.009922589175403118
0.021566176787018776,0.010181732475757599,-0.011626995168626308,-0.006146537140011787,0.0033821463584899902,0.009957721456885338
0.021700505167245865,0.010785355232656002,-0.011090951040387154,-0.006347048562020063,0.003438245039433241,0.010366324335336685
0.021981559693813324,0.010758666321635246,-0.011652794666588306,-0.0066746072843670845,0.003654276952147484,0.010399294085800648
0.022185897454619408,0.011230966076254845,-0.011147389188408852,-0.006443775724619627,0.0036767697893083096,0.010553129017353058
0.022838259115815163,0.011241228319704533,-0.011151707731187344,-0.00649477681145072,0.0035941225942224264,0.010210846550762653
0.0221263375133276,0.010193620808422565,-0.01143184769898653,-0.007088467478752136,0.0033486909233033657,0.010264280252158642
0.022344088181853294,0.010682795196771622,-0.010825405828654766,-0.00734508503228426,0.003076238092035055,0.010154381394386292
0.022383591160178185,0.010287846438586712,-0.01118855457752943,-0.007472267374396324,0.003339586779475212,0.009958145208656788
0.022808576002717018,0.009891455061733723,-0.011218855157494545,-0.006849820259958506,0.004175050184130669,0.010462761856615543
0.022792214527726173,0.010657910257577896,-0.010949929244816303,-0.007098610978573561,0.004304203204810619,0.009983999654650688
0.022838391363620758,0.009738634340465069,-0.010683974251151085,-0.007259742822498083,0.003785331966355443,0.00989523809403181
0.022838391363620758,0.009738634340465069,-0.010683974251151085,-0.007259742822498083,0.003785331966355443,0.00989523809403181
0.022886818274855614,0.010222261771559715,-0.010924574919044971,-0.006904118228703737,0.0039101107977330685,0.010559863410890102
0.022931313142180443,0.010186927393078804,-0.01110779494047165,-0.007356733549386263,0.004180720075964928,0.010863179340958595
0.02308446727693081,0.010183333419263363,-0.010675336234271526,-0.007817663252353668,0.003994337748736143,0.010218488052487373
0.023277245461940765,0.011200745590031147,-0.011154139414429665,-0.007585243321955204,0.004214179702103138,0.01007126085460186
0.021618328988552094,0.010160540230572224,-0.011260434053838253,-0.007357835303992033,0.0037812814116477966,0.010090241208672523
0.024007823318243027,0.009565284475684166,-0.010798422619700432,-0.008033041842281818,0.003550268243998289,0.010842004790902138
0.02401776611804962,0.010098721832036972,-0.011259308084845543,-0.008249305188655853,0.004126592539250851,0.010695240460336208
0.02366047166287899,0.009775037877261639,-0.011097761802375317,-0.007908952422440052,0.004158437717705965,0.010622833855450153
0.02392422780394554,0.009841452352702618,-0.011994203552603722,-0.007766440510749817,0.003930678591132164,0.011302621103823185
0.023828595876693726,0.010111704468727112,-0.011234238743782043,-0.008275019004940987,0.003747807815670967,0.010602804832160473
0.023787444457411766,0.010073340497910976,-0.011072628200054169,-0.009007716551423073,0.003304421901702881,0.010378535836935043
0.024290086701512337,0.009338322095572948,-0.01147534605115652,-0.008307055570185184,0.0034279811661690474,0.010631163604557514
0.024274783208966255,0.0097421295940876,-0.011197718791663647,-0.008276354521512985,0.0036343003157526255,0.010505602695047855
0.02486387826502323,0.009590894915163517,-0.011448850855231285,-0.008743518963456154,0.0037468448281288147,0.010305109433829784
0.024859726428985596,0.009477199986577034,-0.01208954956382513,-0.008841261267662048,0.004232761450111866,0.010716726072132587
0.024118632078170776,0.01008878368884325,-0.010872777551412582,-0.008661956526339054,0.004601957742124796,0.010689676739275455
0.024681445211172104,0.010312403552234173,-0.01106119155883789,-0.009169347584247589,0.004547773394733667,0.010726593434810638
0.024540267884731293,0.009279987774789333,-0.011693751439452171,-0.008981054648756981,0.004064925014972687,0.0108769740909338
0.0244380384683609,0.009819434955716133,-0.011372270993888378,-0.008216682821512222,0.003742136526852846,0.010774984955787659
0.025112619623541832,0.009600267745554447,-0.011484655551612377,-0.008515028282999992,0.0033963611349463463,0.010961228050291538
0.02515990473330021,0.009151826612651348,-0.011064074002206326,-0.008566784672439098,0.003479546867311001,0.01096403319388628
0.025179259479045868,0.009848042391240597,-0.011654755100607872,-0.00853120069950819,0.004204060882329941,0.010952035896480083
0.025078749284148216,0.00987543910741806,-0.012036377564072609,-0.00860140472650528,0.00408420292660594,0.011153502389788628
0.02501821517944336,0.009430686943233013,-0.01172685157507658,-0.009175963699817657,0.004269805271178484,0.011160575784742832
0.025180436670780182,0.010074898600578308,-0.01180770993232727,-0.009414457716047764,0.004210354294627905,0.0103713758289814
0.02560095116496086,0.010405631735920906,-0.011410767212510109,-0.009160376153886318,0.0040100738406181335,0.010868676006793976
0.025489559397101402,0.010088135488331318,-0.011686214245855808,-0.009458987973630428,0.0034031635150313377,0.011554175056517124
0.025724977254867554,0.010245942510664463,-0.01137126050889492,-0.009120019152760506,0.003559497417882085,0.010887610726058483
0.026204990223050117,0.009420325048267841,-0.011949975974857807,-0.008809768594801426,0.004065012093633413,0.010695858858525753
0.026858827099204063,0.010218318551778793,-0.01175571046769619,-0.010482719168066978,0.004351643845438957,0.011056369170546532
0.026858827099204063,0.010218318551778793,-0.01175571046769619,-0.010482719168066978,0.004351643845438957,0.011056369170546532
0.02667509950697422,0.009863028302788734,-0.012539347633719444,-0.010283727198839188,0.004308193922042847,0.011058581061661243
0.026011811569333076,0.009815340861678123,-0.012153178453445435,-0.010522340424358845,0.004044009372591972,0.011401630938053131
0.024547575041651726,0.01059410348534584,-0.011713982559740543,-0.009721070528030396,0.0038788672536611557,0.01123376376926899
0.026240818202495575,0.00992872379720211,-0.012038773857057095,-0.00904444046318531,0.004061977844685316,0.01098567619919777
0.026762787252664566,0.010096576064825058,-0.011413803324103355,-0.009609987959265709,0.004018016159534454,0.011793391779065132
0.026025816798210144,0.010283864103257656,-0.012457878328859806,-0.009701644070446491,0.003949341364204884,0.011441132053732872
0.02624502032995224,0.010017427615821362,-0.011717765592038631,-0.009345289319753647,0.004431589972227812,0.011140990070998669
0.02717188559472561,0.01054374873638153,-0.012171966955065727,-0.009645149111747742,0.004584438633173704,0.011199412867426872
0.027517681941390038,0.010023015551269054,-0.012345245108008385,-0.009921361692249775,0.004419370088726282,0.011423656716942787
0.02694673277437687,0.009822391904890537,-0.012083059176802635,-0.008689528331160545,0.004077579826116562,0.011701715178787708
0.02609819732606411,0.011533322744071484,-0.011484868824481964,-0.009294631890952587,0.0038645786698907614,0.011445293202996254
0.026271376758813858,0.009712561964988708,-0.01142584253102541,-0.009470018558204174,0.0037856833077967167,0.011151653714478016
0.02717239037156105,0.00985098909586668,-0.012325471267104149,-0.009594696573913097,0.0037302609998732805,0.011243629269301891
0.026616739109158516,0.012220172211527824,-0.012006967328488827,-0.009816460311412811,0.0037210171576589346,0.01110066007822752
0.02612696774303913,0.01232671458274126,-0.011702538467943668,-0.009603079408407211,0.0042400420643389225,0.01174673717468977
0.026110772043466568,0.01200075913220644,-0.011948821134865284,-0.008967453613877296,0.0041370391845703125,0.011351645924150944
0.026557307690382004,0.012111387215554714,-0.012138609774410725,-0.009149308316409588,0.004667204804718494,0.011088206432759762
0.02622801437973976,0.01183274108916521,-0.012394208461046219,-0.01045314408838749,0.0045671360567212105,0.011285603977739811
0.02651977352797985,0.012242224998772144,-0.012078390456736088,-0.009461291134357452,0.0037784376181662083,0.011303160339593887
0.02662205882370472,0.011950189247727394,-0.012453878298401833,-0.009446867741644382,0.003575921058654785,0.011540531180799007
0.026851866394281387,0.012557417154312134,-0.011819165199995041,-0.010587607510387897,0.0033978584688156843,0.011603743769228458
0.02683151885867119,0.012197335250675678,-0.011448000557720661,-0.010103471577167511,0.0037197303026914597,0.011645933613181114
0.02678184024989605,0.012255064211785793,-0.012239336967468262,-0.01003324892371893,0.004138607066124678,0.011411390267312527
0.02678184024989605,0.012255064211785793,-0.012239336967468262,-0.01003324892371893,0.004138607066124678,0.011411390267312527
0.027062907814979553,0.012096382677555084,-0.011848838068544865,-0.010070125572383404,0.004971003159880638,0.01201347541064024
0.026422370225191116,0.012478277087211609,-0.011887656524777412,-0.010051790624856949,0.004423191770911217,0.01217370480298996
0.026684105396270752,0.0125370342284441,-0.01173068955540657,-0.010741930454969406,0.004342494998127222,0.011739674024283886
0.026828614994883537,0.012836026959121227,-0.01216309703886509,-0.010073764249682426,0.0040020206943154335,0.011996107175946236
0.026612702757120132,0.012832872569561005,-0.011827702634036541,-0.010170887224376202,0.003823851700872183,0.011760900728404522
0.025135880336165428,0.012451115064322948,-0.012004720978438854,-0.010432583279907703,0.004212503787130117,0.012029466219246387
0.02732550911605358,0.012704877182841301,-0.01206302922219038,-0.009897078387439251,0.004145110957324505,0.011603211052715778
0.027568701654672623,0.012254113331437111,-0.011451729573309422,-0.010494589805603027,0.004488698206841946,0.011710057966411114
0.027963971719145775,0.013086271472275257,-0.01183529756963253,-0.010400000028312206,0.004641705192625523,0.012275589630007744
0.027717040851712227,0.012527725659310818,-0.011333980597555637,-0.010281037539243698,0.0046203285455703735,0.011886141262948513
0.02648264169692993,0.013059266842901707,-0.011983627453446388,-0.010492303408682346,0.004594202619045973,0.012033497914671898
0.02707657404243946,0.012934173457324505,-0.011719203554093838,-0.010307378135621548,0.004135206341743469,0.012258069589734077
0.027825461700558662,0.01268784049898386,-0.011787665076553822,-0.010916040278971195,0.004285476170480251,0.012227106839418411
0.027824081480503082,0.012453898787498474,-0.01225917600095272,-0.011314498260617256,0.004455699119716883,0.011197187937796116
0.027820823714137077,0.012655018828809261,-0.012029972858726978,-0.009741700254380703,0.004450765438377857,0.012478063814342022
0.028650356456637383,0.013261825777590275,-0.012021987698972225,-0.010435176081955433,0.004940466023981571,0.01241444144397974
0.0281513798981905,0.012400398962199688,-0.011974740773439407,-0.0109206922352314,0.004828848876059055,0.012335852719843388
0.028337664902210236,0.013013589195907116,-0.012126747518777847,-0.010434684343636036,0.004451865795999765,0.012088035233318806
0.02744029276072979,0.01249771099537611,-0.012218266725540161,-0.010729486122727394,0.0045029534958302975,0.012103118933737278
0.027560215443372726,0.01314074732363224,-0.01180278416723013,-0.010394671931862831,0.004310369025915861,0.012410641647875309
0.02809789776802063,0.012651627883315086,-0.012331727892160416,-0.010492458939552307,0.0043258354999125,0.01262686774134636
0.028244396671652794,0.013202205300331116,-0.011509161442518234,-0.011007696390151978,0.004220468457788229,0.012520247139036655
0.02823876217007637,0.012703846208751202,-0.012030570767819881,-0.010302234441041946,0.0047861067578196526,0.01252257451415062
0.028006255626678467,0.013112504966557026,-0.011978978291153908,-0.010391549207270145,0.004517798777669668,0.012324078008532524
0.027726588770747185,0.013277839869260788,-0.011941653676331043,-0.011266945861279964,0.00463865278288722,0.012329557910561562
0.027613354846835136,0.013641473837196827,-0.011498584412038326,-0.011037560179829597,0.004711066372692585,0.01252650748938322
0.02800590731203556,0.012589883990585804,-0.01213786844164133,-0.010947233065962791,0.004270571283996105,0.012750545516610146
0.02822677046060562,0.013001385144889355,-0.011879990808665752,-0.01085614413022995,0.004424413666129112,0.013045566156506538
0.02822677046060562,0.013001385144889355,-0.011879990808665752,-0.01085614413022995,0.004424413666129112,0.013045566156506538
0.028237538412213326,0.012695862911641598,-0.01140664704144001,-0.01194979902356863,0.004609481897205114,0.01306228805333376
0.027965040877461433,0.012951135635375977,-0.01178687158972025,-0.01147150993347168,0.004368421155959368,0.01260750088840723
0.027972063049674034,0.012812254019081593,-0.011552165262401104,-0.011354217305779457,0.004397326614707708,0.012807921506464481
0.028552887961268425,0.013066425919532776,-0.012549135833978653,-0.01170000247657299,0.004508958198130131,0.012444340623915195
0.028403952717781067,0.01338734570890665,-0.01151297427713871,-0.011587848886847496,0.004607768729329109,0.01251495722681284
0.028358059003949165,0.012940756045281887,-0.011422663927078247,-0.01220094133168459,0.004651662893593311,0.012865005992352962
0.029092231765389442,0.013218778185546398,-0.012026248499751091,-0.011634407564997673,0.004748443141579628,0.012708342634141445
0.028613697737455368,0.01270149927586317,-0.012304876931011677,-0.011631479486823082,0.004856462590396404,0.012833192013204098
0.028386352583765984,0.013301958329975605,-0.01186845637857914,-0.012084810063242912,0.004919097758829594,0.012611337006092072
0.02852685935795307,0.01317049004137516,-0.011347748339176178,-0.011781192384660244,0.0048195295967161655,0.012458853423595428
0.028930900618433952,0.013520854525268078,-0.011463826522231102,-0.012002142146229744,0.004689577966928482,0.012391696684062481
0.02906208299100399,0.013124316930770874,-0.012220339849591255,-0.0121920770034194,0.0046272967010736465,0.012829343788325787
0.02860221453011036,0.013210088014602661,-0.011477777734398842,-0.012700451537966728,0.004665358457714319,0.012806062586605549
0.029159124940633774,0.012970367446541786,-0.012035549618303776,-0.012846533209085464,0.004896970000118017,0.01235155574977398
0.02908172272145748,0.013105219230055809,-0.011671747080981731,-0.012686681933701038,0.004938480444252491,0.012504582293331623
0.02890918031334877,0.013440221548080444,-0.012717003002762794,-0.013079036958515644,0.004792987834662199,0.01261442806571722
0.029126230627298355,0.013091856613755226,-0.011940188705921173,-0.012341080233454704,0.004923775792121887,0.01284362655133009
0.029156189411878586,0.013586211018264294,-0.0114463334903121,-0.012592263519763947,0.004649078939110041,0.012688218615949154
0.029162777587771416,0.013073224574327469,-0.01225877832621336,-0.012630647048354149,0.004523349925875664,0.013379350304603577
0.028926637023687363,0.013688956387341022,-0.01162549015134573,-0.01217748038470745,0.0045363930985331535,0.013221865519881248
0.02905183471739292,0.013272395357489586,-0.012203304097056389,-0.012529302388429642,0.0041558281518518925,0.013349223881959915
0.02917982079088688,0.013999292626976967,-0.012234518304467201,-0.013378283008933067,0.004373525734990835,0.013399212621152401
0.029889937490224838,0.013564573600888252,-0.012125804089009762,-0.013110685162246227,0.004559507593512535,0.013149037025868893
0.03074990212917328,0.014010744169354439,-0.012465385720133781,-0.012735217809677124,0.004671368282288313,0.011859324760735035
0.02982231415808201,0.013847027905285358,-0.011744569055736065,-0.013178173452615738,0.0044118440710008144,0.01328561082482338
0.028810739517211914,0.013972993940114975,-0.012446857988834381,-0.012763148173689842,0.004330737516283989,0.013927707448601723
0.030722571536898613,0.014343987219035625,-0.012397526763379574,-0.012732753530144691,0.004703449551016092,0.013644671998918056
0.030470116063952446,0.014148466289043427,-0.012294835411012173,-0.013301568105816841,0.004614117555320263,0.013232442550361156
0.030470116063952446,0.014148466289043427,-0.012294835411012173,-0.013301568105816841,0.004614117555320263,0.013232442550361156
0.03125807270407677,0.014578670263290405,-0.011643191799521446,-0.013082984834909439,0.00473607424646616,0.013381623663008213
0.030630502849817276,0.014836246147751808,-0.012194373644888401,-0.013182544149458408,0.004732356872409582,0.013145608827471733
0.03043610416352749,0.013721032999455929,-0.012365804053843021,-0.013357863761484623,0.004609470721334219,0.013237440027296543
0.029980026185512543,0.013832847587764263,-0.012811703607439995,-0.013363495469093323,0.004638665821403265,0.013166997581720352
0.030180446803569794,0.014753690920770168,-0.012066801078617573,-0.013249831274151802,0.005026643630117178,0.013058959506452084
0.03136046230792999,0.014589281752705574,-0.011923417448997498,-0.013396321795880795,0.005028596147894859,0.013440828770399094
0.031100431457161903,0.014643240720033646,-0.012277443893253803,-0.013521544635295868,0.004947239067405462,0.013081477023661137
0.030788281932473183,0.014294356107711792,-0.012734456919133663,-0.013124258257448673,0.00509512796998024,0.012931951321661472
0.0316246822476387,0.014770733192563057,-0.012740524485707283,-0.013520721346139908,0.004852591082453728,0.01284280139952898
0.031189465895295143,0.014422553591430187,-0.012066558003425598,-0.013363675214350224,0.004742158576846123,0.01286929938942194
0.031033681705594063,0.015117451548576355,-0.012913418002426624,-0.013808120973408222,0.005105678457766771,0.01304441038519144
0.03165556490421295,0.014752696268260479,-0.012455142103135586,-0.01340213418006897,0.004913927987217903,0.013464141637086868
0.03198634460568428,0.01487037818878889,-0.012341014109551907,-0.013736274093389511,0.004552711267024279,0.013202873058617115
0.03160456568002701,0.01478605903685093,-0.012366682291030884,-0.013453436084091663,0.004535952117294073,0.01345291268080473
0.03201732784509659,0.015312926843762398,-0.012036098167300224,-0.014101439155638218,0.00511928228661418,0.01354955229908228
0.03204059973359108,0.015036944299936295,-0.012278549373149872,-0.013395809568464756,0.004975501447916031,0.013942550867795944
0.03165947645902634,0.015554357320070267,-0.011652425862848759,-0.013664602302014828,0.004859195090830326,0.013926961459219456
0.03187432512640953,0.014967826195061207,-0.012252097949385643,-0.013563340529799461,0.004956834949553013,0.01383510697633028
0.031805619597435,0.015320827253162861,-0.012870517559349537,-0.013725228607654572,0.005351351574063301,0.013557353988289833
0.03313113749027252,0.015215366147458553,-0.01183499675244093,-0.013690188527107239,0.005134644452482462,0.013478770852088928
0.03379209339618683,0.015582419000566006,-0.011730257421731949,-0.013995891436934471,0.005094618070870638,0.013773936778306961
0.03227996826171875,0.015500170178711414,-0.01172845158725977,-0.014075038023293018,0.005090828984975815,0.013821826316416264
0.032285869121551514,0.01589198224246502,-0.01263396441936493,-0.013947022147476673,0.004935475066304207,0.01370672695338726
0.03357440605759621,0.015853265300393105,-0.012616908177733421,-0.014250685460865498,0.005114947911351919,0.013614989817142487
0.033347394317388535,0.015383461490273476,-0.013060851022601128,-0.0143885537981987,0.005098011344671249,0.013595690950751305
0.033347394317388535,0.015383461490273476,-0.013060851022601128,-0.0143885537981987,0.005098011344671249,0.013595690950751305
0.03399199619889259,0.015118573792278767,-0.011801562272012234,-0.014398304745554924,0.005140267312526703,0.013936557807028294
0.034584611654281616,0.016067204996943474,-0.012090668082237244,-0.014642627909779549,0.004972281865775585,0.01363295502960682
0.032802630215883255,0.015418663620948792,-0.012484757229685783,-0.014537792652845383,0.005204982124269009,0.013675807975232601
0.0328984260559082,0.015971580520272255,-0.013262942433357239,-0.01458822749555111,0.005629651714116335,0.013746732845902443
0.033752959221601486,0.015272206626832485,-0.01218368485569954,-0.014379449188709259,0.005477796774357557,0.01415201835334301
0.03375896066427231,0.01523271482437849,-0.012310799211263657,-0.014478006400167942,0.0056091914884746075,0.012619631364941597
0.03315357118844986,0.014919837936758995,-0.012224854901432991,-0.014651963487267494,0.0052268011495471,0.014838122762739658
0.033796004951000214,0.015637919306755066,-0.012109196744859219,-0.014544022269546986,0.005579657852649689,0.014592441730201244
0.03355862945318222,0.015623508021235466,-0.012852044776082039,-0.014640746638178825,0.005505358800292015,0.014425498433411121
0.03369924798607826,0.016223574057221413,-0.01210749987512827,-0.014632008038461208,0.005611224565654993,0.013997047208249569
0.033429380506277084,0.015852859243750572,-0.012584967538714409,-0.014753561466932297,0.005437952931970358,0.014162122271955013
0.03346695378422737,0.015241952612996101,-0.012449784204363823,-0.014332558028399944,0.0052886721678078175,0.013888117857277393
0.0335531085729599,0.015913620591163635,-0.01231495663523674,-0.01507617812603712,0.005308965686708689,0.01421805378049612
0.03384067490696907,0.015470568090677261,-0.012769574299454689,-0.015084086917340755,0.005584778264164925,0.014198154211044312
0.03425771743059158,0.016153203323483467,-0.01240223553031683,-0.015267938375473022,0.005344803910702467,0.014737507328391075
0.0337444469332695,0.0154389888048172,-0.012683485634624958,-0.015062851831316948,0.005655002314597368,0.014564163982868195
0.03376006707549095,0.015879744663834572,-0.012019474990665913,-0.015589768067002296,0.005306672304868698,0.014506662264466286
0.03371778503060341,0.015573321841657162,-0.01249592937529087,-0.015275547280907631,0.004959438927471638,0.014398080296814442
0.03362101688981056,0.016170212998986244,-0.012423013336956501,-0.01579364761710167,0.005520962178707123,0.014846430160105228
0.03243757411837578,0.01542239636182785,-0.012836319394409657,-0.015212462283670902,0.005428544245660305,0.01443084143102169
0.034478507936000824,0.015680277720093727,-0.012606502510607243,-0.016486942768096924,0.0053554135374724865,0.015021877363324165
0.034019481390714645,0.015755459666252136,-0.011902986094355583,-0.01598365418612957,0.005046158097684383,0.014914981089532375
0.0333491750061512,0.015747318044304848,-0.012138914316892624,-0.015614023432135582,0.005245594773441553,0.014651915058493614
0.033370696008205414,0.016168715432286263,-0.012096506543457508,-0.015054279938340187,0.005618196912109852,0.014149811118841171
0.033370696008205414,0.016168715432286263,-0.012096506543457508,-0.015054279938340187,0.005618196912109852,0.014149811118841171
0.03386487066745758,0.016122493892908096,-0.012561753392219543,-0.01602284424006939,0.005178655497729778,0.01461869664490223
0.033853549510240555,0.015656063333153725,-0.012339241802692413,-0.016011720523238182,0.0054087331518530846,0.014766653999686241
0.03381666913628578,0.016272148117423058,-0.01215684786438942,-0.015834122896194458,0.005644329823553562,0.014351618476212025
0.03353860229253769,0.015643665567040443,-0.012156304903328419,-0.015149359591305256,0.005268697626888752,0.014515935443341732
0.03341029956936836,0.016236258670687675,-0.012185481376945972,-0.01609513722360134,0.005667717661708593,0.01483400072902441
0.03332466632127762,0.01638747937977314,-0.012184535153210163,-0.016312481835484505,0.005828871391713619,0.01509595662355423
0.03359159454703331,0.01636621728539467,-0.012624386698007584,-0.017022673040628433,0.005687987897545099,0.014904522337019444
0.03472820296883583,0.016462698578834534,-0.011785202659666538,-0.01775262877345085,0.0054655116982758045,0.014989208430051804
0.03408419340848923,0.016389306634664536,-0.011466654017567635,-0.01693284884095192,0.0054505132138729095,0.014837251044809818
0.03284088149666786,0.016723722219467163,-0.012140415608882904,-0.0167414378374815,0.00531174149364233,0.014990735799074173
0.03321307897567749,0.015792353078722954,-0.01193926576524973,-0.01692204922437668,0.005085650831460953,0.015104961581528187
0.034342750906944275,0.016441669315099716,-0.012376059778034687,-0.01699165254831314,0.00565166212618351,0.015315687283873558
0.03427287936210632,0.016764353960752487,-0.011852634139358997,-0.016636451706290245,0.005899169482290745,0.01554166804999113
0.03527291864156723,0.01661798544228077,-0.011776176281273365,-0.016748564317822456,0.00583215057849884,0.015498955734074116
0.034834444522857666,0.016363879665732384,-0.01195664145052433,-0.017777610570192337,0.006019433028995991,0.01403447799384594
0.033561985939741135,0.01671426370739937,-0.01196807250380516,-0.01755971647799015,0.005651960149407387,0.01508613396435976
0.033221662044525146,0.017268134281039238,-0.012286181561648846,-0.017276382073760033,0.00580114359036088,0.015442500822246075
0.034795403480529785,0.016740387305617332,-0.011865106411278248,-0.016924813389778137,0.005912164691835642,0.015101773664355278
0.034955114126205444,0.016988614574074745,-0.012626410461962223,-0.01712895929813385,0.0060193599201738834,0.01505880057811737
0.034561630338430405,0.01702815480530262,-0.011719624511897564,-0.017802875488996506,0.005790209397673607,0.014981760643422604
0.0346786268055439,0.016768628731369972,-0.011895827949047089,-0.017778005450963974,0.00581617746502161,0.015239237807691097
0.035013530403375626,0.016985351219773293,-0.012660296633839607,-0.017743492498993874,0.0061011468060314655,0.015223581343889236
0.034683968871831894,0.016477813944220543,-0.011803599074482918,-0.017550529912114143,0.005994273815304041,0.015570652671158314
0.035340286791324615,0.017255976796150208,-0.01172851026058197,-0.01740618236362934,0.0061910999938845634,0.015377088449895382
0.03497801348567009,0.017400618642568588,-0.011584415100514889,-0.017196137458086014,0.005793244577944279,0.015368697233498096
0.03516922891139984,0.017064878717064857,-0.012582599185407162,-0.01736469380557537,0.005863957107067108,0.015367642045021057
0.035731080919504166,0.01701456308364868,-0.012600315734744072,-0.017772499471902847,0.005560257472097874,0.015372725203633308
0.035731080919504166,0.01701456308364868,-0.012600315734744072,-0.017772499471902847,0.005560257472097874,0.015372725203633308
0.03525663539767265,0.01677510142326355,-0.01223017554730177,-0.018220989033579826,0.006196544971317053,0.015362593345344067
0.03584817424416542,0.017382554709911346,-0.012176519259810448,-0.01790468394756317,0.006381390616297722,0.01508306059986353
0.036858875304460526,0.01776195503771305,-0.011715643107891083,-0.017889807000756264,0.0056983716785907745,0.015412473119795322
0.03531613200902939,0.01829291135072708,-0.012159163132309914,-0.018014023080468178,0.005428656470030546,0.01564185880124569
0.03641907498240471,0.01755492202937603,-0.012170994654297829,-0.018615111708641052,0.00589256826788187,0.01537963654845953
