davideferrari95/blind_handover_controller/data/Test 166 - [2024-02-08 -- 11-09-56]/joint_states_data.csv
shoulder_pan_joint,shoulder_lift_joint,elbow_joint,wrist_1_joint,wrist_2_joint,wrist_3_joint
-0.004193973261862993,-0.013509484007954597,-3.430212700550328e-06,0.014568659476935863,0.0,-0.004588663578033447
-0.004193973261862993,-0.013509484007954597,-3.430212700550328e-06,0.014568659476935863,0.0,-0.004588663578033447
-0.0041201249696314335,-0.012925340794026852,-4.6020680599667685e-08,0.014409435912966728,0.0,-0.004343970213085413
-0.0041201249696314335,-0.012925340794026852,-4.6020680599667685e-08,0.014409435912966728,0.0,-0.004343970213085413
-0.0038998746313154697,-0.013007348403334618,-6.174261657498903e-10,0.014128721319139004,0.0,-0.004944032058119774
-0.0038141352124512196,-0.013219257816672325,-8.28356046950196e-12,0.013908633962273598,0.0,-0.005035414360463619
-0.0037723856512457132,-0.012934843078255653,-1.1113453771615864e-13,0.014035272412002087,0.0,-0.004635806195437908
-0.0038240887224674225,-0.013425495475530624,-1.4910117682610108e-15,0.013745594769716263,0.0,-0.004348441027104855
-0.0043798042461276054,-0.013067632913589478,-2.000382621301685e-17,0.013885894790291786,0.0,-0.004036749247461557
-0.004158767405897379,-0.01343192532658577,-2.6837686273705744e-19,0.01366867870092392,0.0,-0.004054828081279993
-0.0044025215320289135,-0.012755880132317543,-3.6006182517313785e-21,0.014067547395825386,0.0,-0.00414722366258502
-0.004094558302313089,-0.01363780815154314,-4.8306891495949236e-23,0.013882327824831009,0.0,-0.003961777780205011
-0.003956482745707035,-0.013118305243551731,-6.480985867494441e-25,0.014362172223627567,0.0,-0.004212948493659496
-0.003891171421855688,-0.013234071433544159,-8.69506910526294e-27,0.01420359592884779,0.0,-0.004106997046619654
-0.004284318536520004,-0.013977055437862873,-1.166554424761685e-28,0.014148757793009281,0.0,-0.00401788717135787
-0.004175248555839062,-0.012918184511363506,-1.5650816726678575e-30,0.013839616440236568,0.0,-0.0040070004761219025
-0.004219300113618374,-0.012413213960826397,-2.099756906199051e-32,0.014666302129626274,0.0,-0.004002234432846308
-0.004120753612369299,-0.012779148295521736,-2.817091956377286e-34,0.014078546315431595,0.0,-0.003965201787650585
-0.0043039037846028805,-0.013004858046770096,-3.779488409452501e-36,0.014870083890855312,0.0,-0.0038892077282071114
-0.004197774454951286,-0.012194979004561901,-5.070666316005024e-38,0.014085977338254452,0.0,-0.004327178932726383
-0.004015286453068256,-0.012702071107923985,-6.8029397066962624e-40,0.014073767699301243,0.0,-0.004112075082957745
-0.0043455869890749454,-0.012442267499864101,-9.126656898147534e-42,0.013005353510379791,0.0,-0.004333881661295891
-0.0043455869890749454,-0.012442267499864101,-9.126656898147534e-42,0.013005353510379791,0.0,-0.004333881661295891
-0.004451679065823555,-0.012596930377185345,-1.401298464324817e-45,0.0131432069465518,0.0,-0.004123969003558159
-0.004245777148753405,-0.012894158251583576,-0.0,0.013555863872170448,0.0,-0.00398850254714489
-0.003924889024347067,-0.012792526744306087,-0.0,0.013371539302170277,0.0,-0.003928168211132288
-0.0039491537027060986,-0.012604224495589733,-0.0,0.013712855987250805,0.0,-0.004487625323235989
-0.0038818710017949343,-0.012928410433232784,-0.0,0.014175716787576675,0.0,-0.004407509695738554
-0.003769155126065016,-0.012986638583242893,-0.0,0.014334812760353088,0.0,-0.004091024398803711
-0.003769155126065016,-0.012986638583242893,-0.0,0.014334812760353088,0.0,-0.004091024398803711
-0.004307411145418882,-0.012436858378350735,-0.0,0.013555554673075676,0.0,-0.003916130401194096
-0.004576519131660461,-0.012968037277460098,-0.0,0.013340476900339127,0.0,-0.00433062668889761
-0.004400031175464392,-0.012674469500780106,-0.0,0.013486579060554504,0.0,-0.004169309977442026
-0.004062943626195192,-0.013042528182268143,-0.0,0.01377885416150093,0.0,-0.004221046343445778
-0.00436593871563673,-0.013467644341289997,-0.0,0.013203096576035023,0.0,-0.0042425296269357204
-0.004166337661445141,-0.01340427715331316,-0.0,0.013669074513018131,0.0,-0.004373040050268173
-0.0038771869149059057,-0.013704931363463402,-0.0,0.013609630987048149,0.0,-0.004571513272821903
-0.004074163734912872,-0.013205748051404953,-0.0,0.013861668296158314,0.0,-0.0046347989700734615
-0.004109873436391354,-0.013338742777705193,-0.0,0.013121172785758972,0.0,-0.004265456460416317
-0.004334679804742336,-0.013059060089290142,-0.0,0.013194482773542404,0.0,-0.004231666214764118
-0.004498912952840328,-0.013807853683829308,-0.0,0.013207003474235535,0.0,-0.004037381615489721
-0.004110956564545631,-0.013424471952021122,-0.0,0.013043972663581371,0.0,-0.00438125291839242
-0.0038506616838276386,-0.01378434244543314,-0.0,0.01282481849193573,0.0,-0.004136909265071154
-0.004202074371278286,-0.013153291307389736,-0.0,0.012589464895427227,0.0,-0.004373264964669943
-0.004200235474854708,-0.013361501507461071,-0.0,0.013075231574475765,0.0,-0.004114715848118067
-0.004185483790934086,-0.013205021619796753,-0.0,0.013130411505699158,0.0,-0.004305867478251457
-0.004027300048619509,-0.01337181031703949,-0.0,0.013386047445237637,0.0,-0.00423990935087204
-0.00381033425219357,-0.013503210619091988,-0.0,0.013230954296886921,0.0,-0.004094775766134262
-0.0036504894960671663,-0.013538890518248081,-0.0,0.012879692949354649,0.0,-0.004374713636934757
-0.0036504894960671663,-0.013538890518248081,-0.0,0.012879692949354649,0.0,-0.004374713636934757
-0.003491602372378111,-0.013137063942849636,-0.0,0.013315320946276188,0.0,-0.004535282030701637
-0.003498632926493883,-0.01341162621974945,-0.0,0.012793800793588161,0.0,-0.004579332657158375
-0.0036870914045721292,-0.013209295459091663,-0.0,0.012822834774851799,0.0,-0.004389265552163124
-0.0038267704658210278,-0.013251672498881817,-0.0,0.012944190762937069,0.0,-0.004098715726286173
-0.0037563748192042112,-0.013584434054791927,-0.0,0.01307674590498209,0.0,-0.003998597152531147
-0.0036750934086740017,-0.013010143302381039,-0.0,0.012772923335433006,0.0,-0.0038790605030953884
-0.0036750934086740017,-0.013010143302381039,-0.0,0.012772923335433006,0.0,-0.0038790605030953884
-0.0032633894588798285,-0.013376297429203987,-0.0,0.012803797610104084,0.0,-0.004199650138616562
-0.002902801614254713,-0.01357017457485199,-0.0,0.013135796412825584,0.0,-0.004349054303020239
-0.002902801614254713,-0.01357017457485199,-0.0,0.013135796412825584,0.0,-0.004349054303020239
-0.002598960418254137,-0.012996784411370754,-0.0,0.012711622752249241,0.0,-0.004022260662168264
-0.0029039192013442516,-0.013274100609123707,-0.0,0.012977423146367073,0.0,-0.0034944345243275166
-0.0035104244016110897,-0.013455879874527454,-0.0,0.012877428904175758,0.0,-0.0033768760040402412
-0.003406088799238205,-0.013228170573711395,-0.0,0.012975302524864674,0.0,-0.004068910609930754
-0.003130827797576785,-0.013435425236821175,-0.0,0.013199364766478539,0.0,-0.004468476865440607
-0.003014468587934971,-0.013411381281912327,-0.0,0.012887789867818356,0.0,-0.004418558906763792
-0.003017144277691841,-0.013595438562333584,-0.0,0.013221167959272861,0.0,-0.004475184716284275
-0.0031223974656313658,-0.012866893783211708,-0.0,0.012866179458796978,0.0,-0.004211124964058399
-0.0030835382640361786,-0.013419809751212597,-0.0,0.012895533815026283,0.0,-0.004076829645782709
-0.00290180672891438,-0.012837679125368595,-0.0,0.01255710981786251,0.0,-0.004103249870240688
-0.002610837109386921,-0.013401610776782036,-0.0,0.012834342196583748,0.0,-0.0040219309739768505
-0.002637474564835429,-0.01281822007149458,-0.0,0.012625734321773052,0.0,-0.004317753482609987
-0.0026646952610462904,-0.012987635098397732,-0.0,0.012478629127144814,0.0,-0.0041273306123912334
-0.0028130183927714825,-0.012847648933529854,-0.0,0.012545491568744183,0.0,-0.0044032251462340355
-0.002911202609539032,-0.012615646235644817,-0.0,0.012230467051267624,0.0,-0.004204968921840191
-0.002748357132077217,-0.012966097332537174,-0.0,0.011820713058114052,0.0,-0.0039062281139194965
-0.002720465650781989,-0.012919404543936253,-0.0,0.012985515408217907,0.0,-0.003962455317378044
-0.0028500014450401068,-0.012283721938729286,-0.0,0.011694169603288174,0.0,-0.004372543655335903
-0.0030804246198385954,-0.012806805782020092,-0.0,0.011440576985478401,0.0,-0.00453538354486227
-0.0030804246198385954,-0.012806805782020092,-0.0,0.011440576985478401,0.0,-0.00453538354486227
-0.0030804246198385954,-0.012806805782020092,-0.0,0.011440576985478401,0.0,-0.00453538354486227
-0.0025386344641447067,-0.01230588648468256,-0.0,0.01164309773594141,0.0,-0.004327729344367981
-0.0026430541183799505,-0.012941046617925167,-0.0,0.012005284428596497,0.0,-0.003959340509027243
-0.002820308320224285,-0.01242003683000803,-0.0,0.012238986790180206,0.0,-0.00388442468829453
-0.002949176821857691,-0.012506362050771713,-0.0,0.012328281998634338,0.0,-0.003954970743507147
-0.0027563017792999744,-0.012503345496952534,-0.0,0.012537323869764805,0.0,-0.004405566956847906
-0.002905534114688635,-0.012480346485972404,-0.0,0.011933199129998684,0.0,-0.004575464874505997
-0.002980328630656004,-0.012634233571588993,-0.0,0.012399033643305302,0.0,-0.004641663748770952
-0.0030619455501437187,-0.012369528412818909,-0.0,0.012273778207600117,0.0,-0.004576349630951881
-0.0028742763679474592,-0.012701007537543774,-0.0,0.01263999193906784,0.0,-0.004148097243160009
-0.0029934195335954428,-0.012195657938718796,-0.0,0.012159541249275208,0.0,-0.003881273791193962
-0.002937294775620103,-0.012700359337031841,-0.0,0.011832564137876034,0.0,-0.004151964094489813
-0.002598318038508296,-0.012165192514657974,-0.0,0.012151255272328854,0.0,-0.00471796840429306
-0.0026229186914861202,-0.012347186915576458,-0.0,0.011470123194158077,0.0,-0.004384898114949465
-0.00284887058660388,-0.012165430001914501,-0.0,0.011719946749508381,0.0,-0.004347124136984348
-0.002907683840021491,-0.012095177546143532,-0.0,0.011733227409422398,0.0,-0.004405052401125431
-0.0028060979675501585,-0.01231902651488781,-0.0,0.011684410274028778,0.0,-0.0042420243844389915
-0.0027390774339437485,-0.012045078910887241,-0.0,0.011382324621081352,0.0,-0.003995159640908241
-0.0024772973265498877,-0.012304815463721752,-0.0,0.010960835963487625,0.0,-0.003932423889636993
-0.00240573869086802,-0.01213938370347023,-0.0,0.011684739030897617,0.0,-0.004371587187051773
-0.002685168059542775,-0.01280236802995205,-0.0,0.011370514519512653,0.0,-0.004160711541771889
-0.0028230147436261177,-0.012161527760326862,-0.0,0.011303680017590523,0.0,-0.004357397556304932
-0.0028025065548717976,-0.012427973560988903,-0.0,0.011572018265724182,0.0,-0.004190295003354549
-0.0025916211307048798,-0.012138296850025654,-0.0,0.011534285731613636,0.0,-0.0037292884662747383
-0.002678990364074707,-0.012263580225408077,-0.0,0.011242132633924484,0.0,-0.00368707743473351
-0.002678990364074707,-0.012263580225408077,-0.0,0.011242132633924484,0.0,-0.00368707743473351
-0.0025275249499827623,-0.011973122134804726,-0.0,0.011001446284353733,0.0,-0.003827497595921159
-0.0026190869975835085,-0.011896110139787197,-0.0,0.010904236696660519,8.125539352477062e-07,-0.004052225966006517
-0.0026190869975835085,-0.011896110139787197,-0.0,0.010904236696660519,8.125539352477062e-07,-0.004052225966006517
-0.0024766467977315187,-0.011956224218010902,-0.0,0.011183146387338638,5.3053963000593285e-08,-0.004098779056221247
-0.0025508301332592964,-0.012677316553890705,-0.0,0.011390444822609425,3.464045050804998e-09,-0.004340367391705513
-0.002744669560343027,-0.011712816543877125,-0.0,0.010989479720592499,2.2617738237862284e-10,-0.004093819763511419
-0.002624679123982787,-0.012062742374837399,-0.0,0.011064457707107067,1.4767768605206122e-11,-0.003945857752114534
-0.0026387653779238462,-0.011857995763421059,-0.0,0.011725611984729767,9.64229781089121e-13,-0.003929063677787781
-0.002576381666585803,-0.012038464657962322,-0.0,0.011494297534227371,6.295730945035313e-14,-0.003961184527724981
-0.0024092099629342556,-0.011801136657595634,-0.0,0.011175224557518959,4.110662751486381e-15,-0.004348226822912693
-0.0024764768313616514,-0.011469791643321514,-0.0,0.010983128100633621,0.0002505890734028071,-0.004487990867346525
-0.0026585750747472048,-0.012449976988136768,-0.0,0.011253812350332737,0.0005043011624366045,-0.0043998886831104755
-0.0025364207103848457,-0.011765153147280216,-0.0,0.011362941935658455,0.0004926429828628898,-0.004322731401771307
-0.0026296484284102917,-0.011711977422237396,-0.0,0.011292417533695698,0.0005237142904661596,-0.004065264482051134
-0.0027201720513403416,-0.011834712699055672,-0.0,0.011495644226670265,0.0005216486169956625,-0.003929906990379095
-0.002538354368880391,-0.011900919489562511,-0.0,0.011506524868309498,0.0005154394893907011,-0.004300584085285664
-0.0022321976721286774,-0.012444899417459965,-0.0,0.010567303746938705,0.0006929919472895563,-0.004416462033987045
-0.002225141739472747,-0.01196560263633728,-0.0,0.01088694017380476,0.0007458364707417786,-0.004296803846955299
-0.0025264034047722816,-0.012057799845933914,-0.0,0.010777494870126247,0.0007444267394021153,-0.004426321946084499
-0.002767760306596756,-0.01171201653778553,-0.0,0.010167681612074375,0.0007355977431870997,-0.004221528302878141
-0.0028198971413075924,-0.011530493386089802,-0.0,0.01007662434130907,0.0007135428604669869,-0.004335147328674793
-0.0026031828019768,-0.01218506135046482,9.807903552427888e-05,0.010562058538198471,0.0008638929575681686,-0.004512990824878216
-0.002591784344986081,-0.011642134748399258,9.242618398275226e-05,0.010908850468695164,0.000812661659438163,-0.004705194383859634
-0.0023455985356122255,-0.011852885596454144,8.386903937207535e-05,0.011085016652941704,0.0008202844182960689,-0.004737816285341978
-0.0024290019646286964,-0.012023774906992912,7.069066487019882e-05,0.010003653354942799,0.0008610570803284645,-0.004256892018020153
-0.002336334204301238,-0.011632397770881653,6.554071296704933e-05,0.010271470993757248,0.0008684605709277093,-0.004100258462131023
-0.0023377351462841034,-0.01158155221492052,6.109105743234977e-05,0.010024295188486576,0.000778794928919524,-0.004302020184695721
-0.0023377351462841034,-0.01158155221492052,6.109105743234977e-05,0.010024295188486576,0.000778794928919524,-0.004302020184695721
-0.002407664665952325,-0.011998308822512627,5.720726039726287e-05,0.009573353454470634,0.0006824888987466693,-0.004548606928437948
-0.002265868242830038,-0.012100184336304665,5.3787643992109224e-05,0.00974639318883419,0.0006994546274654567,-0.004209805745631456
-0.0022314630914479494,-0.011573288589715958,5.0754009862430394e-05,0.00904061459004879,0.000634983938653022,-0.00432885205373168
-0.002147299237549305,-0.011472105048596859,4.804423952009529e-05,0.009343256242573261,0.0006170113338157535,-0.004219766240566969
-0.002408253960311413,-0.011109278537333012,4.560926026897505e-05,0.00952206365764141,0.0006014473619870842,-0.0043493714183568954
-0.00255445740185678,-0.01167223509401083,4.340910163591616e-05,0.008961937390267849,0.0005572117515839636,-0.004545660223811865
-0.0024086313787847757,-0.011195527389645576,4.141163299209438e-05,0.008954955264925957,0.0004980286466889083,-0.004219572525471449
-0.002209360245615244,-0.011298551224172115,3.959005334763788e-05,0.009395401924848557,0.00043382428702898324,-0.004416661337018013
-0.002092717681080103,-0.011648116633296013,3.7921727198408917e-05,0.009800027124583721,0.0003946624929085374,-0.004109885543584824
-0.0021669198758900166,-0.011110218241810799,3.638841735664755e-05,0.009681178256869316,0.0004253578372299671,-0.004358978476375341
-0.002008435782045126,-0.011428155936300755,3.4974233130924404e-05,0.009374374523758888,0.0004021771892439574,-0.004177080001682043
-0.0024278410710394382,-0.010872872546315193,3.36658995365724e-05,0.009209293872117996,0.0004207056772429496,-0.0043676444329321384
-0.0023968261666595936,-0.011205822229385376,3.245197149226442e-05,0.00922233797609806,0.00040779245318844914,-0.004491565749049187
-0.002309020608663559,-0.011581550352275372,3.132252095383592e-05,0.009662190452218056,0.00041060842340812087,-0.004214687738567591
-0.0020997400861233473,-0.011352182365953922,4.202315722068306e-07,0.009397819638252258,0.00041177906678058207,-0.004520720802247524
-0.0020165748428553343,-0.011336357332766056,5.637943001346457e-09,0.008996358141303062,0.0003910141531378031,-0.004713304340839386
-0.002138975076377392,-0.010969096794724464,7.564020243489011e-11,0.009150863625109196,0.00042136479169130325,-0.004615327809005976
-0.0019939441699534655,-0.01178472675383091,1.0148097639994802e-12,0.009061663411557674,0.0004017797764390707,-0.004757608287036419
-0.002241574926301837,-0.011422690935432911,1.3614969577907445e-14,0.008540376089513302,0.00036995328264310956,-0.004380379803478718
-0.0023794525768607855,-0.012187004089355469,1.8266220508913664e-16,0.008920857682824135,0.0003419016720727086,-0.0044057900086045265
-0.0022227854933589697,-0.010278663598001003,2.4506466417802274e-18,0.00921003520488739,0.0003726267605088651,-0.004482408054172993
-0.0020821632351726294,-0.010648295283317566,3.2878555267907535e-20,0.008370901457965374,0.00035556734655983746,-0.004565065260976553
-0.002009445568546653,-0.010663178749382496,4.411077941345401e-22,0.008701683022081852,0.0003750502655748278,-0.004604586400091648
-0.0020933030173182487,-0.010618319734930992,5.918024255776263e-24,0.009004006162285805,0.00036608907976187766,-0.004496197681874037
-0.0022740913555026054,-0.01059942040592432,1.065223474445322e-27,0.008725902996957302,0.00037402959424071014,-0.004771042615175247
-0.002057114150375128,-0.011071372777223587,1.4291333059670103e-29,0.00869249552488327,0.00041352861444465816,-0.004585424438118935
-0.0020069004967808723,-0.010611945763230324,1.9173647047999693e-31,0.008227561600506306,0.0003971347468905151,-0.004386443644762039
-0.0020069004967808723,-0.010611945763230324,1.9173647047999693e-31,0.008227561600506306,0.0003971347468905151,-0.004386443644762039
-0.001810298883356154,-0.010568611323833466,2.5723893892021065e-33,0.008013471961021423,0.00043415537220425904,-0.004461848642677069
-0.001724648172967136,-0.011055631563067436,3.4511888510824785e-35,0.008425354026257992,0.0004644712607841939,-0.004479281138628721
-0.0017515742219984531,-0.01026740949600935,4.6302102948023245e-37,0.008477478288114071,0.00047083391109481454,-0.004821869544684887
-0.002090292749926448,-0.010426209308207035,6.212017749484344e-39,0.00820864737033844,0.0004687415494117886,-0.004933302290737629
-0.00189643120393157,-0.01071879267692566,8.33422261657185e-41,0.008028563112020493,0.0004418344178702682,-0.005036589689552784
-0.0018517744028940797,-0.009886044077575207,1.118236174531204e-42,0.008338656276464462,0.0005871481262147427,-0.004907024092972279
-0.0018174961442127824,-0.0100014703348279,1.5414283107572988e-44,0.007854167371988297,0.000594685145188123,-0.005250058602541685
-0.0017113866051658988,-0.010157451033592224,0.0,0.008021743036806583,0.0005790780414827168,-0.005039119627326727
-0.0015657945768907666,-0.010154569521546364,-0.0,0.007845105603337288,0.0005680382018908858,-0.005154578946530819
-0.0014936464140191674,-0.010974256321787834,-0.0,0.0076755983754992485,0.0005561999860219657,-0.005002147983759642
-0.0016388249350711703,-0.010373449884355068,-0.0,0.007559905759990215,0.0005671781254932284,-0.0047235507518053055
-0.0015502754831686616,-0.009929340332746506,-0.0,0.007984049618244171,0.0005416974308900535,-0.004344322718679905
-0.0017027807189151645,-0.010580964386463165,-0.0,0.008259129710495472,0.0005767912953160703,-0.004606048576533794
-0.0016825973289087415,-0.010147513821721077,-0.0,0.008258805610239506,0.0006062144530005753,-0.004701415076851845
-0.001513227354735136,-0.010329687967896461,-0.0,0.008308998309075832,0.0006240346701815724,-0.004838956519961357
-0.00139290327206254,-0.010007815435528755,-0.0,0.007891211658716202,0.0006490735104307532,-0.004977042321115732
-0.0014585029566660523,-0.009344288147985935,-0.0,0.007641549687832594,0.0007619534735567868,-0.004770901054143906
-0.0015136274741962552,-0.010281423106789589,-0.0,0.008041318506002426,0.0008854223415255547,-0.004431405570358038
-0.0014389101415872574,-0.0100187286734581,-0.0,0.00818707887083292,0.0008944077417254448,-0.004413402173668146
-0.001599695417098701,-0.009288116358220577,-0.0,0.007858249358832836,0.0008956496603786945,-0.004655505996197462
-0.0016806208295747638,-0.009635652415454388,-0.0,0.00868364330381155,0.0009350738255307078,-0.004804692696779966
-0.0013996600173413754,-0.009698881767690182,-0.0,0.007578801363706589,0.0009862144943326712,-0.005197455175220966
-0.0014318007742986083,-0.010064139030873775,-0.0,0.007583977654576302,0.0009417639230377972,-0.004672059789299965
-0.0013310352806001902,-0.010645010508596897,-0.0,0.008059549145400524,0.0008832867024466395,-0.0049129752442240715
-0.0012155416188761592,-0.009617489762604237,-0.0,0.007893825881183147,0.0009515806450508535,-0.005381912458688021
-0.0011576233664527535,-0.009408889338374138,-0.0,0.007593924645334482,0.0009844236774370074,-0.005239695776253939
-0.0011576233664527535,-0.009408889338374138,-0.0,0.007593924645334482,0.0009844236774370074,-0.005239695776253939
-0.0012335242936387658,-0.009478150866925716,-0.0,0.007495593279600143,0.0009753571357578039,-0.00546737015247345
-0.0013043195940554142,-0.008864284493029118,-0.0,0.007472082506865263,0.0010185909923166037,-0.0050069354474544525
-0.0014406286645680666,-0.009429790079593658,-0.0,0.007331358268857002,0.0010970862349495292,-0.0045063490979373455
-0.0013436878798529506,-0.009518686681985855,-0.0,0.007133303675800562,0.0010696288663893938,-0.00442728353664279
-0.0011764427181333303,-0.009629620239138603,-0.0,0.0068318406119942665,0.001027443679049611,-0.0047728088684380054
-0.0010599090019240975,-0.00895985309034586,-0.0,0.006779427640140057,0.0009291378082707524,-0.005168068688362837
-0.0010302456794306636,-0.009882031939923763,-0.0,0.006835936103016138,0.0008579451823607087,-0.005129895638674498
-0.0011023718398064375,-0.008655724115669727,-0.0,0.006194485351443291,0.0008309855475090444,-0.005418507847934961
-0.0010982161620631814,-0.008644548244774342,-0.0,0.006036560051143169,0.0007477093022316694,-0.005058279726654291
-0.001091526821255684,-0.009043716825544834,-0.0,0.006895842961966991,0.0007525896653532982,-0.004884989466518164
-0.0010717856930568814,-0.009054761379957199,-0.0,0.0065296851098537445,0.0006836727261543274,-0.005323072895407677
-0.0010467551182955503,-0.008381213061511517,-0.0,0.006257602944970131,0.0006933239055797458,-0.0053032319992780685
-0.0010556867346167564,-0.008403226733207703,-0.0,0.006069658789783716,0.0006418242701329291,-0.00548830721527338
-0.0008734295261092484,-0.00867080595344305,-0.0,0.006068090908229351,0.0005768128321506083,-0.005755285266786814
-0.0008712361450307071,-0.008543291129171848,-0.0,0.006009024102240801,0.0006611440912820399,-0.005234907381236553
-0.0007548477733507752,-0.008496487513184547,-0.0,0.005842939484864473,0.0006839663838036358,-0.004823433700948954
-0.0007709490600973368,-0.008463984355330467,-0.0,0.005544393789023161,0.0006637152982875705,-0.004674442578107119
-0.0007822475745342672,-0.008341321721673012,-0.0,0.0054857307113707066,0.0006760046817362309,-0.005146029405295849
-0.0006437993724830449,-0.00824031513184309,-0.0,0.005935090593993664,0.0008091740892268717,-0.005746088456362486
-0.0006437993724830449,-0.00824031513184309,-0.0,0.005935090593993664,0.0008091740892268717,-0.005746088456362486
-0.0005764724337495863,-0.007975931279361248,-0.0,0.0056947036646306515,0.0007295894902199507,-0.005216341000050306
-0.0005764724337495863,-0.007975931279361248,-0.0,0.0056947036646306515,0.0007295894902199507,-0.005216341000050306
-0.0006063764449208975,-0.007833965122699738,-0.0,0.005250130780041218,0.0007412969134747982,-0.005244066007435322
-0.0005541719147004187,-0.007980642840266228,-0.0,0.0054096379317343235,0.0007392074912786484,-0.0053270794451236725
-0.0005733462166972458,-0.00786576047539711,-0.0,0.0058715203776955605,0.0006952064577490091,-0.005734266713261604
-0.0005384596297517419,-0.007402342744171619,-0.0,0.006085525266826153,0.0006287260912358761,-0.005473424680531025
-0.0005010830936953425,-0.008012933656573296,-0.0,0.0054400283843278885,0.0006558316526934505,-0.00563995772972703
-0.0004902046639472246,-0.007750981952995062,-0.0,0.0049925935454666615,0.0006754899513907731,-0.005359445698559284
-0.0004432869318407029,-0.007949773222208023,-0.0,0.005102555733174086,0.0007031565182842314,-0.005731700453907251
-0.00040353546501137316,-0.007344845682382584,-0.0,0.005062247160822153,0.0008706317748874426,-0.0055531663820147514
-0.00037031632382422686,-0.007379994727671146,-0.0,0.004946427885442972,0.0009317229851149023,-0.005670099053531885
-0.0003421516448725015,-0.007376744411885738,-0.0,0.00482688844203949,0.001004552817903459,-0.005305338650941849
-0.0003806432941928506,-0.007159580010920763,-3.138341344310902e-05,0.005062930751591921,0.0009431759244762361,-0.005017360672354698
-0.00035636467509903014,-0.0072157359682023525,-0.00018879797426052392,0.004947757814079523,0.0011095107765868306,-0.005123217590153217
-0.00033430822077207267,-0.007701218593865633,-0.00018324179109185934,0.00463238637894392,0.0010824331548064947,-0.005091006401926279
-0.00031481756013818085,-0.007897377014160156,-0.00017609958013053983,0.00434643542394042,0.001089880126528442,-0.005775743164122105
-0.00029747217195108533,-0.007926628924906254,-0.00016946806863415986,0.004959308076649904,0.0011112296488136053,-0.005481860600411892
-0.00028193925390951335,-0.007126534823328257,-0.00016331704682670534,0.005089826416224241,0.0011987999314442277,-0.00506232213228941
-0.0002679482859093696,-0.007449128665030003,-0.00018784074927680194,0.004960392601788044,0.0011560318525880575,-0.00514478562399745
-0.00025528078549541533,-0.006991657894104719,-0.00018270104192197323,0.0046143913641572,0.0010725443717092276,-0.005131304729729891
-0.00024375632347073406,-0.006857608444988728,-0.00017673717229627073,0.004309623967856169,0.0011248004157096148,-0.005690239369869232
-0.00023322754714172333,-0.007093906402587891,-0.00019850714306812733,0.004512750077992678,0.0010888040997087955,-0.005815358366817236
-0.00022357139096129686,-0.0067199962213635445,-0.00019351020455360413,0.004385329782962799,0.0009918527211993933,-0.005609935615211725
-0.00021468260092660785,-0.007032905705273151,-0.00021349836606532335,0.004566058050841093,0.0009746170253492892,-0.005298479925841093
-0.00020647353085223585,-0.007090975530445576,-0.00020835624309256673,0.00446021743118763,0.0008894884958863258,-0.005617112852632999
-0.00019180601520929486,-0.006559858098626137,-0.0003050903615076095,0.004210140556097031,0.0009569379035383463,-0.005804155021905899
-0.00019180601520929486,-0.006559858098626137,-0.0003050903615076095,0.004210140556097031,0.0009569379035383463,-0.005804155021905899
-0.00018522626487538218,-0.006872898433357477,-0.0002988437481690198,0.0040225498378276825,0.0010768176289275289,-0.005359602626413107
-0.00017908339214045554,-0.006716238334774971,-0.00028040760662406683,0.003482429776340723,0.0011807290138676763,-0.005743580404669046
-0.00017333515279460698,-0.006848332937806845,-0.0003104503848589957,0.0031920194160193205,0.0011382860830053687,-0.005726884119212627
-0.00016794401744846255,-0.006391879171133041,-0.0002991141227539629,0.0031911993864923716,0.0011015174677595496,-0.005735249724239111
-0.00016287867038045079,-0.007147057447582483,-0.00028348929481580853,0.003331928513944149,0.001046360470354557,-0.00569214578717947
-0.0001581097167218104,-0.006668113637715578,-0.00030890462221577764,0.003059857524931431,0.0011114495573565364,-0.005648448131978512
-0.00015361195255536586,-0.006697789300233126,-0.0002992372610606253,0.003083594376221299,0.0010835311841219664,-0.005744909401983023
-0.0001493633317295462,-0.006701229140162468,-0.00031249719904735684,0.003032095031812787,0.0011854248587042093,-0.006083476822823286
-0.00012209362466819584,-0.006373354699462652,-0.00031219437369145453,0.002827979624271393,0.0013291870709508657,-0.006159310229122639
-7.387313235085458e-05,-0.005934942979365587,-0.00038049306022003293,0.002613399177789688,0.0012863795273005962,-0.005968043580651283
4.347780850366689e-05,-0.0062181963585317135,-0.00038781785406172276,0.002355286618694663,0.0013157024513930082,-0.006158092990517616
5.646284989779815e-05,-0.006057815160602331,-0.0004280046559870243,0.0022542718797922134,0.0012465438339859247,-0.006093354430049658
5.4932417697273195e-05,-0.0058084954507648945,-0.0004557273641694337,0.0023323940113186836,0.0011817667400464416,-0.006085519678890705
5.330807834980078e-05,-0.005496819503605366,-0.0004318071878515184,0.0022168897558003664,0.0011265273205935955,-0.006482288241386414
5.1774917665170506e-05,-0.005802510771900415,-0.00044196145609021187,0.0020610883366316557,0.000987211475148797,-0.006778360810130835
5.032720946474001e-05,-0.0064727445133030415,-0.0004338165163062513,0.0019975565373897552,0.0009575059521012008,-0.006342197302728891
7.245235610753298e-05,-0.0058389101177453995,-0.0005874178023077548,0.0017775497399270535,0.0009476272971369326,-0.006314494647085667
7.147982250899076e-05,-0.005759342107921839,-0.0006107600638642907,0.001805660198442638,0.0009647276601754129,-0.0064751701429486275
6.964866042835638e-05,-0.005376427434384823,-0.0005788853741250932,0.0017015560297295451,0.0012825470184907317,-0.006978348828852177
9.021835285238922e-05,-0.005963562522083521,-0.0005800038343295455,0.001779192010872066,0.001287725754082203,-0.006460974924266338
8.830492879496887e-05,-0.006414615083485842,-0.0005560856079682708,0.0017081663245335221,0.0012846930185332894,-0.006159528624266386
8.619481377536431e-05,-0.006092443130910397,-0.0005755288293585181,0.0018826192244887352,0.001283090328797698,-0.006395201198756695
8.417929348070174e-05,-0.006286258809268475,-0.0005403600516729057,0.0017842425731942058,0.0012122116750106215,-0.005977842956781387
8.225588680943474e-05,-0.0056242067366838455,-0.0005893360357731581,0.0019746674224734306,0.0011602131417021155,-0.006399513687938452
8.041861292440444e-05,-0.0059946756809949875,-0.0006252288003452122,0.002059341873973608,0.0010467038955539465,-0.006002198439091444
9.613394649932161e-05,-0.0059960889630019665,-0.0006019498105160892,0.00184891396202147,0.0010810811072587967,-0.0064060017466545105
9.438846609555185e-05,-0.005649144295603037,-0.0006271922611631453,0.0016890399856492877,0.0012843053555116057,-0.006228453945368528
0.00024208503600675613,-0.005550602916628122,-0.0007838040473870933,0.0015318504301831126,0.0014403964160010219,-0.006567202974110842
0.0002316749596502632,-0.0056008584797382355,-0.0008234406705014408,0.0014258484588935971,0.00137474131770432,-0.0065115089528262615
0.0002316749596502632,-0.0056008584797382355,-0.0008234406705014408,0.0014258484588935971,0.00137474131770432,-0.0065115089528262615
0.0002626244386192411,-0.005879010073840618,-0.0008339026826433837,0.0013867518864572048,0.0014295331202447414,-0.006294769700616598
0.0002520601265132427,-0.0065686944872140884,-0.0008332016877830029,0.0014043720439076424,0.0013845439534634352,-0.005681072827428579
0.00026716329739429057,-0.005730410572141409,-0.000757060304749757,0.0014004150871187449,0.001340943737886846,-0.005846246611326933
0.0002687973901629448,-0.005342111922800541,-0.0008044179412536323,0.001387241412885487,0.0013900035992264748,-0.006277049891650677
0.00029046001145616174,-0.005540759768337011,-0.0008191527449525893,0.0013055744348093867,0.0013214080827310681,-0.006185447797179222
0.00028316426323726773,-0.005716073792427778,-0.0008298440370708704,0.0012358989333733916,0.0012783578131347895,-0.006377714686095715
0.00027250320999883115,-0.005801020190119743,-0.0008296303567476571,0.0010737370466813445,0.0013384300982579589,-0.0061216638423502445
0.00042609882075339556,-0.006060271058231592,-0.0008771310094743967,0.0008812202722765505,0.0013700425624847412,-0.006142909172922373
0.0004085920809302479,-0.0054621025919914246,-0.0009353471687063575,0.00084373151184991,0.001360147027298808,-0.006470913533121347
0.0003748358285520226,-0.005678701680153608,-0.0009199625928886235,0.0007572086760774255,0.0015225026290863752,-0.0065460167825222015
0.00040686974534764886,-0.005506313871592283,-0.0009172698482871056,0.0007609255844727159,0.0014383412199094892,-0.005998172331601381
0.000385444873245433,-0.005924727767705917,-0.0009667465928941965,0.0006904111942276359,0.0014975897502154112,-0.006297270767390728
0.0003598561743274331,-0.00568635668605566,-0.0010146331042051315,0.0007054453017190099,0.0014659131411463022,-0.006612630095332861
0.00038687497726641595,-0.005683017894625664,-0.0010012409184128046,0.0006473932880908251,0.001483833766542375,-0.006631135940551758
0.0004169669991824776,-0.0054647414945065975,-0.0009957428555935621,0.0005754800513386726,0.001432903460226953,-0.006810832303017378
0.0005079374532215297,-0.0055334060452878475,-0.0012101121246814728,0.0005074726650491357,0.0014766494277864695,-0.006613073870539665
0.0006232974119484425,-0.005449184216558933,-0.001169247436337173,0.0005224025226198137,0.0015454748645424843,-0.0067687141709029675
0.0006698371726088226,-0.0059051476418972015,-0.0011269516544416547,0.0004949600552208722,0.0014997062971815467,-0.00666923588141799
0.001186596811749041,-0.005571747664362192,-0.00112632242962718,0.00045459665125235915,0.0015887260669842362,-0.0068032932467758656
0.0011876894859597087,-0.005051237531006336,-0.0010862309718504548,0.000419350661104545,0.001662406837567687,-0.0070843566209077835
0.0011361363576725125,-0.0052080536261200905,-0.0011521530104801059,0.0003891139349434525,0.0016001056646928191,-0.00616823323071003
0.0011361363576725125,-0.0052080536261200905,-0.0011521530104801059,0.0003891139349434525,0.0016001056646928191,-0.00616823323071003
0.0008391941664740443,-0.005813152529299259,-0.0011058638337999582,0.00037316756788641214,0.0017578020924702287,-0.006821798626333475
0.0008384020184166729,-0.005291645415127277,-0.0010797107825055718,0.00035234790993854403,0.0018174609867855906,-0.00649444991722703
0.0008465584251098335,-0.005718101281672716,-0.0012482929741963744,0.0003336821391712874,0.0019544223323464394,-0.006680420134216547
0.0011481267865747213,-0.00537538155913353,-0.0012231674045324326,0.0003168914990965277,0.0019697516690939665,-0.006487000267952681
0.0011481267865747213,-0.00537538155913353,-0.0012231674045324326,0.0003168914990965277,0.0019697516690939665,-0.006487000267952681
0.0013591457391157746,-0.005342609714716673,-0.0011827227426692843,0.00030171070829965174,0.0017627642955631018,-0.006322052329778671
0.001707186340354383,-0.00519924471154809,-0.00126959930639714,0.00027533239335753024,0.001604174030944705,-0.006892253644764423
0.001707186340354383,-0.00519924471154809,-0.00126959930639714,0.00027533239335753024,0.001604174030944705,-0.006892253644764423
0.0015241896035149693,-0.005144518334418535,-0.0012398002436384559,0.0002638004662003368,0.0013877283781766891,-0.006801684387028217
0.00142213876824826,-0.005136097781360149,-0.0014570472994819283,0.0002531963982619345,0.001385953277349472,-0.006652344949543476
0.0013484859373420477,-0.004882129840552807,-0.0014820070937275887,0.0001168815724668093,0.001387510565109551,-0.007014311850070953
0.0014513961505144835,-0.004700091667473316,-0.0014128253096714616,9.3856368039269e-05,0.0016672342317178845,-0.007319421973079443
0.0019844365306198597,-0.005230693146586418,-0.0014915515203028917,8.814916509436443e-05,0.0016447074012830853,-0.007450629957020283
0.002087721135467291,-0.005285174585878849,-0.0014223934849724174,8.396344492211938e-05,0.0019247239688411355,-0.007337341085076332
0.002098735421895981,-0.0051169078797101974,-0.0016408545197919011,8.021591929718852e-05,0.0018287330167368054,-0.007409481331706047
0.001963219838216901,-0.004986356943845749,-0.0016316695837303996,7.679259579163045e-05,0.0019341874867677689,-0.0079968785867095
0.0019471970153972507,-0.004398256074637175,-0.001833386835642159,7.364977500401437e-05,0.0017708470113575459,-0.008125531487166882
0.002187110483646393,-0.004449427593499422,-0.0016974147874861956,5.3438317991094664e-05,0.0017656731652095914,-0.007243849337100983
0.002175541128963232,-0.004912346135824919,-0.0016847201623022556,3.5218130506109446e-05,0.0017081419937312603,-0.0073354109190404415
0.0025534648448228836,-0.00447444710880518,-0.0016975419130176306,3.287521030870266e-05,0.0016077477484941483,-0.006832853890955448
0.002638237550854683,-0.004538486711680889,-0.0015752519248053432,3.164989175274968e-05,0.0017597064143046737,-0.006983981467783451
0.0025336386170238256,-0.004123226273804903,-0.0016332605155184865,2.0665117972384905e-06,0.001976368948817253,-0.006822396535426378
0.002782589988783002,-0.004207210149616003,-0.0016276664100587368,1.3492844175289065e-07,0.0020940222311764956,-0.007130814716219902
0.0026190944481641054,-0.004509916994720697,-0.0017799217021092772,8.809863061287615e-09,0.002389824017882347,-0.0073382616974413395
0.0026675774715840816,-0.004263575188815594,-0.0018070172518491745,5.752210929799162e-10,0.002117253839969635,-0.007275534328073263
0.0027875283267349005,-0.004398918244987726,-0.0017165681347250938,3.755782490566517e-11,0.0017701424658298492,-0.00695845577865839
0.0031255860812962055,-0.004311950411647558,-0.0017413303721696138,2.4522573641855283e-12,0.0016356630949303508,-0.007157809101045132
0.0031240449752658606,-0.004032503347843885,-0.0017495000502094626,1.6011486841244205e-13,0.001756313955411315,-0.007017520256340504
0.003127414034679532,-0.003873406443744898,-0.001582966884598136,-0.0006359274266287684,0.0018382299458608031,-0.007822567597031593
0.0032913931645452976,-0.0039468081668019295,-0.0014099274994805455,-0.0011375629110261798,0.0020290850661695004,-0.007957207038998604
0.0032464424148201942,-0.004503624048084021,-0.0011276855366304517,-0.001702061272226274,0.0017775461310520768,-0.0074395425617694855
0.0033819125965237617,-0.004278716631233692,-0.0009782355045899749,-0.0020288906525820494,0.0017526400042697787,-0.0076238857582211494
0.0035844091325998306,-0.0034883671905845404,-0.0010093568125739694,-0.0025295130908489227,0.0017444558907300234,-0.007611061446368694
0.0037268982268869877,-0.003871855093166232,-0.001011393149383366,-0.0032928031869232655,0.0018260780489072204,-0.007937166839838028
0.003705007489770651,-0.004225681535899639,-0.0013532886514440179,-0.003387938719242811,0.0016960164066404104,-0.007590811233967543
0.003559679025784135,-0.004084554500877857,-0.0012812278000637889,-0.00342777231708169,0.001892357598990202,-0.007587740197777748
0.003559679025784135,-0.004084554500877857,-0.0012812278000637889,-0.00342777231708169,0.001892357598990202,-0.007587740197777748
0.003809127490967512,-0.0038801555056124926,-0.0013779547298327088,-0.0037712561897933483,0.0019477681489661336,-0.0073777297511696815
0.0040581487119197845,-0.003771010786294937,-0.0013369459193199873,-0.004324765410274267,0.0022044540382921696,-0.007432467769831419
0.0044713313691318035,-0.0037486886139959097,-0.0013709795894101262,-0.005155868362635374,0.002511728787794709,-0.007453008554875851
0.005016529932618141,-0.0037568677216768265,-0.0013293265365064144,-0.005524620413780212,0.002427587518468499,-0.007908106781542301
0.0046234834007918835,-0.0037430531810969114,-0.001289798179641366,-0.006210211664438248,0.0023225920740514994,-0.007614086382091045
0.004495697095990181,-0.003718098858371377,-0.0013319829013198614,-0.006637417245656252,0.0020600566640496254,-0.007953589782118797
0.004588456824421883,-0.0036966465413570404,-0.00131135992705822,-0.006430447567254305,0.001958912005648017,-0.008198773488402367
0.004669039510190487,-0.003700671251863241,-0.0012830605264753103,-0.006532936356961727,0.002053074538707733,-0.008088953793048859
0.004754134453833103,-0.0035077822394669056,-0.001366466167382896,-0.006823937874287367,0.002059138845652342,-0.007724490948021412
0.005147575866430998,-0.0034378457348793745,-0.001661708578467369,-0.006967751309275627,0.0020841513760387897,-0.0075229620561003685
0.00558839226141572,-0.0032022614032030106,-0.0016498056938871741,-0.007196487858891487,0.002045584609732032,-0.007760339416563511
0.005220400169491768,-0.0030331516172736883,-0.001576701644808054,-0.0071913753636181355,0.0020901761017739773,-0.00776177691295743
0.00528827216476202,-0.0031010957900434732,-0.0016290999483317137,-0.007976727560162544,0.0021245121024549007,-0.0074890065006911755
0.005449316464364529,-0.003352006431668997,-0.0015363313723355532,-0.007872635498642921,0.0023838242050260305,-0.007437593769282103
0.006074839737266302,-0.003389593679457903,-0.0015090246452018619,-0.007619461044669151,0.0024412155617028475,-0.008053603582084179
0.005535467062145472,-0.0031517697498202324,-0.0015724054537713528,-0.007237748708575964,0.0022877012379467487,-0.008262473158538342
0.006040295120328665,-0.0032119520474225283,-0.0015335321659222245,-0.007347479462623596,0.002083743689581752,-0.007853093557059765
0.006348718889057636,-0.00312199629843235,-0.0016610510647296906,-0.008135125041007996,0.0020727457012981176,-0.007649902254343033
0.005768544971942902,-0.0029264676850289106,-0.0015274136094376445,-0.008069419302046299,0.0022998966742306948,-0.008097576908767223
0.006389203481376171,-0.0031040252652019262,-0.001588833169080317,-0.007244599983096123,0.0023003662936389446,-0.007723155431449413
0.006759126670658588,-0.003017685143277049,-0.001589215942658484,-0.007120809983462095,0.002271433360874653,-0.00785818975418806
0.006613461766391993,-0.0026991397608071566,-0.0015129970852285624,-0.007954399101436138,0.0020392974838614464,-0.007872600108385086
0.006370060611516237,-0.002486535580828786,-0.0014841100201010704,-0.008117981255054474,0.002137687522917986,-0.00814885925501585
0.00720574613660574,-0.0026055919006466866,-0.001554217073135078,-0.008155358955264091,0.0022581052035093307,-0.008065789006650448
0.006519207265228033,-0.002810719655826688,-0.0015918558929115534,-0.008626521565020084,0.0026955711655318737,-0.008200416341423988
0.006676589138805866,-0.0028150405269116163,-0.0016655258368700743,-0.008728085085749626,0.002365861786529422,-0.00831779558211565
0.006813789717853069,-0.0027329237200319767,-0.0015518751461058855,-0.00872682873159647,0.002173573011532426,-0.007930763997137547
0.006813789717853069,-0.0027329237200319767,-0.0015518751461058855,-0.00872682873159647,0.002173573011532426,-0.007930763997137547
0.007271787151694298,-0.0023824956733733416,-0.0016334570245817304,-0.009591451846063137,0.001934243948198855,-0.008132673799991608
0.00757011491805315,-0.0022999548818916082,-0.001743691391311586,-0.01034034974873066,0.0018813994247466326,-0.008236140012741089
0.007505069486796856,-0.002079024678096175,-0.0018212490249425173,-0.010080673731863499,0.002173254732042551,-0.007814459502696991
0.006968812085688114,-0.002229865174740553,-0.0018250891007483006,-0.009524699300527573,0.002218135865405202,-0.007933314889669418
0.0075561353005468845,-0.0025766079779714346,-0.0016177919460460544,-0.009243408218026161,0.002466428792104125,-0.008178681135177612
0.007582452148199081,-0.0027684534434229136,-0.0013800263404846191,-0.00913917738944292,0.002600886393338442,-0.008403241634368896
0.007730661425739527,-0.002524420851841569,-0.00145836325827986,-0.010318818502128124,0.002463095122948289,-0.008132480084896088
0.006891641765832901,-0.00231574522331357,-0.002030030358582735,-0.01002772618085146,0.0025808867067098618,-0.008462094701826572
0.007280910387635231,-0.0021654744632542133,-0.0020174586679786444,-0.009600207209587097,0.002441904740408063,-0.009007714688777924
0.008172311820089817,-0.002230385784059763,-0.0020726220682263374,-0.009591425769031048,0.00250967126339674,-0.008383824490010738
0.0077557251788675785,-0.002035784535109997,-0.0018495330587029457,-0.010011540725827217,0.0022564767859876156,-0.008551998995244503
0.008066191338002682,-0.0021914103999733925,-0.0017572309589013457,-0.009902937337756157,0.0021861253771930933,-0.00845575612038374
0.00827021524310112,-0.002078339224681258,-0.001792027265764773,-0.010322746820747852,0.0020457496866583824,-0.008495614863932133
0.007796761579811573,-0.002046789973974228,-0.0018086382187902927,-0.010655354708433151,0.0020631030201911926,-0.008738934993743896
0.007762178312987089,-0.0021780997049063444,-0.0018642132636159658,-0.010984052903950214,0.002271803328767419,-0.008535505272448063
0.007521290797740221,-0.002116874558851123,-0.0020936569198966026,-0.011088420636951923,0.002391173504292965,-0.008513914421200752
0.007792738266289234,-0.0018790018511936069,-0.0020791152492165565,-0.010814277455210686,0.002263055881485343,-0.008295421488583088
0.008673426695168018,-0.001851219916716218,-0.002197985304519534,-0.010895493440330029,0.0024129070807248354,-0.008360790088772774
0.008037707768380642,-0.0017736881272867322,-0.002108154585584998,-0.011088332161307335,0.0027057062834501266,-0.00894220545887947
0.008513802662491798,-0.0016496748430654407,-0.0019585757981985807,-0.010846399702131748,0.0030929732602089643,-0.007989106699824333
0.008513802662491798,-0.0016496748430654407,-0.0019585757981985807,-0.010846399702131748,0.0030929732602089643,-0.007989106699824333
0.008481986820697784,-0.0018659401684999466,-0.002198145492002368,-0.010697046294808388,0.0029056547209620476,-0.008132143877446651
0.008481986820697784,-0.0018659401684999466,-0.002198145492002368,-0.010697046294808388,0.0029056547209620476,-0.008132143877446651
0.008688470348715782,-0.0017060732934623957,-0.002131563611328602,-0.01046423427760601,0.0025388121139258146,-0.008498866111040115
0.00842998269945383,-0.0017292853444814682,-0.0019257139647379518,-0.01015193946659565,0.0024756700731813908,-0.007969432510435581
0.008263609372079372,-0.0014763502404093742,-0.002067553112283349,-0.011040015146136284,0.002573027741163969,-0.009017519652843475
0.008263609372079372,-0.0014763502404093742,-0.002067553112283349,-0.011040015146136284,0.002573027741163969,-0.009017519652843475
0.008511865511536598,-0.0015271734446287155,-0.0020866666454821825,-0.010705240070819855,0.002847655676305294,-0.008661238476634026
0.008424323052167892,-0.0013795732520520687,-0.0020044499542564154,-0.011096862144768238,0.0026669763028621674,-0.00862190593034029
0.008566214703023434,-0.0014184309402480721,-0.002118907403200865,-0.011215928010642529,0.0026671462692320347,-0.009449326433241367
0.009002575650811195,-0.001374973333440721,-0.0021004907321184874,-0.010629812255501747,0.0027966112829744816,-0.009132521227002144
0.008723852224647999,-0.001511273207142949,-0.0020322988275438547,-0.011611959896981716,0.0030268854461610317,-0.008543292991816998
0.008359835483133793,-0.0013995739864185452,-0.0021625764202326536,-0.011188313364982605,0.003067560028284788,-0.00864775013178587
0.009649474173784256,-0.0013475683517754078,-0.0020843795500695705,-0.011780386790633202,0.0030592975672334433,-0.009090342558920383
0.009693489409983158,-0.001373628037981689,-0.0022318956907838583,-0.011537974700331688,0.003304258454591036,-0.00933753326535225
0.009091857820749283,-0.0012776239309459925,-0.0020112348720431328,-0.010982622392475605,0.003187403781339526,-0.009427416138350964
0.008012868463993073,-0.001225495245307684,-0.0021382661070674658,-0.0109938969835639,0.002815097337588668,-0.009305442683398724
0.007058395072817802,-0.001091622980311513,-0.0019493787549436092,-0.011199943721294403,0.0024760826490819454,-0.009784715250134468
0.007067656610161066,-0.0010549213038757443,-0.0020884459372609854,-0.01095721498131752,0.0022521778009831905,-0.00933911558240652
0.00740409130230546,-0.001033620210364461,-0.002535678446292877,-0.010946367867290974,0.0020817697513848543,-0.009512800723314285
0.007661851122975349,-0.0010146710556000471,-0.0024677678011357784,-0.010624243877828121,0.002144428202882409,-0.00902709923684597
0.007907113991677761,-0.0009923442266881466,-0.0024961456656455994,-0.010923845693469048,0.0029868916608393192,-0.009379582479596138
0.007698769215494394,-0.0009787471499294043,-0.002131338696926832,-0.011004634201526642,0.0036686942912638187,-0.009531766176223755
0.006887772120535374,-0.000966521620284766,-0.0022388773504644632,-0.010576569475233555,0.003660129848867655,-0.009252269752323627
0.0073472498916089535,-0.0009575522853992879,-0.0025804631877690554,-0.011495186947286129,0.003044071141630411,-0.009164532646536827
0.00787188857793808,-0.0009214181918650866,-0.0025089229457080364,-0.012119374237954617,0.0025461427867412567,-0.00930579099804163
0.007547954563051462,-0.0009198756888508797,-0.0023672408424317837,-0.011173078790307045,0.0022638062946498394,-0.00949456449598074
0.008593808859586716,-0.0008761068456806242,-0.002257795538753271,-0.011917938478291035,0.0019300308777019382,-0.009694182313978672
0.008007007651031017,-0.0008123500156216323,-0.0024611863773316145,-0.012484070844948292,0.0021586741786450148,-0.009417617693543434
0.008045393042266369,-0.0007303773309104145,-0.0023584000300616026,-0.0123955262824893,0.002277079503983259,-0.009311261586844921
0.008045393042266369,-0.0007303773309104145,-0.0023584000300616026,-0.0123955262824893,0.002277079503983259,-0.009311261586844921
0.008129408583045006,-0.0006630800780840218,-0.002467979211360216,-0.012684964574873447,0.0030076235998421907,-0.009316510520875454
0.008360941894352436,-0.0006087817018851638,-0.002314876765012741,-0.012344598770141602,0.0033635850995779037,-0.009032787755131721
0.008227471262216568,-0.0005099198897369206,-0.0022886856459081173,-0.012569908052682877,0.0034430292434990406,-0.009184458293020725
0.008228451013565063,-0.0004576267674565315,-0.002578239655122161,-0.012966731563210487,0.003189563052728772,-0.009359009563922882
0.009130526334047318,-0.0004153605841565877,-0.0023946159053593874,-0.013308108784258366,0.0030061681754887104,-0.009547645226120949
0.009032179601490498,-0.00038025283720344305,-0.002328949747607112,-0.013599367812275887,0.0029338649474084377,-0.009187149815261364
0.009009206667542458,-0.0003506140783429146,-0.002427880186587572,-0.012942609377205372,0.00297031132504344,-0.009880195371806622
0.0091538205742836,-0.0003252647875342518,-0.0025545323733240366,-0.013840552419424057,0.0031379712745547295,-0.009831997565925121
0.0098005011677742,-0.00030333540053106844,-0.0025105352979153395,-0.013805351220071316,0.0030557967256754637,-0.009520264342427254
0.008863457478582859,-0.0002841765817720443,-0.0024781657848507166,-0.014032628387212753,0.002982664853334427,-0.01014052052050829
0.009717154316604137,-0.0003199887287337333,-0.0024491960648447275,-0.014170375652611256,0.0028465904761105776,-0.009876087307929993
0.00983757060021162,-0.0002530121128074825,-0.0023521448019891977,-0.014369298703968525,0.0029596539679914713,-0.009434462524950504
0.00936735887080431,-0.00023891820455901325,-0.0025911962147802114,-0.013996990397572517,0.0032454412430524826,-0.009582694619894028
0.00904159527271986,-0.00018334963533561677,-0.0028842156752943993,-0.014589986763894558,0.0032364914659410715,-0.009987245313823223
0.009469070471823215,-0.00017280393512919545,-0.002708874177187681,-0.014669705182313919,0.003493365366011858,-0.009929975494742393
0.009502994827926159,-0.00016486617096234113,-0.0027503727469593287,-0.014950452372431755,0.003226637840270996,-0.010366663336753845
0.009087186306715012,-0.00015764623822178692,-0.002782655181363225,-0.014577822759747505,0.002897373167797923,-0.009902441874146461
0.009944169782102108,-0.00015103215991985053,-0.0025773216038942337,-0.014952914789319038,0.0029607799369841814,-0.009404448792338371
0.010596358217298985,-0.0001449506962671876,-0.0026291022077202797,-0.014664094895124435,0.0031000010203570127,-0.009267967194318771
0.009700438939034939,-0.00013933988520875573,-0.002694880124181509,-0.015091926790773869,0.003379278816282749,-0.009873169474303722
0.010140305384993553,-0.00010107812704518437,-0.0028213143814355135,-0.01484802458435297,0.0032587209716439247,-0.010389103554189205
0.009980025701224804,-9.700244117993861e-05,-0.0032718235161155462,-0.014891201630234718,0.003359641181305051,-0.010289598256349564
0.010457365773618221,-9.36323995119892e-05,-0.0029547757003456354,-0.015190322883427143,0.0030774162150919437,-0.010399778373539448
0.01133080292493105,0.00013823239714838564,-0.0027896566316485405,-0.01579548418521881,0.003278976073488593,-0.010658450424671173
0.01133080292493105,0.00013823239714838564,-0.0027896566316485405,-0.01579548418521881,0.003278976073488593,-0.010658450424671173
0.009901833720505238,0.0036855258513242006,-0.0031357414554804564,-0.015672994777560234,0.0031379242427647114,-0.010106625966727734
0.01063823327422142,0.002437061397358775,-0.00322708860039711,-0.015696153044700623,0.003066729288548231,-0.009593297727406025
0.010755153372883797,0.00024829007452353835,-0.0031532272696495056,-0.016048572957515717,0.0032055722549557686,-0.009485688991844654
0.010755153372883797,0.00024829007452353835,-0.0031532272696495056,-0.016048572957515717,0.0032055722549557686,-0.009485688991844654
0.010367529466748238,0.000544971670024097,-0.0029931135941296816,-0.016275275498628616,0.0030643390491604805,-0.010329511016607285
0.010937390848994255,0.0009192905272357166,-0.002810186706483364,-0.016126591712236404,0.002849919954314828,-0.009349782019853592
0.010937390848994255,0.0009192905272357166,-0.002810186706483364,-0.016126591712236404,0.002849919954314828,-0.009349782019853592
0.011172480881214142,0.002608740469440818,-0.0030402280390262604,-0.016945447772741318,0.0027617246378213167,-0.009421320632100105
0.010876760818064213,0.0022547803819179535,-0.002959801349788904,-0.0167271476238966,0.002812469145283103,-0.009581789374351501
0.011090408079326153,0.0017255825223401189,-0.0029360456392169,-0.016611767932772636,0.0031642173416912556,-0.009773722849786282
0.011263259686529636,0.0013913350412622094,-0.0028188293799757957,-0.016874486580491066,0.003186622401699424,-0.010021929629147053
0.011560942977666855,0.0011746685486286879,-0.002867704490199685,-0.01721072942018509,0.0034764439333230257,-0.01032453216612339
0.011515181511640549,0.0009267142741009593,-0.0025202303659170866,-0.018147939816117287,0.0032792610581964254,-0.009935004636645317
0.01104696188122034,0.0010517641203477979,-0.002421701094135642,-0.01778392679989338,0.003082459792494774,-0.009967944584786892
0.011721830815076828,0.002247587312012911,-0.0026602582074701786,-0.0177127867937088,0.002953391754999757,-0.010135717689990997
0.011727689765393734,0.0031063007190823555,-0.003210466355085373,-0.018491417169570923,0.0028619193471968174,-0.010224316269159317
0.011956384405493736,0.0025166072882711887,-0.0031898326706141233,-0.01810823380947113,0.0032345717772841454,-0.009534995071589947
0.01154897827655077,0.00172802631277591,-0.0027015574742108583,-0.01915920339524746,0.0037050165701657534,-0.010183149948716164
0.011892089620232582,0.001649202429689467,-0.0027475941460579634,-0.01808863878250122,0.0039342427626252174,-0.010228443890810013
0.012069102376699448,0.0015553253469988704,-0.0030804784037172794,-0.018361028283834457,0.003866511397063732,-0.010569090954959393
0.011272367089986801,0.0015687703853473067,-0.0031728388275951147,-0.019404858350753784,0.003741648280993104,-0.010872295126318932
0.012016181834042072,0.0023140336852520704,-0.0031906545627862215,-0.01913539692759514,0.00345818349160254,-0.01119325216859579
0.011775298044085503,0.0025206319987773895,-0.0029030079022049904,-0.018956732004880905,0.0033475090749561787,-0.010583693161606789
0.011533424258232117,0.0026207235641777515,-0.0029320328030735254,-0.01938219554722309,0.0036320192739367485,-0.010679438710212708
0.011513599194586277,0.002178322523832321,-0.0030963022727519274,-0.019292213022708893,0.0038025621324777603,-0.010320684872567654
0.011127685196697712,0.0019809892401099205,-0.003162049688398838,-0.01896829344332218,0.0038496246561408043,-0.010537195019423962
0.01147636491805315,0.0018571802647784352,-0.003320708405226469,-0.019645798951387405,0.0035217434633523226,-0.010617213323712349
0.011751055717468262,0.0021792978513985872,-0.003146870993077755,-0.01956985890865326,0.003352499334141612,-0.010150095447897911
0.011926712468266487,0.003177986014634371,-0.0029189307242631912,-0.019496113061904907,0.003402162343263626,-0.010676898993551731
0.011353162117302418,0.003362929215654731,-0.0030130823142826557,-0.019922567531466484,0.0037179228384047747,-0.011112933978438377
0.011684862896800041,0.003103844588622451,-0.003227186156436801,-0.019794108346104622,0.0036464266013354063,-0.011351818218827248
0.011132936924695969,0.003010390093550086,-0.0031241984106600285,-0.020238127559423447,0.0034575851168483496,-0.011677123606204987
0.011384109035134315,0.0031032462138682604,-0.003456336911767721,-0.020435413345694542,0.0035788132809102535,-0.012047406286001205
0.012246113270521164,0.0033760445658117533,-0.0031679579988121986,-0.020428024232387543,0.0038683677557855844,-0.011210732161998749
0.012246113270521164,0.0033760445658117533,-0.0031679579988121986,-0.020428024232387543,0.0038683677557855844,-0.011210732161998749
0.011270402930676937,0.0035511862952262163,-0.003107755444943905,-0.020713305100798607,0.003907918464392424,-0.010818743146955967
0.011659272946417332,0.003570985049009323,-0.0028947843238711357,-0.02080770954489708,0.004210995975881815,-0.011678568087518215
0.01247299462556839,0.003689443226903677,-0.002823453163728118,-0.02069767192006111,0.004213073290884495,-0.011589743196964264
0.012196430936455727,0.003752263495698571,-0.003296400886029005,-0.020763607695698738,0.004273946862667799,-0.011691567488014698
0.011840303428471088,0.0037666386924684048,-0.0037403148598968983,-0.020982882007956505,0.004088179673999548,-0.011625809594988823
0.01155861746519804,0.0038224204909056425,-0.0034406844060868025,-0.02099418081343174,0.0039413003250956535,-0.01150420494377613
0.012268983758985996,0.00396924139931798,-0.0031120830681174994,-0.020663993433117867,0.004313222132623196,-0.011803084053099155
0.012176435440778732,0.004531982820481062,-0.0028229092713445425,-0.020856862887740135,0.00411637919023633,-0.012285444885492325
0.011700834147632122,0.005105981603264809,-0.00326332519762218,-0.02154584601521492,0.0043177856132388115,-0.012282177805900574
0.012069541960954666,0.005039745010435581,-0.0037858958821743727,-0.022379975765943527,0.004182456061244011,-0.011888853274285793
0.01210377924144268,0.00551690673455596,-0.003407188458368182,-0.022332370281219482,0.0041556102223694324,-0.01168608944863081
0.01230422779917717,0.005178678315132856,-0.0030702301301062107,-0.02200462855398655,0.004281591158360243,-0.01147145964205265
0.011677922680974007,0.005349316168576479,-0.0029072074685245752,-0.022211749106645584,0.004026042763143778,-0.011773106642067432
0.011851739138364792,0.0056408606469631195,-0.0032667156774550676,-0.022900009527802467,0.003800518112257123,-0.011987196281552315
0.012146702036261559,0.006157632917165756,-0.0036899412516504526,-0.022388076409697533,0.003495238721370697,-0.01164092868566513
0.011472588405013084,0.005686708725988865,-0.0038125847931951284,-0.022592097520828247,0.0032861968502402306,-0.011530500836670399
0.012020980007946491,0.0057669817470014095,-0.0033214755821973085,-0.022582780569791794,0.003371675731614232,-0.01149760652333498
0.012248976156115532,0.005753444507718086,-0.0030980792362242937,-0.023181401193141937,0.0038363952189683914,-0.011684445664286613
0.012098487466573715,0.005654293578118086,-0.00342189846560359,-0.023043779656291008,0.0042181434109807014,-0.011842689476907253
0.012283392250537872,0.005889964755624533,-0.003643790492787957,-0.02311290055513382,0.004439971409738064,-0.011826750822365284
0.01195481512695551,0.006861945614218712,-0.0031893672421574593,-0.022084763273596764,0.0045542046427726746,-0.012194735929369926
0.012533629313111305,0.007157528307288885,-0.0030166595242917538,-0.02245398238301277,0.004614800680428743,-0.012152030132710934
0.01221559289842844,0.00676825363188982,-0.003375415690243244,-0.023763345554471016,0.0047836387529969215,-0.012310151010751724
0.012408163398504257,0.007603388745337725,-0.0033049602061510086,-0.023495715111494064,0.004703978076577187,-0.01182346511632204
0.012408163398504257,0.007603388745337725,-0.0033049602061510086,-0.023495715111494064,0.004703978076577187,-0.01182346511632204
0.012290778569877148,0.007089708931744099,-0.0029278527945280075,-0.02415042743086815,0.004094485193490982,-0.012065338902175426
0.012290778569877148,0.007089708931744099,-0.0029278527945280075,-0.02415042743086815,0.004094485193490982,-0.012065338902175426
0.012029966339468956,0.007625940255820751,-0.0030792413745075464,-0.024420643225312233,0.004149412736296654,-0.012005113996565342
0.012810279615223408,0.008016454055905342,-0.003149391384795308,-0.024549679830670357,0.00429116515442729,-0.012124361470341682
0.012374996207654476,0.00782464724034071,-0.0032828457187861204,-0.023914877325296402,0.004546203650534153,-0.012172774411737919
0.01294346246868372,0.007635785732418299,-0.003122796770185232,-0.02421603351831436,0.004513773135840893,-0.012436863966286182
0.012594806030392647,0.007599415257573128,-0.0029319606255739927,-0.025301754474639893,0.004041757900267839,-0.01235775463283062
0.012964829802513123,0.008424660190939903,-0.0032089629676193,-0.025502832606434822,0.0038160954136401415,-0.012401731684803963
0.012642944231629372,0.007999826222658157,-0.003448447911068797,-0.025589296594262123,0.004221575800329447,-0.012514987960457802
0.012302223592996597,0.007614806294441223,-0.003475694451481104,-0.025359222665429115,0.004673001356422901,-0.012710044160485268
0.012879746034741402,0.007542435545474291,-0.0031117114704102278,-0.025188615545630455,0.004864888731390238,-0.012426843866705894
0.012929148972034454,0.008075355552136898,-0.003032353473827243,-0.026120828464627266,0.004875528160482645,-0.01266857422888279
0.012884567491710186,0.007907945662736893,-0.003459309693425894,-0.026093648746609688,0.004628307651728392,-0.012726842425763607
0.012935373932123184,0.00857374258339405,-0.003791457274928689,-0.026516951620578766,0.0042621660977602005,-0.012516196817159653
0.013219108805060387,0.008640751242637634,-0.0033172692637890577,-0.026754505932331085,0.004086506552994251,-0.012629823759198189
0.013123640790581703,0.008654013276100159,-0.0031106481328606606,-0.026565924286842346,0.004446079023182392,-0.012395973317325115
0.013065166771411896,0.008705725893378258,-0.003352375002577901,-0.02632417343556881,0.004793818574398756,-0.01271150354295969
0.01311509683728218,0.008627212606370449,-0.003350859507918358,-0.026149088516831398,0.004952076822519302,-0.013044276274740696
0.012956293299794197,0.00924092810600996,-0.0035773515701293945,-0.026841944083571434,0.004705302882939577,-0.013088283129036427
0.013558262959122658,0.009030768647789955,-0.0036371105816215277,-0.02658611722290516,0.004429792053997517,-0.013266990892589092
0.012835612520575523,0.009095767512917519,-0.0033609059173613787,-0.026309911161661148,0.0043619959615170956,-0.013369281776249409
0.013180537149310112,0.009185384958982468,-0.003376353532075882,-0.027204781770706177,0.004289225675165653,-0.012930216267704964
0.013069783337414265,0.009073123335838318,-0.003642837516963482,-0.026624329388141632,0.004390012472867966,-0.012986629270017147
0.013301387429237366,0.009297776035964489,-0.003232429036870599,-0.026270922273397446,0.0044202012941241264,-0.012744906358420849
0.01292598806321621,0.009743801318109035,-0.003167084651067853,-0.02622574381530285,0.0045899078249931335,-0.012193948961794376
0.013375597074627876,0.009908083826303482,-0.0033357786014676094,-0.026550745591521263,0.0048108226619660854,-0.012756844982504845
0.013366234488785267,0.009493643417954445,-0.003708732547238469,-0.02742340974509716,0.005340179428458214,-0.013296188786625862
0.013468343764543533,0.009768328629434109,-0.0038420804776251316,-0.028359951451420784,0.0051388489082455635,-0.013373441062867641
0.013696149922907352,0.010359792038798332,-0.0037192548625171185,-0.02772338315844536,0.004451937507838011,-0.013610190711915493
0.013695759698748589,0.010227582417428493,-0.0033282109070569277,-0.029283497482538223,0.004051229916512966,-0.01321488432586193
0.013735675252974033,0.010960022918879986,-0.0037517009768635035,-0.028732210397720337,0.004748668987303972,-0.012928188778460026
0.014098207466304302,0.010059668682515621,-0.004018429666757584,-0.028207693248987198,0.005495784338563681,-0.013163343071937561
0.014098207466304302,0.010059668682515621,-0.004018429666757584,-0.028207693248987198,0.005495784338563681,-0.013163343071937561
0.013730878941714764,0.01049012504518032,-0.003465808928012848,-0.028188172727823257,0.005159459542483091,-0.013232115656137466
0.013994765467941761,0.010678008198738098,-0.0034840230364352465,-0.029302779585123062,0.004756598267704248,-0.0138194989413023
0.013716600835323334,0.010743689723312855,-0.0041026524268090725,-0.02912766858935356,0.00445906026288867,-0.013996093533933163
0.014065645635128021,0.011587513610720634,-0.004345197230577469,-0.029210034757852554,0.004572646226733923,-0.013759110122919083
0.013805119320750237,0.011075864546000957,-0.004067586734890938,-0.029704269021749496,0.004622363951057196,-0.013094045221805573
0.014593763276934624,0.011334777809679508,-0.0038573278579860926,-0.029767366126179695,0.005111565813422203,-0.012931701727211475
0.014379935339093208,0.011762143112719059,-0.004252674523741007,-0.029472775757312775,0.0054076798260211945,-0.013200952671468258
0.014805717393755913,0.011148490943014622,-0.004228333942592144,-0.029797164723277092,0.005100996699184179,-0.013197860680520535
0.01432105340063572,0.011518813669681549,-0.004427803680300713,-0.030161315575242043,0.00511337723582983,-0.013836279511451721
0.014713658951222897,0.010977384634315968,-0.004583136178553104,-0.030046382918953896,0.004919712897390127,-0.013620572164654732
0.014306076802313328,0.011398044414818287,-0.004591928329318762,-0.029791666194796562,0.004930700175464153,-0.013634993694722652
0.014594297856092453,0.012159589678049088,-0.004141842946410179,-0.03028467856347561,0.005983198061585426,-0.014065876603126526
0.014363590627908707,0.011732499115169048,-0.004471284803003073,-0.030417727306485176,0.0057951901108026505,-0.01361843291670084
0.015142308548092842,0.012062618508934975,-0.004778052680194378,-0.030206209048628807,0.005689410958439112,-0.01365912239998579
0.014703224413096905,0.010767867788672447,-0.004638520069420338,-0.02974478155374527,0.004803936462849379,-0.013960149139165878
0.015210730023682117,0.010777919553220272,-0.004470381885766983,-0.029552271589636803,0.004488457925617695,-0.014138096943497658
0.015215658582746983,0.011455310508608818,-0.004814554937183857,-0.029552044346928596,0.004599798936396837,-0.014315050095319748
0.015958398580551147,0.010894306004047394,-0.004748453386127949,-0.029692696407437325,0.005291111301630735,-0.01397708710283041
0.01656726561486721,0.01171852182596922,-0.004866956267505884,-0.029871005564928055,0.0055501884780824184,-0.013938997872173786
0.016812557354569435,0.01193135417997837,-0.004717507399618626,-0.02989821881055832,0.0055439164862036705,-0.014008103869855404
0.01696745865046978,0.01149070356041193,-0.0046709198504686356,-0.030268551781773567,0.004677983000874519,-0.014315295964479446
0.016529515385627747,0.011477774009108543,-0.004459538497030735,-0.03002101555466652,0.004471688065677881,-0.01394967082887888
0.01661681942641735,0.011202563531696796,-0.005119789391756058,-0.03140866756439209,0.005018428899347782,-0.014024128206074238
0.016760455444455147,0.01173944678157568,-0.004907706752419472,-0.02987569384276867,0.0054905530996620655,-0.014040420763194561
0.016956808045506477,0.01146286353468895,-0.004113055299967527,-0.02984788827598095,0.005607238970696926,-0.014293559826910496
0.01660614274442196,0.01099142711609602,-0.004184653051197529,-0.03053046017885208,0.005103135947138071,-0.014168063178658485
0.016583234071731567,0.012038358487188816,-0.004172248300164938,-0.030713830143213272,0.004534129984676838,-0.014390048570930958
0.01698010042309761,0.011486335657536983,-0.0050908541306853294,-0.031250931322574615,0.006011762656271458,-0.014946097508072853
0.016040951013565063,0.011351607739925385,-0.004908460658043623,-0.032004088163375854,0.005933935288339853,-0.014805423095822334
0.017613153904676437,0.011362835764884949,-0.004536203108727932,-0.03201724961400032,0.0060286871157586575,-0.014743514358997345
0.017613153904676437,0.011362835764884949,-0.004536203108727932,-0.03201724961400032,0.0060286871157586575,-0.014743514358997345
0.017363321036100388,0.011826987378299236,-0.004511517938226461,-0.03143099695444107,0.005448225885629654,-0.014600638300180435
0.017125092446804047,0.011869465932250023,-0.005158949643373489,-0.03258974850177765,0.005066041834652424,-0.014830216765403748
0.017186446115374565,0.011914137750864029,-0.005123077426105738,-0.03436022251844406,0.004921899642795324,-0.014819636009633541
0.017100881785154343,0.011493321508169174,-0.004739006981253624,-0.03409042954444885,0.005194907542318106,-0.0148540074005723
0.01721990294754505,0.011371834203600883,-0.005259520839899778,-0.032551877200603485,0.005341655109077692,-0.01477520726621151
0.01702626794576645,0.011894365772604942,-0.004629823379218578,-0.03348260372877121,0.005354448687285185,-0.014729066751897335
0.017550405114889145,0.011493165977299213,-0.004185544792562723,-0.03445526957511902,0.0053514656610786915,-0.014900585636496544
0.01746496744453907,0.011852828785777092,-0.004539556335657835,-0.03450727090239525,0.0051460666581988335,-0.015262192115187645
0.01768665574491024,0.011575380340218544,-0.004959429614245892,-0.035537272691726685,0.005771672818809748,-0.014699780382215977
0.01776912808418274,0.011656570248305798,-0.004856367129832506,-0.03490782156586647,0.005606998223811388,-0.014477107673883438
0.017510756850242615,0.011989763006567955,-0.004563294351100922,-0.033640824258327484,0.005771341733634472,-0.014428594149649143
0.017687540501356125,0.011613210663199425,-0.0048958733677864075,-0.03302524611353874,0.0058578443713486195,-0.014895736239850521
0.017667414620518684,0.012295452877879143,-0.0048767272382974625,-0.03394500911235809,0.005382942501455545,-0.014623347669839859
0.017957331612706184,0.012007595039904118,-0.004248619545251131,-0.03456483036279678,0.005080439615994692,-0.014816752634942532
0.017976010218262672,0.012024767696857452,-0.0043652355670928955,-0.0348697192966938,0.005645939614623785,-0.014750214293599129
0.017667030915617943,0.012280681170523167,-0.00416379701346159,-0.03492430970072746,0.005473525263369083,-0.015238051302731037
0.018134864047169685,0.011278466321527958,-0.004939218517392874,-0.03590817376971245,0.005942611023783684,-0.015185977332293987
0.017884494736790657,0.01194731704890728,-0.005444972775876522,-0.034900929778814316,0.005508871283382177,-0.015201051719486713
0.017671074718236923,0.012023827992379665,-0.004621568135917187,-0.034886956214904785,0.0056664529256522655,-0.015107357874512672
0.01799440197646618,0.012475908733904362,-0.0042163049802184105,-0.03518211096525192,0.005442749243229628,-0.01535279955714941
0.01780734397470951,0.012587065808475018,-0.004027896095067263,-0.03609459102153778,0.005165294278413057,-0.015326712280511856
0.018208064138889313,0.012271345593035221,-0.004564205184578896,-0.036003611981868744,0.005644528195261955,-0.015408624894917011
0.018391059711575508,0.01284040417522192,-0.005299773532897234,-0.03637854382395744,0.005863378755748272,-0.015594112686812878
0.017674731090664864,0.012240768410265446,-0.0049706208519637585,-0.035970184952020645,0.0058676330372691154,-0.015478936955332756
0.018404651433229446,0.012325107119977474,-0.004772762767970562,-0.03619543835520744,0.0059935166500508785,-0.015440146438777447
0.01838568225502968,0.011999404057860374,-0.004692422226071358,-0.03712456673383713,0.0054983231239020824,-0.015290921553969383
0.018071934580802917,0.012691034935414791,-0.0048887417651712894,-0.037153277546167374,0.005842150654643774,-0.015400223433971405
0.018253866583108902,0.012245601043105125,-0.004496547859162092,-0.0354805588722229,0.0058580017648637295,-0.015234527178108692
0.018454717472195625,0.0132305221632123,-0.004377519711852074,-0.036112572997808456,0.005876973271369934,-0.015050406567752361
0.018553996458649635,0.012816746719181538,-0.004610427655279636,-0.03618244454264641,0.00605563772842288,-0.015322658233344555
0.018553996458649635,0.012816746719181538,-0.004610427655279636,-0.03618244454264641,0.00605563772842288,-0.015322658233344555
0.018318910151720047,0.013263579457998276,-0.00478759128600359,-0.03779689222574234,0.005883022211492062,-0.01522324699908495
0.01867576502263546,0.013551688753068447,-0.004898440092802048,-0.035306625068187714,0.00639917841181159,-0.015287335962057114
0.01867576502263546,0.013551688753068447,-0.004898440092802048,-0.035306625068187714,0.00639917841181159,-0.015287335962057114
0.018478766083717346,0.012773862108588219,-0.004412958398461342,-0.03636323660612106,0.006000541150569916,-0.015402046032249928
0.01877519115805626,0.01329219713807106,-0.0045876652002334595,-0.03708253428339958,0.005955512169748545,-0.015397119335830212
0.018927250057458878,0.013067240826785564,-0.004902313929051161,-0.03691035136580467,0.005654304288327694,-0.01561235636472702
0.018750861287117004,0.013029301539063454,-0.0052042375318706036,-0.03647554665803909,0.005582697223871946,-0.016279589384794235
0.019434435293078423,0.013558214530348778,-0.004893967881798744,-0.03710047900676727,0.005398381967097521,-0.015605194494128227
0.019703418016433716,0.013661266304552555,-0.004266774747520685,-0.03624637424945831,0.005670818965882063,-0.015777546912431717
0.018959268927574158,0.013869169168174267,-0.004295664373785257,-0.03636109083890915,0.005466428119689226,-0.01582423783838749
0.018769653514027596,0.01458568125963211,-0.00501660443842411,-0.03676015883684158,0.005362632218748331,-0.015995103865861893
0.01915864273905754,0.013346941210329533,-0.0051383147947490215,-0.03720584139227867,0.005218484438955784,-0.016057241708040237
0.01888669654726982,0.013132727704942226,-0.005007113330066204,-0.03749222308397293,0.005702451802790165,-0.01581953838467598
0.01952766627073288,0.01380086038261652,-0.004553229082375765,-0.03677621856331825,0.006012187339365482,-0.016062920913100243
0.01920348033308983,0.013545963913202286,-0.004449343774467707,-0.037093162536621094,0.006104253698140383,-0.0162757970392704
0.018672652542591095,0.014137123711407185,-0.004850899334996939,-0.037894900888204575,0.005607883911579847,-0.016644004732370377
0.01972252130508423,0.013856155797839165,-0.0049476646818220615,-0.037823911756277084,0.005479590035974979,-0.016930745914578438
0.02016550861299038,0.014704142697155476,-0.005119014997035265,-0.037985946983098984,0.005234495270997286,-0.016847461462020874
0.019797902554273605,0.014597168192267418,-0.00492202490568161,-0.03838750720024109,0.0057527911849319935,-0.016359075903892517
0.020208535715937614,0.014974303543567657,-0.004471422638744116,-0.03850587457418442,0.005861623678356409,-0.016769152134656906
0.019925400614738464,0.014343502931296825,-0.0046526542864739895,-0.038647428154945374,0.005771078635007143,-0.01679498329758644
0.01973656564950943,0.014919593930244446,-0.005111427512019873,-0.03895715996623039,0.006003932096064091,-0.01701437123119831
0.019390424713492393,0.014390083029866219,-0.0048604621551930904,-0.038781363517045975,0.005524919833987951,-0.017078127712011337
0.01976410113275051,0.015160477720201015,-0.00421327305957675,-0.03961735963821411,0.005903577897697687,-0.016096720471978188
0.020708905532956123,0.014693446457386017,-0.004388239234685898,-0.039518263190984726,0.0062660458497703075,-0.01636778563261032
0.020607206970453262,0.014589982107281685,-0.004947735462337732,-0.040380075573921204,0.00662106042727828,-0.016310881823301315
0.0208797175437212,0.015102270990610123,-0.005042290780693293,-0.04029277712106705,0.006003015208989382,-0.01683981344103813
0.0208797175437212,0.015102270990610123,-0.005042290780693293,-0.04029277712106705,0.006003015208989382,-0.01683981344103813
0.020382080227136612,0.01462119072675705,-0.004373470321297646,-0.039366018027067184,0.005833218805491924,-0.01706869527697563
0.021140336990356445,0.015202593058347702,-0.00448465533554554,-0.03854585811495781,0.006063321605324745,-0.017204660922288895
0.02104087360203266,0.014802105724811554,-0.004742057994008064,-0.03994005173444748,0.005928554106503725,-0.016970068216323853
0.02075061947107315,0.015029171481728554,-0.005790161434561014,-0.04070744663476944,0.006150946021080017,-0.016857542097568512
0.020938556641340256,0.015401103533804417,-0.005151126533746719,-0.041292741894721985,0.006438511423766613,-0.016923248767852783
0.021076584234833717,0.01528517808765173,-0.004422828555107117,-0.04134704917669296,0.00624114228412509,-0.016996566206216812
0.021362558007240295,0.015200551599264145,-0.004040645435452461,-0.03960483893752098,0.006248253397643566,-0.01693311147391796
0.02115345001220703,0.015014445409178734,-0.004387676250189543,-0.03928808122873306,0.005815680604428053,-0.016599709168076515
0.021488560363650322,0.015543189831078053,-0.005703871138393879,-0.04155836999416351,0.006031055934727192,-0.016709348186850548
0.021706463769078255,0.015514763072133064,-0.005474587436765432,-0.0419158898293972,0.00655024591833353,-0.01711156778037548
0.021480966359376907,0.01574837416410446,-0.004668092355132103,-0.04161471128463745,0.006298021413385868,-0.01712688058614731
0.02183927409350872,0.015261990949511528,-0.004065637942403555,-0.04180426523089409,0.006478400900959969,-0.01712188310921192
0.02178402990102768,0.01601266674697399,-0.004885094240307808,-0.04217907786369324,0.006347625982016325,-0.016807079315185547
0.022078944370150566,0.01549508236348629,-0.005249305162578821,-0.042145177721977234,0.006516218185424805,-0.017152417451143265
0.021796174347400665,0.016050906851887703,-0.005737521685659885,-0.04207659140229225,0.006500656250864267,-0.017100365832448006
0.021721165627241135,0.015729995444417,-0.004937929566949606,-0.04209616780281067,0.0063597699627280235,-0.017407182604074478
0.021707361564040184,0.01595388352870941,-0.004602626897394657,-0.042621176689863205,0.006437115371227264,-0.0170733779668808
0.022030575200915337,0.015778198838233948,-0.0049196816980838776,-0.04246174544095993,0.006475455593317747,-0.016648830845952034
0.02196626365184784,0.01592296175658703,-0.005382610019296408,-0.04131445661187172,0.006344836670905352,-0.017905373126268387
0.022132910788059235,0.016167152673006058,-0.0055983844213187695,-0.041636742651462555,0.0065452829003334045,-0.016990777105093002
0.022001922130584717,0.015995483845472336,-0.005126983858644962,-0.04280256852507591,0.006698330864310265,-0.017192266881465912
0.02263087034225464,0.0157005675137043,-0.0051293689757585526,-0.04034104570746422,0.006357462145388126,-0.01718476228415966
0.022052817046642303,0.01615460030734539,-0.005446447059512138,-0.041103873401880264,0.006320084445178509,-0.01746584102511406
0.02251126430928707,0.01567702181637287,-0.005590738262981176,-0.04118664562702179,0.006446388084441423,-0.01747283898293972
0.02251126430928707,0.01567702181637287,-0.005590738262981176,-0.04118664562702179,0.006446388084441423,-0.01747283898293972
0.022768300026655197,0.016248321160674095,-0.005227981600910425,-0.04207313805818558,0.006356156896799803,-0.0176329854875803
0.02329968847334385,0.016412340104579926,-0.0056901173666119576,-0.04249183088541031,0.006233235355466604,-0.01721835881471634
0.02300732210278511,0.016279183328151703,-0.0059968456625938416,-0.040266260504722595,0.006281514186412096,-0.01751038432121277
0.02271910384297371,0.017284754663705826,-0.006031603552401066,-0.04121331125497818,0.006032921373844147,-0.017703881487250328
0.02058323286473751,0.01679052971303463,-0.0058448598720133305,-0.042116448283195496,0.00649156654253602,-0.017684955149888992
0.02363838255405426,0.017327027395367622,-0.005922042299062014,-0.04236869513988495,0.0064591034315526485,-0.017624154686927795
0.023955175653100014,0.0166368018835783,-0.005698683205991983,-0.04208409786224365,0.006201472599059343,-0.01747572049498558
0.02326130121946335,0.016390392556786537,-0.006127901375293732,-0.04200288653373718,0.006404269021004438,-0.016985563561320305
0.02328268438577652,0.016763774678111076,-0.006556036416441202,-0.0428963378071785,0.006793327629566193,-0.01686001755297184
0.023492228239774704,0.016757600009441376,-0.005945870187133551,-0.04409487918019295,0.006870483513921499,-0.01673976518213749
0.023257208988070488,0.01699339784681797,-0.005947951693087816,-0.043027784675359726,0.00677436962723732,-0.01702256314456463
0.02336387149989605,0.016565850004553795,-0.006408056244254112,-0.042157821357250214,0.0064316848292946815,-0.017276069149374962
0.023700740188360214,0.01675707846879959,-0.006478789262473583,-0.042761221528053284,0.006483449600636959,-0.017871329560875893
0.023220021277666092,0.01718176156282425,-0.0061868941411376,-0.04343704134225845,0.00646943086758256,-0.017872216179966927
0.022797565907239914,0.01693490520119667,-0.006096333730965853,-0.043437566608190536,0.006447319407016039,-0.017713263630867004
0.023386886343359947,0.017562562599778175,-0.0060331085696816444,-0.04348742216825485,0.006628618575632572,-0.017748450860381126
0.02403160184621811,0.01740759238600731,-0.006798953749239445,-0.04364587739109993,0.007189345080405474,-0.018161380663514137
0.02410542592406273,0.01702931523323059,-0.006406253669410944,-0.04408155754208565,0.00734869996085763,-0.018473345786333084
0.023809727281332016,0.016917813569307327,-0.006494729779660702,-0.0435134693980217,0.00692399637773633,-0.01813029684126377
0.023623481392860413,0.017041275277733803,-0.006173794623464346,-0.04343533143401146,0.0066780028864741325,-0.017161093652248383
0.023754479363560677,0.017371956259012222,-0.006317873951047659,-0.04437771067023277,0.006623002700507641,-0.017304325476288795
0.023658661171793938,0.016855251044034958,-0.006266675423830748,-0.04407903552055359,0.006491213105618954,-0.017586594447493553
0.024115197360515594,0.017902113497257233,-0.006261914502829313,-0.04631303250789642,0.006878955755382776,-0.017725689336657524
0.024115197360515594,0.017902113497257233,-0.006261914502829313,-0.04631303250789642,0.006878955755382776,-0.017725689336657524
0.02413937635719776,0.017591720446944237,-0.006807996425777674,-0.04387350007891655,0.00659582344815135,-0.018012244254350662
0.02413937635719776,0.017591720446944237,-0.006807996425777674,-0.04387350007891655,0.00659582344815135,-0.018012244254350662
0.02423957735300064,0.01733516715466976,-0.006320615764707327,-0.04464198648929596,0.00644758390262723,-0.018171489238739014
0.02406354621052742,0.017732877284288406,-0.0062958612106740475,-0.046859100461006165,0.006770838052034378,-0.01841840147972107
0.024194974452257156,0.01794249378144741,-0.006730441004037857,-0.046519894152879715,0.006867093499749899,-0.017172306776046753
0.0244381632655859,0.017941562458872795,-0.006625314708799124,-0.044469550251960754,0.00697574345394969,-0.017712954431772232
0.02449873648583889,0.01842302829027176,-0.007163878530263901,-0.04518963024020195,0.006731081288307905,-0.018030885607004166
0.024514954537153244,0.017761822789907455,-0.006338384002447128,-0.04621724784374237,0.0071038114838302135,-0.01825803518295288
0.024176109582185745,0.018226059153676033,-0.006371908355504274,-0.045952826738357544,0.0073570674285292625,-0.018354523926973343
0.024337174370884895,0.01877637580037117,-0.007148857228457928,-0.04560111463069916,0.007339237257838249,-0.017877686768770218
0.024647241458296776,0.0181597713381052,-0.0071165491826832294,-0.04576009511947632,0.00742739625275135,-0.01796969771385193
0.024476485326886177,0.01826217956840992,-0.00735475542023778,-0.04565053805708885,0.0068312743678689,-0.01809591054916382
0.024562545120716095,0.018967092037200928,-0.006474399473518133,-0.04533953592181206,0.0070289564318954945,-0.01813698746263981
0.024558430537581444,0.01823601871728897,-0.0064896452240645885,-0.0456751249730587,0.007182023953646421,-0.018343133851885796
0.024861812591552734,0.018507981672883034,-0.006973673589527607,-0.04582342877984047,0.006888449192047119,-0.018298283219337463
0.02453131228685379,0.018702100962400436,-0.007357691880315542,-0.04597499221563339,0.007117189932614565,-0.018423203378915787
0.02439691498875618,0.018614387139678,-0.0067702485248446465,-0.045367322862148285,0.007158593740314245,-0.018735000863671303
0.024913989007472992,0.01894241012632847,-0.006372261792421341,-0.04519842192530632,0.006887651979923248,-0.01867070235311985
0.024979067966341972,0.018464945256710052,-0.006929980590939522,-0.045534294098615646,0.006736804731190205,-0.019018050283193588
0.025003954768180847,0.018450746312737465,-0.007455894723534584,-0.04698750004172325,0.007406149059534073,-0.018696032464504242
0.02367287501692772,0.018939880654215813,-0.006741183344274759,-0.046118151396512985,0.007295410148799419,-0.018203267827630043
0.025066683068871498,0.019046053290367126,-0.006828145124018192,-0.04437406361103058,0.006945076398551464,-0.01863611303269863
0.025476332753896713,0.018952470272779465,-0.006830252707004547,-0.046043556183576584,0.0071873050183057785,-0.018633240833878517
0.025494905188679695,0.01879914291203022,-0.008001415990293026,-0.04589325189590454,0.006892051547765732,-0.018408022820949554
0.02511286921799183,0.018891751766204834,-0.007930710911750793,-0.04780532419681549,0.006967065390199423,-0.018886761739850044
0.025669727474451065,0.01946362480521202,-0.007113783620297909,-0.04621608555316925,0.006911887787282467,-0.0189684871584177
0.025138581171631813,0.019316591322422028,-0.0068103112280368805,-0.0479719378054142,0.006967558059841394,-0.0192941315472126
0.025720851495862007,0.018801573663949966,-0.007799850776791573,-0.04822923615574837,0.007383013144135475,-0.018873071298003197
0.025794807821512222,0.019485250115394592,-0.006806675344705582,-0.048387497663497925,0.007602848578244448,-0.018709609284996986
0.025120791047811508,0.01908038556575775,-0.006564628798514605,-0.0481276735663414,0.007070482242852449,-0.0189801212400198
0.02566862292587757,0.01961595192551613,-0.0066545382142066956,-0.048338938504457474,0.007126849610358477,-0.01906450092792511
0.02649375982582569,0.020176779478788376,-0.007366945035755634,-0.048928044736385345,0.007916543632745743,-0.01987108401954174
0.025360140949487686,0.021051423624157906,-0.007288988213986158,-0.04889865964651108,0.008699262514710426,-0.018300728872418404
0.025784917175769806,0.020440373569726944,-0.007275094278156757,-0.049139589071273804,0.00726075004786253,-0.018271896988153458
0.025784917175769806,0.020440373569726944,-0.007275094278156757,-0.049139589071273804,0.00726075004786253,-0.018271896988153458
0.025317281484603882,0.019992031157016754,-0.007099611219018698,-0.04932117089629173,0.006950133014470339,-0.01938401535153389
0.025317281484603882,0.019992031157016754,-0.007099611219018698,-0.04932117089629173,0.006950133014470339,-0.01938401535153389
0.026077091693878174,0.01965470053255558,-0.0068944646045565605,-0.04959569498896599,0.007489259820431471,-0.019260842353105545
0.026532428339123726,0.020072435960173607,-0.006883248686790466,-0.049942441284656525,0.007896749302744865,-0.019439391791820526
0.026354297995567322,0.02037871442735195,-0.006999953184276819,-0.049943093210458755,0.0076912944205105305,-0.019599996507167816
0.025923091918230057,0.020435195416212082,-0.007477226667106152,-0.049833107739686966,0.0074182478711009026,-0.01899520680308342
0.02616659738123417,0.02011987194418907,-0.00685886899009347,-0.04951466619968414,0.007223960943520069,-0.019560784101486206
0.026123950257897377,0.020577529445290565,-0.007208739407360554,-0.05171770602464676,0.007209827192127705,-0.020312542095780373
0.02586830034852028,0.020831186324357986,-0.006747871171683073,-0.05052352324128151,0.006964202970266342,-0.02011249028146267
0.026087619364261627,0.02083101123571396,-0.007133360952138901,-0.04834626987576485,0.00711199501529336,-0.01990320347249508
0.026461655274033546,0.02094917930662632,-0.006855720188468695,-0.05026639625430107,0.0071955472230911255,-0.019905099645256996
0.025996632874011993,0.02134566754102707,-0.006501557305455208,-0.0514950267970562,0.00706052640452981,-0.019447140395641327
0.02657180093228817,0.020559150725603104,-0.007198544219136238,-0.05243688449263573,0.007151688449084759,-0.019858509302139282
0.026441054418683052,0.02050650864839554,-0.007804763037711382,-0.04988202825188637,0.007415705360472202,-0.020284490659832954
0.026215119287371635,0.021168425679206848,-0.0077881766483187675,-0.050596512854099274,0.007801561150699854,-0.02072829380631447
0.026462513953447342,0.02135070413351059,-0.006887942086905241,-0.05078206583857536,0.007365622092038393,-0.01998853124678135
0.025113005191087723,0.021088041365146637,-0.006428221706300974,-0.05044356361031532,0.00697735883295536,-0.02004743367433548
0.02695358358323574,0.02113088220357895,-0.006805410608649254,-0.050436295568943024,0.007109999191015959,-0.020031917840242386
0.027373161166906357,0.02131192572414875,-0.007505388464778662,-0.05059655010700226,0.007792443968355656,-0.01964360475540161
0.026705095544457436,0.020910128951072693,-0.0064087603241205215,-0.05084795877337456,0.007914528250694275,-0.020751070231199265
0.026802970096468925,0.021149009466171265,-0.006695265416055918,-0.05023723840713501,0.00752207450568676,-0.020648807287216187
0.026956379413604736,0.02189606800675392,-0.00788186490535736,-0.051460493355989456,0.007367578335106373,-0.020041385665535927
0.027632547542452812,0.02195582538843155,-0.007704086601734161,-0.05154846981167793,0.007981727831065655,-0.020557980984449387
0.027981247752904892,0.02189381793141365,-0.006569055840373039,-0.05184962972998619,0.008415880613029003,-0.01987888477742672
0.028289664536714554,0.02173721231520176,-0.006453147158026695,-0.05194379761815071,0.008067497983574867,-0.02043045684695244
0.026681970804929733,0.022231394425034523,-0.0072570969350636005,-0.05278456211090088,0.00762154208496213,-0.020468782633543015
0.02718103677034378,0.02233406901359558,-0.007441189140081406,-0.05390297621488571,0.00761908944696188,-0.019933313131332397
0.02718103677034378,0.02233406901359558,-0.007441189140081406,-0.05390297621488571,0.00761908944696188,-0.019933313131332397
0.02841850370168686,0.02212182804942131,-0.006952348165214062,-0.051273416727781296,0.007762083783745766,-0.01934794895350933
0.02832167223095894,0.022233562543988228,-0.006744398269802332,-0.05186847224831581,0.007974955253303051,-0.019963126629590988
0.028511958196759224,0.022537464275956154,-0.006394627038389444,-0.053578972816467285,0.008211690932512283,-0.020493319258093834
0.02894674427807331,0.022656960412859917,-0.007190377451479435,-0.05398091301321983,0.007819591090083122,-0.020341457799077034
0.029391709715127945,0.022993024438619614,-0.007028027903288603,-0.05222943797707558,0.007661866489797831,-0.020393144339323044
0.02898404560983181,0.022565146908164024,-0.006775792222470045,-0.05308064445853233,0.008590218611061573,-0.02017795853316784
0.028016909956932068,0.022451406344771385,-0.006883963476866484,-0.05406908318400383,0.008060230873525143,-0.02025841735303402
0.02863498032093048,0.022943975403904915,-0.007527944631874561,-0.054283272475004196,0.007740879897028208,-0.020090823993086815
0.029478270560503006,0.023298712447285652,-0.007742555812001228,-0.054532792419195175,0.007865735329687595,-0.02057608775794506
0.029493913054466248,0.023043453693389893,-0.007132719270884991,-0.0550394244492054,0.007860591635107994,-0.020841967314481735
0.029569121077656746,0.02266240306198597,-0.00654581980779767,-0.05444440245628357,0.007965669967234135,-0.020336458459496498
0.02985057793557644,0.02294842153787613,-0.00693549495190382,-0.05492502078413963,0.007793550845235586,-0.020553112030029297
0.029718326404690742,0.023371821269392967,-0.007207665126770735,-0.05512382835149765,0.00800427794456482,-0.021017545834183693
0.029830923303961754,0.023298213258385658,-0.006677428260445595,-0.05578847602009773,0.008292418904602528,-0.02094392664730549
0.028794704005122185,0.02358745038509369,-0.006917196325957775,-0.05569976568222046,0.008455472066998482,-0.020845163613557816
0.0304610226303339,0.023522377014160156,-0.007486814167350531,-0.055976178497076035,0.00810233410447836,-0.02063581347465515
0.030840713530778885,0.023630371317267418,-0.0071070995181798935,-0.056022100150585175,0.008561299182474613,-0.020678846165537834
0.030575275421142578,0.024001598358154297,-0.006548783741891384,-0.05565421283245087,0.008036628365516663,-0.021060245111584663
0.03064563497900963,0.02395688183605671,-0.006754197645932436,-0.05654625967144966,0.008154329843819141,-0.021706024184823036
0.030987003818154335,0.023916475474834442,-0.007193396799266338,-0.05463311821222305,0.008342146873474121,-0.02046685852110386
0.030889663845300674,0.024486437439918518,-0.006502736825495958,-0.05505834147334099,0.008273376151919365,-0.019838908687233925
0.03125423192977905,0.024128619581460953,-0.007161794230341911,-0.05712559074163437,0.008571497164666653,-0.020569603890180588
0.03136191517114639,0.02429906837642193,-0.006953067611902952,-0.05544857308268547,0.00813873577862978,-0.021403515711426735
0.031673021614551544,0.024089019745588303,-0.0070429309271276,-0.05500113219022751,0.008043259382247925,-0.02222582884132862
0.03154152259230614,0.023991519585251808,-0.007106023840606213,-0.05623650923371315,0.008400633931159973,-0.021755538880825043
0.03151022270321846,0.024059806019067764,-0.006587245501577854,-0.05653022602200508,0.008441796526312828,-0.020873192697763443
0.03151022270321846,0.024059806019067764,-0.006587245501577854,-0.05653022602200508,0.008441796526312828,-0.020873192697763443
0.032026033848524094,0.02464030683040619,-0.006648619659245014,-0.05662129819393158,0.008447364903986454,-0.020499441772699356
0.031611282378435135,0.02410813421010971,-0.006761016324162483,-0.05744757503271103,0.008227605372667313,-0.020766770467162132
0.03178561478853226,0.024760261178016663,-0.007224316708743572,-0.057874131947755814,0.008166220039129257,-0.0210120752453804
0.03224271163344383,0.02539607509970665,-0.006658072583377361,-0.057739246636629105,0.008413845673203468,-0.021120503544807434
0.0327642522752285,0.025130707770586014,-0.00643980223685503,-0.05782406032085419,0.007943513803184032,-0.02109278365969658
0.032661035656929016,0.02561512030661106,-0.0065738847479224205,-0.058642834424972534,0.008165608160197735,-0.020662760362029076
0.0326753668487072,0.02517906203866005,-0.007119127549231052,-0.059672486037015915,0.008364799432456493,-0.020967615768313408
0.03295891731977463,0.025013623759150505,-0.007336331065744162,-0.061552952975034714,0.008646336384117603,-0.021838055923581123
0.03407839685678482,0.025520045310258865,-0.006948959082365036,-0.059831034392118454,0.008656542748212814,-0.022391654551029205
0.03355201706290245,0.025593450292944908,-0.006298110820353031,-0.06194359064102173,0.008372707292437553,-0.02115599997341633
0.031513702124357224,0.02535855397582054,-0.006713664159178734,-0.05946918576955795,0.008707227185368538,-0.020593777298927307
0.03380167484283447,0.02588852122426033,-0.007285702507942915,-0.06016099452972412,0.008653017692267895,-0.020945020020008087
0.033942922949790955,0.025690574198961258,-0.007051695603877306,-0.06227733939886093,0.00852733664214611,-0.02137734368443489
0.033658381551504135,0.026406340301036835,-0.006856945343315601,-0.06229560077190399,0.008471887558698654,-0.022048959508538246
0.0340399332344532,0.026325607672333717,-0.006491837091743946,-0.06078450009226799,0.00900269765406847,-0.02210325375199318
0.03422660753130913,0.02638843283057213,-0.007215270772576332,-0.06165177747607231,0.008560972288250923,-0.022034673020243645
0.033195171505212784,0.026524174958467484,-0.007249878253787756,-0.06293760240077972,0.008388189598917961,-0.021268650889396667
0.03282976523041725,0.02651919424533844,-0.006793292239308357,-0.06164240092039108,0.008960398845374584,-0.021361175924539566
0.03440578281879425,0.026308385655283928,-0.00679431390017271,-0.06145855784416199,0.008464055135846138,-0.0219433456659317
0.03444919362664223,0.026460468769073486,-0.007094751112163067,-0.062014974653720856,0.008473188616335392,-0.02211722731590271
0.03415950387716293,0.027316845953464508,-0.006972093600779772,-0.061882372945547104,0.008682058192789555,-0.021920081228017807
0.03431839123368263,0.027147240936756134,-0.007374837063252926,-0.0622856542468071,0.008723502978682518,-0.021974457427859306
0.03462490811944008,0.026771781966090202,-0.007544228341430426,-0.0618465393781662,0.00906551256775856,-0.022200584411621094
0.03465333208441734,0.0273318849503994,-0.008068963885307312,-0.06182507425546646,0.008658484555780888,-0.022595597431063652
0.033943600952625275,0.027408169582486153,-0.00809794757515192,-0.06169172748923302,0.008688853122293949,-0.022380167618393898
0.03375614434480667,0.027580931782722473,-0.008494779467582703,-0.06139680743217468,0.00879985187202692,-0.022357266396284103
0.03397556394338608,0.027800442650914192,-0.008504524827003479,-0.06243928521871567,0.009099890477955341,-0.022453548386693
0.03397556394338608,0.027800442650914192,-0.008504524827003479,-0.06243928521871567,0.009099890477955341,-0.022453548386693
0.03440697491168976,0.028144080191850662,-0.007892211899161339,-0.0611688606441021,0.009152275510132313,-0.022822007536888123
0.03440697491168976,0.028144080191850662,-0.007892211899161339,-0.0611688606441021,0.009152275510132313,-0.022822007536888123
0.03382671996951103,0.029213471338152885,-0.008286109194159508,-0.06349899619817734,0.00895235687494278,-0.02282141149044037
0.03252481296658516,0.0286928229033947,-0.008546627126634121,-0.06225625425577164,0.00934761855751276,-0.022685552015900612
0.034721728414297104,0.028227772563695908,-0.00815639365464449,-0.06279952824115753,0.009494507685303688,-0.02292843535542488
0.03567497804760933,0.028103334829211235,-0.00840694084763527,-0.06446588784456253,0.008918043226003647,-0.023139577358961105
0.03540101274847984,0.028236540034413338,-0.008478239178657532,-0.06482598930597305,0.008959203958511353,-0.02294018305838108
0.03331616893410683,0.02891732193529606,-0.00856521911919117,-0.06502994894981384,0.009234901517629623,-0.022848643362522125
0.033695828169584274,0.028261501342058182,-0.008961664512753487,-0.06453988701105118,0.00899930763989687,-0.02442377805709839
0.035452377051115036,0.02900237776339054,-0.008424538187682629,-0.06482292711734772,0.008987385779619217,-0.022719675675034523
0.035232070833444595,0.02917438931763172,-0.008652443997561932,-0.06524099409580231,0.00924813374876976,-0.02289392054080963
0.03551408275961876,0.028410201892256737,-0.008196000009775162,-0.06584811210632324,0.009129714220762253,-0.02331053465604782
0.03491738438606262,0.028250953182578087,-0.008260456845164299,-0.06569679826498032,0.009246335364878178,-0.02340240217745304
0.03455077484250069,0.02784082666039467,-0.008673785254359245,-0.06685774028301239,0.008773673325777054,-0.023338351398706436
0.03440290316939354,0.028546683490276337,-0.00860394723713398,-0.06764958053827286,0.008829119615256786,-0.0233193039894104
0.0353463813662529,0.028764355927705765,-0.008285430260002613,-0.06587765365839005,0.009173352271318436,-0.023584751412272453
0.03526963293552399,0.02877373807132244,-0.008300120942294598,-0.0666394829750061,0.009211421012878418,-0.023757897317409515
0.03519623354077339,0.02863268554210663,-0.009047755971550941,-0.06863389909267426,0.009161548689007759,-0.023982245475053787
0.0351162850856781,0.02880653738975525,-0.008620156906545162,-0.06603138893842697,0.008491136133670807,-0.02380657009780407
0.03483641520142555,0.0287744402885437,-0.00893945712596178,-0.06740327924489975,0.008837425149977207,-0.02395385131239891
0.03484522923827171,0.02873067557811737,-0.008827396668493748,-0.06634528189897537,0.009055683389306068,-0.023686328902840614
0.03489430248737335,0.02917841449379921,-0.008619538508355618,-0.06671922653913498,0.008959796279668808,-0.023709038272500038
0.03489430248737335,0.02917841449379921,-0.008619538508355618,-0.06671922653913498,0.008959796279668808,-0.023709038272500038
0.035077955573797226,0.02913818322122097,-0.008701910264790058,-0.06671120971441269,0.009161556139588356,-0.023496584966778755
