davideferrari95/blind_handover_controller/data/Test 236 - [2024-02-08 -- 12-31-28]/joint_states_data.csv
shoulder_pan_joint,shoulder_lift_joint,elbow_joint,wrist_1_joint,wrist_2_joint,wrist_3_joint
0.0026901632081717253,0.006787834223359823,-0.009706198237836361,0.002578984946012497,0.0,0.0030634026043117046
0.0026901632081717253,0.006787834223359823,-0.009706198237836361,0.002578984946012497,0.0,0.0030634026043117046
0.00272210780531168,0.006898971274495125,-0.008773771114647388,0.003273158334195614,0.0,0.0030461319256573915
0.002715818351134658,0.006572718266397715,-0.009157159365713596,0.003977989312261343,0.0,0.002946293679997325
0.0024233402218669653,0.007061905227601528,-0.008507225662469864,0.0037428545765578747,0.0,0.002920917933806777
0.0024622944183647633,0.006767611019313335,-0.008386439643800259,0.003208344569429755,0.0,0.0027504644822329283
0.0024183886125683784,0.006640063598752022,-0.009448899887502193,0.0027092541567981243,0.0,0.002755992580205202
0.0026279587764292955,0.0066133951768279076,-0.008805622346699238,0.0026798818726092577,0.0,0.0030308403074741364
0.002827742835506797,0.00719211483374238,-0.008175928145647049,0.003230529371649027,0.0,0.0030310938600450754
0.0028555020689964294,0.0073196906596422195,-0.008967078290879726,0.003263519611209631,0.0,0.003018353134393692
0.0026655078399926424,0.006399453151971102,-0.009463880211114883,0.002704628510400653,0.0,0.0030955863185226917
0.0026655078399926424,0.006399453151971102,-0.009463880211114883,0.002704628510400653,0.0,0.0030955863185226917
0.0026752122212201357,0.006431053392589092,-0.00886864960193634,0.0025101439096033573,0.0,0.003164703957736492
0.002903946442529559,0.007146412041038275,-0.009522993117570877,0.002525858348235488,0.0,0.0033855573274195194
0.002903946442529559,0.007146412041038275,-0.009522993117570877,0.002525858348235488,0.0,0.0033855573274195194
0.002744513563811779,0.006679278798401356,-0.009018069133162498,0.002473861677572131,0.0,0.003242119215428829
0.002972678281366825,0.006587210111320019,-0.009023391641676426,0.0021662279032170773,0.0,0.0029820641502738
0.0027998038567602634,0.007260006852447987,-0.008679949678480625,0.002287019044160843,0.0,0.0030749759171158075
0.0027998038567602634,0.007260006852447987,-0.008679949678480625,0.002287019044160843,0.0,0.0030749759171158075
0.0030633907299488783,0.007298842538148165,-0.00943938922137022,0.0023111801128834486,0.0,0.003246644278988242
0.0030758539214730263,0.006896881852298975,-0.00898777600377798,0.002634753007441759,0.0,0.003160200547426939
0.002955399453639984,0.007422159425914288,-0.008200738579034805,0.0028376958798617125,0.0,0.0031426106579601765
0.002742898417636752,0.006882612127810717,-0.008384352549910545,0.002816957188770175,0.0,0.0032330865506082773
0.0028931275010108948,0.00664508156478405,-0.008934860117733479,0.002543217968195677,0.0,0.0033536774571985006
0.0029183148872107267,0.006614650599658489,-0.009015406481921673,0.002277121879160404,0.0,0.00340932491235435
0.00257312785834074,0.006945356726646423,-0.009114951826632023,0.002132756868377328,0.0,0.0032014516182243824
0.002673053415492177,0.007178258150815964,-0.008874885737895966,0.0021967946086078882,0.0,0.003038934664800763
0.0027937942650169134,0.007192682940512896,-0.008425663225352764,0.002088230336084962,0.0,0.00297401356510818
0.0031449045054614544,0.007391711231321096,-0.00864595826715231,0.002411138964816928,0.0,0.002856688341125846
0.0031270869076251984,0.007091869134455919,-0.009464393369853497,0.0024647503159940243,0.0,0.002833568723872304
0.0028746703173965216,0.0074801757000386715,-0.009244455024600029,0.0023478614166378975,0.0,0.0026815941091626883
0.0030266952235251665,0.006772907450795174,-0.008619860745966434,0.002416829112917185,0.0,0.0027373996563255787
0.003018425777554512,0.006917106453329325,-0.00934871006757021,0.0025047906674444675,0.0,0.00294023216702044
0.0029280255548655987,0.006852538324892521,-0.0091157928109169,0.002453284803777933,0.0,0.0029683702159672976
0.0032855684403330088,0.007205018773674965,-0.00943239126354456,0.0024220054037868977,0.0,0.0031108506955206394
0.003026181599125266,0.0071518998593091965,-0.008728578686714172,0.002159175928682089,0.0,0.0028687971644103527
0.003224920015782118,0.007080574054270983,-0.009115555323660374,0.0020402055233716965,0.0,0.0026924866251647472
0.003224920015782118,0.007080574054270983,-0.009115555323660374,0.0020402055233716965,0.0,0.0026924866251647472
0.003053327091038227,0.006940977182239294,-0.008627614006400108,0.0022832185495644808,0.0,0.002718543168157339
0.0031855732668191195,0.007725255098193884,-0.008715667761862278,0.002288642106577754,0.0,0.00271597714163363
0.003162807086482644,0.0073866755701601505,-0.009257355704903603,0.0022900234907865524,0.0,0.003013240871950984
0.0034614296164363623,0.007022145204246044,-0.008619013242423534,0.002195641165599227,0.0,0.0032245051115751266
0.003247753717005253,0.007336820475757122,-0.00833999365568161,0.002276655286550522,0.0,0.003028716892004013
0.003193426178768277,0.0076835257932543755,-0.009103748016059399,0.0024607654195278883,0.0,0.0026260605081915855
0.003175353864207864,0.007437572814524174,-0.008956790901720524,0.0025176741182804108,0.0,0.0025602648966014385
0.003384459763765335,0.0074034156277775764,-0.008846511133015156,0.0026348179671913385,0.0,0.0027423494029790163
0.003534301882609725,0.00775239709764719,-0.009686680510640144,0.002416036557406187,0.0,0.003276084316894412
0.0033450776245445013,0.007451648823916912,-0.008948919363319874,0.0021764934062957764,0.0,0.0029799803160130978
0.0035813453141599894,0.00740347383543849,-0.009732680395245552,0.002084453124552965,0.0,0.002693042391911149
0.0038098397199064493,0.007735864259302616,-0.009216928854584694,0.0021525584161281586,0.0,0.002686611609533429
0.0033131432719528675,0.007755008060485125,-0.008943858556449413,0.0021179276518523693,0.0,0.0026053343899548054
0.0032649338245391846,0.007231860421597958,-0.008612331934273243,0.0021358930971473455,0.0,0.002825724659487605
0.0033448305912315845,0.007342217490077019,-0.00955386832356453,0.0019402742618694901,0.0,0.0028683000709861517
0.0035507800057530403,0.00740021513774991,-0.009119406342506409,0.0018900647992268205,0.0,0.002857902552932501
0.003751223674044013,0.007972141727805138,-0.008588255383074284,0.0018137150909751654,0.0,0.002719063078984618
0.0034008079674094915,0.007476472761482,-0.009199614636600018,0.0021333752665668726,0.0,0.0029640840366482735
0.0035741962492465973,0.007275174837559462,-0.009480270557105541,0.00227819150313735,0.0,0.0030378021765500307
0.003300843760371208,0.007385415490716696,-0.009039371274411678,0.0022997488267719746,0.0,0.0029751132242381573
0.003575750160962343,0.008214546367526054,-0.009321826510131359,0.00231164344586432,0.0,0.0027284061070531607
0.0033061285503208637,0.008366767317056656,-0.009020283818244934,0.0021284252870827913,0.0,0.0025287754833698273
0.003291673492640257,0.007835062220692635,-0.009213504381477833,0.0021994411945343018,0.0,0.002382493345066905
0.0034516265150159597,0.007840882055461407,-0.009233768098056316,0.0021135450806468725,0.0,0.0025679096579551697
0.0035562976263463497,0.007993794046342373,-0.009760599583387375,0.0022849116940051317,0.0,0.0026985316071659327
0.003448720322921872,0.007549155969172716,-0.00926006305962801,0.002197284484282136,0.0,0.002700906479731202
0.003530540969222784,0.007399647030979395,-0.00942903384566307,0.0022018407471477985,0.0,0.002471743617206812
0.003459203289821744,0.0074919238686561584,-0.009777244180440903,0.0023612885270267725,0.0,0.002285886090248823
0.003459203289821744,0.0074919238686561584,-0.009777244180440903,0.0023612885270267725,0.0,0.002285886090248823
0.003929584287106991,0.007983430288732052,-0.009276035241782665,0.002622009487822652,0.0,0.0022294125519692898
0.0038161887787282467,0.00793129950761795,-0.009105517528951168,0.002513683633878827,0.0,0.0025290108751505613
0.0035534421913325787,0.007525667082518339,-0.009515893645584583,0.0022594681940972805,0.0,0.00258456589654088
0.0036769993603229523,0.007699121255427599,-0.009485523216426373,0.002242998220026493,0.0,0.002617532154545188
0.00385559955611825,0.00827072188258171,-0.009174559265375137,0.002448165789246559,0.0,0.002668249187991023
0.003923729993402958,0.007840839214622974,-0.009944481775164604,0.002458738163113594,0.0,0.0027086620684713125
0.003428505500778556,0.00923314318060875,-0.009217730723321438,0.002303626388311386,0.0,0.0028111638966947794
0.0031828570645302534,0.007092886604368687,-0.0101815490052104,0.0020886785350739956,0.0,0.0028469020035117865
0.003252078779041767,0.007898697629570961,-0.009636524133384228,0.0020368469413369894,0.0,0.0024660658091306686
0.003433994948863983,0.008197331801056862,-0.009261307306587696,0.001917802495881915,0.0,0.002344377338886261
0.003412418533116579,0.008541147224605083,-0.00949954241514206,0.002036383142694831,0.0,0.002342191291972995
0.0033576854038983583,0.007791612297296524,-0.009247769601643085,0.001999974949285388,0.0,0.002278980566188693
0.0031061777845025063,0.00753360241651535,-0.00892194639891386,0.00219940347597003,0.0,0.0024029642809182405
0.003460035426542163,0.008007333613932133,-0.009494067169725895,0.0022777291014790535,0.0,0.0023234442342072725
0.0032795730512589216,0.008134342730045319,-0.00940281804651022,0.002195365261286497,0.0,0.0021998800802975893
0.0035157445818185806,0.00840751826763153,-0.009037826210260391,0.0020678190048784018,0.0,0.0022793125826865435
0.003259234828874469,0.008618315681815147,-0.010029046796262264,0.0020035854540765285,0.0,0.0020772251300513744
0.003320859745144844,0.008213982917368412,-0.00856191199272871,0.0021689923014491796,0.0,0.002094095107167959
0.0034697388764470816,0.008107544854283333,-0.009259375743567944,0.0024157408624887466,0.0,0.0020902773831039667
0.003451630240306258,0.008091396652162075,-0.010815775953233242,0.0023836339823901653,0.0,0.0022730878554284573
0.003393372753635049,0.008920636959373951,-0.009411245584487915,0.002322274260222912,0.0,0.002328040311113
0.003128823358565569,0.008183981291949749,-0.008646034635603428,0.0022483232896775007,0.0,0.0022434869315475225
0.003222906729206443,0.007945355027914047,-0.008564801886677742,0.0021898008417338133,0.0,0.002304426161572337
0.0033658635802567005,0.007959737442433834,-0.008988098241388798,0.002116103656589985,0.0,0.002448524348437786
0.0032376996241509914,0.008607623167335987,-0.00954542774707079,0.0020134334918111563,0.0,0.002491031540557742
0.0032230049837380648,0.008472549729049206,-0.008752885274589062,0.001878384849987924,0.0,0.002654885407537222
0.0033787197899073362,0.008024024777114391,-0.009368943981826305,0.0018852627836167812,0.0,0.002537292195484042
0.003437432926148176,0.00810912810266018,-0.008883889764547348,0.001997327897697687,0.0,0.0021870119962841272
0.0034649926237761974,0.00850638747215271,-0.00860066618770361,0.002259123371914029,0.0,0.0019125572871416807
0.003684590570628643,0.008418802171945572,-0.009019016288220882,0.002326789079234004,0.0,0.001856388757005334
0.003684590570628643,0.008418802171945572,-0.009019016288220882,0.002326789079234004,0.0,0.001856388757005334
0.003421920584514737,0.0080183744430542,-0.009222814813256264,0.002228865399956703,0.0,0.0018515433184802532
0.0036012411583215,0.007025268394500017,-0.008775586262345314,0.002305361209437251,0.0,0.0020890957675874233
0.003776361932978034,0.007508894428610802,-0.008868287317454815,0.0027041856665164232,0.0,0.002474274020642042
0.0034313651267439127,0.006772483233362436,-0.008490159176290035,0.0029919419903308153,0.0,0.002324161119759083
0.003631108207628131,0.007272788789123297,-0.008527836762368679,0.002787359757348895,0.0,0.002310174284502864
0.003677333937957883,0.00772871496155858,-0.009002488106489182,0.0023637493140995502,0.0,0.0021864990703761578
0.0037324726581573486,0.0069959149695932865,-0.00864000990986824,0.002162451855838299,0.0,0.0020824186503887177
0.003707355121150613,0.006938524078577757,-0.008629594929516315,0.0021620793268084526,0.0,0.002104979706928134
0.003712814999744296,0.007011360954493284,-0.008502134121954441,0.0021055794786661863,0.0,0.002273914171382785
0.0037419807631522417,0.007258046884089708,-0.008673074655234814,0.0022091432474553585,0.0,0.0024937265552580357
0.0032870881259441376,0.007335716392844915,-0.008833924308419228,0.0021515951957553625,0.0,0.0025383683387190104
0.003429574891924858,0.006921018473803997,-0.009064891375601292,0.002275877632200718,0.0,0.0023826532997190952
0.0036870287731289864,0.006481990218162537,-0.00914099533110857,0.0020641940645873547,0.0,0.0022196504287421703
0.0037830763030797243,0.0069290571846067905,-0.008524524047970772,0.0020693643018603325,0.0,0.001976502127945423
0.0041877953335642815,0.006682392209768295,-0.008310811594128609,0.0020833690650761127,0.0,0.0019212090410292149
0.004048171918839216,0.006867146119475365,-0.008983938954770565,0.002311467891559005,0.0,0.001793854869902134
0.0034408902283757925,0.006975662428885698,-0.00884738564491272,0.0024066083133220673,0.0,0.0018579012248665094
0.0033979713916778564,0.007629139814525843,-0.009232782758772373,0.002314523793756962,0.0,0.0021870883647352457
0.003564539598301053,0.006847268436104059,-0.009083390235900879,0.0022134177852422,0.0,0.0025672176852822304
0.003564539598301053,0.006847268436104059,-0.009083390235900879,0.0022134177852422,0.0,0.0025672176852822304
0.0037084268406033516,0.006396905984729528,-0.008973299525678158,0.0021447367034852505,0.0,0.0026142916176468134
0.003788072383031249,0.006759159732609987,-0.008546140976250172,0.0021342094987630844,0.0,0.00256759743206203
0.003791275667026639,0.0067763435654342175,-0.0087395329028368,0.002182352589443326,0.0,0.002309326082468033
0.0037206930574029684,0.006456869188696146,-0.009284176863729954,0.002136767841875553,0.0,0.0021533991675823927
0.004222135525196791,0.006370605900883675,-0.008265189826488495,0.002087480155751109,0.0,0.0019913031719624996
0.0040691206231713295,0.006248508580029011,-0.00848500058054924,0.002034422243013978,0.0,0.002066581044346094
0.003505959641188383,0.006202474236488342,-0.009414603002369404,0.0019893329590559006,0.0,0.0018910792423412204
0.0034970783162862062,0.006373295560479164,-0.00862378254532814,0.001955711282789707,0.0,0.001926040044054389
0.004499936942011118,0.006728725973516703,-0.008847810328006744,0.0018991034012287855,0.0,0.0017149988561868668
0.0042741079814732075,0.006233983673155308,-0.008952360600233078,0.0020157326944172382,0.0,0.0016791649395599961
0.00407145032659173,0.0062991054728627205,-0.008477655239403248,0.002103516599163413,0.0,0.0017207585042342544
0.004021799191832542,0.006765920203179121,-0.008293555118143559,0.0023871660232543945,0.0,0.0017649494111537933
0.004086191300302744,0.007385674864053726,-0.008662018924951553,0.002514148596674204,0.0,0.0017220221925526857
0.004002467729151249,0.006872239056974649,-0.008036750368773937,0.0023881292436271906,0.0,0.001750835101120174
0.0039955261163413525,0.006135190837085247,-0.007983405143022537,0.0021510650403797626,0.0,0.0017431089654564857
0.004381275735795498,0.006457734387367964,-0.008717435412108898,0.0020462465472519398,0.0,0.0017586725298315287
0.004256959073245525,0.00677832867950201,-0.008629471063613892,0.0019735165406018496,0.0,0.0016793091781437397
0.004277747590094805,0.007232818752527237,-0.008052447810769081,0.002025177236646414,0.0,0.0018394592916592956
0.004489383660256863,0.00632161321118474,-0.008305743336677551,0.002226610668003559,0.0,0.0017359725898131728
0.004251942504197359,0.006384318228811026,-0.008777857758104801,0.0021016395185142756,0.0,0.0017510985489934683
0.004368855617940426,0.006720133125782013,-0.008367020636796951,0.0022306754253804684,0.0,0.0015929737128317356
0.004331197123974562,0.006660928018391132,-0.008370211347937584,0.0023844537790864706,0.0,0.0015550674870610237
0.004544280935078859,0.006447684485465288,-0.008615515194833279,0.002406118903309107,0.0,0.0016464838990941644
0.004636969417333603,0.006464461330324411,-0.00874414760619402,0.0027926191687583923,0.0,0.0015281963860616088
0.00460045924410224,0.006664917804300785,-0.008332202211022377,0.0028756551910191774,0.0,0.00153113913256675
0.004212795291095972,0.006526840850710869,-0.00845792144536972,0.0028976236935704947,0.0,0.001403195085003972
0.004472122527658939,0.006777123082429171,-0.009538845159113407,0.002748780883848667,0.0,0.0013498134212568402
0.0046111647970974445,0.006742684170603752,-0.008478020317852497,0.0027911399956792593,0.0,0.0012049359502270818
0.0046111647970974445,0.006742684170603752,-0.008478020317852497,0.0027911399956792593,0.0,0.0012049359502270818
0.004491426516324282,0.006372449453920126,-0.008354892954230309,0.0026545566506683826,0.0,0.0012918986612930894
0.0049082147888839245,0.00709774112328887,-0.009339525364339352,0.002505014417693019,0.0,0.001277166185900569
0.004815763793885708,0.00778599176555872,-0.008561898954212666,0.0024351682513952255,0.0,0.0016868025995790958
0.004696922842413187,0.006833222694694996,-0.008258209563791752,0.0022959737107157707,0.0,0.001656603068113327
0.004589037504047155,0.006457905750721693,-0.009283175691962242,0.0023873914033174515,0.0,0.0017155857058241963
0.00458496855571866,0.006622840650379658,-0.00933596957474947,0.0025542783550918102,0.0,0.0015591999981552362
0.004937604069709778,0.007010478060692549,-0.009103146381676197,0.0023200269788503647,0.0,0.001205150387249887
0.00494603905826807,0.007239972706884146,-0.009524607099592686,0.0023713011760264635,0.0,0.0009539758902974427
0.005104104056954384,0.006581917405128479,-0.008647621609270573,0.002314336132258177,0.0,0.0009861805010586977
0.005055304151028395,0.006711392197757959,-0.008896972052752972,0.0024176801089197397,0.0,0.0010411522816866636
0.0047368332743644714,0.007117023691534996,-0.009443809278309345,0.002209156984463334,0.0,0.0016815277049317956
0.004869573283940554,0.007081871386617422,-0.009675530716776848,0.0022262311540544033,0.0,0.0018674138700589538
0.00520918145775795,0.006965433247387409,-0.008962311781942844,0.0022634209599345922,0.0,0.001943610142916441
0.00497713778167963,0.007463002577424049,-0.00973976869136095,0.002279878593981266,0.0,0.0015974275302141905
0.004957987926900387,0.007772577926516533,-0.009010848589241505,0.002516769804060459,0.0,0.0014482422266155481
0.00518946023657918,0.007085510995239019,-0.009449337609112263,0.0023831140715628862,0.0,0.0012144431238994002
0.0047064474783837795,0.007649997249245644,-0.009422355331480503,0.0024449555203318596,0.0,0.0009065982885658741
0.005093419458717108,0.006911267060786486,-0.009530875831842422,0.0023278093431144953,0.0,0.0008131848881021142
0.005452948622405529,0.007249152287840843,-0.008687797002494335,0.0022280889097601175,0.0,0.0007588370353914797
0.005367257632315159,0.00712716206908226,-0.00982362125068903,0.002583445981144905,0.0,0.0007718239212408662
0.00554115604609251,0.006802505347877741,-0.009647836908698082,0.002642173320055008,0.0,0.0007890200358815491
0.00446653226390481,0.006832839455455542,-0.009232181124389172,0.002652255119755864,0.0,0.0009046732448041439
0.0051385872066020966,0.007015398237854242,-0.009448307566344738,0.0026810416020452976,0.0,0.0009928618092089891
0.005626236088573933,0.007157731335610151,-0.009528163820505142,0.0026761535555124283,0.0,0.0012163842329755425
0.00569587666541338,0.006849262397736311,-0.009514844976365566,0.002394805895164609,0.0,0.0013622356345877051
0.005419761408120394,0.00656658923253417,-0.009369447827339172,0.0023398222401738167,0.0,0.0012809853069484234
0.005557465832680464,0.006938538514077663,-0.009911059401929379,0.0024017959367483854,0.0,0.001083817332983017
0.0052498518489301205,0.006876463536173105,-0.00910878088325262,0.002468516817316413,0.0,0.0010476665338501334
0.005059833638370037,0.006956394761800766,-0.0095751341432333,0.0027033984661102295,0.0,0.0009213630692102015
0.005836766678839922,0.007070629857480526,-0.011071999557316303,0.002788673620671034,0.0,0.000736200250685215
0.005836766678839922,0.007070629857480526,-0.011071999557316303,0.002788673620671034,0.0,0.000736200250685215
0.005511723458766937,0.007043399848043919,-0.010021451860666275,0.00285965739749372,0.0,0.0007169613381847739
0.005345757585018873,0.0073824189603328705,-0.00926214735955,0.0027813527267426252,0.0,0.0007366076461039484
0.0054200077429413795,0.007456558756530285,-0.009989774785935879,0.002982637146487832,0.0,0.0007693991647101939
0.005607754457741976,0.007509852759540081,-0.00948825292289257,0.002932546194642782,0.0,0.0010941673535853624
0.00599081814289093,0.007784408051520586,-0.009868457913398743,0.002553876955062151,0.0,0.0010988188441842794
0.005369864404201508,0.007132252212613821,-0.009322349913418293,0.002481079427525401,0.0,0.001270686974748969
0.005978306755423546,0.006723893340677023,-0.010045653209090233,0.0025571470614522696,0.0,0.0011206462513655424
0.005516387522220612,0.006856262683868408,-0.009999598376452923,0.002745218575000763,0.0,0.001076989807188511
0.005383390001952648,0.007157433312386274,-0.009213411249220371,0.002764413831755519,0.0,0.0010411456460133195
0.005536095704883337,0.006475243717432022,-0.008903661742806435,0.002733594970777631,0.0,0.0009168240358121693
0.006124558392912149,0.006313941441476345,-0.009560407139360905,0.002658477518707514,0.0,0.0008984564337879419
0.0056289685890078545,0.006221855524927378,-0.009476610459387302,0.0028725690208375454,0.0,0.0008976022945716977
0.0056289685890078545,0.006221855524927378,-0.009476610459387302,0.0028725690208375454,0.0,0.0008976022945716977
0.0056289685890078545,0.006221855524927378,-0.009476610459387302,0.0028725690208375454,0.0,0.0008976022945716977
0.005691775120794773,0.0067661176435649395,-0.009363356977701187,0.0032436270266771317,0.0,0.0008919367683120072
0.006134719122201204,0.006357726640999317,-0.009530113078653812,0.0031848507933318615,0.0,0.0009303261176683009
0.005893069319427013,0.0064018722623586655,-0.009313913062214851,0.002984171500429511,0.0,0.0008280522306449711
0.005909199360758066,0.006514705717563629,-0.009839432314038277,0.00288021145388484,0.0,0.0007772837416268885
0.005597549490630627,0.0068342359736561775,-0.009318828582763672,0.0028421252500265837,0.0,0.0007370712701231241
0.005698592867702246,0.006776721216738224,-0.009035332128405571,0.0028907645028084517,0.0,0.000662761740386486
0.0060537406243383884,0.006449893116950989,-0.009661289863288403,0.0029574839863926172,0.0,0.00062551413429901
0.006181229371577501,0.006893404759466648,-0.0094535481184721,0.0029165642336010933,0.0,0.0005510116461664438
0.006359333638101816,0.007185704540461302,-0.00956710148602724,0.0030122799798846245,0.0,0.0005625723861157894
0.005981867201626301,0.0066345748491585255,-0.009650873951613903,0.003157320898026228,0.0,0.0005293557187542319
0.006168185267597437,0.006723030004650354,-0.009340048767626286,0.0029992442578077316,0.0,0.0005581657169386744
0.006570851430296898,0.006802267394959927,-0.009855173528194427,0.0030044938903301954,0.0,0.0005715201841667295
0.006217673886567354,0.00676512299105525,-0.009874342940747738,0.002893604338169098,0.0,0.0005453439080156386
0.006315366830676794,0.006498381029814482,-0.008902627974748611,0.0026415500324219465,0.0,0.0006397882825694978
0.005728933494538069,0.006316895596683025,-0.009655756875872612,0.00274938577786088,0.0,0.0006789129693061113
0.006008096970617771,0.006574471015483141,-0.009677691385149956,0.0028241875115782022,0.0,0.0006912474636919796
0.0061807879246771336,0.006532527040690184,-0.009222368709743023,0.00286017544567585,0.0,0.0006444142782129347
0.006319526582956314,0.006550369784235954,-0.009633023291826248,0.0030738450586795807,0.0,0.0005859766970388591
0.0059656985104084015,0.006656578741967678,-0.009532824158668518,0.0030023762956261635,0.0,0.0006021788576617837
0.0060728020034730434,0.006190344225615263,-0.009575464762747288,0.003194695571437478,0.0,0.0005639647133648396
0.006258864421397448,0.006872445810586214,-0.009625482372939587,0.003138970583677292,0.0,0.0004880469641648233
0.00657936604693532,0.006829568184912205,-0.00914805755019188,0.0030044964514672756,0.0,0.0004570510645862669
0.005807565990835428,0.006581116002053022,-0.009386693127453327,0.002790419152006507,0.0,0.0004297557461541146
0.006113949231803417,0.0064554521813988686,-0.009988798759877682,0.0028714474756270647,0.0,0.0004055409226566553
0.006488444749265909,0.00673054251819849,-0.008926407434046268,0.002939797006547451,0.0,0.0003839077544398606
0.006488444749265909,0.00673054251819849,-0.008926407434046268,0.002939797006547451,0.0,0.0003839077544398606
0.006244969088584185,0.007143653463572264,-0.008880284614861012,0.003366888267919421,0.0,0.0003369061159901321
0.006045321002602577,0.006828334182500839,-0.010060742497444153,0.003254889277741313,0.0,0.0003106693038716912
0.0062168557196855545,0.006965535692870617,-0.009538693353533745,0.0035071077290922403,0.0,0.00029041344532743096
0.005831943824887276,0.0070158690214157104,-0.008840070106089115,0.0031782547011971474,0.0,0.0002727865648921579
0.006577481050044298,0.007167879492044449,-0.009638137184083462,0.003102570539340377,0.0,0.0002571894438005984
0.005944788455963135,0.007236195728182793,-0.008958598598837852,0.0033038631081581116,0.0,0.000230796416872181
0.006385160144418478,0.0065295943059027195,-0.009932668879628181,0.0031365074682980776,0.0,0.00021953372925054282
0.006200290750712156,0.006818938534706831,-0.009509485214948654,0.003006506711244583,0.0,0.00024831650080159307
0.006499439012259245,0.006879420485347509,-0.009313118644058704,0.0031236617360264063,0.0,0.0002398289943812415
0.006625987123697996,0.006971478927880526,-0.009645669721066952,0.0032853425946086645,0.0,0.00022978811466600746
0.006423530634492636,0.006922170519828796,-0.009517710655927658,0.003413863480091095,0.0,0.0002204170887125656
0.005888059735298157,0.006669572088867426,-0.008935362100601196,0.003484314540401101,0.0,0.0002117719268426299
0.006687168497592211,0.00700477696955204,-0.009280182421207428,0.0034499953035265207,0.0,0.00020377952023409307
0.006464201491326094,0.006702740676701069,-0.010218382813036442,0.003613770008087158,0.0,0.00019636798242572695
0.006296915002167225,0.006846086587756872,-0.009101268835365772,0.003382091410458088,0.0,0.0001894769084174186
0.0061516365967690945,0.00708667142316699,-0.009833542630076408,0.0034220030065625906,0.0,0.00018305297999177128
0.00658804178237915,0.006988068576902151,-0.010087559930980206,0.00309707410633564,0.0,0.00017705083882901818
0.006888651754707098,0.006495906505733728,-0.009295040741562843,0.003106259973719716,0.0,0.000171429303009063
0.007283528335392475,0.0062887477688491344,-0.009944056160748005,0.0033506485633552074,0.0,0.00016615436470601708
0.006546346470713615,0.006796863861382008,-0.009661849588155746,0.003726114984601736,0.0,0.00016119384963531047
0.006290069781243801,0.00710075069218874,-0.009188535623252392,0.004134246148169041,0.0,0.00015652136062271893
0.006910207215696573,0.006816184613853693,-0.00946618802845478,0.0038692099042236805,0.0,0.0001521118392702192
0.006897267885506153,0.006146698258817196,-0.010025629773736,0.003468853421509266,0.0,0.0001479441998526454
0.007344415411353111,0.006375293713063002,-0.00954513717442751,0.0035305065102875233,0.0,0.00014399891369976103
0.006714990828186274,0.0066750543192029,-0.009919905103743076,0.0033498818520456553,0.0,0.00014025844575371593
0.006714990828186274,0.0066750543192029,-0.009919905103743076,0.0033498818520456553,0.0,0.00014025844575371593
0.006411919370293617,0.007419385947287083,-0.010148282162845135,0.0035254606045782566,0.0,0.0001367077202303335
0.00697836559265852,0.006767392158508301,-0.009461360983550549,0.0038077200297266245,0.0,0.00013333192327991128
0.0072183324955403805,0.006248995661735535,-0.00924191065132618,0.0039185634814202785,0.0,0.000130119122331962
0.006857258267700672,0.0066856383346021175,-0.009646156802773476,0.003896501148119569,0.0,0.00012705735571216792
0.006565053481608629,0.007005800027400255,-0.009698957204818726,0.003824433544650674,0.0,0.00012413642252795398
0.006646676920354366,0.007265944965183735,-0.010144825093448162,0.003875868860632181,0.0,0.00012134684948250651
0.006746182218194008,0.006450100801885128,-0.010223934426903725,0.0034905606880784035,0.0,0.00011867982539115474
0.006681843660771847,0.00643575843423605,-0.009744063019752502,0.0035975121427327394,0.0,9.722210961626843e-05
0.006858763750642538,0.007097985595464706,-0.0102376788854599,0.0036613072734326124,0.0,9.294476330978796e-05
0.007329736836254597,0.006739113479852676,-0.009527572430670261,0.003783357096835971,0.0,9.091851097764447e-05
0.007583311293274164,0.006474587135016918,-0.01051799114793539,0.003912918735295534,0.0,8.910835458664224e-05
0.006986185442656279,0.006445184350013733,-0.010099847801029682,0.003973409533500671,0.0,8.737765165278688e-05
0.007543353363871574,0.006675376556813717,-0.009537109173834324,0.003927393350750208,0.0,8.571323269279674e-05
0.007143357768654823,0.006506237201392651,-0.010487877763807774,0.00392723735421896,0.0,7.162788097048178e-05
0.007059413008391857,0.006186607293784618,-0.009854692034423351,0.004009209107607603,0.0,6.633756129303947e-05
0.007192618679255247,0.0064701600931584835,-0.009256865829229355,0.004017957951873541,0.0,5.28477321495302e-05
0.007266318891197443,0.007165346294641495,-0.01089465245604515,0.003511883784085512,0.0,4.806126162293367e-05
0.007469227537512779,0.007058225106447935,-0.01027990598231554,0.0034199999645352364,0.0,4.699876080849208e-05
0.008041408844292164,0.0059639462269842625,-0.00951304379850626,0.0036389909218996763,0.0,-3.3785276173148304e-05
0.007731905207037926,0.006437359843403101,-0.010068214498460293,0.004273128230124712,0.0,-3.826997635769658e-05
0.006896066013723612,0.005971085745841265,-0.009982598014175892,0.004180421587079763,0.0,-5.183649409445934e-05
0.008103477768599987,0.006556382402777672,-0.00958902295678854,0.004373515024781227,0.0,-5.5256852647289634e-05
0.007751380559056997,0.006651167292147875,-0.010178341530263424,0.004174571018666029,0.0,-5.443544068839401e-05
0.007928360253572464,0.0063514793291687965,-0.010188544169068336,0.003538459772244096,0.0,-6.998648314038292e-05
0.007975772954523563,0.005980390124022961,-0.009543968364596367,0.0034445668570697308,0.0,-7.830093818483874e-05
0.007975772954523563,0.005980390124022961,-0.009543968364596367,0.0034445668570697308,0.0,-7.830093818483874e-05
0.00768267223611474,0.006110205315053463,-0.010005843825638294,0.0036492689978331327,0.0,-8.499853720422834e-05
0.007749163080006838,0.006530684418976307,-0.010033279657363892,0.003827547188848257,0.0,-0.0004505990946199745
0.0076029542833566666,0.006233782973140478,-0.010414499789476395,0.004171599633991718,0.0,-0.0005407727439887822
0.00765604292973876,0.0058557214215397835,-0.010247331112623215,0.004222312942147255,0.0,-0.0004995976341888309
0.0077318791300058365,0.005838431417942047,-0.010037706233561039,0.004020896274596453,0.0,-0.0005286484374664724
0.00803859531879425,0.006571412552148104,-0.010300260037183762,0.004251883365213871,0.0,-0.0004882632929366082
0.008310629986226559,0.005993179976940155,-0.010837550275027752,0.0040959445759654045,0.0,-0.0004843864298891276
0.0077644092962145805,0.005829670466482639,-0.009996109642088413,0.00393059104681015,0.0,-0.0005674569983966649
0.007981778122484684,0.006178174167871475,-0.010357738472521305,0.004190956242382526,0.0,-0.0006666695699095726
0.008181437849998474,0.005733618047088385,-0.010008701123297215,0.004182657226920128,0.0,-0.0007183253765106201
0.00881962850689888,0.006568456534296274,-0.010395177640020847,0.004330884665250778,0.0,-0.001064381212927401
0.008644080720841885,0.0065552107989788055,-0.010876726359128952,0.004556857515126467,0.0,-0.0011346674291417003
0.00831330195069313,0.005659165326505899,-0.010943006724119186,0.004641801584511995,0.0,-0.001099674729630351
0.009140261448919773,0.0059626540169119835,-0.011335385031998158,0.004348544403910637,0.0,-0.001051862956956029
0.008961506187915802,0.005550109315663576,-0.01039509754627943,0.004471908323466778,-9.997600136557594e-05,-0.0009447161573916674
0.008988103829324245,0.006393148098140955,-0.010097168385982513,0.00480960588902235,-0.0001264006714336574,-0.0008394899778068066
0.008678669109940529,0.00581972673535347,-0.010445796884596348,0.004556603264063597,-0.00012480438454076648,-0.0007189231691882014
0.00854925811290741,0.0053781671449542046,-0.01072431355714798,0.004516353830695152,-0.0001215576266986318,-0.0007266009924933314
0.0090253297239542,0.005341940093785524,-0.010529138147830963,0.00444205105304718,-0.00011836809426313266,-0.0008060513064265251
0.00869041495025158,0.005485842935740948,-0.010660126805305481,0.004395230673253536,-0.00011533474753377959,-0.0011044234270229936
0.009147069416940212,0.005766955204308033,-0.010384869761765003,0.004806017503142357,-0.00011245250789215788,-0.0013626356376335025
0.008952130563557148,0.005967017263174057,-0.01100427471101284,0.004969574045389891,-0.0001259766286239028,-0.002337903715670109
0.008467855863273144,0.005257157608866692,-0.011188994161784649,0.004820819012820721,-0.0001281486765947193,-0.002111211884766817
0.008724020794034004,0.0054331268183887005,-0.01061004027724266,0.004481698386371136,-0.00012550743122119457,-0.001611076993867755
0.009398999623954296,0.005582858808338642,-0.011008722707629204,0.004509293008595705,-0.0001226781023433432,-0.0011909127933904529
0.009398999623954296,0.005582858808338642,-0.011008722707629204,0.004509293008595705,-0.0001226781023433432,-0.0011909127933904529
0.00961249228566885,0.005325315985828638,-0.010584057308733463,0.004779146518558264,-0.00011995426757493988,-0.0010993340983986855
0.009108472615480423,0.005581296980381012,-0.010433209128677845,0.004541150294244289,-0.00011734755389625207,-0.0011465983698144555
0.009652607142925262,0.005443014670163393,-0.010416431352496147,0.0044927410781383514,-0.0001327165518887341,-0.001034814864397049
0.009061910212039948,0.005458052270114422,-0.010562367737293243,0.004607819486409426,-0.00013111959560774267,-0.0012074002297595143
0.009542460553348064,0.005265573039650917,-0.010546323843300343,0.004598663654178381,-0.0001285207981709391,-0.001978378277271986
0.010029771365225315,0.005230402108281851,-0.011177395470440388,0.004405369982123375,-0.00012595606676768512,-0.0022288195323199034
0.009501502849161625,0.005476878024637699,-0.010682640597224236,0.004545402713119984,-0.0001234876981470734,-0.0024209972470998764
0.009301225654780865,0.005428736563771963,-0.01079274620860815,0.004731317516416311,-0.00013572958414442837,-0.001624169060960412
0.009536932222545147,0.00555486511439085,-0.0103739183396101,0.005296274088323116,-0.0001332855608779937,-0.001181572093628347
0.009204328991472721,0.005219734739512205,-0.010650509968400002,0.004883016459643841,-0.00016953762678895146,-0.0010397860314697027
0.009666137397289276,0.0054240114986896515,-0.010569390840828419,0.004784738179296255,-0.00019884450011886656,-0.0011015969794243574
0.00983418244868517,0.005692589562386274,-0.010715872049331665,0.004720877390354872,-0.00019273243378847837,-0.0014322703937068582
0.009447491727769375,0.00520797586068511,-0.011012338101863861,0.004747939761728048,-0.00018496708071324974,-0.0015899314312264323
0.010076121427118778,0.00522145489230752,-0.011583570390939713,0.004798191133886576,-0.0001776721910573542,-0.002243154216557741
0.009890248998999596,0.0054372879676520824,-0.01020358968526125,0.005403358023613691,-0.000187661440577358,-0.0022213344927877188
0.010294334962964058,0.005431464873254299,-0.010858898982405663,0.00533957127481699,-0.0001964621478691697,-0.0023553352802991867
0.00989456381648779,0.005512745585292578,-0.010943355038762093,0.005053259432315826,-0.00019055057782679796,-0.0025915137957781553
0.009737066924571991,0.005450398661196232,-0.01043966505676508,0.00515050208196044,-0.0001841196499299258,-0.002772776409983635
0.010007690638303757,0.005635985638946295,-0.011273616924881935,0.004595727194100618,-0.0001926014228956774,-0.0027587770018726587
0.009960073977708817,0.005388380493968725,-0.010310487821698189,0.004526847042143345,-0.0002001088869292289,-0.0026289073284715414
0.009919382631778717,0.005307468585669994,-0.010565012693405151,0.004739753901958466,-0.0001948108256328851,-0.0022449262905865908
0.010024561546742916,0.005618502385914326,-0.010818828828632832,0.0051194122061133385,-0.0001890233688754961,-0.002056840807199478
0.010310905985534191,0.00563094625249505,-0.010054711252450943,0.004965309519320726,-0.0002029394672717899,-0.0018855724483728409
0.009798750281333923,0.005602721590548754,-0.010978377424180508,0.005164360161870718,-0.0002033568889601156,-0.0020272128749638796
0.010024884715676308,0.005199182312935591,-0.011008039116859436,0.005062421318143606,-0.000198161622392945,-0.0025035508442670107
0.010479488410055637,0.005074688699096441,-0.010082805529236794,0.004862345289438963,-0.00019287897157482803,-0.002720162970945239
0.009916366077959538,0.005699729546904564,-0.01071665994822979,0.0051859901286661625,-0.00018784824351314455,-0.0026989763136953115
0.010557567700743675,0.005504047963768244,-0.0106993792578578,0.005383622366935015,-0.00018316647037863731,-0.00284296041354537
0.011024153791368008,0.0057991985231637955,-0.010597648099064827,0.005165524780750275,-0.00023256364511325955,-0.0026632293593138456
0.011024153791368008,0.0057991985231637955,-0.010597648099064827,0.005165524780750275,-0.00023256364511325955,-0.0026632293593138456
0.009970615617930889,0.0053095403127372265,-0.011075474321842194,0.004935234319418669,-0.00022479445033241063,-0.002656736643984914
0.01017692219465971,0.005373481661081314,-0.010559572838246822,0.005078655667603016,-0.00021433652727864683,-0.0028493846766650677
0.01066346000880003,0.005168437957763672,-0.010928940959274769,0.005126224830746651,-0.00020460441010072827,-0.0033466480672359467
0.01077175885438919,0.005648189689964056,-0.010417324490845203,0.00552585581317544,-0.00022471581178251654,-0.003108878852799535
0.011178899556398392,0.005388016812503338,-0.011248382739722729,0.005531276576220989,-0.00021602807100862265,-0.0026571827474981546
0.010185939259827137,0.005460180342197418,-0.010825471952557564,0.005131215322762728,-0.0002077361277770251,-0.0026115684304386377
0.010229398496448994,0.005193125456571579,-0.011011891067028046,0.0048269787803292274,-0.00020004084217362106,-0.0028878450393676758
0.01048082672059536,0.005787190981209278,-0.011238174512982368,0.005225647706538439,-0.0002166788763133809,-0.003259186400100589
0.01041469257324934,0.005599180702120066,-0.010679089464247227,0.005223657004535198,-0.00021673426090274006,-0.003896934213116765
0.010635294951498508,0.0058608404360711575,-0.011142505332827568,0.005808407906442881,-0.00020999996922910213,-0.004230152815580368
0.010256174951791763,0.005379377398639917,-0.011243912391364574,0.005521349608898163,-0.00021749526786152273,-0.00409617368131876
0.01104083750396967,0.005312473047524691,-0.010788122192025185,0.005407166201621294,-0.00022406804782804102,-0.0034719593822956085
0.010541084222495556,0.005504934582859278,-0.011326828971505165,0.005106927361339331,-0.00021815045329276472,-0.0028133192099630833
0.010195440612733364,0.006242318544536829,-0.01077296119183302,0.005240499507635832,-0.00021179001487325877,-0.0026734224520623684
0.010255244560539722,0.005805902183055878,-0.010304372757673264,0.005599294789135456,-0.00020574123482219875,-0.0030463426373898983
0.010531757026910782,0.005305488593876362,-0.01079965103417635,0.005329994484782219,-0.00020002540259156376,-0.003200475126504898
0.009999435395002365,0.005050440784543753,-0.010595801286399364,0.005244539584964514,-0.00019461821648292243,-0.003934869077056646
0.010799245908856392,0.005761008244007826,-0.011332348920404911,0.005253145005553961,-0.0001894960441859439,-0.004125925712287426
0.01110328920185566,0.005490428768098354,-0.011549361981451511,0.005063907243311405,-0.00021189347899053246,-0.004072810988873243
0.010287268087267876,0.005952259059995413,-0.010875824838876724,0.005886279512196779,-0.0002063093998003751,-0.00357651780359447
0.010576439090073109,0.005324855912476778,-0.011121206916868687,0.005877304822206497,-0.00019752260413952172,-0.0035499276127666235
0.010273593477904797,0.004972607828676701,-0.010865626856684685,0.005994659848511219,-0.00018923147581517696,-0.0036258932668715715
0.01037265732884407,0.005644454155117273,-0.011051404289901257,0.005675692576915026,-0.00018159534374717623,-0.0036978237330913544
0.010382214561104774,0.005613044835627079,-0.011819353327155113,0.005693033337593079,-0.00019163943943567574,-0.004206090699881315
0.01030369196087122,0.006061834748834372,-0.011254264973104,0.006077238824218512,-0.0002004736161325127,-0.004148089326918125
0.0110672852024436,0.006244577467441559,-0.011596287600696087,0.00616676127538085,-0.00019430230895522982,-0.003858501324430108
0.0110672852024436,0.006244577467441559,-0.011596287600696087,0.00616676127538085,-0.00019430230895522982,-0.003858501324430108
0.011360028758645058,0.005561592523008585,-0.01122942566871643,0.005850662477314472,-0.0001876182941487059,-0.003731341566890478
0.010232082568109035,0.005468754563480616,-0.01051901001483202,0.005854580085724592,-0.00018132248078472912,-0.003787840949371457
0.010216305032372475,0.005712796933948994,-0.010927373543381691,0.0058678374625742435,-0.00019707460887730122,-0.004116089548915625
0.010771038942039013,0.0056492118164896965,-0.010747595690190792,0.00613255612552166,-0.00019773318490479141,-0.0039654322899878025
0.010743075050413609,0.0057882578112185,-0.011296951211988926,0.005962755531072617,-0.00019214925123378634,-0.00375891150906682
0.01076264213770628,0.005479481536895037,-0.01066949125379324,0.005662525072693825,-0.00020029701408930123,-0.0038250507786870003
0.010878448374569416,0.0053180670365691185,-0.011057872325181961,0.0059001329354941845,-0.0002007818256970495,-0.003908171318471432
0.011073099449276924,0.005730865988880396,-0.01098666712641716,0.006457483395934105,-0.0001957202621269971,-0.004375132732093334
0.01072661578655243,0.0059081981889903545,-0.011581811122596264,0.006486513651907444,-0.00019056575547438115,-0.004603877663612366
0.011510852724313736,0.005757999140769243,-0.01178175862878561,0.0059892102144658566,-0.00023382951621897519,-0.004550782032310963
0.011204873211681843,0.005353450775146484,-0.011626911349594593,0.006052215583622456,-0.00022901056217961013,-0.004361385013908148
0.01089449878782034,0.005448764655739069,-0.012013072147965431,0.006036394741386175,-0.00021835880761500448,-0.004422240890562534
0.011135195381939411,0.0051964945159852505,-0.011237960308790207,0.006581954658031464,-0.00023903870896901935,-0.004632825963199139
0.01093948446214199,0.005708160810172558,-0.011240092106163502,0.006892115343362093,-0.0002381678350502625,-0.004642868880182505
0.011192088946700096,0.006400253623723984,-0.011838849633932114,0.006642498541623354,-0.0002617504505906254,-0.004843804053962231
0.011886125430464745,0.005609163548797369,-0.011208917945623398,0.006064698100090027,-0.0002557002007961273,-0.004416295327246189
0.011235619895160198,0.005300526972860098,-0.011757845990359783,0.006155761890113354,-0.00027877185493707657,-0.004427028354257345
0.011505918577313423,0.0055579859763383865,-0.011403976939618587,0.0066137597896158695,-0.0002704551152419299,-0.004494066350162029
0.01145834382623434,0.0051919822581112385,-0.011075246147811413,0.0064514861442148685,-0.0002607980859465897,-0.004551659803837538
0.01124147605150938,0.00586130004376173,-0.011570488102734089,0.0063645425252616405,-0.00033225916558876634,-0.004635355900973082
0.011947664432227612,0.005549684166908264,-0.011005053296685219,0.006735183298587799,-0.0003803852596320212,-0.004510914906859398
0.01168521773070097,0.0052639483474195,-0.012110188603401184,0.00690130889415741,-0.0003553326241672039,-0.005002482328563929
0.011275127530097961,0.0053070299327373505,-0.011676407419145107,0.00680526765063405,-0.0003296142676845193,-0.004872752353549004
0.011215285398066044,0.005524763837456703,-0.011420069262385368,0.006645110435783863,-0.0003369576297700405,-0.004841305315494537
0.012786578387022018,0.005390233360230923,-0.011675405316054821,0.006641494110226631,-0.00034292860073037446,-0.005109529476612806
0.014311696402728558,0.005783302243798971,-0.011150184087455273,0.006805971264839172,-0.00032412909786216915,-0.005206373520195484
0.013682510703802109,0.005516803357750177,-0.012259133160114288,0.007241133600473404,-0.00030587890069000423,-0.005007325205951929
0.013712243176996708,0.005552922375500202,-0.011919093318283558,0.006926763337105513,-0.00031300701084546745,-0.005408611614257097
0.013712243176996708,0.005552922375500202,-0.011919093318283558,0.006926763337105513,-0.00031300701084546745,-0.005408611614257097
0.013484176248311996,0.005209978204220533,-0.011870458722114563,0.00643727695569396,-0.0003189257113263011,-0.005323759280145168
0.011864105239510536,0.005643840879201889,-0.012017648667097092,0.006291089113801718,-0.0002909204049501568,-0.005335366353392601
0.011864105239510536,0.005643840879201889,-0.012017648667097092,0.006291089113801718,-0.0002909204049501568,-0.005335366353392601
0.013979909010231495,0.00540571566671133,-0.011984513141214848,0.007120273541659117,-0.0003041935560759157,-0.005389075260609388
0.013852251693606377,0.005806514993309975,-0.012246144004166126,0.007377301342785358,-0.0002920117985922843,-0.00529404915869236
0.013868914917111397,0.005355057772248983,-0.012334492057561874,0.006969694048166275,-0.00028063729405403137,-0.005045526660978794
0.014418450184166431,0.005972972605377436,-0.012303912080824375,0.00705807376652956,-0.00027723764651454985,-0.0052299522794783115
0.013900074176490307,0.005505156237632036,-0.01267415564507246,0.0068173776380717754,-0.0002642017207108438,-0.005187687464058399
0.014752998948097229,0.005863757338374853,-0.01214908342808485,0.006588604301214218,-0.00024974605184979737,-0.005870560649782419
0.01419139839708805,0.005405894480645657,-0.012882462702691555,0.006998315919190645,-0.00023662266903556883,-0.005653114523738623
0.014705299399793148,0.0054151276126503944,-0.012428504414856434,0.007515834644436836,-0.00026372598949819803,-0.005889722611755133
0.014181356877088547,0.005795550066977739,-0.013048145920038223,0.007605801802128553,-0.0002565265167504549,-0.005447040777653456
0.014824271202087402,0.00564951729029417,-0.012639143504202366,0.007551329676061869,-0.0002452235494274646,-0.005733520723879337
0.014326334930956364,0.005568959284573793,-0.013125230558216572,0.007596280891448259,-0.0002345907560084015,-0.005914789624512196
0.014794139191508293,0.005142461508512497,-0.012751067988574505,0.0071799070574343204,-0.00022482273925561458,-0.006339159328490496
0.01358762662857771,0.005488380789756775,-0.0127766914665699,0.007184673100709915,-0.00021583565103355795,-0.006124088075011969
0.014395107515156269,0.005198371130973101,-0.012659070082008839,0.007300437893718481,-0.0002075383235933259,-0.005769740324467421
0.01407794002443552,0.005580462049692869,-0.012181079015135765,0.006869276985526085,-0.00019985617836937308,-0.005722308065742254
0.014684831723570824,0.005624712910503149,-0.012741083279252052,0.006928678601980209,-0.0001927222911035642,-0.005932518746703863
0.014436500146985054,0.0052123419009149075,-0.013054627925157547,0.006868913769721985,-0.00018608018581289798,-0.006179772783070803
0.014972652308642864,0.005314916837960482,-0.013030259869992733,0.006950178183615208,-0.00020783644868060946,-0.006080884952098131
0.014319749549031258,0.005148841999471188,-0.01282333955168724,0.007385461125522852,-0.00020296289585530758,-0.005785153713077307
0.014742002822458744,0.005860537756234407,-0.012693379074335098,0.0077916597947478294,-0.00019674298528116196,-0.006046374328434467
0.014539338648319244,0.005503010470420122,-0.01266187522560358,0.007921858690679073,-0.0001907923724502325,-0.005925917532294989
0.015143751166760921,0.005320606287568808,-0.0123011888936162,0.007636826951056719,-0.00018518377328291535,-0.0062156193889677525
0.014729933813214302,0.005448526702821255,-0.012993047013878822,0.007391755003482103,-0.0001925101678352803,-0.00678847823292017
0.014729933813214302,0.005448526702821255,-0.012993047013878822,0.007391755003482103,-0.0001925101678352803,-0.00678847823292017
0.015114078298211098,0.005202735308557749,-0.013206833973526955,0.007414483930915594,-0.00019443123892415315,-0.005822155624628067
0.015425946563482285,0.00550429429858923,-0.012923133559525013,0.007929801940917969,-0.00018936772539746016,-0.006320645101368427
0.015028044581413269,0.005523438099771738,-0.012498929165303707,0.007911000400781631,-0.00018451758660376072,-0.006662130821496248
0.015426680445671082,0.005103278439491987,-0.01256515271961689,0.007828726433217525,-0.00018229527631774545,-0.006495341192930937
0.015084609389305115,0.005141475237905979,-0.012449360452592373,0.007566769607365131,-0.00017786821990739554,-0.00630700821056962
0.015215110965073109,0.005593081470578909,-0.013294252566993237,0.007968496531248093,-0.0001712794037302956,-0.006251626182347536
0.015311441384255886,0.005581836681813002,-0.012851839885115623,0.007870590314269066,-0.0001650093327043578,-0.006921719294041395
0.015327922999858856,0.005750230513513088,-0.013472414575517178,0.007811504881829023,-0.00018885257304646075,-0.006638918071985245
0.015373420901596546,0.005937003996223211,-0.01266898587346077,0.008046658709645271,-0.0001843404461396858,-0.0063664913177490234
0.015207982622087002,0.00538237439468503,-0.012659816071391106,0.00802107248455286,-0.00017837685300037265,-0.006758533883839846
0.015544626861810684,0.005895975977182388,-0.012504162266850471,0.007832088507711887,-0.00018679465574678034,-0.006880938541144133
0.015383675694465637,0.005472242832183838,-0.013300308026373386,0.008136159740388393,-0.00019426009384915233,-0.007486493326723576
0.01571248471736908,0.005963847041130066,-0.013154933229088783,0.008356203325092793,-0.00018928750068880618,-0.007543696090579033
0.015175368636846542,0.005359760019928217,-0.012429827824234962,0.007939930073916912,-0.0002032710617640987,-0.0065401578322052956
0.016084928065538406,0.005273161455988884,-0.013028263114392757,0.008681530132889748,-0.0002036836085608229,-0.006293165031820536
0.01566055789589882,0.005594998132437468,-0.01200108788907528,0.009011449292302132,-0.0003254330367781222,-0.006440266501158476
0.015970109030604362,0.005623855162411928,-0.01277228631079197,0.008627364411950111,-0.0003418152336962521,-0.006352144759148359
0.015381763689219952,0.005885135382413864,-0.012545458972454071,0.008723171427845955,-0.00032017947523854673,-0.006378889549523592
0.015667926520109177,0.006080577149987221,-0.013435350731015205,0.00864108745008707,-0.00029906275449320674,-0.006338370963931084
0.015975315123796463,0.005374306347221136,-0.013118944130837917,0.008618813008069992,-0.0003077114815823734,-0.0060418290086090565
0.015692347660660744,0.00551554374396801,-0.012560641393065453,0.008323418907821178,-0.00031488275271840394,-0.006104643922299147
0.01567026600241661,0.005786187946796417,-0.012514236383140087,0.008508135564625263,-0.0002990825450979173,-0.006443534977734089
0.015603965148329735,0.005626736208796501,-0.012531650252640247,0.008309682831168175,-0.0002834844053722918,-0.006369634997099638
0.016071707010269165,0.005796489305794239,-0.01325330138206482,0.007978812791407108,-0.0003082124749198556,-0.006480725482106209
0.016071707010269165,0.005796489305794239,-0.01325330138206482,0.007978812791407108,-0.0003082124749198556,-0.006480725482106209
0.015698004513978958,0.00559544563293457,-0.0126346405595541,0.007674677763134241,-0.00029891158919781446,-0.006205117795616388
0.01575474441051483,0.005300349555909634,-0.012320592068135738,0.008087106049060822,-0.0003021730517502874,-0.006543564144521952
0.016147224232554436,0.005376769695430994,-0.013007831759750843,0.0078968470916152,-0.0002987163607031107,-0.006560704670846462
0.01651599630713463,0.005235075484961271,-0.012838121503591537,0.007833666168153286,-0.0003314421628601849,-0.006352347321808338
0.01644004136323929,0.005754132755100727,-0.013340055011212826,0.007967266254127026,-0.00036167798680253327,-0.006223677191883326
0.016301974654197693,0.005321021657437086,-0.013243502005934715,0.008012467995285988,-0.00035295012639835477,-0.0061770351603627205
0.01592625491321087,0.004920477047562599,-0.01301116868853569,0.00782932061702013,-0.0003729817399289459,-0.0071968440897762775
0.016536379233002663,0.005305944476276636,-0.013350737281143665,0.008648419752717018,-0.00038962424150668085,-0.008104628883302212
0.016373230144381523,0.005147856194525957,-0.012529212981462479,0.009156018495559692,-0.0003926604986190796,-0.008069127798080444
0.01688273251056671,0.00549238920211792,-0.013242355547845364,0.009165932424366474,-0.0005160368164069951,-0.0071652112528681755
0.016533110290765762,0.005604529287666082,-0.012986860238015652,0.009419625625014305,-0.0005824482650496066,-0.006550962571054697
0.016393955796957016,0.005025423597544432,-0.013520651496946812,0.009255130775272846,-0.0005997878033667803,-0.007046752609312534
0.01672789640724659,0.00501841027289629,-0.013264396227896214,0.008591857738792896,-0.0005613251123577356,-0.00745415547862649
0.01618444360792637,0.0052725342102348804,-0.013492994010448456,0.008545997552573681,-0.0005830117152072489,-0.007988427765667439
0.01748819462954998,0.004731305874884129,-0.01292700506746769,0.008783967234194279,-0.0005427797441370785,-0.0077815670520067215
0.016917994245886803,0.005664288531988859,-0.013769561424851418,0.008632074110209942,-0.0005002983962185681,-0.008155561052262783
0.016864866018295288,0.005399495828896761,-0.013531362637877464,0.00873507559299469,-0.000512149534188211,-0.007815076038241386
0.017465142533183098,0.005067079793661833,-0.01287371851503849,0.009277772158384323,-0.0004922468797303736,-0.007874191738665104
0.017056262120604515,0.005117757711559534,-0.013542343862354755,0.009587140753865242,-0.00046166079118847847,-0.007799568120390177
0.017526987940073013,0.005046670790761709,-0.013126716017723083,0.009233580902218819,-0.0004459003685042262,-0.008080733940005302
0.016924479976296425,0.005124021787196398,-0.013776369392871857,0.009385884739458561,-0.00040855619590729475,-0.008229884319007397
0.016924479976296425,0.005124021787196398,-0.013776369392871857,0.009385884739458561,-0.00040855619590729475,-0.008229884319007397
0.01674654707312584,0.005035920534282923,-0.01396921742707491,0.008903736248612404,-0.0004125473496969789,-0.007795832119882107
0.01674654707312584,0.005035920534282923,-0.01396921742707491,0.008903736248612404,-0.0004125473496969789,-0.007795832119882107
0.017279498279094696,0.005203920416533947,-0.013351904228329659,0.009026352316141129,-0.000416432972997427,-0.008090064860880375
0.018079930916428566,0.00496690534055233,-0.012433805502951145,0.008684062398970127,-0.000393320427974686,-0.00813116692006588
0.018079930916428566,0.00496690534055233,-0.012433805502951145,0.008684062398970127,-0.000393320427974686,-0.00813116692006588
0.01732959784567356,0.00528813898563385,-0.014167514629662037,0.008806582540273666,-0.00041606868035160005,-0.008426126092672348
0.017581742256879807,0.005119999870657921,-0.014232629910111427,0.00905262678861618,-0.00039925245800986886,-0.008300545625388622
0.0188502985984087,0.005035912152379751,-0.0136808380484581,0.008966261520981789,-0.00041717852582223713,-0.008939959108829498
0.018006492406129837,0.005106272641569376,-0.014939057640731335,0.010118013247847557,-0.00045785336988046765,-0.008359120227396488
0.017853042110800743,0.00511682266369462,-0.014352609403431416,0.009341349825263023,-0.0004611154436133802,-0.008521594107151031
0.018438827246427536,0.005426596850156784,-0.014522166922688484,0.009007873944938183,-0.000459246919490397,-0.008526709862053394
0.018181776627898216,0.005244607571512461,-0.013867156580090523,0.009454851970076561,-0.00042996983393095434,-0.00850338488817215
0.017685599625110626,0.005154918879270554,-0.014147249050438404,0.009506032802164555,-0.00045611622044816613,-0.00840842816978693
0.017914602532982826,0.004934124648571014,-0.014000511728227139,0.008851620368659496,-0.0005314854206517339,-0.008348412811756134
0.01793476939201355,0.005060295108705759,-0.014535677619278431,0.009416029788553715,-0.0005604787147603929,-0.008403108455240726
0.0185012836009264,0.005364681594073772,-0.014076289720833302,0.009669318795204163,-0.0005039077368564904,-0.008587916381657124
0.018618086352944374,0.005298817530274391,-0.014807427302002907,0.009509734809398651,-0.0005375709151849151,-0.008849703706800938
0.01831306330859661,0.005372041370719671,-0.01433700043708086,0.009972544386982918,-0.000493878498673439,-0.008912935853004456
0.018609637394547462,0.004926829598844051,-0.01447523944079876,0.009945410303771496,-0.0005178496357984841,-0.00879975687712431
0.018228132277727127,0.004517066292464733,-0.013638867996633053,0.009663286618888378,-0.0005204285844229162,-0.00899413786828518
0.018555153161287308,0.005107149016112089,-0.014494002796709538,0.010263223201036453,-0.0005145884351804852,-0.008894874714314938
0.018847767263650894,0.005344679579138756,-0.013885832391679287,0.010211012326180935,-0.00048216694267466664,-0.00935377087444067
0.018227919936180115,0.005203071050345898,-0.01441270299255848,0.009899979457259178,-0.0004722791782114655,-0.008994678035378456
0.01883990876376629,0.005247173830866814,-0.01462375558912754,0.010413897223770618,-0.0004464714729692787,-0.00905055832117796
0.01896745152771473,0.004993142560124397,-0.014816557988524437,0.010199733078479767,-0.0004775941779371351,-0.009173773229122162
0.018839377909898758,0.005250195506960154,-0.01418068166822195,0.010006414726376534,-0.0004476094909477979,-0.009165508672595024
0.019239170476794243,0.005035848822444677,-0.014840342104434967,0.010339411906898022,-0.0004645622393582016,-0.009170426987111568
0.019099300727248192,0.004934266209602356,-0.013909569010138512,0.009712206199765205,-0.0004473355656955391,-0.009364521130919456
0.018809134140610695,0.005652992986142635,-0.01475265622138977,0.009586001746356487,-0.00046262837713584304,-0.009123662486672401
0.018809134140610695,0.005652992986142635,-0.01475265622138977,0.009586001746356487,-0.00046262837713584304,-0.009123662486672401
0.019168637692928314,0.005305342376232147,-0.014285055920481682,0.010237115435302258,-0.00044764578342437744,-0.009199589490890503
0.01904960349202156,0.00489409826695919,-0.014892036095261574,0.010242505930364132,-0.00042228447273373604,-0.008762831799685955
0.01917436346411705,0.0047511085867881775,-0.014291071332991123,0.00982853677123785,-0.00044117646757513285,-0.009056569077074528
0.019620681181550026,0.005103462375700474,-0.015019808895885944,0.010343334637582302,-0.000440404488472268,-0.009769205003976822
0.019135145470499992,0.005308340769261122,-0.014600432477891445,0.010221469216048717,-0.00043939947499893606,-0.009420118294656277
0.019431287422776222,0.005072540603578091,-0.014163515530526638,0.010881325230002403,-0.00041048272396437824,-0.009432919323444366
0.020464304834604263,0.005065608769655228,-0.015041658654808998,0.01013382151722908,-0.00038173882057890296,-0.008891121484339237
0.01967170462012291,0.005365351680666208,-0.014274993911385536,0.009917731396853924,-0.0004118064243812114,-0.009196171537041664
0.01973276399075985,0.005181797780096531,-0.01511206291615963,0.010019196197390556,-0.0003899147850461304,-0.009456068277359009
0.019788460806012154,0.005339255556464195,-0.014723720960319042,0.009681932628154755,-0.0003929605009034276,-0.009297514334321022
0.019496725872159004,0.005188295152038336,-0.015141443349421024,0.010108656249940395,-0.0003950000973418355,-0.009298540651798248
0.019724424928426743,0.005248225759714842,-0.01429775170981884,0.010315476916730404,-0.0003759142418857664,-0.009370598942041397
0.01989617384970188,0.005430417601019144,-0.01484990119934082,0.010295934043824673,-0.00039279815973713994,-0.009609466418623924
0.019992392510175705,0.005069008097052574,-0.014535381458699703,0.010579366236925125,-0.0003733699268195778,-0.009681555442512035
0.02046435885131359,0.0052013397216796875,-0.014990119263529778,0.01062739733606577,-0.00034558071638457477,-0.009796245023608208
0.020564991980791092,0.005508524365723133,-0.014580928720533848,0.009764675050973892,-0.0003806537133641541,-0.009961940348148346
0.020793108269572258,0.0055754343047738075,-0.015151916071772575,0.009959971532225609,-0.0003591816348489374,-0.009864568710327148
0.02048533596098423,0.005121618043631315,-0.01463242806494236,0.010178455151617527,-0.0003783690626733005,-0.010613830760121346
0.01960335113108158,0.004883055575191975,-0.015107274055480957,0.010503861121833324,-0.0003691196907311678,-0.010346245020627975
0.020300008356571198,0.005144236609339714,-0.01454387791454792,0.01100345142185688,-0.0003926935023628175,-0.010371094569563866
0.020233239978551865,0.005462704226374626,-0.014833478257060051,0.01072620414197445,-0.0004549323639366776,-0.010279851034283638
0.020667903125286102,0.006103220395743847,-0.01470201276242733,0.01076640747487545,-0.0004808825033251196,-0.01028603594750166
0.020889785140752792,0.004835760220885277,-0.015265773050487041,0.011018674820661545,-0.0004389251407701522,-0.0100124292075634
0.020662950351834297,0.004022639710456133,-0.014879927039146423,0.010375655256211758,-0.00047446126700378954,-0.01053615752607584
0.020876029506325722,0.0038232137449085712,-0.014727292582392693,0.010822955518960953,-0.00044055163743905723,-0.01016016211360693
0.020876029506325722,0.0038232137449085712,-0.014727292582392693,0.010822955518960953,-0.00044055163743905723,-0.01016016211360693
0.021332714706659317,0.004286687355488539,-0.014529586769640446,0.010943382047116756,-0.000440517149399966,-0.010412745177745819
0.021381475031375885,0.005072287283837795,-0.014897343702614307,0.010956184938549995,-0.00043986085802316666,-0.010288573801517487
0.02154698222875595,0.004935436882078648,-0.014769429340958595,0.01103427167981863,-0.0004417087766341865,-0.010465303435921669
0.020650729537010193,0.00445384718477726,-0.014974360354244709,0.010080872103571892,-0.0004411228292156011,-0.011131957173347473
0.020915541797876358,0.004075149539858103,-0.014854447916150093,0.01090116985142231,-0.0004443767829798162,-0.010245520621538162
0.021489251405000687,0.004111559595912695,-0.015046561136841774,0.010396636091172695,-0.00040842770249582827,-0.010680360719561577
0.0215474683791399,0.00437836954370141,-0.01493852213025093,0.009885605424642563,-0.00044426374370232224,-0.010625503957271576
0.021647974848747253,0.004080305341631174,-0.015269444324076176,0.010448165237903595,-0.0004146845603827387,-0.010355105623602867
0.02176472172141075,0.004411123227328062,-0.015309635549783707,0.010134194977581501,-0.00044084532419219613,-0.010259506292641163
0.021772656589746475,0.004157824907451868,-0.01601407490670681,0.010650626383721828,-0.00041909096762537956,-0.010634713806211948
0.02128024771809578,0.00423488998785615,-0.014783809892833233,0.01087138894945383,-0.00044199268450029194,-0.011098326183855534
0.021675975993275642,0.004253034479916096,-0.01571337692439556,0.010836088098585606,-0.00042270580888725817,-0.011265457607805729
0.021913429722189903,0.004085389897227287,-0.015348567627370358,0.011031386442482471,-0.0004917838959954679,-0.011111109517514706
0.021829165518283844,0.00420211860910058,-0.015787648037075996,0.011030740104615688,-0.0005007179570384324,-0.010315068066120148
0.019766071811318398,0.004052463918924332,-0.015135240741074085,0.011279264464974403,-0.0004954257165081799,-0.009969061240553856
0.02245280332863331,0.0043328567408025265,-0.016019470989704132,0.010759764350950718,-0.0004929812275804579,-0.009887059219181538
0.022702405229210854,0.004671684466302395,-0.015828125178813934,0.010671278461813927,-0.000488368037622422,-0.010610786266624928
0.02217201143503189,0.004712300840765238,-0.01610853150486946,0.01098303496837616,-0.0005113781080581248,-0.010829594917595387
0.022405574098229408,0.004282500594854355,-0.01628543809056282,0.011572119779884815,-0.000574841455090791,-0.010348659940063953
0.022553512826561928,0.004275759682059288,-0.01576574705541134,0.011157524771988392,-0.0005873416666872799,-0.010499496012926102
0.022540507838129997,0.004496744833886623,-0.016317790374159813,0.011691590771079063,-0.0006217529298737645,-0.010628636926412582
0.022540507838129997,0.004496744833886623,-0.016317790374159813,0.011691590771079063,-0.0006217529298737645,-0.010628636926412582
0.02280324697494507,0.004614288453012705,-0.015987597405910492,0.01165885478258133,-0.0005635488778352737,-0.010722540318965912
0.022747747600078583,0.0044245305471122265,-0.016735345125198364,0.011546800844371319,-0.0005516581004485488,-0.01059359684586525
0.022414101287722588,0.0045722369104623795,-0.016320372000336647,0.011961445212364197,-0.0005413650651462376,-0.010265862569212914
0.023284953087568283,0.004239677917212248,-0.01654386892914772,0.011336992494761944,-0.0005007364670746028,-0.010662714019417763
0.02347017079591751,0.004288950003683567,-0.016406457871198654,0.011795797385275364,-0.0005255884607322514,-0.010761473327875137
0.022863898426294327,0.004607598762959242,-0.016061825677752495,0.011416677385568619,-0.0004935819306410849,-0.010750970803201199
0.023617565631866455,0.004400639329105616,-0.016117960214614868,0.011690273880958557,-0.00044456360046751797,-0.011006781831383705
0.02314315177500248,0.004578406922519207,-0.016679685562849045,0.011084282770752907,-0.0004453562432900071,-0.010530353523790836
0.02349272184073925,0.0045555103570222855,-0.016032624989748,0.012066246010363102,-0.0004443619109224528,-0.01073208637535572
0.02386220544576645,0.0048303562216460705,-0.016681652516126633,0.011502044275403023,-0.00044606070150621235,-0.010570649057626724
0.0237819142639637,0.0048124040476977825,-0.016624044626951218,0.011295436881482601,-0.0004451455897651613,-0.010933115147054195
0.02366938628256321,0.004427512641996145,-0.016241468489170074,0.011907868087291718,-0.00041762858745642006,-0.011230829171836376
0.023504391312599182,0.0045187040232121944,-0.016246268525719643,0.011515764519572258,-0.00044015777530148625,-0.010462339967489243
0.023910488933324814,0.004580098669975996,-0.015930863097310066,0.01225380226969719,-0.0004210315237287432,-0.010495990514755249
0.02462727390229702,0.0052949534729123116,-0.01655787229537964,0.011483953334391117,-0.0004757023125421256,-0.010974926874041557
0.024548912420868874,0.005035101901739836,-0.016384901478886604,0.011545193381607533,-0.00045449825120158494,-0.011026643216609955
0.02427900955080986,0.004513502586632967,-0.01681389845907688,0.011837626807391644,-0.0004749917716253549,-0.010952661745250225
0.02399877831339836,0.004447048995643854,-0.01657310128211975,0.011274543590843678,-0.00045394818880595267,-0.010905827395617962
0.024481287226080894,0.004664023872464895,-0.016899337992072105,0.011557552963495255,-0.0004711905785370618,-0.010903275571763515
0.02446798048913479,0.004704518709331751,-0.017365792766213417,0.011854473501443863,-0.0004533499013632536,-0.010838541202247143
0.02527669072151184,0.004858045838773251,-0.01672310195863247,0.011159222573041916,-0.0004762060125358403,-0.01051062997430563
0.025562716647982597,0.005123737268149853,-0.017399754375219345,0.011313045397400856,-0.00045560181024484336,-0.010525275953114033
0.024682210758328438,0.004959575831890106,-0.016813579946756363,0.01109395083039999,-0.0005265286308713257,-0.010301217436790466
0.024254340678453445,0.00483277952298522,-0.017042987048625946,0.011419572867453098,-0.0005674789426848292,-0.010415801778435707
0.024254340678453445,0.00483277952298522,-0.017042987048625946,0.011419572867453098,-0.0005674789426848292,-0.010415801778435707
0.02520270086824894,0.00471168477088213,-0.01719408854842186,0.01213233731687069,-0.0005192242097109556,-0.011028285138309002
0.025726351886987686,0.004676757380366325,-0.01729947328567505,0.011853236705064774,-0.0005121694994159043,-0.01060859952121973
0.024702053517103195,0.0047359890304505825,-0.017727116122841835,0.011975197121500969,-0.0005057078669779003,-0.010521642863750458
0.025747694075107574,0.004849651828408241,-0.016906704753637314,0.011627506464719772,-0.00047021100181154907,-0.010297893546521664
0.026218634098768234,0.004992979113012552,-0.017386194318532944,0.011935455724596977,-0.0004836429434362799,-0.010590934194624424
0.026367971673607826,0.004820484202355146,-0.017321404069662094,0.011804654262959957,-0.0004666167078539729,-0.010590923950076103
0.025830324739217758,0.004840702284127474,-0.01656811684370041,0.011752447113394737,-0.00043908393126912415,-0.011029120534658432
0.024912064895033836,0.0045448290184140205,-0.0171347726136446,0.012221072800457478,-0.00043154219747520983,-0.010993285104632378
0.026110965758562088,0.005059882998466492,-0.016897687688469887,0.011798135936260223,-0.0003784104192163795,-0.01071686577051878
0.025950554758310318,0.004810389131307602,-0.017136938869953156,0.012296129018068314,-0.00040036908467300236,-0.01098573300987482
0.025186441838741302,0.0046422663144767284,-0.016640987247228622,0.01179843582212925,-0.00038754453998990357,-0.011218803934752941
0.025524022057652473,0.004665861837565899,-0.01730729639530182,0.011906519532203674,-0.0003919110749848187,-0.011239150539040565
0.025511929765343666,0.00465230830013752,-0.01661103405058384,0.011584088206291199,-0.0003943992196582258,-0.011386377736926079
0.025456828996539116,0.004692218732088804,-0.016873136162757874,0.012436285614967346,-0.0003728205629158765,-0.011329506523907185
0.025649089366197586,0.005142431240528822,-0.017286434769630432,0.011840704828500748,-0.00038916690391488373,-0.010957222431898117
0.025820396840572357,0.0048177228309214115,-0.01719086989760399,0.011437318287789822,-0.0003802280989475548,-0.011051311157643795
0.02568955533206463,0.004612496122717857,-0.01728980615735054,0.011921322904527187,-0.0003636421461123973,-0.01101588923484087
0.025384971871972084,0.004651471972465515,-0.016639169305562973,0.011780863627791405,-0.00040296060615219176,-0.011121473275125027
0.02556564286351204,0.005074141081422567,-0.017138488590717316,0.012237596325576305,-0.00042908560135401785,-0.011676755733788013
0.02549528144299984,0.00494476780295372,-0.01719716191291809,0.01222454197704792,-0.0004470360872801393,-0.011336537078022957
0.02578604966402054,0.004718265030533075,-0.017328422516584396,0.012017705477774143,-0.0004470415588002652,-0.011125232093036175
0.025931466370821,0.004779239650815725,-0.017724666744470596,0.012099603191018105,-0.0004193479544483125,-0.011329006403684616
0.026024043560028076,0.004787272773683071,-0.01651046797633171,0.013049760833382607,-0.0004418625612743199,-0.01117059774696827
0.02667025290429592,0.004860761575400829,-0.017113246023654938,0.013505303300917149,-0.0004225651500746608,-0.011116712354123592
0.02599572017788887,0.00513429706916213,-0.01724669523537159,0.012830235995352268,-0.00039954233216121793,-0.011153319850564003
0.02599572017788887,0.00513429706916213,-0.01724669523537159,0.012830235995352268,-0.00039954233216121793,-0.011153319850564003
0.026210593059659004,0.005238066427409649,-0.017285870388150215,0.013246187008917332,-0.0004842058988288045,-0.011262768879532814
0.025563541799783707,0.004750487394630909,-0.017703011631965637,0.013099530711770058,-0.00045195419806987047,-0.01146494410932064
0.027076147496700287,0.0050570121966302395,-0.0170456413179636,0.013133025728166103,-0.00048256199806928635,-0.011144576594233513
0.026869306340813637,0.005311231128871441,-0.017313160002231598,0.012743593193590641,-0.0004883380606770515,-0.011322683654725552
0.026787305250763893,0.005079798866063356,-0.017111079767346382,0.013126453384757042,-0.0004845852090511471,-0.011755801737308502
0.02642606943845749,0.005431585479527712,-0.01757357455790043,0.013289310038089752,-0.0004994894843548536,-0.01153999287635088
0.0265455711632967,0.005279335658997297,-0.016828283667564392,0.013056594878435135,-0.0005129159544594586,-0.011491818353533745
0.027271730825304985,0.0054536256939172745,-0.017533790320158005,0.013120748102664948,-0.0005127758486196399,-0.011555478908121586
0.02673511765897274,0.00515525508671999,-0.01821204088628292,0.013415907509624958,-0.0005435204948298633,-0.012040874920785427
0.02681330405175686,0.005460248328745365,-0.01736188679933548,0.012799156829714775,-0.0005038377130404115,-0.011935234069824219
0.02780444547533989,0.005254647694528103,-0.017673684284090996,0.013236667960882187,-0.0005328891566023231,-0.011671347543597221
0.02726673148572445,0.005735859274864197,-0.017563411965966225,0.012814677320420742,-0.0005476510850712657,-0.011654435656964779
0.027503153309226036,0.0053626843728125095,-0.018040860071778297,0.013030439615249634,-0.0005267344531603158,-0.011684429831802845
0.026660382747650146,0.004894320387393236,-0.0181147251278162,0.01262308843433857,-0.0006110828835517168,-0.01212177611887455
0.02680457942187786,0.004723312798887491,-0.01785392500460148,0.013361116871237755,-0.0005469994503073394,-0.011670690029859543
0.027226371690630913,0.005099056288599968,-0.018776964396238327,0.013289541006088257,-0.0005721367779187858,-0.011886822991073132
0.026855867356061935,0.004968973807990551,-0.01839887723326683,0.01333218440413475,-0.0005700193578377366,-0.011900813318789005
0.02689332142472267,0.004997306037694216,-0.017829028889536858,0.013740694150328636,-0.000558504369109869,-0.01184526551514864
0.027227502316236496,0.0047775316052138805,-0.018416181206703186,0.014035728760063648,-0.0005788579001091421,-0.011713812127709389
0.027246732264757156,0.004628371447324753,-0.017874008044600487,0.013813620433211327,-0.0005475360085256398,-0.011887106113135815
0.02687571756541729,0.004661384038627148,-0.01858760043978691,0.01353573426604271,-0.0005653214175254107,-0.012372241355478764
0.026801256462931633,0.0052428594790399075,-0.018553687259554863,0.013630053028464317,-0.0005944253643974662,-0.012341668829321861
0.027095606550574303,0.0051118116825819016,-0.01780002750456333,0.013231463730335236,-0.0006130616529844701,-0.012142188847064972
0.02747224271297455,0.005359060596674681,-0.018525145947933197,0.013854453340172768,-0.0005780759966000915,-0.012408269569277763
0.027625801041722298,0.00554972467944026,-0.018190881237387657,0.013621922582387924,-0.0005961044225841761,-0.012061664834618568
0.027725134044885635,0.005079153925180435,-0.017626075074076653,0.013767052441835403,-0.0005587959894910455,-0.012449012137949467
0.027815300971269608,0.005415942519903183,-0.01836548186838627,0.013332177884876728,-0.0005198391736485064,-0.01219082809984684
0.028129080310463905,0.005301077384501696,-0.019049545750021935,0.013828976079821587,-0.000560505548492074,-0.011999214999377728
0.02810044400393963,0.00500843208283186,-0.018674546852707863,0.01366298459470272,-0.0005045395810157061,-0.011693857610225677
0.027464620769023895,0.005239763297140598,-0.018738213926553726,0.014060241170227528,-0.0004977114731445909,-0.01203551422804594
0.027464620769023895,0.005239763297140598,-0.018738213926553726,0.014060241170227528,-0.0004977114731445909,-0.01203551422804594
0.02854297123849392,0.005470055155456066,-0.018237724900245667,0.013767092488706112,-0.0004917790065519512,-0.012169514782726765
0.02846718393266201,0.00497481832280755,-0.018464522436261177,0.014226028695702553,-0.0005084641743451357,-0.012579311616718769
0.028156442567706108,0.004662024322897196,-0.01898474432528019,0.01382325030863285,-0.0005376648041419685,-0.01267370954155922
0.02872723899781704,0.0055900211445987225,-0.01832144521176815,0.01383680198341608,-0.0006252439343370497,-0.012322964146733284
0.028800468891859055,0.0053716860711574554,-0.01864997111260891,0.014664535410702229,-0.0006112160626798868,-0.012181000784039497
0.028854936361312866,0.005286262836307287,-0.01844167150557041,0.014689597301185131,-0.0006377597455866635,-0.012642353773117065
0.02897278591990471,0.004938306286931038,-0.019114993512630463,0.01489531621336937,-0.0005843645776621997,-0.012606356292963028
0.029406581073999405,0.0047730035148561,-0.018885796889662743,0.014199266210198402,-0.0006060510640963912,-0.012739178724586964
0.029172122478485107,0.004894468933343887,-0.01786406897008419,0.014345362782478333,-0.000563260109629482,-0.013197969645261765
0.02947542443871498,0.0056175971403717995,-0.01867430843412876,0.013969662599265575,-0.000607041351031512,-0.012867696583271027
0.02944527566432953,0.005061648786067963,-0.01874629780650139,0.014350427314639091,-0.0005625113844871521,-0.012797268107533455
0.02961529791355133,0.004412200301885605,-0.018608780577778816,0.01448315940797329,-0.0005499135586433113,-0.012242775410413742
0.029671357944607735,0.003988243173807859,-0.018468929454684258,0.01479295827448368,-0.0005383476382121444,-0.012287363409996033
0.029505090788006783,0.004248440731316805,-0.01830880716443062,0.014481332153081894,-0.0004920858191326261,-0.012320033274590969
0.029431017115712166,0.004595573991537094,-0.018822699785232544,0.014758789911866188,-0.0005062564741820097,-0.01263879518955946
0.02994508482515812,0.00474527757614851,-0.01877259649336338,0.014194516465067863,-0.00048439676174893975,-0.012639827094972134
0.03061535954475403,0.004590047989040613,-0.017916399985551834,0.014341143891215324,-0.0005064540891908109,-0.012840289622545242
0.030791573226451874,0.0046134754084050655,-0.01858358271420002,0.014002040028572083,-0.00048241225886158645,-0.013106683269143105
0.029006946831941605,0.0047075748443603516,-0.01887701079249382,0.01480405405163765,-0.0004833878774661571,-0.013136926107108593
0.02961747534573078,0.0042310794815421104,-0.01832953467965126,0.014413096942007542,-0.0005039254319854081,-0.013152528554201126
0.030676065012812614,0.004257716704159975,-0.01894136518239975,0.014457225799560547,-0.0004792237014044076,-0.012712037190794945
0.030225830152630806,0.004276207182556391,-0.01908842660486698,0.014064781367778778,-0.0004413386923260987,-0.012780255638062954
0.030752701684832573,0.00441954517737031,-0.018372422084212303,0.014778892509639263,-0.00046674060286022723,-0.012783619575202465
0.030752701684832573,0.00441954517737031,-0.018372422084212303,0.014778892509639263,-0.00046674060286022723,-0.012783619575202465
0.03060988336801529,0.0047873035073280334,-0.019389290362596512,0.01402123924344778,-0.0004704334132838994,-0.012905903160572052
0.03060988336801529,0.0047873035073280334,-0.019389290362596512,0.01402123924344778,-0.0004704334132838994,-0.012905903160572052
0.0304854828864336,0.004700036253780127,-0.019006429240107536,0.014108488336205482,-0.0005508044851012528,-0.013193798251450062
0.03040994703769684,0.004191840998828411,-0.019756274297833443,0.01476832665503025,-0.0005550618516281247,-0.013430260121822357
0.031347040086984634,0.004203611519187689,-0.019687190651893616,0.015069609507918358,-0.0005439038504846394,-0.013194125145673752
0.03056470677256584,0.00466903205960989,-0.019285371527075768,0.01551973819732666,-0.0005857457290403545,-0.012873712927103043
0.032247673720121384,0.004849306307733059,-0.01932709477841854,0.015801651403307915,-0.0005581787554547191,-0.013373405672609806
0.0314006544649601,0.004784367512911558,-0.019419368356466293,0.015391185879707336,-0.0006570823607034981,-0.013284949585795403
0.030559947714209557,0.004557765554636717,-0.0202043317258358,0.0155886709690094,-0.0006952958647161722,-0.013347761705517769
0.031022515147924423,0.004066577181220055,-0.02013392560184002,0.015928825363516808,-0.0007059944327920675,-0.013286987319588661
0.031569432467222214,0.004423167556524277,-0.018738163635134697,0.016124648973345757,-0.0007019892800599337,-0.013586725108325481
0.031125564128160477,0.004656739067286253,-0.0200093574821949,0.016097286716103554,-0.0006781253032386303,-0.013563002459704876
0.031444061547517776,0.00457480363547802,-0.020662708207964897,0.015573046170175076,-0.0007075280882418156,-0.01356363296508789
0.032094359397888184,0.004881837405264378,-0.01957978866994381,0.015655919909477234,-0.0006831052014604211,-0.013478116132318974
0.03218776732683182,0.004877093248069286,-0.019368410110473633,0.015091688372194767,-0.0006845317548140883,-0.013469556346535683
0.031594570726156235,0.004722794517874718,-0.020651506260037422,0.015487232245504856,-0.0006311936303973198,-0.013335851021111012
0.031370554119348526,0.004546863492578268,-0.01977730728685856,0.014816940762102604,-0.0006355911027640104,-0.013624192215502262
0.03181704506278038,0.004737088456749916,-0.018797310069203377,0.01534323301166296,-0.000596648664213717,-0.013906708918511868
0.032889965921640396,0.004753600340336561,-0.01977340504527092,0.014754246920347214,-0.0006187346298247576,-0.013813030906021595
0.032488565891981125,0.004971499554812908,-0.020429784432053566,0.015489627607166767,-0.0006094375858083367,-0.014101032167673111
0.030820030719041824,0.004803714342415333,-0.019846312701702118,0.015498471446335316,-0.000550361757632345,-0.013660955242812634
0.032025404274463654,0.004754967987537384,-0.019924797117710114,0.01579863205552101,-0.0005822550156153738,-0.01374084409326315
0.03302264213562012,0.004800176247954369,-0.019854040816426277,0.015618338249623775,-0.0005957148387096822,-0.014008155092597008
0.0325431302189827,0.004468218423426151,-0.019467569887638092,0.015553387813270092,-0.0006017214618623257,-0.015006757341325283
0.03342612832784653,0.004585373681038618,-0.02018488571047783,0.015543920919299126,-0.0005890990141779184,-0.013873565010726452
0.033648617565631866,0.004650444258004427,-0.020291496068239212,0.015370465815067291,-0.0006185097154229879,-0.013695593923330307
0.03261272609233856,0.005070880055427551,-0.019687633961439133,0.015886250883340836,-0.0006646268884651363,-0.013994217850267887
0.03261272609233856,0.005070880055427551,-0.019687633961439133,0.015886250883340836,-0.0006646268884651363,-0.013994217850267887
0.03287111595273018,0.004650478716939688,-0.02023256942629814,0.016022004187107086,-0.0006694622570648789,-0.014259946532547474
0.03287111595273018,0.004650478716939688,-0.02023256942629814,0.016022004187107086,-0.0006694622570648789,-0.014259946532547474
0.033754412084817886,0.004617997445166111,-0.019914845004677773,0.01559147983789444,-0.0006715977215208113,-0.014256617054343224
0.033075761049985886,0.004407699219882488,-0.02028980292379856,0.016337288543581963,-0.0005881557008251548,-0.014792720787227154
0.03318573907017708,0.004569699056446552,-0.02008732780814171,0.016313670203089714,-0.000625676242634654,-0.01479885634034872
0.032884884625673294,0.004570560995489359,-0.019610732793807983,0.016368074342608452,-0.000556113023776561,-0.014668446034193039
0.03295976668596268,0.004275839310139418,-0.020441273227334023,0.016194801777601242,-0.0005675781285390258,-0.01486777700483799
0.033318109810352325,0.004360569175332785,-0.02041339874267578,0.01662905514240265,-0.0005336299655027688,-0.01501400675624609
0.03347339108586311,0.00449726264923811,-0.019174892455339432,0.016137614846229553,-0.0004869183758273721,-0.014821784570813179
0.0337754562497139,0.004291931167244911,-0.020062986761331558,0.016574040055274963,-0.000510887592099607,-0.015038659796118736
0.033809009939432144,0.004506066907197237,-0.020414358004927635,0.01648687571287155,-0.00048063223948702216,-0.014823847450315952
0.034236278384923935,0.00428344402462244,-0.019901223480701447,0.01673765666782856,-0.00044707185588777065,-0.014869973994791508
0.03404436632990837,0.004439932759851217,-0.01990630105137825,0.016587043181061745,-0.00047293471288867295,-0.014721870422363281
0.034217894077301025,0.004542741924524307,-0.020396804437041283,0.016222262755036354,-0.000447167141828686,-0.014919417910277843
0.0347551628947258,0.0046841721050441265,-0.02046903595328331,0.016750076785683632,-0.0004215552762616426,-0.014989358372986317
0.034284960478544235,0.0047667487524449825,-0.019990094006061554,0.016419319435954094,-0.0003763730055652559,-0.015106434002518654
0.03391770273447037,0.004317799583077431,-0.020293038338422775,0.016845298931002617,-0.0003466970520094037,-0.014939088374376297
0.03513030707836151,0.004350213333964348,-0.020415591076016426,0.01659676432609558,-0.0003816812240984291,-0.014824213460087776
0.034929219633340836,0.0045677474699914455,-0.020032046362757683,0.01675288751721382,-0.00036011499469168484,-0.014517399482429028
0.034831687808036804,0.004524323623627424,-0.020289113745093346,0.01709561049938202,-0.00039021531119942665,-0.014745643362402916
0.034722525626420975,0.004275604151189327,-0.02056797966361046,0.016742635518312454,-0.0004097175260540098,-0.01487681083381176
0.03481396660208702,0.004500566516071558,-0.020359518006443977,0.01705189421772957,-0.00039941788418218493,-0.01519857533276081
0.03451760858297348,0.004577228333801031,-0.02027282305061817,0.01628194749355316,-0.00047238401020877063,-0.015182405710220337
0.03490341454744339,0.004281055182218552,-0.02060410939157009,0.016137318685650826,-0.0005070141633041203,-0.015478823333978653
0.035217106342315674,0.0043143946677446365,-0.02082023024559021,0.01638924703001976,-0.0004608226881828159,-0.015980908647179604
0.03518642857670784,0.0044682021252810955,-0.020299285650253296,0.016532104462385178,-0.0004903581575490534,-0.015749817714095116
0.0349990651011467,0.004249741788953543,-0.020518997684121132,0.01722431369125843,-0.0004585020069498569,-0.015381699427962303
0.03477717190980911,0.004435208160430193,-0.020964687690138817,0.016803447157144547,-0.0004840420151595026,-0.015144017525017262
0.03640621900558472,0.00426174933090806,-0.020516900345683098,0.01747882552444935,-0.0005052854539826512,-0.015446318313479424
0.03640621900558472,0.00426174933090806,-0.020516900345683098,0.01747882552444935,-0.0005052854539826512,-0.015446318313479424
0.03610976040363312,0.00403776578605175,-0.020597292110323906,0.017174137756228447,-0.0005492454511113465,-0.015428930521011353
0.03438211977481842,0.0039447396993637085,-0.02124062180519104,0.01700051873922348,-0.0005459253443405032,-0.015285181812942028
0.035589348524808884,0.004242443945258856,-0.02096644975244999,0.017289353534579277,-0.0006066600326448679,-0.015700828284025192
0.03614436835050583,0.004608691670000553,-0.02048894390463829,0.01827841065824032,-0.000622146762907505,-0.01573440060019493
0.03697019815444946,0.0042500244453549385,-0.02086786739528179,0.01844048500061035,-0.0005900675896555185,-0.015234473161399364
0.036617644131183624,0.003987960517406464,-0.021286791190505028,0.017697468400001526,-0.0005464884452521801,-0.01512964442372322
0.03543630614876747,0.003927994053810835,-0.02107487991452217,0.01779196225106716,-0.0005991748184897006,-0.01564541645348072
0.03508969023823738,0.003975471947342157,-0.021695753559470177,0.017493056133389473,-0.0005571817746385932,-0.016120433807373047
0.03694969415664673,0.003902401076629758,-0.02137356996536255,0.018431836739182472,-0.0005898312665522099,-0.015656154602766037
0.03664696216583252,0.004440054763108492,-0.02122505195438862,0.01824185438454151,-0.0006027580238878727,-0.01538584940135479
0.03648637235164642,0.004626335110515356,-0.021221226081252098,0.017397360876202583,-0.00056886684615165,-0.015119009651243687
0.036775875836610794,0.004220274277031422,-0.022113170474767685,0.017894309014081955,-0.0005923518911004066,-0.015196463093161583
0.0362517274916172,0.003993607591837645,-0.022070178762078285,0.017237333580851555,-0.0005515599041245878,-0.015040596947073936
0.03676475211977959,0.0038995277136564255,-0.021680807694792747,0.017139367759227753,-0.0005888710147701204,-0.015164953656494617
0.03719647601246834,0.004227273631840944,-0.020532729104161263,0.017561759799718857,-0.0005323665682226419,-0.015506885014474392
0.03638406842947006,0.004597120452672243,-0.02250519208610058,0.017552847042679787,-0.0005651401588693261,-0.01618017815053463
0.03630046918988228,0.004197684582322836,-0.020992057397961617,0.018270906060934067,-0.000558367813937366,-0.01633921079337597
0.0364786833524704,0.004488301929086447,-0.021880783140659332,0.018164461478590965,-0.0005477325757965446,-0.016167007386684418
0.03701360151171684,0.004198177717626095,-0.02209743671119213,0.01792881451547146,-0.0005061792908236384,-0.015883471816778183
0.03779423236846924,0.0039506638422608376,-0.0219282153993845,0.01825442723929882,-0.0005264462670311332,-0.016016684472560883
0.03713035210967064,0.0037995188031345606,-0.022064929828047752,0.018196124583482742,-0.0004986210842616856,-0.01629682630300522
0.035875651985406876,0.0042351484298706055,-0.02173476666212082,0.018438801169395447,-0.0005114729865454137,-0.016324499621987343
0.03672987222671509,0.004190281964838505,-0.02103457599878311,0.018459834158420563,-0.0005493160570040345,-0.016361963003873825
0.036665841937065125,0.00396775733679533,-0.021443376317620277,0.018068894743919373,-0.0005819274228997529,-0.016699738800525665
0.037323277443647385,0.0040946342051029205,-0.021682212129235268,0.018196070566773415,-0.0006039617583155632,-0.016645947471261024
0.03839799016714096,0.003946398850530386,-0.02189096063375473,0.018394822254776955,-0.0007340066367760301,-0.016812095418572426
0.03839799016714096,0.003946398850530386,-0.02189096063375473,0.018394822254776955,-0.0007340066367760301,-0.016812095418572426
0.036520589143037796,0.003778325393795967,-0.021727386862039566,0.01831837370991707,-0.0008799688657745719,-0.016528626903891563
0.03529917448759079,0.0037716988008469343,-0.021887075155973434,0.018428809940814972,-0.0008909399621188641,-0.016734275966882706
0.037833210080862045,0.0041331276297569275,-0.02212832309305668,0.018494607880711555,-0.0008169206557795405,-0.01676182448863983
0.037324145436286926,0.003868723753839731,-0.02182413823902607,0.018687143921852112,-0.000833165948279202,-0.01664528250694275
0.036931175738573074,0.004341515712440014,-0.02187146618962288,0.018277442082762718,-0.0008058970561251044,-0.01639946922659874
0.03756854683160782,0.004152478650212288,-0.022251643240451813,0.018366890028119087,-0.000816770363599062,-0.017013486474752426
0.037636056542396545,0.003906861413270235,-0.021883374080061913,0.018354151397943497,-0.0008270011749118567,-0.01700257509946823
0.03767602890729904,0.0037784932646900415,-0.02153070457279682,0.017754189670085907,-0.0007953462190926075,-0.017083197832107544
0.03790445625782013,0.0037978645414114,-0.02202454023063183,0.01788460463285446,-0.0009202139335684478,-0.01669473946094513
0.037827715277671814,0.004248839803040028,-0.02225079946219921,0.018122347071766853,-0.0009242710075341165,-0.016651716083288193
0.03769427537918091,0.0041581992991268635,-0.022426243871450424,0.018308153375983238,-0.0008624816546216607,-0.016966190189123154
0.038513194769620895,0.004137407522648573,-0.022316960617899895,0.018464356660842896,-0.0008556477841921151,-0.017086513340473175
0.0381258986890316,0.0040275705978274345,-0.021637670695781708,0.018219446763396263,-0.0007793857366777956,-0.01722133904695511
0.03775285556912422,0.003937690053135157,-0.022054335102438927,0.018522320315241814,-0.000753064698074013,-0.017315194010734558
0.03886723890900612,0.004255027510225773,-0.02272363379597664,0.018576605245471,-0.0007126800483092666,-0.017396479845046997
0.038642868399620056,0.004054659511893988,-0.02219606377184391,0.01805792935192585,-0.0006780429393984377,-0.017087383195757866
0.03825528919696808,0.003912300802767277,-0.021960526704788208,0.018351836130023003,-0.0006055075209587812,-0.01694256067276001
0.039111364632844925,0.003850165056064725,-0.02225940115749836,0.01860010251402855,-0.0006287534488365054,-0.017385538667440414
0.03865829110145569,0.0041998750530183315,-0.022778749465942383,0.018099606037139893,-0.000616429082583636,-0.017003051936626434
0.038981448858976364,0.0043159485794603825,-0.02272055484354496,0.018398817628622055,-0.0006013136589899659,-0.017258979380130768
0.038930539041757584,0.004538642708212137,-0.022265436127781868,0.01877470873296261,-0.0005680944886989892,-0.01724071055650711
0.038702573627233505,0.004172326065599918,-0.021469028666615486,0.01884477399289608,-0.0005981311551295221,-0.01756366901099682
0.038702573627233505,0.004172326065599918,-0.021469028666615486,0.01884477399289608,-0.0005981311551295221,-0.01756366901099682
0.03930884599685669,0.004020279739052057,-0.022639768198132515,0.018855245783925056,-0.0006595214945264161,-0.01789255253970623
0.03930884599685669,0.004020279739052057,-0.022639768198132515,0.018855245783925056,-0.0006595214945264161,-0.01789255253970623
0.03965739533305168,0.004033695440739393,-0.022978834807872772,0.01828298717737198,-0.0007928984705358744,-0.017496569082140923
0.039295732975006104,0.004334482364356518,-0.02189629152417183,0.018483974039554596,-0.0008192586828954518,-0.01715252920985222
0.03879671171307564,0.004602556582540274,-0.02212822251021862,0.018501952290534973,-0.0008224492776207626,-0.01631765626370907
0.04102528467774391,0.0045375037007033825,-0.023363472893834114,0.020121850073337555,-0.000741617230232805,-0.017544740810990334
0.038560688495635986,0.004292959813028574,-0.022609680891036987,0.01954016089439392,-0.0007152490434236825,-0.01792798936367035
0.038563329726457596,0.004392646718770266,-0.02238832600414753,0.01857486180961132,-0.0006885348702780902,-0.018121765926480293
0.04050236940383911,0.004485764540731907,-0.02265244722366333,0.01931530423462391,-0.0006233897292986512,-0.017563464120030403
0.04009975120425224,0.004318402614444494,-0.022461937740445137,0.019512759521603584,-0.0006432392983697355,-0.01758834719657898
0.040648411959409714,0.0045205350033938885,-0.023052489385008812,0.019794678315520287,-0.0005861723329871893,-0.017715511843562126
0.04093507304787636,0.004590420052409172,-0.022954236716032028,0.01990111917257309,-0.000611325551290065,-0.018532564863562584
0.03894117474555969,0.004669601563364267,-0.022819695994257927,0.019431358203291893,-0.0006209908169694245,-0.018355367705225945
0.040627263486385345,0.004275200422853231,-0.022777613252401352,0.01885511353611946,-0.0005927181337028742,-0.017403770238161087
0.040601011365652084,0.004361060447990894,-0.02303273044526577,0.01938319206237793,-0.0007578569930046797,-0.01725410297513008
0.04084007441997528,0.004243394359946251,-0.023145562037825584,0.01943945698440075,-0.0008155935793183744,-0.016888590529561043
0.040286507457494736,0.004394591320306063,-0.022553211078047752,0.019201260060071945,-0.0008014942286536098,-0.01766250655055046
0.04048685356974602,0.004393786657601595,-0.022822629660367966,0.01955677755177021,-0.0007643416174687445,-0.018408671021461487
0.0405091866850853,0.004475909750908613,-0.022859221324324608,0.019710682332515717,-0.0008458274533040822,-0.01839403808116913
0.04056306928396225,0.004437276627868414,-0.023167550563812256,0.019361993297934532,-0.0008893821504898369,-0.017357220873236656
0.040431078523397446,0.004187034443020821,-0.02332925796508789,0.01928349956870079,-0.0008761580102145672,-0.01754925586283207
0.04038015380501747,0.0044615548104047775,-0.022507304325699806,0.019374635070562363,-0.0008930927142500877,-0.017953138798475266
0.042500242590904236,0.004391378723084927,-0.022488823160529137,0.01893407478928566,-0.0009641831275075674,-0.018358713015913963
0.039785027503967285,0.0045278738252818584,-0.023231009021401405,0.018928280100226402,-0.0009244298562407494,-0.018020473420619965
0.039785027503967285,0.0045278738252818584,-0.023231009021401405,0.018928280100226402,-0.0009244298562407494,-0.018020473420619965
0.04106661304831505,0.00440833019092679,-0.022730067372322083,0.019075190648436546,-0.0008531126659363508,-0.018344823271036148
0.04162153974175453,0.0045026745647192,-0.02314547821879387,0.01952815055847168,-0.0008583579328842461,-0.01810448244214058
0.042043983936309814,0.004595362115651369,-0.022804930806159973,0.019647009670734406,-0.0008401084924116731,-0.01797270029783249
0.042043983936309814,0.004595362115651369,-0.022804930806159973,0.019647009670734406,-0.0008401084924116731,-0.01797270029783249
0.04156873747706413,0.004347675945609808,-0.022852467373013496,0.018970267847180367,-0.0008439242956228554,-0.018182288855314255
0.03995092958211899,0.004546766635030508,-0.022941935807466507,0.019400639459490776,-0.0008512781350873411,-0.01817738264799118
0.04155305400490761,0.0042712511494755745,-0.022804906591773033,0.019662773236632347,-0.0008571618818677962,-0.01819646544754505
0.0418432354927063,0.0044898586347699165,-0.022526543587446213,0.01952653005719185,-0.0008580470457673073,-0.017979402095079422
0.04115646332502365,0.004854756873100996,-0.023039326071739197,0.019553422927856445,-0.0008721890044398606,-0.01856723055243492
0.04168877378106117,0.004494532942771912,-0.022921420633792877,0.01925012655556202,-0.0008197355200536549,-0.018407486379146576
0.041691794991493225,0.004434402100741863,-0.022678842768073082,0.019528500735759735,-0.0008252416737377644,-0.018385985866189003
0.04168618470430374,0.004669638350605965,-0.0224007498472929,0.020257430151104927,-0.0008424980915151536,-0.01840239018201828
0.041487883776426315,0.004760346841067076,-0.022647082805633545,0.019869321957230568,-0.0008686176151968539,-0.018166806548833847
0.04120475798845291,0.004873219411820173,-0.02301160618662834,0.019738120958209038,-0.0008741608471609652,-0.01821463741362095
0.042027547955513,0.004497644491493702,-0.022758062928915024,0.020199714228510857,-0.0008774372981861234,-0.01861930638551712
0.04199361428618431,0.004224816337227821,-0.022116560488939285,0.020229745656251907,-0.0009798458777368069,-0.018481934443116188
0.04227742925286293,0.004509355872869492,-0.02252017892897129,0.020060580223798752,-0.0009870411595329642,-0.018476126715540886
0.04187726974487305,0.004786376841366291,-0.0231962651014328,0.02010340988636017,-0.0009746229043230414,-0.018327856436371803
0.04246028885245323,0.004677244927734137,-0.023850053548812866,0.02001771330833435,-0.0009644428500905633,-0.018212275579571724
0.0422658808529377,0.004653736017644405,-0.023353826254606247,0.01993098109960556,-0.0008573552477173507,-0.018244413658976555
0.0424279123544693,0.004690190311521292,-0.022975997999310493,0.0204311553388834,-0.0007992693572305143,-0.01805059239268303
0.042400434613227844,0.004619920626282692,-0.02251521125435829,0.02016264759004116,-0.0007516178884543478,-0.018317069858312607
0.04277607426047325,0.004815063439309597,-0.022878918796777725,0.019987866282463074,-0.0007103659445419908,-0.018434278666973114
0.0427388958632946,0.0043550110422074795,-0.02367675118148327,0.020083677023649216,-0.000721323536708951,-0.017928479239344597
0.04273282736539841,0.0041566649451851845,-0.02377954311668873,0.02055310271680355,-0.0007270980277098715,-0.018253616988658905
0.042772892862558365,0.0040079280734062195,-0.022762015461921692,0.020643994212150574,-0.0007520638173446059,-0.01856168732047081
0.04322216659784317,0.004508515354245901,-0.022892899811267853,0.02076580934226513,-0.0007854701834730804,-0.018632763996720314
0.04244553670287132,0.004277236759662628,-0.023584552109241486,0.021221861243247986,-0.0008091190247796476,-0.018560586497187614
0.04244553670287132,0.004277236759662628,-0.023584552109241486,0.021221861243247986,-0.0008091190247796476,-0.018560586497187614
0.04209062457084656,0.004459048621356487,-0.023534491658210754,0.02090747281908989,-0.0008130978094413877,-0.018301595002412796
0.04233942925930023,0.004173011053353548,-0.023657822981476784,0.02103404328227043,-0.0008737834868952632,-0.018355371430516243
0.04369291290640831,0.004436084069311619,-0.022903364151716232,0.021495554596185684,-0.0009164019138552248,-0.01863810047507286
0.04419245198369026,0.004250642843544483,-0.022718630731105804,0.02138945460319519,-0.000849016010761261,-0.018405767157673836
0.04223431646823883,0.003973348531872034,-0.02293507009744644,0.020551707595586777,-0.0007964061805978417,-0.018601521849632263
0.04268417879939079,0.004113827832043171,-0.023827405646443367,0.019798077642917633,-0.0008049952448345721,-0.01888817548751831
0.04277224466204643,0.004172208718955517,-0.02363547869026661,0.020447716116905212,-0.000768618134316057,-0.01860697939991951
0.04440673813223839,0.003936628811061382,-0.023158295080065727,0.021257348358631134,-0.0007154010818339884,-0.018546834588050842
0.044423386454582214,0.004177105147391558,-0.023185718804597855,0.021636025980114937,-0.0007297021802514791,-0.01834268681704998
0.04296521469950676,0.004086456261575222,-0.02343311719596386,0.021011115983128548,-0.0007523912936449051,-0.018428944051265717
