davideferrari95/blind_handover_controller/data/Test 151 - [2024-02-08 -- 10-56-04]/joint_states_data.csv
shoulder_pan_joint,shoulder_lift_joint,elbow_joint,wrist_1_joint,wrist_2_joint,wrist_3_joint
-0.003589075291529298,-0.008679897524416447,7.814385802936558e-14,0.010010537691414356,-0.0,-0.0028432460967451334
-0.00392721313983202,-0.008697948418557644,1.0483995721127229e-15,0.009289568290114403,-0.0,-0.0030816805083304644
-0.00392721313983202,-0.008697948418557644,1.0483995721127229e-15,0.009289568290114403,-0.0,-0.0030816805083304644
-0.0034014759585261345,-0.00802033394575119,1.4065619018229323e-17,0.010297904722392559,-0.0,-0.0028834184631705284
-0.0035335589200258255,-0.008140009827911854,1.8870821573462848e-19,0.009389675222337246,-0.0,-0.002575096907094121
-0.0035335589200258255,-0.008140009827911854,1.8870821573462848e-19,0.009389675222337246,-0.0,-0.002575096907094121
-0.0033231815323233604,-0.008715813979506493,2.5317615559225685e-21,0.009510857053101063,-0.0,-0.0022220115642994642
-0.0035842405632138252,-0.008424012921750546,3.3966810722329777e-23,0.009197065606713295,-0.0,-0.0020839914213865995
-0.0033216916490346193,-0.008343302644789219,4.55708132348136e-25,0.009402913972735405,-0.0,-0.002090803114697337
-0.003568193642422557,-0.00844627432525158,6.113906978916057e-27,0.009393226355314255,-0.0,-0.0023282463662326336
-0.003843003883957863,-0.008585520088672638,8.202586790659385e-29,0.009698284789919853,-0.0,-0.0027153645642101765
-0.0034711062908172607,-0.00870225764811039,1.1004817304771063e-30,0.009481139481067657,-0.0,-0.0024587190710008144
-0.003140759887173772,-0.008564366027712822,1.9808282856355214e-34,0.00967551488429308,-0.0,-0.002054602839052677
-0.0031590769067406654,-0.008794613182544708,2.6575339735241188e-36,0.009707526303827763,-0.0,-0.002127384999766946
-0.0034067623782902956,-0.009280649945139885,3.565421213154749e-38,0.009269640780985355,-0.0,-0.0022233210038393736
-0.0036551111843436956,-0.008879539556801319,4.7834724378191956e-40,0.009278976358473301,-0.0,-0.0022716994863003492
-0.0033623005729168653,-0.008821113035082817,6.417946966607662e-42,0.008632048033177853,-0.0,-0.002526882803067565
-0.0034617078490555286,-0.009089866653084755,8.547920632381384e-44,0.008276204578578472,-0.0,-0.0025534445885568857
-0.003258436219766736,-0.009766378439962864,1.401298464324817e-45,0.008708310313522816,-0.0,-0.0023589518386870623
-0.00362636661157012,-0.008601173758506775,0.0,0.008747161366045475,-0.0,-0.002124542836099863
-0.0033016186207532883,-0.009301047772169113,-0.0,0.00857184175401926,-0.0,-0.0020942010451108217
-0.0033140666782855988,-0.009224304929375648,-0.0,0.009020461700856686,-0.0,-0.002294893842190504
-0.0032674893736839294,-0.009023671969771385,-0.0,0.008967968635261059,-0.0,-0.002554225502535701
-0.0031804987229406834,-0.009101299569010735,-0.0,0.008861037902534008,-0.0,-0.0025771360378712416
-0.0033338977955281734,-0.009780626744031906,-0.0,0.008380765095353127,-0.0,-0.002618923084810376
-0.0031497979070991278,-0.009445211850106716,-0.0,0.008639523759484291,-0.0,-0.002615048084408045
-0.0034157228656113148,-0.009195522405207157,-0.0,0.008990982547402382,-0.0,-0.0025055294390767813
-0.0036695972084999084,-0.009331748820841312,-0.0,0.008724648505449295,-0.0,-0.002638668054714799
-0.003382607363164425,-0.009361791424453259,-0.0,0.008531094528734684,-0.0,-0.0027257490437477827
-0.0032996898517012596,-0.00918484851717949,-0.0,0.009008022025227547,-0.0,-0.002589910291135311
-0.003286658553406596,-0.009445825591683388,-0.0,0.008572583086788654,-0.0,-0.0026732878759503365
-0.003352084895595908,-0.009495129808783531,-0.0,0.008386942557990551,-0.0,-0.0024700367357581854
-0.0031628652941435575,-0.009468678385019302,-0.0,0.009381161071360111,-0.0,-0.002491912106052041
-0.0031628652941435575,-0.009468678385019302,-0.0,0.009381161071360111,-0.0,-0.002491912106052041
-0.0026030251756310463,-0.009634106419980526,-0.0,0.009397688321769238,-0.0,-0.002730167703703046
-0.002338704187422991,-0.010142925195395947,-0.0,0.0091501260176301,-0.0,-0.0028792910743504763
-0.002319726860150695,-0.009183201007544994,-0.0,0.00900117214769125,-0.0,-0.0028768181800842285
-0.002254223683848977,-0.009634618647396564,-0.0,0.008556130342185497,-0.0,-0.002806023694574833
-0.0028633440379053354,-0.010749357752501965,-0.0,0.008229760453104973,-0.0,-0.0027699803467839956
-0.003060578601434827,-0.009368985891342163,-0.0,0.008539452217519283,-0.0,-0.0027886510360985994
-0.002394417067989707,-0.009788760915398598,-0.0,0.00873191561549902,-0.0,-0.0026135616935789585
-0.002404201542958617,-0.009271631948649883,-0.0,0.008323761634528637,-0.0,-0.002719902666285634
-0.0023173480294644833,-0.010016605257987976,-0.0,0.0089388033375144,-0.0,-0.0024780661333352327
-0.002561351750046015,-0.00979037769138813,-0.0,0.008730706758797169,-0.0,-0.0024905020836740732
-0.0026197186671197414,-0.009361250326037407,-0.0,0.008284399285912514,-0.0,-0.0026268579531461
-0.0023728022351861,-0.009118586778640747,-0.0,0.00926026701927185,-0.0,-0.002920588944107294
-0.0022181645035743713,-0.009764017537236214,-0.0,0.008786638267338276,-0.0,-0.0028746058233082294
-0.002099661622196436,-0.00959742907434702,-0.0,0.00850867573171854,-0.0,-0.002910993527621031
-0.0022295129019767046,-0.009302991442382336,-0.0,0.008256595581769943,-0.0,-0.0027208321262151003
-0.0022711518686264753,-0.009830359369516373,-0.0,0.008822361938655376,-0.0,-0.002435890957713127
-0.0024526542983949184,-0.00933219213038683,-0.0,0.008735721930861473,-0.0,-0.0024396758526563644
-0.0024039549753069878,-0.009183879010379314,-0.0,0.00802051741629839,-0.0,-0.0025391392409801483
-0.0023235068656504154,-0.00927639752626419,-0.0,0.008197765797376633,-0.0,-0.0027346794959157705
-0.0023590719792991877,-0.008963776752352715,-0.0,0.008141200989484787,-0.0,-0.002730658510699868
-0.002130263252183795,-0.009131260216236115,-0.0,0.008088313974440098,-0.0,-0.002661050297319889
-0.002058552112430334,-0.009509062394499779,-0.0,0.007827973924577236,-0.0,-0.002516956999897957
-0.0021919740829616785,-0.009136547334492207,-0.0,0.008194397203624249,-0.0,-0.0023894421756267548
-0.0021264422684907913,-0.008906872011721134,-0.0,0.00822778046131134,-0.0,-0.0027786847203969955
-0.002236813772469759,-0.01012089941650629,-0.0,0.008215602487325668,-0.0,-0.0029965012799948454
-0.0021242990624159575,-0.009071295149624348,-0.0,0.008369839750230312,-0.0,-0.0027065651956945658
-0.0021242990624159575,-0.009071295149624348,-0.0,0.008369839750230312,-0.0,-0.0027065651956945658
-0.0019919676706194878,-0.008809572085738182,-0.0,0.008089489303529263,-0.0,-0.0024574389681220055
-0.0019380809972062707,-0.008909552358090878,-0.0,0.008134997449815273,-0.0,-0.0023193019442260265
-0.001761775929480791,-0.008630422875285149,-0.0,0.007698666770011187,-0.0,-0.002700814511626959
-0.001761775929480791,-0.008630422875285149,-0.0,0.007698666770011187,-0.0,-0.002700814511626959
-0.0019943760707974434,-0.008980263955891132,-0.0,0.008086358197033405,-0.0,-0.0030063821468502283
-0.002043435350060463,-0.008681128732860088,-0.0,0.008157297037541866,-0.0,-0.002789938123896718
-0.0019844297785311937,-0.009424054063856602,-0.0,0.008563852868974209,-0.0,-0.0025756412651389837
-0.001856994698755443,-0.009488866664469242,-0.0,0.007824018597602844,-0.0,-0.002644740045070648
-0.001671822159551084,-0.009032638743519783,-0.0,0.007668607868254185,-0.0,-0.002729563508182764
-0.001660865149460733,-0.008488446474075317,-0.0,0.007756785489618778,-0.0,-0.00292013306170702
-0.0017383898375555873,-0.00940603669732809,-0.0,0.007589444052428007,-0.0,-0.002860073000192642
-0.0018856091191992164,-0.00876506045460701,-0.0,0.007402058690786362,-0.0,-0.0028106127865612507
-0.0019704787991940975,-0.008569899015128613,-0.0,0.007417965680360794,-0.0,-0.0027129941154271364
-0.0019166555721312761,-0.00859732087701559,-0.0,0.007929829880595207,-0.0,-0.0030514043755829334
-0.0019256925443187356,-0.009218449704349041,-0.0,0.008240876719355583,-0.0,-0.0033373436890542507
-0.0017033549956977367,-0.008445312269032001,-0.0,0.007604451384395361,-0.0,-0.0030704813543707132
-0.0015287869609892368,-0.008730553090572357,-0.0,0.00724986894056201,-0.0,-0.002658924786373973
-0.001432885299436748,-0.009209733456373215,-0.0,0.007896705530583858,-0.0,-0.002715656068176031
-0.0013822746695950627,-0.009105768986046314,-0.0,0.00791124813258648,9.742597285367083e-06,-0.003136301413178444
-0.0015751877799630165,-0.008266344666481018,-0.0,0.007949554361402988,0.0001085763142327778,-0.0033475258387625217
-0.0015394104411825538,-0.008843334391713142,-0.0,0.007535175420343876,0.00011232877295697108,-0.0033369772136211395
-0.0019414023263379931,-0.008961043320596218,-0.0,0.007961847819387913,0.00011000483209500089,-0.0029925093986094
-0.0017508664168417454,-0.007966538891196251,-0.0,0.007729873992502689,0.00010740670404629782,-0.002802368951961398
-0.0014662494650110602,-0.008051839657127857,-0.0,0.007271927315741777,0.0001244828017661348,-0.002613151678815484
-0.0014761853963136673,-0.008484559133648872,-0.0,0.007072777021676302,0.00012292611063458025,-0.002500231610611081
-0.0014761853963136673,-0.008484559133648872,-0.0,0.007072777021676302,0.00012292611063458025,-0.002500231610611081
-0.0014050289755687118,-0.008569215424358845,-0.0,0.007440773770213127,0.00012027157208649442,-0.002771509112790227
-0.0014956614468246698,-0.008189864456653595,-0.0,0.006961368024349213,0.00013595692871604115,-0.0030375374481081963
-0.0015669766580685973,-0.008234333246946335,-0.0,0.006983373314142227,0.00013425364159047604,-0.003358103334903717
-0.0018598800525069237,-0.006535719148814678,-0.0,0.006975532975047827,0.00014662649482488632,-0.002998442854732275
-0.0018598800525069237,-0.006535719148814678,-0.0,0.006975532975047827,0.00014662649482488632,-0.002998442854732275
-0.001475465134717524,-0.007683378644287586,-0.0,0.007343732286244631,0.00032221252331510186,-0.002852329518646002
-0.0015260771615430713,-0.007718296255916357,-0.0,0.007381807081401348,0.0003244610852561891,-0.003170579671859741
-0.0015315188793465495,-0.007047851569950581,-0.0,0.007666071876883507,0.0003567663370631635,-0.0036172429099678993
-0.0015916938427835703,-0.006389021407812834,-0.0,0.007096929010003805,0.0003414841485209763,-0.0033704526722431183
-0.0018634323496371508,-0.006628050003200769,-0.0,0.007034688722342253,0.0003216135373804718,-0.003104105358943343
-0.0017019746592268348,-0.007214566692709923,-0.0,0.006791866850107908,0.00030355772469192743,-0.002882443368434906
-0.0015754214255139232,-0.007043854799121618,-0.0,0.006992349401116371,0.00032272160751745105,-0.0028120502829551697
-0.0015034365933388472,-0.006657954305410385,-0.0,0.00746737839654088,0.0003175273013766855,-0.0029654635582119226
-0.001567197497934103,-0.006395664531737566,-0.0,0.007291949819773436,0.00030297719058580697,-0.0033183193299919367
-0.001668719225563109,-0.006676652003079653,-0.0,0.006971984636038542,0.00028911689878441393,-0.0035904268734157085
-0.001574717229232192,-0.006733466871082783,-0.0,0.007260115817189217,0.0002957348187919706,-0.003264226485043764
-0.0016105620888993144,-0.006782737094908953,-0.0,0.0071639977395534515,0.0003013213281519711,-0.0031803837046027184
-0.0014994438970461488,-0.006706289015710354,-0.0,0.0071636466309428215,0.0002903429849538952,-0.0030778665095567703
-0.0015460102586075664,-0.0072418865747749805,-0.0,0.006726624444127083,0.00027916047838516533,-0.0029306779615581036
-0.0014164799358695745,-0.006576657295227051,-0.0,0.00654173269867897,0.00030221446650102735,-0.0027880780398845673
-0.0015004005981609225,-0.006414077244699001,-0.0,0.0070851207710802555,0.0002882374101318419,-0.002853966085240245
-0.0014350275741890073,-0.006284031085669994,-0.0,0.006891340482980013,0.0003111637197434902,-0.0030392655171453953
-0.0015133869601413608,-0.006216052919626236,-0.0,0.006041568238288164,0.00030603838968090713,-0.003462037770077586
-0.001524629071354866,-0.006309439428150654,-0.0,0.005928294267505407,0.0003139945329166949,-0.0034813948441296816
-0.0014109043404459953,-0.00666592875495553,-0.0,0.006601653061807156,0.0003199375350959599,-0.003380839480087161
-0.0013301841681823134,-0.006576156243681908,-0.0,0.006951460149139166,0.00032717277645133436,-0.0031114951707422733
-0.0014061381807550788,-0.006216706242412329,-0.0,0.006645997054874897,0.0003319817769806832,-0.0028636862989515066
-0.0014061381807550788,-0.006216706242412329,-0.0,0.006645997054874897,0.0003319817769806832,-0.0028636862989515066
-0.0013611913891509175,-0.006359364837408066,-0.0,0.006120464764535427,0.00041510906885378063,-0.003102469490841031
-0.0016227603191509843,-0.0068378387950360775,-0.0,0.006398479454219341,0.0004626339068636298,-0.00338853825815022
-0.001529091619886458,-0.006740534212440252,-0.0,0.006886787246912718,0.0005037800874561071,-0.0036516189575195312
-0.0014610321959480643,-0.006130004767328501,-0.0,0.006523891352117062,0.0005033802008256316,-0.003373220097273588
-0.0012629430275410414,-0.006844150368124247,-0.0,0.0055568041279911995,0.0005252179689705372,-0.003267805092036724
-0.001116530504077673,-0.0062561556696891785,-0.0,0.005740376189351082,0.000598086160607636,-0.003001163015142083
-0.0010860833572223783,-0.006059152074158192,-0.0,0.005818845238536596,0.0006743903504684567,-0.0029695299454033375
-0.000977629330009222,-0.006555288098752499,-1.8710614313022234e-05,0.006096875295042992,0.0006519050220958889,-0.003348616184666753
-0.0009956446010619402,-0.006827921140938997,-2.5102676204369345e-07,0.00601187301799655,0.000668891821987927,-0.0037082605995237827
-0.0009928870713338256,-0.006363870110362768,-3.367844447765833e-09,0.005393898114562035,0.0006794771179556847,-0.003745539579540491
-0.0013137817149981856,-0.006433833856135607,-4.5183932984027564e-11,0.0057792067527771,0.0006396581884473562,-0.003673553466796875
-0.001285236212424934,-0.006709557957947254,-6.062000402519419e-13,0.006339040584862232,0.0007001961348578334,-0.003714239224791527
-0.0012196516618132591,-0.006279035471379757,-8.132946932289196e-15,0.006251955404877663,0.0007296449621208012,-0.0037631127052009106
-0.0012012204388156533,-0.006541902665048838,-1.0911387105790271e-16,0.0052477456629276276,0.0007362925098277628,-0.0037857540883123875
-0.0011521733831614256,-0.006460761185735464,-1.463901855089955e-18,0.005271273665130138,0.0007531940937042236,-0.0037941071204841137
-0.0011075633810833097,-0.006246703676879406,-1.9640111175364528e-20,0.005486592650413513,0.0008221262833103538,-0.0038715768605470657
-0.001076252432540059,-0.006096771918237209,-2.6349716234099696e-22,0.005448888521641493,0.0009280704543925822,-0.003506893292069435
-0.0010095580946654081,-0.006321464665234089,-3.535151167989961e-24,0.005906288977712393,0.0008783321245573461,-0.0034679407253861427
-0.0009984435746446252,-0.006724937818944454,-4.7428567108062274e-26,0.0060834274627268314,0.0008218881557695568,-0.0032258101273328066
-0.0010738770943135023,-0.006430868059396744,-6.363147350809042e-28,0.005420356057584286,0.0008198776049539447,-0.0033252150751650333
-0.0011534305522218347,-0.006122147664427757,-8.536974120304466e-30,0.004967932589352131,0.00074939732439816,-0.003138911910355091
-0.0011764945229515433,-0.006171319633722305,-1.1453440962180467e-31,0.004992999602109194,0.0007171315373852849,-0.0033320749644190073
-0.0011275699362158775,-0.0069006565026938915,-1.5366253171780951e-33,0.005073641426861286,0.0007300909492187202,-0.0034929891116917133
-0.0010816204594448209,-0.006903496105223894,-2.0615790365170952e-35,0.005334851332008839,0.0006560140172950923,-0.003628302365541458
-0.0009558963356539607,-0.0064378115348517895,-2.7658712500811008e-37,0.0055544329807162285,0.0006761751719750464,-0.0034968049731105566
-0.0008455222705379128,-0.006144548766314983,-3.710768654289298e-39,0.0051139285787940025,0.0006803554715588689,-0.003565787570551038
-0.0008526259916834533,-0.006307803560048342,-4.97853318405321e-41,0.004767581354826689,0.00064663722878322,-0.0033221121411770582
-0.0008526259916834533,-0.006307803560048342,-4.97853318405321e-41,0.004767581354826689,0.00064663722878322,-0.0033221121411770582
-0.0008554920204915106,-0.006505853030830622,-6.6841936748293774e-43,0.004666442517191172,0.0007176335202530026,-0.003482708940282464
-0.0008521242416463792,-0.006266167853027582,-8.407790785948902e-45,0.004685203544795513,0.0006882688030600548,-0.003661624388769269
-0.0007785710040479898,-0.006488192826509476,-0.0,0.004824990872293711,0.000701902259606868,-0.004232572391629219
-0.0007611924665980041,-0.006103903986513615,-0.0,0.005066870246082544,0.0007095668697729707,-0.004221372772008181
-0.0007925228564999998,-0.006512763444334269,-0.0,0.004534210078418255,0.0008751441491767764,-0.00349750486202538
-0.0007734712562523782,-0.006635978817939758,-0.0,0.004278209991753101,0.0008842844981700182,-0.003706505987793207
-0.0007271855720318854,-0.005861266516149044,-0.0,0.004119138233363628,0.000886616122443229,-0.003917198162525892
-0.0007505747489631176,-0.006418675649911165,-0.0,0.004041134845465422,0.0009299811208620667,-0.00395579356700182
-0.0007718311389908195,-0.006218616385012865,-0.0,0.004762554541230202,0.0009558474994264543,-0.0035023081582039595
-0.0007756164413876832,-0.006416738498955965,-0.0,0.004872532095760107,0.0008792062872089446,-0.003494705306366086
-0.0007014136645011604,-0.006471062544733286,-0.0,0.00450679287314415,0.0008687707595527172,-0.0036548522766679525
-0.0007104335818439722,-0.006246387958526611,-0.0,0.0040511274710297585,0.0008572707884013653,-0.0037742420099675655
-0.0006555594154633582,-0.005998525302857161,-0.0,0.00407642824575305,0.0007888688123784959,-0.0042846002615988255
-0.0006344133871607482,-0.006366905756294727,-0.0,0.004122723359614611,0.0007173647754825652,-0.004204674623906612
-0.0005712421843782067,-0.006564526353031397,-0.0,0.0043954369612038136,0.0006249985890462995,-0.0039986190386116505
-0.0006069398368708789,-0.006396401673555374,-0.0,0.0045262412168085575,0.0006506876670755446,-0.0034939812030643225
-0.0006268154247663915,-0.005884998012334108,-0.0,0.004225752782076597,0.0006579801556654274,-0.003766982816159725
-0.0005791298463009298,-0.006483934819698334,-0.0,0.003947997000068426,0.0006584363291040063,-0.004222865216434002
-0.0006030718213878572,-0.006352610886096954,-0.0,0.00425242492929101,0.0006397292600013316,-0.004396130330860615
-0.0006572269485332072,-0.006385931745171547,-0.0,0.004288249183446169,0.0006885111797600985,-0.004298516549170017
-0.0006167939282022417,-0.006271782331168652,-0.0,0.0040201484225690365,0.0007172547047957778,-0.004083692561835051
-0.0006499223527498543,-0.005463876761496067,-0.0,0.003950454294681549,0.0006982477498240769,-0.004010539501905441
-0.0005813694442622364,-0.005865258164703846,-0.0,0.004012492951005697,0.0006709275767207146,-0.0035405901726335287
-0.0006110277026891708,-0.006411017384380102,-0.0,0.003935543820261955,0.0006898341816850007,-0.003580652177333832
-0.0005580454599112272,-0.006459509488195181,-0.0,0.003798091784119606,0.0007394687854684889,-0.00418104650452733
-0.0005770257557742298,-0.006334145087748766,-0.0,0.003461450571194291,0.0007827540393918753,-0.0044448040425777435
-0.0005416565109044313,-0.005514699500054121,-0.0,0.0034792537335306406,0.0007840764010325074,-0.00427555525675416
-0.000507249787915498,-0.006036965176463127,-0.0,0.003249439876526594,0.0007212141645140946,-0.004368928261101246
-0.00048784801037982106,-0.006534633692353964,-0.0,0.003436100436374545,0.0007283259183168411,-0.004149711225181818
-0.0005179262370802462,-0.006311016622930765,-0.0,0.003684170078486204,0.0007721135043539107,-0.00423306692391634
-0.0004813618725165725,-0.00617541279643774,-0.0,0.0033745390828698874,0.0007935436442494392,-0.004266054835170507
-0.0004813618725165725,-0.00617541279643774,-0.0,0.0033745390828698874,0.0007935436442494392,-0.004266054835170507
-0.0004757274582516402,-0.005772520788013935,-0.0,0.002870220923796296,0.0008327743853442371,-0.003984692506492138
-0.0004431587003637105,-0.006116244476288557,-0.0,0.0027371179312467575,0.0009583643986843526,-0.003858107840642333
-0.0004140395321883261,-0.0062602004036307335,-0.0,0.0032393846195191145,0.0010066572576761246,-0.004198575392365456
-0.0004248216573614627,-0.006122504360973835,-0.0,0.0037579212803393602,0.0009933493565768003,-0.004260697402060032
-0.00041795248398557305,-0.005978643894195557,-0.0,0.003412889316678047,0.0009805683512240648,-0.004263358656316996
-0.00039524733438156545,-0.006031726952642202,-0.0,0.0029546311125159264,0.0009805887239053845,-0.003774401033297181
-0.0003746800939552486,-0.0061006671749055386,-0.0,0.0027255085296928883,0.0009766105795279145,-0.0035955344792455435
-0.00035614336957223713,-0.0063121565617620945,-8.042219269555062e-05,0.00260252901352942,0.000965202518273145,-0.00370095856487751
-0.0003397069813217968,-0.005742658860981464,-8.417014760198072e-05,0.0024839388206601143,0.0009480827138759196,-0.004250644240528345
-0.0003210181021131575,-0.005869407672435045,-8.269395038951188e-05,0.002475069835782051,0.0009025506442412734,-0.004848376382142305
-0.0002997071132995188,-0.005440943408757448,-8.120269194478169e-05,0.002266752067953348,0.0009136853623203933,-0.004860397428274155
-0.000280990352621302,-0.0058821700513362885,-7.976343476912007e-05,0.0024258329067379236,0.0009125000215135515,-0.004482446704059839
-0.00026447296841070056,-0.006143205799162388,-7.837426528567448e-05,0.002381368074566126,0.0009263723040930927,-0.004027861170470715
-0.00024979145382530987,-0.005992488469928503,-9.182377834804356e-05,0.0023908428847789764,0.000999358482658863,-0.003829688997939229
-0.00023665417393203825,-0.00553972227498889,-9.08750735106878e-05,0.002480721101164818,0.001028724480420351,-0.003841917961835861
-0.00022482838539872319,-0.0056112343445420265,-8.937896200222895e-05,0.0022158725187182426,0.0010006556985899806,-0.004130433313548565
-0.00021412914793472737,-0.006069289054721594,-8.792381413513795e-05,0.0020916624926030636,0.0009860355639830232,-0.004308206494897604
-0.00020440269145183265,-0.005902541801333427,-0.00010073780867969617,0.002158736577257514,0.0009588520042598248,-0.004456379450857639
-0.00020440269145183265,-0.005902541801333427,-0.00010073780867969617,0.002158736577257514,0.0009588520042598248,-0.004456379450857639
-0.00019552063895389438,-0.005743068642914295,-9.934017725754529e-05,0.0020918985828757286,0.0009596439194865525,-0.00456458143889904
-0.00018737935170065612,-0.0054480405524373055,-9.780065738596022e-05,0.002173828426748514,0.0009511269745416939,-0.004671810660511255
-0.00017988805484492332,-0.0056133694015443325,-0.0001084576069843024,0.002135677495971322,0.0009442832670174539,-0.004277882166206837
-0.0001729735522530973,-0.005588341969996691,-0.00010838489833986387,0.0023668422363698483,0.0009687287965789437,-0.004261794500052929
-0.0001994202466448769,-0.0055945091880857944,-0.00010679823026293889,0.00252017704769969,0.0009822609135881066,-0.005062006413936615
-0.00019274295482318848,-0.005325147416442633,-0.00010523747914703563,0.0023563632275909185,0.0009807674214243889,-0.005271172616630793
-0.00018610706320032477,-0.005689989775419235,-0.00025178820942528546,0.002217360306531191,0.0009703735122457147,-0.004605279769748449
-0.000174105676705949,-0.005791075062006712,-0.0002316859900020063,0.0020457387436181307,0.0010180313838645816,-0.00448392191901803
-0.00016866739315446466,-0.005651198327541351,-0.00025917694438248873,0.0019084048690274358,0.000989941181614995,-0.004513022489845753
-0.0001635589578654617,-0.005685894284397364,-0.00025199601077474654,0.001873898203484714,0.0009605683735571802,-0.004685590974986553
-0.00013540229701902717,-0.005216600839048624,-0.00024082374875433743,0.001868193270638585,0.0009061407763510942,-0.0044988002628088
-0.00012494614929892123,-0.005235711578279734,-0.00025789119536057115,0.0015300308587029576,0.0009182343492284417,-0.0049559930339455605
-0.00012494614929892123,-0.005235711578279734,-0.00025789119536057115,0.0015300308587029576,0.0009182343492284417,-0.0049559930339455605
-0.00012157023593317717,-0.005044665653258562,-0.00028176713385619223,0.0013912221184000373,0.0009170012781396508,-0.0044943904504179955
-0.00011837219062726945,-0.005378572270274162,-0.0002724685182329267,0.0012783765560016036,0.0011312371352687478,-0.0039866650477051735
-0.00011534243094502017,-0.005095380358397961,-0.00040806917240843177,0.0011166991898790002,0.0011625919723883271,-0.00423371372744441
-0.00011245607311138883,-0.005108801648020744,-0.0003798547259066254,0.0008908433374017477,0.0011250332463532686,-0.0043830256909132
-0.00010971797746606171,-0.005013628862798214,-0.0004174929636064917,0.0008451750036329031,0.001119135646149516,-0.004406500607728958
-7.188974996097386e-05,-0.005408989731222391,-0.0003900119918398559,0.0007579345838166773,0.0011321291094645858,-0.004813747014850378
-6.29683054285124e-05,-0.005003661848604679,-0.00042187998769804835,0.0007690744241699576,0.0010941211367025971,-0.00487516401335597
5.659909948008135e-05,-0.004785187542438507,-0.00039757401100359857,0.0007763242465443909,0.0010301185538992286,-0.004756541922688484
5.6403176131425425e-05,-0.005129484459757805,-0.00040896525024436414,0.0007114724721759558,0.0009536610450595617,-0.004659862257540226
3.057131834793836e-05,-0.004853812046349049,-0.0004032241995446384,0.0006672123563475907,0.0009412072831764817,-0.004678244702517986
2.6591513233142905e-05,-0.004887192510068417,-0.0004711132787633687,0.0005863805999979377,0.000934555078856647,-0.004684414714574814
0.0001252258662134409,-0.005325208883732557,-0.00046616114559583366,0.000615158467553556,0.0009610321721993387,-0.00469105364754796
0.00015018615522421896,-0.004717149771749973,-0.0005062557174824178,0.000557835097424686,0.0012516578426584601,-0.005162482149899006
0.00012922444147989154,-0.004572346806526184,-0.0005142995505593717,0.0005465787835419178,0.0013827037764713168,-0.005068239755928516
0.00012922444147989154,-0.004572346806526184,-0.0005142995505593717,0.0005465787835419178,0.0013827037764713168,-0.005068239755928516
0.00011299239849904552,-0.0049957395531237125,-0.0004980263183824718,0.0005367988487705588,0.0017564627341926098,-0.004876002203673124
0.0001656058302614838,-0.00490968581289053,-0.0005250602844171226,0.000496848311740905,0.0017459546215832233,-0.005053237080574036
0.00018013558292295784,-0.004492578096687794,-0.0004917238838970661,0.00046064771595411,0.001595844398252666,-0.004576923791319132
0.00016412479453720152,-0.005087990779429674,-0.0005923729622736573,0.00042925073648802936,0.0014649045187979937,-0.004543311428278685
0.00013880782353226095,-0.00468462286517024,-0.0005767226684838533,0.00043072045082226396,0.0011703027412295341,-0.005391833838075399
0.0001288681960431859,-0.0043946183286607265,-0.0005986528121866286,0.00040721410186961293,0.001116810250096023,-0.005017674993723631
0.00017317796300631016,-0.004432224202901125,-0.0006071072421036661,0.0003854610840789974,0.0009599088225513697,-0.005302813369780779
0.00016898939793463796,-0.0046132099814713,-0.0005830461159348488,0.00036587100476026535,0.0009124060743488371,-0.005059849005192518
0.0001591188192833215,-0.004242029972374439,-0.0006858555134385824,0.00034817351843230426,0.0009171413839794695,-0.004617775324732065
0.00019963987870141864,-0.004484118893742561,-0.000719464267604053,0.00033210840774700046,0.000923830084502697,-0.004932702984660864
0.00018977768195327371,-0.0046617682091891766,-0.0007407640223391354,0.0003174614976160228,0.0011992634972557425,-0.005495559889823198
0.00018028188787866384,-0.004274792969226837,-0.0007548778667114675,0.0003040518786292523,0.0013204676797613502,-0.0052727460861206055
0.00017168428166769445,-0.004242257680743933,-0.0008966585155576468,0.00029172966605983675,0.0015580334002152085,-0.005215287208557129
0.00024946656776592135,-0.004511264152824879,-0.0009199318010360003,0.00028036822914145887,0.0015438845148310065,-0.004962562117725611
0.00024656756431795657,-0.004238389432430267,-0.0009172613499686122,0.00026985773001797497,0.0014503899728879333,-0.00478452630341053
0.0002787566918414086,-0.0044577233493328094,-0.0009182684007100761,0.0002601073938421905,0.001500484999269247,-0.005036124028265476
0.0002959231787826866,-0.004326302092522383,-0.0010044288355857134,0.00025103703956119716,0.001404358772560954,-0.005302106961607933
0.00029641337459906936,-0.004071878269314766,-0.0009925466729328036,0.00024257833138108253,0.0013310648500919342,-0.005561823956668377
0.0003189509443473071,-0.004363675136119127,-0.0010684860171750188,0.00023467112623620778,0.0012954830890521407,-0.005418958142399788
0.00030975346453487873,-0.004105987027287483,-0.0009886407060548663,0.0002272627898491919,0.0012644055532291532,-0.005107564385980368
0.0005535229574888945,-0.0038523515686392784,-0.0011378489434719086,0.00022030794934835285,0.0012272283202037215,-0.005106043536216021
0.0005222871550358832,-0.00374282943084836,-0.0011110381456092,0.0002137665869668126,0.0013391486136242747,-0.00517681147903204
0.0005222871550358832,-0.00374282943084836,-0.0011110381456092,0.0002137665869668126,0.0013391486136242747,-0.00517681147903204
0.0005835185293108225,-0.0039019607938826084,-0.0012867694022133946,0.00020178381237201393,0.001231768517754972,-0.005436325911432505
0.0005835185293108225,-0.0039019607938826084,-0.0012867694022133946,0.00020178381237201393,0.001231768517754972,-0.005436325911432505
0.0005425396375358105,-0.003765503875911236,-0.0012285287957638502,0.00019628263544291258,0.001279808464460075,-0.005725215654820204
0.0004996276693418622,-0.003552950220182538,-0.001178956707008183,0.00019107316620647907,0.0012656438630074263,-0.00539493327960372
0.000528078293427825,-0.0035944601986557245,-0.0012309638550505042,0.00016593140026088804,0.001226856024004519,-0.005670510698109865
0.000497082422953099,-0.003733072429895401,-0.0012113365810364485,0.00015896229888312519,0.001348706427961588,-0.005291806533932686
0.0005948135512880981,-0.0036782107781618834,-0.0011778897605836391,0.0001548725413158536,0.001302707358263433,-0.005248693749308586
0.0006535350694321096,-0.004105901811271906,-0.0012889000354334712,0.000147602753713727,0.0015344988787546754,-0.005291303154081106
0.0006276221829466522,-0.0038706311024725437,-0.0012552430853247643,9.691415471024811e-05,0.001465108711272478,-0.005276590120047331
0.0009985435754060745,-0.003070392180234194,-0.0013707990292459726,4.9803824367700145e-05,0.0016073434380814433,-0.005507064517587423
0.0008910537580959499,-0.0028559418860822916,-0.001400398788973689,4.563270340440795e-05,0.0014999320264905691,-0.0055898698046803474
0.000890944735147059,-0.002994475420564413,-0.0013697345275431871,4.431905836099759e-05,0.0013855543220415711,-0.0057605658657848835
0.0008888319716788828,-0.0032273223623633385,-0.0014650772791355848,2.30677815125091e-05,0.0013378551229834557,-0.006059031467884779
0.0008639206644147635,-0.003496436169371009,-0.001416446059010923,2.120776662195567e-05,0.0013027023524045944,-0.005715969018638134
0.0008861109963618219,-0.0032488310243934393,-0.0015794304199516773,2.7174705792276654e-06,0.0012855418026447296,-0.005738652776926756
0.0008588472264818847,-0.0035018129274249077,-0.0015830419724807143,1.7743141711434873e-07,0.001427184441126883,-0.005480262450873852
0.0007904406520538032,-0.0032627894543111324,-0.0015193554572761059,1.1585003178993247e-08,0.0014338003238663077,-0.005573826376348734
0.0007988131837919354,-0.0032037312630563974,-0.0015879266429692507,7.564179282937289e-10,0.0014377015177160501,-0.006065068766474724
0.0009509126539342105,-0.0031560827046632767,-0.0014680724125355482,4.938868064519042e-11,0.00152815121691674,-0.005986392498016357
0.0009817063109949231,-0.0031719431281089783,-0.0015297271311283112,3.2247279933145245e-12,0.001455256249755621,-0.006185459438711405
0.0014189849607646465,-0.003091996069997549,-0.0015432793879881501,2.1055169597845175e-13,0.0019531610887497663,-0.005689486861228943
0.0016925146337598562,-0.0033523112069815397,-0.001717985374853015,-0.00026896758936345577,0.0018346515716984868,-0.005714572500437498
0.0016010921681299806,-0.0032271717209368944,-0.0016142422100529075,-0.0012164963409304619,0.0019594677723944187,-0.005833598785102367
0.0016358783468604088,-0.0029971806798130274,-0.001661775168031454,-0.0017138200346380472,0.0017395197646692395,-0.0057796575129032135
0.0016069822013378143,-0.002920344239100814,-0.0017629177309572697,-0.0022444557398557663,0.0016147186979651451,-0.006067915353924036
0.0014307466335594654,-0.002853474812582135,-0.001627661637030542,-0.0023481748066842556,0.0014152013463899493,-0.005567269865423441
0.0015057201962918043,-0.002478645881637931,-0.0016503821825608611,-0.00236297445371747,0.0014316984452307224,-0.005293793044984341
0.002010142430663109,-0.0025306036695837975,-0.0016667573945596814,-0.0028246610891073942,0.001848134328611195,-0.005605906713753939
0.002010142430663109,-0.0025306036695837975,-0.0016667573945596814,-0.0028246610891073942,0.001848134328611195,-0.005605906713753939
0.0020586636383086443,-0.0028052569832652807,-0.0014669812517240644,-0.0034677949734032154,0.0020077417138963938,-0.006021168082952499
0.0024137254804372787,-0.002891978481784463,-0.0015357520896941423,-0.0037296367809176445,0.002130006905645132,-0.006105517502874136
0.0023318161256611347,-0.0027823231648653746,-0.0014377726474776864,-0.0038918121717870235,0.0020679074805229902,-0.006325657945126295
0.0027679107151925564,-0.002796710701659322,-0.0015279673971235752,-0.00436448073014617,0.0018748404690995812,-0.00593251409009099
0.002735790563747287,-0.002531069330871105,-0.0015711296582594514,-0.004744361620396376,0.0018482765881344676,-0.005807225126773119
0.0020984213333576918,-0.0027487727347761393,-0.0018023777520284057,-0.0055389683693647385,0.0019914968870580196,-0.005877499468624592
0.002164240926504135,-0.0027211452834308147,-0.0018633013824000955,-0.005484267137944698,0.00198941957205534,-0.006698067765682936
0.00284082954749465,-0.002725262427702546,-0.0017985034501180053,-0.005789982154965401,0.0018914222018793225,-0.0064977677538990974
0.002999820513650775,-0.002529321238398552,-0.001607957761734724,-0.00573422946035862,0.0018316374626010656,-0.006393288727849722
0.002761094830930233,-0.0025086072273552418,-0.001648440258577466,-0.005687125027179718,0.0018337966175749898,-0.006129684392362833
0.0026431670412421227,-0.0027222600765526295,-0.0014498276868835092,-0.005851208698004484,0.001740428153425455,-0.006549605634063482
0.002749086357653141,-0.00251154531724751,-0.0012526892824098468,-0.0061745415441691875,0.0017556472448632121,-0.006704844068735838
0.0032939461525529623,-0.0025963764637708664,-0.001019052229821682,-0.006150482688099146,0.002003574511036277,-0.006445195991545916
0.003304579993709922,-0.00278431992046535,-0.0009742843685671687,-0.0060499282553792,0.0018827876774594188,-0.006253835745155811
0.0035295323468744755,-0.0025373180396854877,-0.000973795831669122,-0.006341336295008659,0.0017175906104966998,-0.00647739926353097
0.003688090480864048,-0.002331239404156804,-0.0009762774570845068,-0.006803446915000677,0.0016065901145339012,-0.006719863507896662
0.003397901076823473,-0.0021774698980152607,-0.0011908066226169467,-0.006408056244254112,0.0016137117054313421,-0.006437621545046568
0.0035554603673517704,-0.0022823435720056295,-0.0012656013714149594,-0.005888258572667837,0.0016220125835388899,-0.006558482069522142
0.004323549568653107,-0.0022328190971165895,-0.0011200997978448868,-0.006003472954034805,0.00171930983196944,-0.006377780809998512
0.004207960329949856,-0.0021624178625643253,-0.0011242289328947663,-0.006312308833003044,0.0019729286432266235,-0.006290082819759846
0.0043984088115394115,-0.0019622447434812784,-0.001084566698409617,-0.006666998844593763,0.001966016134247184,-0.006509439554065466
0.004180222284048796,-0.001920384936966002,-0.0010534487664699554,-0.006644657347351313,0.0018813530914485455,-0.006546067073941231
0.004262311849743128,-0.001846164814196527,-0.0010312794474884868,-0.006482453551143408,0.0018533990951254964,-0.0070074088871479034
0.004097776021808386,-0.002059970749542117,-0.0009256941266357899,-0.0070026167668402195,0.0016427019145339727,-0.006941036321222782
0.004487370140850544,-0.0021451108623296022,-0.0010210254695266485,-0.007421099115163088,0.0016826094361022115,-0.006488327402621508
0.00472236005589366,-0.0018988210940733552,-0.0010348946088925004,-0.007028178311884403,0.0017588717164471745,-0.006400941405445337
0.004752697888761759,-0.0017780264606699347,-0.0011915875365957618,-0.0064512561075389385,0.0018980426248162985,-0.006407916080206633
0.004447207786142826,-0.001796067226678133,-0.0012897254200652242,-0.006954751443117857,0.0019074296578764915,-0.006160908378660679
0.0045424881391227245,-0.0017964772414416075,-0.0012594875879585743,-0.007213384844362736,0.0019693889189511538,-0.006211497820913792
0.004583001136779785,-0.0018466152250766754,-0.0012175918091088533,-0.007130167447030544,0.001821045996621251,-0.006271388381719589
0.004583001136779785,-0.0018466152250766754,-0.0012175918091088533,-0.007130167447030544,0.001821045996621251,-0.006271388381719589
0.005002898164093494,-0.0018190834671258926,-0.001332777552306652,-0.0072309887036681175,0.001793951727449894,-0.005962129216641188
0.005489349365234375,-0.0016573286848142743,-0.001463245484046638,-0.007872640155255795,0.001802958664484322,-0.006326446309685707
0.00553854601457715,-0.0015002571744844317,-0.0013571623712778091,-0.0076581137254834175,0.0021446007303893566,-0.006626658607274294
0.00553854601457715,-0.0015002571744844317,-0.0013571623712778091,-0.0076581137254834175,0.0021446007303893566,-0.006626658607274294
0.0057462407276034355,-0.0015330606838688254,-0.0013727336190640926,-0.00814078189432621,0.0020888701546937227,-0.006854837294667959
0.005359870847314596,-0.0016498103505000472,-0.0013215407961979508,-0.008522058837115765,0.0021174366120249033,-0.006932081654667854
0.0058262231759727,-0.0015256847254931927,-0.0012680275831371546,-0.008400091901421547,0.0019305062014609575,-0.006413105875253677
0.005555992014706135,-0.0016437481390312314,-0.0014117974787950516,-0.007971971295773983,0.0018910800572484732,-0.006348209921270609
0.006145110819488764,-0.0014952158089727163,-0.001322609605267644,-0.008449769578874111,0.001760205370374024,-0.006370299030095339
0.006349353119730949,-0.0013936187606304884,-0.0012891782680526376,-0.009826445020735264,0.0018514838302507997,-0.0063665336929261684
0.006222828757017851,-0.0012890385696664453,-0.001514250528998673,-0.008881793357431889,0.0018949051154777408,-0.0070154485292732716
0.0061460197903215885,-0.0012106141075491905,-0.0014567540492862463,-0.00824793055653572,0.0020004003308713436,-0.006994925905019045
0.006400454789400101,-0.0011931220069527626,-0.0016830425010994077,-0.009368721395730972,0.0018431928474456072,-0.00682959146797657
0.0064645432867109776,-0.001121637295000255,-0.0016699724365025759,-0.008929403498768806,0.0018707142444327474,-0.00639975443482399
0.006608397234231234,-0.0012073353864252567,-0.0014520522672683,-0.008123405277729034,0.0017225650371983647,-0.00621018884703517
0.006682123057544231,-0.0011922282865270972,-0.001377303502522409,-0.008031568489968777,0.0018917100969702005,-0.006866267416626215
0.006947035901248455,-0.001285046455450356,-0.001419620937667787,-0.008717963472008705,0.0020759401377290487,-0.007088881451636553
0.006928975228220224,-0.0013610018650069833,-0.0014103978173807263,-0.0081713255494833,0.002355702221393585,-0.006809409242123365
0.007541897241026163,-0.0012777424417436123,-0.0015043752500787377,-0.00831329170614481,0.0024221253115683794,-0.006945020519196987
0.006869494449347258,-0.001127600553445518,-0.0016752744559198618,-0.008584347553551197,0.002293206751346588,-0.006971969269216061
0.006893860641866922,-0.0009798312094062567,-0.001579844974912703,-0.00854463316500187,0.002334068063646555,-0.0071574668399989605
0.006752850022166967,-0.0009467590716667473,-0.0015631362330168486,-0.008124331012368202,0.0021107017528265715,-0.0068323081359267235
0.007268044166266918,-0.0008199004805646837,-0.001396352075971663,-0.008248838596045971,0.0020808959379792213,-0.006804618984460831
0.007321544922888279,-0.0008287439122796059,-0.001441960339434445,-0.008907917886972427,0.0019178871298208833,-0.006994454190135002
0.007153060287237167,-0.0008340325439348817,-0.0013842219486832619,-0.00870312936604023,0.001975774532184005,-0.00709109753370285
0.007480643689632416,-0.0006899046711623669,-0.0015237834304571152,-0.00911443680524826,0.0020419207867234945,-0.007107180077582598
0.007613860070705414,-0.00023479980882257223,-0.0013977994676679373,-0.009243739768862724,0.0023585103917866945,-0.007341428659856319
0.007458430249243975,-0.00020425350521691144,-0.0016545751132071018,-0.009492353536188602,0.0022559119388461113,-0.007074201479554176
0.007458430249243975,-0.00020425350521691144,-0.0016545751132071018,-0.009492353536188602,0.0022559119388461113,-0.007074201479554176
0.007312048692256212,-0.0002736994356382638,-0.001546765211969614,-0.009653955698013306,0.0022688594181090593,-0.007225998677313328
0.007870752364397049,-0.0002496079250704497,-0.0016532022273167968,-0.009287322871387005,0.0020271267276257277,-0.007353042718023062
0.00755457254126668,-0.00022849286324344575,-0.0016911079874262214,-0.00903492234647274,0.001847754349000752,-0.007570012006908655
0.00751675246283412,-0.00021065953478682786,-0.0015916747506707907,-0.00919401179999113,0.0018299614312127233,-0.007674768567085266
0.0071121277287602425,0.00011676870053634048,-0.0016365036135539412,-0.009474802762269974,0.0018502078019082546,-0.007038691081106663
0.007765456568449736,0.00011397701018722728,-0.0015417936956509948,-0.009726057760417461,0.0018516876734793186,-0.007023204583674669
0.007883408106863499,0.00010130181181011721,-0.0015895890537649393,-0.009758150205016136,0.002127517946064472,-0.007486226037144661
0.007988303899765015,9.105078788707033e-05,-0.0015874721575528383,-0.009186227805912495,0.0024511346127837896,-0.007397605571895838
0.008326789364218712,8.268146484624594e-05,-0.0015330699970945716,-0.009148912504315376,0.0025105441454797983,-0.007388405967503786
0.008079598657786846,7.572222239105031e-05,-0.001654010615311563,-0.009829612448811531,0.0024766987189650536,-0.0073029641062021255
0.008233005180954933,6.984457286307588e-05,-0.0017452271422371268,-0.009946460835635662,0.002261020941659808,-0.007299324031919241
0.007907135412096977,6.481293530669063e-05,-0.0017756001325324178,-0.009441890753805637,0.0021273563615977764,-0.007054280024021864
0.008632100187242031,6.04586566623766e-05,-0.00165930122602731,-0.009733827784657478,0.0020429324358701706,-0.007666034158319235
0.008611183613538742,5.665213393513113e-05,-0.0016689575277268887,-0.009943206794559956,0.0020448160357773304,-0.0076662516221404076
0.00808719452470541,5.329676059773192e-05,-0.0016996711492538452,-0.009829763323068619,0.0021674800664186478,-0.00824879389256239
0.007981273345649242,5.031670298194513e-05,-0.0015199787449091673,-0.010262515395879745,0.0022406470961868763,-0.00794796459376812
0.008719408884644508,4.765246922033839e-05,-0.001527873333543539,-0.010189920663833618,0.0024977049324661493,-0.007638080511242151
0.00854723434895277,4.525588155956939e-05,-0.0014608661876991391,-0.010626597329974174,0.0028028152883052826,-0.007564378436654806
0.00827014446258545,4.3089239625260234e-05,-0.0015137037262320518,-0.010377926751971245,0.0027111019007861614,-0.007612389512360096
0.00827014446258545,4.3089239625260234e-05,-0.0015137037262320518,-0.010377926751971245,0.0027111019007861614,-0.007612389512360096
0.008997022174298763,6.808371108490974e-05,-0.0015768843004480004,-0.010253768414258957,0.002794531872496009,-0.007622268050909042
0.008730573579668999,7.535207259934396e-05,-0.0019104573875665665,-0.011216314509510994,0.0022123868111521006,-0.007079261355102062
0.008730573579668999,7.535207259934396e-05,-0.0019104573875665665,-0.011216314509510994,0.0022123868111521006,-0.007079261355102062
0.008878685534000397,9.23506377148442e-05,-0.001891517429612577,-0.011502504348754883,0.0020551723428070545,-0.00837804190814495
0.009061574935913086,0.0001002590506686829,-0.0019410402746871114,-0.011336715891957283,0.002320615341886878,-0.008008447475731373
0.006804607808589935,9.681618394097313e-05,-0.001768929185345769,-0.01089591346681118,0.002620692364871502,-0.00784279964864254
0.005859880708158016,0.00011392623855499551,-0.001998466905206442,-0.010946462862193584,0.0026843207888305187,-0.00774355698376894
0.006261368747800589,0.00012030902144033462,-0.0018143117194995284,-0.010290821082890034,0.002724343677982688,-0.007509822957217693
0.0071966517716646194,0.00011657991854008287,-0.0020608576014637947,-0.010520187206566334,0.002494712360203266,-0.007625720463693142
0.007365328259766102,0.00017363272490911186,-0.0018933811224997044,-0.010843071155250072,0.002797052962705493,-0.007541170343756676
0.006632009521126747,0.00016797894204501063,-0.002051368821412325,-0.010043715126812458,0.0027984285261482,-0.007916396483778954
0.006561833433806896,0.00016194449563045055,-0.0019152406603097916,-0.009837912395596504,0.0031061379704624414,-0.0080649359151721
0.006846554111689329,0.00018389694741927087,-0.0020519839599728584,-0.010577095672488213,0.0029124063439667225,-0.0076351473107934
0.00707224290817976,0.00018123573681805283,-0.001995023339986801,-0.010836829431355,0.0025202762335538864,-0.007981760427355766
0.006999857723712921,0.0001945975818671286,-0.002202256117016077,-0.010422852821648121,0.002198826288804412,-0.008114686235785484
0.006646063178777695,0.00019805719784926623,-0.0022820131853222847,-0.010301519185304642,0.00198145373724401,-0.008259059861302376
0.00680342223495245,0.0001921454386319965,-0.0021635997109115124,-0.01021820493042469,0.001964543480426073,-0.007817061617970467
0.006796333473175764,0.0002120233839377761,-0.002028062241151929,-0.011127717792987823,0.0018402349669486284,-0.008185612969100475
0.0068705459125339985,0.00020695738203357905,-0.0020286899525672197,-0.010918933898210526,0.0020892745815217495,-0.00838181097060442
0.007249708287417889,0.0003385812451597303,-0.00218621245585382,-0.010771018452942371,0.002304143039509654,-0.007893271744251251
0.007690032944083214,0.0003778405662160367,-0.0023932165931910276,-0.011264985427260399,0.0023860912770032883,-0.007861676625907421
0.007170149125158787,0.00039503248990513384,-0.002365473425015807,-0.010899185203015804,0.0026094806380569935,-0.00789415743201971
0.007251514587551355,0.00038875965401530266,-0.002523748204112053,-0.011454038321971893,0.0027469012420624495,-0.008149129338562489
0.008028979413211346,0.00042090428178198636,-0.002380301943048835,-0.011236381717026234,0.003026030259206891,-0.008192899636924267
0.0077686249278485775,0.0004466130631044507,-0.002466688398271799,-0.01094790454953909,0.002897560363635421,-0.008198505267500877
0.0077686249278485775,0.0004466130631044507,-0.002466688398271799,-0.01094790454953909,0.002897560363635421,-0.008198505267500877
0.00757993757724762,0.0004281519795767963,-0.002316471189260483,-0.011611339636147022,0.0027901772409677505,-0.00802463386207819
0.007782101631164551,0.0006581226480193436,-0.0020667165517807007,-0.011500752530992031,0.002500529633834958,-0.008134459145367146
0.00796920619904995,0.0005903720739297569,-0.002070663496851921,-0.012400886043906212,0.0027045903261750937,-0.008526520803570747
0.00796920619904995,0.0005903720739297569,-0.002070663496851921,-0.012400886043906212,0.0027045903261750937,-0.008526520803570747
0.008171634748578072,0.0006424585008062422,-0.0025393497198820114,-0.012914678081870079,0.002842086600139737,-0.008476934395730495
0.008221051655709743,0.00073147943476215,-0.0023830856662243605,-0.012280197814106941,0.0026959364768117666,-0.008341123349964619
0.008162317797541618,0.0007729320204816759,-0.0023070566821843386,-0.012658811174333096,0.00276485295034945,-0.008327472023665905
0.008289863355457783,0.000789062527474016,-0.0021692593581974506,-0.012606451287865639,0.0027989514637738466,-0.008720967918634415
0.00784631073474884,0.0008013993501663208,-0.0022677171509712934,-0.012548975646495819,0.002652015071362257,-0.008469788357615471
0.008150453679263592,0.0009471673984080553,-0.0022065110970288515,-0.012698663398623466,0.002726538572460413,-0.00814271904528141
0.008190886117517948,0.0009128969395533204,-0.0023585271555930376,-0.012733773328363895,0.002785053104162216,-0.008360306732356548
0.008209509775042534,0.0008221316384151578,-0.002428358420729637,-0.012820540927350521,0.0025513346772640944,-0.008504380472004414
0.008965522050857544,0.0008182041929103434,-0.002285642083734274,-0.012131406925618649,0.002582005923613906,-0.00821787677705288
0.008513102307915688,0.0008275919244624674,-0.0023388660047203302,-0.013205880299210548,0.0026415179017931223,-0.007992495782673359
0.008628998883068562,0.0009240573272109032,-0.0021820904221385717,-0.01339823566377163,0.0027838898822665215,-0.008593995124101639
0.008859957568347454,0.0009628222323954105,-0.002313463483005762,-0.013630605302751064,0.002769322134554386,-0.008517072536051273
0.008782886900007725,0.0019010090036317706,-0.0024250976275652647,-0.013618336990475655,0.0029095688369125128,-0.008443363010883331
0.009093382395803928,0.0017940620891749859,-0.002352539449930191,-0.013562504202127457,0.0029090221505612135,-0.007916615344583988
0.008599591441452503,0.0017605610191822052,-0.0024417138192802668,-0.013495449908077717,0.0028417694848030806,-0.008379893377423286
0.009302009828388691,0.0015884555177763104,-0.0024779527448117733,-0.013747887685894966,0.0029052400495857,-0.008426009677350521
0.009302009828388691,0.0015884555177763104,-0.0024779527448117733,-0.013747887685894966,0.0029052400495857,-0.008426009677350521
0.00849380437284708,0.001588391955010593,-0.002396060386672616,-0.013748163357377052,0.003435123711824417,-0.008111915551126003
0.00849380437284708,0.001588391955010593,-0.002396060386672616,-0.013748163357377052,0.003435123711824417,-0.008111915551126003
0.009485067799687386,0.0018980595050379634,-0.0024183467030525208,-0.014377931132912636,0.003375069936737418,-0.008506517857313156
0.009485067799687386,0.0018980595050379634,-0.0024183467030525208,-0.014377931132912636,0.003375069936737418,-0.008506517857313156
0.00921633280813694,0.0023925572168082,-0.0029063750989735126,-0.014394670724868774,0.0031027416698634624,-0.008909115567803383
0.00921633280813694,0.0023925572168082,-0.0029063750989735126,-0.014394670724868774,0.0031027416698634624,-0.008909115567803383
0.009370137006044388,0.0021797639783471823,-0.0025280704721808434,-0.013522610068321228,0.002811344340443611,-0.008255811408162117
0.009370137006044388,0.0021797639783471823,-0.0025280704721808434,-0.013522610068321228,0.002811344340443611,-0.008255811408162117
0.009066671133041382,0.001946467556990683,-0.0025787942577153444,-0.014236888848245144,0.0027189627289772034,-0.00886466447263956
0.009781401604413986,0.0024213262367993593,-0.0026006046682596207,-0.015083706937730312,0.0027429976034909487,-0.008778560906648636
0.009634727612137794,0.0025434717535972595,-0.002379401121288538,-0.015407680533826351,0.0032408887054771185,-0.009027921594679356
0.009662393480539322,0.002923374529927969,-0.0024633256252855062,-0.015435530804097652,0.0034485848154872656,-0.008984321728348732
0.009484298527240753,0.0028422968462109566,-0.0026290365494787693,-0.015039686113595963,0.0034917257726192474,-0.009023856371641159
0.010058055631816387,0.002845561830326915,-0.002492916537448764,-0.015398144721984863,0.00323232589289546,-0.00882717501372099
0.009995421394705772,0.0026238777209073305,-0.0025907487142831087,-0.015774084255099297,0.0030965646728873253,-0.008999918587505817
0.009515422396361828,0.0029484748374670744,-0.002726127626374364,-0.015543085522949696,0.0033124927431344986,-0.008720017969608307
0.010190760716795921,0.003084884025156498,-0.0028084982186555862,-0.015487877652049065,0.0030277275945991278,-0.008836723864078522
0.009885844774544239,0.0034676194190979004,-0.002621002495288849,-0.015514373779296875,0.002848949283361435,-0.009142457507550716
0.009500691667199135,0.0033148881047964096,-0.0027431300841271877,-0.01624498888850212,0.002770462539047003,-0.008576027117669582
0.00930336769670248,0.0035791073460131884,-0.002815518993884325,-0.01605028472840786,0.002740764059126377,-0.009281923063099384
0.010057766921818256,0.0037464976776391268,-0.0026520041283220053,-0.01598101109266281,0.002895364770665765,-0.009200137108564377
0.009978532791137695,0.003816008334979415,-0.002710658125579357,-0.01648944802582264,0.003165673231706023,-0.00950619112700224
0.010107534006237984,0.0033286709804087877,-0.002507201163098216,-0.016414064913988113,0.003438403131440282,-0.009154018945991993
0.011037932708859444,0.0033310274593532085,-0.0024081796873360872,-0.016555774956941605,0.0029803006909787655,-0.009054677560925484
0.010090307332575321,0.0035772756673395634,-0.0026611124631017447,-0.016274290159344673,0.0026845759712159634,-0.009145326912403107
0.009755290113389492,0.0037952628917992115,-0.002883567474782467,-0.016795272007584572,0.0024157152511179447,-0.009167330339550972
0.010154027491807938,0.0038178754039108753,-0.0030425861477851868,-0.016315989196300507,0.002452659420669079,-0.009316273033618927
0.009889788925647736,0.004321484826505184,-0.0028210461605340242,-0.01674467884004116,0.002524210372939706,-0.009581238962709904
0.01009352132678032,0.00455106608569622,-0.002827644580975175,-0.016552167013287544,0.00288562779314816,-0.009484563954174519
0.010516073554754257,0.004160243086516857,-0.0030744706746190786,-0.016783608123660088,0.0031717331148684025,-0.009205247275531292
0.010136996395885944,0.004427678417414427,-0.0031620704103261232,-0.01702694781124592,0.0035022301599383354,-0.009478524327278137
0.010136996395885944,0.004427678417414427,-0.0031620704103261232,-0.01702694781124592,0.0035022301599383354,-0.009478524327278137
0.011482111178338528,0.004507755395025015,-0.0030709700658917427,-0.01611466147005558,0.003311755368486047,-0.009365147911012173
0.010031398385763168,0.004798891954123974,-0.002824368653818965,-0.01640385016798973,0.0031134355813264847,-0.009465055540204048
0.009768588468432426,0.005424985196441412,-0.0028870985843241215,-0.016721539199352264,0.002867178525775671,-0.009660124778747559
0.010580293834209442,0.005224728491157293,-0.0029259382281452417,-0.01745215803384781,0.0028688993770629168,-0.009550952352583408
0.010007306933403015,0.005081143695861101,-0.0028940767515450716,-0.016660749912261963,0.003377050394192338,-0.009550977498292923
0.010696989484131336,0.005090424790978432,-0.0028934155125170946,-0.017287693917751312,0.003464222652837634,-0.009730634279549122
0.010880779474973679,0.006075958255678415,-0.003107974072918296,-0.017185943201184273,0.0032521067187190056,-0.009262027218937874
0.009992732666432858,0.005429276265203953,-0.0031409934163093567,-0.017075086012482643,0.003065799828618765,-0.009564553387463093
0.010484968312084675,0.005467263050377369,-0.0030790839809924364,-0.017209753394126892,0.002968201879411936,-0.00897280965000391
0.010258810594677925,0.0055672950111329556,-0.0029581189155578613,-0.017823943868279457,0.0029931741300970316,-0.009398487396538258
0.01044475194066763,0.0061682481318712234,-0.002933086361736059,-0.01876664161682129,0.003279754426330328,-0.009728633798658848
0.010757746174931526,0.0058648185804486275,-0.0027537192218005657,-0.01819348707795143,0.00360500393435359,-0.009513146243989468
0.01056275237351656,0.006174066103994846,-0.0027584275230765343,-0.018101438879966736,0.004124026279896498,-0.009375983849167824
0.010709033347666264,0.006075388286262751,-0.0026560681872069836,-0.018148057162761688,0.0037353350780904293,-0.00958572793751955
0.010973403230309486,0.0059964703395962715,-0.00293579138815403,-0.01833442412316799,0.0032834545709192753,-0.009727546945214272
0.010475083254277706,0.006184780970215797,-0.0030456590466201305,-0.01917409710586071,0.0028977429028600454,-0.009569188579916954
0.01051434874534607,0.006546324584633112,-0.003239245619624853,-0.019709719344973564,0.0029022067319601774,-0.009647684171795845
0.010744558647274971,0.007401457987725735,-0.0031423335894942284,-0.01888583041727543,0.0031735908705741167,-0.010272625833749771
0.01105003897100687,0.007039313670247793,-0.003006870159879327,-0.018950173631310463,0.003391227452084422,-0.009652136825025082
0.011372558772563934,0.0062716566026210785,-0.0031236796639859676,-0.018704384565353394,0.0036759458016604185,-0.009923674166202545
0.010429223999381065,0.006413333583623171,-0.003215290606021881,-0.018698442727327347,0.003814011812210083,-0.010222364217042923
0.010673902928829193,0.006879954598844051,-0.003055234905332327,-0.01925010420382023,0.003388624405488372,-0.009826721623539925
0.010647627525031567,0.007271882146596909,-0.003435078775510192,-0.01954597607254982,0.0032358949538320303,-0.00930207222700119
0.010066099464893341,0.007375609595328569,-0.0033149700611829758,-0.01941721700131893,0.0032417098991572857,-0.00951714999973774
0.010592777281999588,0.007498875726014376,-0.0035374064464122057,-0.019599439576268196,0.003575066337361932,-0.009647169150412083
0.010592777281999588,0.007498875726014376,-0.0035374064464122057,-0.019599439576268196,0.003575066337361932,-0.009647169150412083
0.010697057470679283,0.007035229355096817,-0.003233294002711773,-0.01948261260986328,0.00347023899666965,-0.009779505431652069
0.009997976943850517,0.007463442161679268,-0.0031086737290024757,-0.019279083237051964,0.0033726331312209368,-0.009786770679056644
0.010727590881288052,0.00748315267264843,-0.0031294329091906548,-0.019534068182110786,0.003218039171770215,-0.010141085833311081
0.010294962674379349,0.007451001554727554,-0.0034943423233926296,-0.019661657512187958,0.003433560486882925,-0.009833505377173424
0.010284140706062317,0.007593304850161076,-0.0033275107853114605,-0.019599614664912224,0.0037097488529980183,-0.010101517662405968
0.01022032368928194,0.00795428454875946,-0.0031994504388421774,-0.019862255081534386,0.00380004127509892,-0.009911827743053436
0.0101435836404562,0.007065781857818365,-0.002990665612742305,-0.019646842032670975,0.0037032123655080795,-0.009987229481339455
0.010978561826050282,0.007411013823002577,-0.0033191863913089037,-0.019766924902796745,0.0039303903467953205,-0.009875094518065453
0.01027545053511858,0.008094009943306446,-0.0034570135176181793,-0.019841615110635757,0.00393441878259182,-0.009643127210438251
0.010628696531057358,0.007966561242938042,-0.0033330675214529037,-0.019833356142044067,0.0036158121656626463,-0.009679128415882587
0.01084776408970356,0.00803171657025814,-0.003076007356867194,-0.02002779394388199,0.003500652965158224,-0.009614977054297924
0.010103072039783001,0.008025129325687885,-0.003018057905137539,-0.020614588633179665,0.003602667013183236,-0.009489934891462326
0.010536550544202328,0.007966658100485802,-0.0035054718609899282,-0.02049356885254383,0.00370046473108232,-0.009484637528657913
0.010750770568847656,0.008192512206733227,-0.0037305981386452913,-0.02059069648385048,0.0037696175277233124,-0.009386732243001461
0.010295026004314423,0.007757221814244986,-0.003342082491144538,-0.0203254371881485,0.004033737350255251,-0.009718657471239567
0.010717199184000492,0.008329316042363644,-0.003045648569241166,-0.02032100036740303,0.0038914934266358614,-0.009699217975139618
0.010367104783654213,0.008258556015789509,-0.002829296048730612,-0.01979583501815796,0.003528180066496134,-0.009601728990674019
0.010784849524497986,0.008193920366466045,-0.003433594712987542,-0.019675366580486298,0.0035446248948574066,-0.009908565320074558
0.010411870665848255,0.00850191805511713,-0.003947117831557989,-0.0206980612128973,0.003377301851287484,-0.009864789433777332
0.01062222383916378,0.008763792924582958,-0.003520810045301914,-0.020980829373002052,0.003964487928897142,-0.010046182200312614
0.01050155982375145,0.009143241681158543,-0.0030998804140836,-0.02048545330762863,0.00417730025947094,-0.009816412813961506
0.010855759494006634,0.008406299166381359,-0.002983781276270747,-0.020746955648064613,0.004274452105164528,-0.009646276012063026
0.010656156577169895,0.008928516879677773,-0.0031625868286937475,-0.021076245233416557,0.003931171726435423,-0.009578780271112919
0.01108296774327755,0.008984141983091831,-0.0036413483321666718,-0.021203789860010147,0.003755926387384534,-0.00964631512761116
0.01108296774327755,0.008984141983091831,-0.0036413483321666718,-0.021203789860010147,0.003755926387384534,-0.00964631512761116
0.011375711299479008,0.009022102691233158,-0.0038735801354050636,-0.02122487686574459,0.003806381020694971,-0.009835087694227695
0.010746655985713005,0.009224604815244675,-0.0038252498488873243,-0.021495560184121132,0.0038930608425289392,-0.009520847350358963
0.011286813765764236,0.007680729031562805,-0.0033124706242233515,-0.021414004266262054,0.004283543676137924,-0.010211948305368423
0.010813621804118156,0.00685541657730937,-0.0030564293265342712,-0.022081119939684868,0.0044672670774161816,-0.010411085560917854
0.010579514317214489,0.006919092498719692,-0.0034711016342043877,-0.02107807993888855,0.004417032469063997,-0.011142831295728683
0.010914880782365799,0.008133061230182648,-0.003223869949579239,-0.021592916920781136,0.004541359841823578,-0.009974897839128971
0.011076528578996658,0.007696378510445356,-0.0033777481876313686,-0.022061843425035477,0.004313824698328972,-0.00989649910479784
0.011168215423822403,0.007665190380066633,-0.002976789604872465,-0.021460557356476784,0.004406082443892956,-0.010406753979623318
0.011064467951655388,0.008106513880193233,-0.002885402413085103,-0.022187035530805588,0.0042472719214856625,-0.010547749698162079
0.011133684776723385,0.008251535706222057,-0.003400314599275589,-0.022587521001696587,0.004473105538636446,-0.010618885047733784
0.011690167710185051,0.007978899404406548,-0.0038539047818630934,-0.022587517276406288,0.004115750081837177,-0.010411121882498264
0.01186690665781498,0.008394467644393444,-0.003466735128313303,-0.022587846964597702,0.0038249327335506678,-0.010552451014518738
0.012217548675835133,0.00839194655418396,-0.0032273835968226194,-0.02275877632200718,0.0039786831475794315,-0.010223864577710629
0.011882719583809376,0.008066808804869652,-0.0031254400964826345,-0.022593673318624496,0.004253619350492954,-0.010411389172077179
0.012434289790689945,0.007704353425651789,-0.0035236801486462355,-0.022507134824991226,0.004451150540262461,-0.010577878914773464
0.012591024860739708,0.008907542563974857,-0.0040123299695551395,-0.02340700663626194,0.004687474109232426,-0.011154997162520885
0.012678354978561401,0.008383951149880886,-0.003567303763702512,-0.02403254620730877,0.004538155626505613,-0.011270150542259216
0.013205085881054401,0.008845271542668343,-0.0035270273219794035,-0.024388302117586136,0.004305822774767876,-0.011694801971316338
0.013204127550125122,0.008915983140468597,-0.0032886825501918793,-0.02425982430577278,0.004446187987923622,-0.012059216387569904
0.012828470207750797,0.009109514765441418,-0.0035706793423742056,-0.02391715534031391,0.0044534699991345406,-0.011515716090798378
0.012511556968092918,0.008770128712058067,-0.004348426125943661,-0.0233813114464283,0.004347753245383501,-0.011179909110069275
0.013358799740672112,0.008609808050096035,-0.003748436691239476,-0.024206150323152542,0.004448761232197285,-0.010728349909186363
0.01292567327618599,0.009717920795083046,-0.0034878342412412167,-0.02497028186917305,0.0046983035281300545,-0.01094997487962246
0.013483753427863121,0.00891419779509306,-0.0031285001896321774,-0.024611134082078934,0.004885892383754253,-0.011209577322006226
0.013010894879698753,0.008885120041668415,-0.0033271033316850662,-0.02475680038332939,0.0050067598931491375,-0.011200939305126667
0.013010894879698753,0.008885120041668415,-0.0033271033316850662,-0.02475680038332939,0.0050067598931491375,-0.011200939305126667
0.013362218625843525,0.009563243947923183,-0.004248184617608786,-0.025486266240477562,0.004781829193234444,-0.011472376063466072
0.013209029100835323,0.009520117193460464,-0.004125211387872696,-0.02591921016573906,0.004345536231994629,-0.011674701236188412
0.01380442176014185,0.009455782361328602,-0.0034996182657778263,-0.02494988404214382,0.004336627200245857,-0.011939600110054016
0.013495966792106628,0.010132921859622002,-0.0033527694176882505,-0.024345483630895615,0.004162616562098265,-0.011677875183522701
0.013591974973678589,0.009958568960428238,-0.003460440319031477,-0.02432127669453621,0.004152281675487757,-0.011124081909656525
0.013233301229774952,0.010181223973631859,-0.0037424422334879637,-0.025118565186858177,0.004194722510874271,-0.01119739469140768
0.013891953974962234,0.010044335387647152,-0.003581042867153883,-0.02552957832813263,0.003685156349092722,-0.011435574851930141
0.01396932452917099,0.009805704466998577,-0.0033965609036386013,-0.02525767870247364,0.0037509214598685503,-0.011397466994822025
0.01372449193149805,0.010495049878954887,-0.003444592235609889,-0.025439996272325516,0.004348684102296829,-0.011090009473264217
0.013659282587468624,0.010731074027717113,-0.0037337294779717922,-0.02552119828760624,0.004527930170297623,-0.011589418165385723
0.01435540895909071,0.009882098063826561,-0.00380138261243701,-0.026019062846899033,0.004623132292181253,-0.011752001941204071
0.014265863224864006,0.010058497078716755,-0.0035332771949470043,-0.02659228816628456,0.0044745467603206635,-0.011950365267693996
0.014384769834578037,0.010101588442921638,-0.00355032947845757,-0.025456039234995842,0.004578320775181055,-0.011956999078392982
0.014275024645030499,0.010509315878152847,-0.00374394073151052,-0.026136068627238274,0.004540957976132631,-0.011848281137645245
0.014519650489091873,0.011056623421609402,-0.004122528247535229,-0.026218919083476067,0.004450181499123573,-0.011764582246541977
0.014560067094862461,0.010422815568745136,-0.003877256764099002,-0.026946285739541054,0.004294016398489475,-0.012088043615221977
0.014986599795520306,0.011001118458807468,-0.0035930629819631577,-0.027568764984607697,0.0045977807603776455,-0.012115386314690113
0.014801025390625,0.010936857201159,-0.0034473296254873276,-0.02697587013244629,0.004685642663389444,-0.011690151877701283
0.014832367189228535,0.010748888365924358,-0.003926509991288185,-0.02731287106871605,0.005102201364934444,-0.011695079505443573
0.015005460940301418,0.012027829885482788,-0.004648787900805473,-0.028048770502209663,0.005010063294321299,-0.011889531277120113
0.015236537903547287,0.011441294103860855,-0.004216918721795082,-0.027561619877815247,0.004632500931620598,-0.012065221555531025
0.015418671071529388,0.010587409138679504,-0.00359268463216722,-0.027908777818083763,0.004394805524498224,-0.012212436646223068
0.015209771692752838,0.011600327678024769,-0.003182603046298027,-0.028949931263923645,0.004779614508152008,-0.012369528412818909
0.015246624127030373,0.01141437329351902,-0.0031858200673013926,-0.028711611405014992,0.005131762940436602,-0.012325510382652283
0.015068807639181614,0.011514494195580482,-0.0038264889735728502,-0.02819385565817356,0.0057266526855528355,-0.012572141364216805
0.015068807639181614,0.011514494195580482,-0.0038264889735728502,-0.02819385565817356,0.0057266526855528355,-0.012572141364216805
0.01539471372961998,0.010970501229166985,-0.0043278709053993225,-0.027892574667930603,0.005124775692820549,-0.012540471740067005
0.015921354293823242,0.011226852424442768,-0.003462927183136344,-0.028438759967684746,0.004913169424980879,-0.012357724830508232
0.015921354293823242,0.011226852424442768,-0.003462927183136344,-0.028438759967684746,0.004913169424980879,-0.012357724830508232
0.015379833988845348,0.01109493151307106,-0.0031580226495862007,-0.02791108936071396,0.004922243766486645,-0.012456837110221386
0.016009699553251266,0.011161062866449356,-0.0033962465822696686,-0.02833089791238308,0.005103981122374535,-0.012869048863649368
0.015566641464829445,0.010964169166982174,-0.004107810091227293,-0.029664762318134308,0.005351624451577663,-0.012894073501229286
0.015765920281410217,0.01081368513405323,-0.004466245416551828,-0.02866314724087715,0.005017403978854418,-0.013039861805737019
0.016190310940146446,0.01089051179587841,-0.0035471119917929173,-0.027621358633041382,0.00473388098180294,-0.012479505501687527
0.015909001231193542,0.010485458187758923,-0.004280451685190201,-0.028759101405739784,0.004782136529684067,-0.012445845641195774
0.01568368822336197,0.011358424089848995,-0.004609106108546257,-0.029326746240258217,0.004877959378063679,-0.013104461133480072
0.015913577750325203,0.011345844715833664,-0.004389591980725527,-0.029054056853055954,0.00536378426477313,-0.012850943021476269
0.015914026647806168,0.011252281256020069,-0.004082187078893185,-0.02928999625146389,0.0052227601408958435,-0.012263879179954529
0.016192711889743805,0.010671555064618587,-0.0035129054449498653,-0.02929561398923397,0.004710506647825241,-0.012740470468997955
0.01611223816871643,0.010783450677990913,-0.0035866533871740103,-0.029030753299593925,0.004362437874078751,-0.012725296430289745
0.016551924869418144,0.012251513078808784,-0.004330918192863464,-0.02848859131336212,0.004459400661289692,-0.013044928200542927
0.016271445900201797,0.011494407430291176,-0.004649996291846037,-0.029065636917948723,0.004705078899860382,-0.012747110798954964
0.01631569303572178,0.010530638508498669,-0.004263333044946194,-0.029146350920200348,0.0051465826109051704,-0.01272922195494175
0.016480522230267525,0.011837083846330643,-0.003954130690544844,-0.029506495222449303,0.00546242343261838,-0.012837168760597706
0.01626633107662201,0.011362703517079353,-0.003894450142979622,-0.02943924069404602,0.005221279338002205,-0.013151230290532112
0.016676820814609528,0.011424513533711433,-0.004007695708423853,-0.029920823872089386,0.00451488234102726,-0.013375232927501202
0.016250398010015488,0.010879235342144966,-0.0040327985771000385,-0.029935322701931,0.004331676289439201,-0.012665173038840294
0.01666540838778019,0.010883069597184658,-0.0041085509583354,-0.029901083558797836,0.004674096126109362,-0.013248872943222523
0.016759442165493965,0.011521169915795326,-0.004137131851166487,-0.030436867848038673,0.005490973591804504,-0.01330016739666462
0.016918903216719627,0.011258971877396107,-0.0038399400655180216,-0.030238131061196327,0.005916017107665539,-0.013315031304955482
0.017421988770365715,0.011307146400213242,-0.003606081008911133,-0.02986600622534752,0.0053817094303667545,-0.013180414214730263
0.01676885038614273,0.0114288330078125,-0.003720988752320409,-0.030365344136953354,0.004843027330935001,-0.01354463491588831
0.01727294921875,0.011352062225341797,-0.004554268438369036,-0.031109925359487534,0.0044976188801229,-0.013589306734502316
0.017111925408244133,0.011993461288511753,-0.004774633329361677,-0.03154679015278816,0.0049174148589372635,-0.013304079882800579
0.017111925408244133,0.011993461288511753,-0.004774633329361677,-0.03154679015278816,0.0049174148589372635,-0.013304079882800579
0.016993829980492592,0.011326056905090809,-0.004693232476711273,-0.03134651482105255,0.005447269883006811,-0.012783347629010677
0.017296014353632927,0.011508439667522907,-0.004287555813789368,-0.031215032562613487,0.005509048234671354,-0.013006011955440044
0.017643824219703674,0.011665110476315022,-0.004322058521211147,-0.032711636275053024,0.005207834765315056,-0.013267924077808857
0.017643824219703674,0.011665110476315022,-0.004322058521211147,-0.032711636275053024,0.005207834765315056,-0.013267924077808857
0.017530148848891258,0.011912981048226357,-0.00462848087772727,-0.03258955106139183,0.005055754911154509,-0.01362861692905426
0.017093541100621223,0.01159512996673584,-0.004582930356264114,-0.03286438062787056,0.005399642512202263,-0.013416880741715431
0.017131613567471504,0.011755119077861309,-0.00429428368806839,-0.03290504589676857,0.005202234257012606,-0.01363353431224823
0.018047496676445007,0.011142875999212265,-0.004501094110310078,-0.03238846734166145,0.005436869338154793,-0.01317090168595314
0.017677322030067444,0.01192043349146843,-0.004775769542902708,-0.03416384011507034,0.005531440954655409,-0.013396935537457466
0.017551813274621964,0.011808567680418491,-0.00421103835105896,-0.03417189046740532,0.00528613431379199,-0.013904920779168606
0.018114715814590454,0.011746512725949287,-0.004382087849080563,-0.032815154641866684,0.005591687746345997,-0.014002430252730846
0.016326578333973885,0.01223608385771513,-0.004583168309181929,-0.03217371553182602,0.005356900859624147,-0.01398665364831686
0.017354505136609077,0.011486489325761795,-0.004461539909243584,-0.03296605125069618,0.005354763474315405,-0.014018477872014046
0.017873242497444153,0.01198057271540165,-0.004426499363034964,-0.03358692675828934,0.005710582714527845,-0.013937469571828842
0.017491977661848068,0.011732153594493866,-0.004661635961383581,-0.033658698201179504,0.005581976380199194,-0.013535827398300171
0.018179742619395256,0.01201864518225193,-0.004261686932295561,-0.03467884287238121,0.005281947553157806,-0.013735268265008926
0.017987415194511414,0.01191727165132761,-0.0043977913446724415,-0.034912239760160446,0.005177084356546402,-0.013910762034356594
0.017853479832410812,0.011685948818922043,-0.004740022588521242,-0.03349548205733299,0.005221419967710972,-0.013523372821509838
0.017969008535146713,0.01224319264292717,-0.004529634490609169,-0.033486608415842056,0.005111372098326683,-0.013526947237551212
0.01794324442744255,0.011755136772990227,-0.004361148923635483,-0.03474924713373184,0.005365853197872639,-0.013519331812858582
0.018234213814139366,0.012270201928913593,-0.004028074909001589,-0.03559337928891182,0.005494027864187956,-0.013763384893536568
0.018262669444084167,0.011945655569434166,-0.004861975554376841,-0.035468343645334244,0.005057253874838352,-0.01406316738575697
0.01827877387404442,0.012125390581786633,-0.004990838933736086,-0.03569812700152397,0.00521807512268424,-0.014409392140805721
0.018742823973298073,0.012684340588748455,-0.0044992160983383656,-0.03578544780611992,0.005181587766855955,-0.014388940297067165
0.01816389709711075,0.012107894755899906,-0.004224337171763182,-0.035603154450654984,0.005408815108239651,-0.014398317784070969
0.018646055832505226,0.012778044678270817,-0.004001761320978403,-0.03566410392522812,0.0058241295628249645,-0.014528054744005203
0.018646055832505226,0.012778044678270817,-0.004001761320978403,-0.03566410392522812,0.0058241295628249645,-0.014528054744005203
0.01906660571694374,0.012534329667687416,-0.004609927535057068,-0.035856954753398895,0.0065141539089381695,-0.013773174956440926
0.01874212734401226,0.012777954339981079,-0.006175454705953598,-0.03588443994522095,0.006069126073271036,-0.013896641321480274
0.018599441275000572,0.012669465504586697,-0.005964650772511959,-0.03584862872958183,0.005943743512034416,-0.014387222938239574
0.019056160002946854,0.012902708724141121,-0.0041717179119586945,-0.03563345596194267,0.006600591354072094,-0.014475293457508087
0.019436705857515335,0.012689595110714436,-0.004604542627930641,-0.03535431995987892,0.0060140094719827175,-0.014317368157207966
0.01896653138101101,0.013038132339715958,-0.005999569781124592,-0.03559083491563797,0.005887423641979694,-0.014479020610451698
0.018830781802535057,0.012640622444450855,-0.006003759801387787,-0.0372321642935276,0.005307817365974188,-0.014401793479919434
0.01925205998122692,0.01323927752673626,-0.005632605869323015,-0.037738900631666183,0.005724512506276369,-0.014797973446547985
0.01918865740299225,0.012889916077256203,-0.0050266762264072895,-0.035821620374917984,0.0054695182479918,-0.014793511480093002
0.018974658101797104,0.012947061099112034,-0.005184409208595753,-0.03448612987995148,0.005172042641788721,-0.014908167533576488
0.01941506937146187,0.01307179220020771,-0.00573419826105237,-0.03677099570631981,0.00550779839977622,-0.015009223483502865
0.019477900117635727,0.013543414883315563,-0.006313478574156761,-0.03651319816708565,0.005333881359547377,-0.014922800473868847
0.019238434731960297,0.013414694927632809,-0.006096133962273598,-0.03715609014034271,0.005395643878728151,-0.014946523122489452
0.0195503830909729,0.013207747600972652,-0.00566268153488636,-0.037659745663404465,0.00551573047414422,-0.014944110997021198
0.019442252814769745,0.01452301163226366,-0.005049855448305607,-0.03627784177660942,0.005501649342477322,-0.014932396821677685
0.01912185363471508,0.01476834062486887,-0.004974378738552332,-0.035243965685367584,0.005509187467396259,-0.014809868298470974
0.019654884934425354,0.014620330184698105,-0.00589210307225585,-0.03695274516940117,0.005535293370485306,-0.01539150532335043
0.019895454868674278,0.015307094901800156,-0.006823856849223375,-0.037476252764463425,0.0053125303238630295,-0.01562170684337616
0.019671106711030006,0.015064592473208904,-0.005995492450892925,-0.037514716386795044,0.005830917041748762,-0.015632685273885727
0.019691821187734604,0.01434390526264906,-0.0052621630020439625,-0.03677970543503761,0.005954340100288391,-0.015026656910777092
0.01993398927152157,0.014707525260746479,-0.005292078014463186,-0.03698140010237694,0.00589515408501029,-0.015557377599179745
0.019806547090411186,0.015000606887042522,-0.006154259666800499,-0.03792043402791023,0.005769002716988325,-0.015751007944345474
0.019994717091321945,0.014697096310555935,-0.006703811697661877,-0.038261815905570984,0.005811699666082859,-0.015547835268080235
0.020685408264398575,0.01529797725379467,-0.006080324295908213,-0.03823506087064743,0.006519029848277569,-0.015311201103031635
0.020685408264398575,0.01529797725379467,-0.006080324295908213,-0.03823506087064743,0.006519029848277569,-0.015311201103031635
0.02065587230026722,0.014933215454220772,-0.005645382683724165,-0.037662994116544724,0.0060592954978346825,-0.01572205126285553
0.020074140280485153,0.015563104301691055,-0.0051608276553452015,-0.038234811276197433,0.006095630116760731,-0.015771619975566864
0.01987679861485958,0.015327383764088154,-0.006018451415002346,-0.03827323019504547,0.006029535550624132,-0.015843087807297707
0.02041262947022915,0.0158196110278368,-0.006305358372628689,-0.03887896612286568,0.005537396762520075,-0.01607051119208336
0.020425766706466675,0.01550544984638691,-0.005280304700136185,-0.038384921848773956,0.0059036067686975,-0.01607750728726387
0.020294293761253357,0.01542937196791172,-0.005233267787843943,-0.038968775421381,0.0060648610815405846,-0.015646690502762794
0.020129920914769173,0.016155807301402092,-0.0057838186621665955,-0.03941325843334198,0.006322434637695551,-0.01590999774634838
0.020151346921920776,0.015651457011699677,-0.006287029013037682,-0.03910567983984947,0.005977507680654526,-0.01597236841917038
0.021122271195054054,0.01578539051115513,-0.006016728933900595,-0.039134930819272995,0.006087497342377901,-0.017832648009061813
0.020646750926971436,0.01635259948670864,-0.005383279640227556,-0.039202600717544556,0.005818791687488556,-0.01573106087744236
0.020265040919184685,0.015894558280706406,-0.005594851914793253,-0.03990153595805168,0.0061116390861570835,-0.015363074839115143
0.020214609801769257,0.01589137502014637,-0.005454098805785179,-0.03931315243244171,0.006187306717038155,-0.015771767124533653
0.02008858695626259,0.01551851537078619,-0.00590538140386343,-0.039976708590984344,0.006017601117491722,-0.015950439497828484
0.02055063098669052,0.016548708081245422,-0.005796454381197691,-0.04175609350204468,0.006146905943751335,-0.016210969537496567
0.0204556155949831,0.015802402049303055,-0.005547374952584505,-0.04054698720574379,0.006371154449880123,-0.016029642894864082
0.019681651145219803,0.016080789268016815,-0.0052032493986189365,-0.039296772330999374,0.006236317101866007,-0.01647944562137127
0.021051643416285515,0.015911152586340904,-0.005205413326621056,-0.04102185741066933,0.0064450716599822044,-0.01653716340661049
0.02090832218527794,0.016312379390001297,-0.005915988702327013,-0.04272932559251785,0.006443748250603676,-0.01672028936445713
0.02052786387503147,0.016237882897257805,-0.006325858179479837,-0.04327237233519554,0.006280502304434776,-0.016395099461078644
0.020467843860387802,0.016238033771514893,-0.005489550996571779,-0.041377123445272446,0.006446440238505602,-0.01656293123960495
0.020694447681307793,0.01672370359301567,-0.005075694527477026,-0.039861880242824554,0.0066003561951220036,-0.01701759360730648
0.020525695756077766,0.015986276790499687,-0.005865125916898251,-0.0412011481821537,0.0061201248317956924,-0.01699073053896427
0.021122092381119728,0.01663530059158802,-0.006246279459446669,-0.042347606271505356,0.00621785456314683,-0.017059797421097755
0.021222291514277458,0.016501534730196,-0.005606763530522585,-0.041571710258722305,0.006563052535057068,-0.016989141702651978
0.021239591762423515,0.01674150675535202,-0.005333715584129095,-0.04117332026362419,0.006633932236582041,-0.016851965337991714
0.021795576438307762,0.016883470118045807,-0.00548900943249464,-0.04137479141354561,0.006983023602515459,-0.01688316836953163
0.022100767120718956,0.01685607060790062,-0.0056774732656776905,-0.04178641736507416,0.006393196526914835,-0.017419639974832535
0.022100767120718956,0.01685607060790062,-0.0056774732656776905,-0.04178641736507416,0.006393196526914835,-0.017419639974832535
0.02216396853327751,0.017358092591166496,-0.005838239565491676,-0.042211759835481644,0.006507839076220989,-0.01812792755663395
0.02232958935201168,0.01711755245923996,-0.005974687170237303,-0.042211808264255524,0.006471327040344477,-0.018475161865353584
0.02212332747876644,0.017654001712799072,-0.005624245852231979,-0.04164378345012665,0.006152881775051355,-0.017351403832435608
0.022448653355240822,0.017286475747823715,-0.005312476307153702,-0.041730139404535294,0.006397048477083445,-0.01768292300403118
0.02241216041147709,0.017557945102453232,-0.006073640193790197,-0.041693128645420074,0.006672652438282967,-0.017168240621685982
0.02231524884700775,0.016850614920258522,-0.005401171278208494,-0.04153137281537056,0.00642040092498064,-0.017046742141246796
0.022338546812534332,0.017614366486668587,-0.005388827994465828,-0.04202616959810257,0.006526256445795298,-0.017357267439365387
0.022742778062820435,0.017816271632909775,-0.005709232296794653,-0.04340551421046257,0.006903729867190123,-0.01801658794283867
0.02281450480222702,0.017510104924440384,-0.005371618550270796,-0.04228955879807472,0.007072137668728828,-0.01822994090616703
0.02267191745340824,0.018162623047828674,-0.005873030982911587,-0.04069298133254051,0.006986857857555151,-0.017788009718060493
0.022340599447488785,0.017957977950572968,-0.00566238583996892,-0.04301029443740845,0.007456534542143345,-0.018409503623843193
0.022690607234835625,0.018216265365481377,-0.005735891405493021,-0.042154017835855484,0.006807405035942793,-0.017535816878080368
0.02323310263454914,0.01858195848762989,-0.006252848077565432,-0.044410619884729385,0.006609583273530006,-0.017676373943686485
0.023033227771520615,0.018107173964381218,-0.005861461162567139,-0.043281443417072296,0.0070745437406003475,-0.0178588405251503
0.0230247862637043,0.018374238163232803,-0.006433259230107069,-0.04307551309466362,0.007063835393637419,-0.01761423796415329
0.02256043814122677,0.018839359283447266,-0.005748658906668425,-0.04516179859638214,0.006924270186573267,-0.0171526987105608
0.02278316393494606,0.018323594704270363,-0.005899451207369566,-0.045684076845645905,0.0066325729712843895,-0.016963737085461617
0.022717637941241264,0.01857169345021248,-0.005607335828244686,-0.044887788593769073,0.006276265252381563,-0.017346512526273727
0.0230068601667881,0.01873251050710678,-0.005932679865509272,-0.04547327011823654,0.006752906367182732,-0.017562884837388992
0.02336014062166214,0.018551958724856377,-0.006460695061832666,-0.04598578065633774,0.0070602018386125565,-0.017841259017586708
0.023237861692905426,0.018517885357141495,-0.006055168807506561,-0.0456906259059906,0.0071677700616419315,-0.018122872337698936
0.023481309413909912,0.018839741125702858,-0.005617035552859306,-0.04615701362490654,0.006965461187064648,-0.017878694459795952
0.02287525311112404,0.018930546939373016,-0.00567612424492836,-0.04616056755185127,0.007327958010137081,-0.017863061279058456
0.023203082382678986,0.019166868180036545,-0.006125153508037329,-0.046302810311317444,0.00762526411563158,-0.017839128151535988
0.02333103120326996,0.019091259688138962,-0.005911566782742739,-0.04703769087791443,0.007625465746968985,-0.018016310408711433
0.023726854473352432,0.019100287929177284,-0.005792354233562946,-0.046912193298339844,0.007699714507907629,-0.018435504287481308
0.023143919184803963,0.01969001069664955,-0.005997061729431152,-0.047165852040052414,0.006996357347816229,-0.01882830262184143
0.023143919184803963,0.01969001069664955,-0.005997061729431152,-0.047165852040052414,0.006996357347816229,-0.01882830262184143
0.024199962615966797,0.019658470526337624,-0.006013748701661825,-0.047613512724637985,0.007215587422251701,-0.018701422959566116
0.024739492684602737,0.01920723170042038,-0.00608759094029665,-0.047316309064626694,0.00726370420306921,-0.018400518223643303
0.024722397327423096,0.019905274733901024,-0.006556589622050524,-0.04745842516422272,0.00722671439871192,-0.018546605482697487
0.024230001494288445,0.020412055775523186,-0.006129446439445019,-0.04748302698135376,0.0071693663485348225,-0.018574876710772514
0.023477323353290558,0.019841589033603668,-0.006430135574191809,-0.04792490974068642,0.007146547548472881,-0.01864183135330677
0.023953471332788467,0.019784830510616302,-0.006038575898855925,-0.04655535891652107,0.006753773894160986,-0.018824314698576927
0.025112034752964973,0.01935788244009018,-0.0064900643192231655,-0.04710158333182335,0.007080428767949343,-0.01881818287074566
0.024558991193771362,0.019646232947707176,-0.006385767832398415,-0.0478154756128788,0.007104373071342707,-0.018964985385537148
0.024711918085813522,0.020041150972247124,-0.006111108232289553,-0.04924744367599487,0.007269733119755983,-0.019199814647436142
0.024698877707123756,0.020078454166650772,-0.006246049888432026,-0.04807956516742706,0.007337900809943676,-0.020154239609837532
0.025089167058467865,0.01992502249777317,-0.006227508187294006,-0.04659723490476608,0.007557434029877186,-0.019014189019799232
0.024887384846806526,0.02077188901603222,-0.006194214802235365,-0.04802825674414635,0.0072974273934960365,-0.018540743738412857
0.02541843056678772,0.020738501101732254,-0.00619379710406065,-0.04808615520596504,0.007838479243218899,-0.018808787688612938
0.0253840871155262,0.020435146987438202,-0.006764939054846764,-0.04759303107857704,0.007314838003367186,-0.019072357565164566
0.02560923434793949,0.02057650312781334,-0.00617583142593503,-0.047450531274080276,0.0071985251270234585,-0.019493024796247482
0.025768030434846878,0.021197587251663208,-0.006055348087102175,-0.04726520553231239,0.007495546713471413,-0.020040441304445267
0.026209784671664238,0.02031383477151394,-0.006689052563160658,-0.04795385152101517,0.007527550682425499,-0.01978040300309658
0.02610122412443161,0.020253175869584084,-0.007041092496365309,-0.04834897816181183,0.007447884883731604,-0.019105322659015656
0.026128100231289864,0.021414129063487053,-0.006944002117961645,-0.04861725866794586,0.007674922235310078,-0.018979612737894058
0.026105456054210663,0.021693987771868706,-0.006328559014946222,-0.048828110098838806,0.007074744440615177,-0.018637491390109062
0.026081988587975502,0.020876895636320114,-0.006354357115924358,-0.049468040466308594,0.007873293943703175,-0.019100479781627655
0.026333192363381386,0.02097797580063343,-0.0067287045530974865,-0.04984648898243904,0.007952629588544369,-0.01938718929886818
0.026661306619644165,0.02121770568192005,-0.007237778976559639,-0.05040105804800987,0.007664740551263094,-0.020003095269203186
0.026661306619644165,0.02121770568192005,-0.007237778976559639,-0.05040105804800987,0.007664740551263094,-0.020003095269203186
0.026646573096513748,0.0211186483502388,-0.006234531290829182,-0.05200324207544327,0.007804896682500839,-0.019258718937635422
0.02713301219046116,0.021560292690992355,-0.005999991670250893,-0.05038699507713318,0.007546413689851761,-0.019504399970173836
0.02713301219046116,0.021560292690992355,-0.005999991670250893,-0.05038699507713318,0.007546413689851761,-0.019504399970173836
0.027292456477880478,0.02169022709131241,-0.007004161830991507,-0.05043674632906914,0.007488687057048082,-0.020071962848305702
0.027946054935455322,0.021650711074471474,-0.007173537742346525,-0.05164836719632149,0.0077410428784787655,-0.02043035253882408
0.027089577168226242,0.021204570308327675,-0.0066115884110331535,-0.052916355431079865,0.007764557842165232,-0.019572388380765915
0.027636243030428886,0.021697653457522392,-0.006194341462105513,-0.05119018629193306,0.007886664941906929,-0.01953143998980522
0.028743242844939232,0.02234368771314621,-0.006514445412904024,-0.050146982073783875,0.007779255975037813,-0.01969350129365921
0.027750737965106964,0.02174270898103714,-0.007092267740517855,-0.052212949842214584,0.008905211463570595,-0.020144294947385788
0.02655964531004429,0.02216077595949173,-0.00674720574170351,-0.05244655907154083,0.007924828678369522,-0.020713429898023605
0.02861497364938259,0.022160276770591736,-0.006132137030363083,-0.05190284550189972,0.006740338634699583,-0.021748919039964676
0.028781622648239136,0.022250263020396233,-0.006386120803654194,-0.052515435963869095,0.007132940459996462,-0.019939178600907326
0.02846173755824566,0.022066401317715645,-0.007202009670436382,-0.05305402725934982,0.007646394893527031,-0.019841952249407768
0.028714265674352646,0.022269656881690025,-0.006880214903503656,-0.053510863333940506,0.008106990717351437,-0.020281970500946045
0.029160594567656517,0.022821690887212753,-0.006345891859382391,-0.05376887694001198,0.00818790402263403,-0.020469844341278076
0.028912832960486412,0.0231594480574131,-0.006069167051464319,-0.05398666113615036,0.007774267345666885,-0.020479125902056694
0.028214015066623688,0.022886767983436584,-0.0069974749349057674,-0.05394026264548302,0.00749844778329134,-0.020467059686779976
0.027963954955339432,0.022611627355217934,-0.007047485094517469,-0.054377131164073944,0.007933276705443859,-0.020426522940397263
0.028879977762699127,0.022765547037124634,-0.007404971867799759,-0.05402342975139618,0.008038410916924477,-0.020502382889389992
0.029288556426763535,0.02268986590206623,-0.006720573175698519,-0.05336332321166992,0.0077099185436964035,-0.020961426198482513
0.028862137347459793,0.023247098550200462,-0.007026995532214642,-0.05451887845993042,0.008088475093245506,-0.021081052720546722
0.02834043651819229,0.024001043289899826,-0.006918648723512888,-0.0544113963842392,0.008390811271965504,-0.021066663786768913
0.02873014286160469,0.02315964549779892,-0.006801116745918989,-0.05241731181740761,0.00808215606957674,-0.02104443870484829
0.029261475428938866,0.022763719782233238,-0.007102310191839933,-0.05335807800292969,0.008166772313416004,-0.02118290588259697
0.029030736535787582,0.023379283025860786,-0.007079532835632563,-0.05562174692749977,0.008174274116754532,-0.021541550755500793
0.029019799083471298,0.023421093821525574,-0.007433049846440554,-0.0546448677778244,0.008646258153021336,-0.021684693172574043
0.02917337231338024,0.023295525461435318,-0.00673286709934473,-0.052710164338350296,0.008124756626784801,-0.02151985466480255
0.029463080689311028,0.023878630250692368,-0.006693578790873289,-0.05464113503694534,0.007811704650521278,-0.021481743082404137
0.0299974475055933,0.02349109947681427,-0.007007526699453592,-0.05597011744976044,0.007706699892878532,-0.021772639825940132
0.029893558472394943,0.023731393739581108,-0.007825225591659546,-0.05624988302588463,0.007977740839123726,-0.02195911668241024
0.029637837782502174,0.024530038237571716,-0.007135577034205198,-0.056196391582489014,0.00849069282412529,-0.021612077951431274
0.029836183413863182,0.02462879754602909,-0.00636233389377594,-0.05618610978126526,0.008397871628403664,-0.021620187908411026
0.029836183413863182,0.02462879754602909,-0.00636233389377594,-0.05618610978126526,0.008397871628403664,-0.021620187908411026
0.029926681891083717,0.023663174360990524,-0.007313457317650318,-0.05702691897749901,0.008069501258432865,-0.021872159093618393
0.029718009755015373,0.02372758276760578,-0.007951761595904827,-0.05751935392618179,0.00820090714842081,-0.022680573165416718
0.03009423241019249,0.023373985663056374,-0.007590824272483587,-0.057688239961862564,0.008605415001511574,-0.02118479087948799
0.02948141098022461,0.02387166954576969,-0.006823491305112839,-0.057584792375564575,0.008570791222155094,-0.02162460796535015
0.029934806749224663,0.024958521127700806,-0.006258550100028515,-0.05839410051703453,0.008399023674428463,-0.02201423980295658
0.0296320803463459,0.024696791544556618,-0.00813100952655077,-0.05933190882205963,0.008636306039988995,-0.022353772073984146
0.030125105753540993,0.024754822254180908,-0.007419470697641373,-0.05924127250909805,0.008284024894237518,-0.022480549290776253
0.030388930812478065,0.024514634162187576,-0.006673831958323717,-0.058476027101278305,0.008452189154922962,-0.022639762610197067
0.030105415731668472,0.024661751464009285,-0.006894182413816452,-0.059355173259973526,0.008874718099832535,-0.02250918373465538
0.028595171868801117,0.024893952533602715,-0.007411917671561241,-0.06234117969870567,0.008518188260495663,-0.02266915701329708
0.030539710074663162,0.0251266248524189,-0.007196695078164339,-0.059834159910678864,0.0084431366994977,-0.022830868139863014
0.03137896582484245,0.02554580569267273,-0.006953032687306404,-0.059842854738235474,0.008997331373393536,-0.023156750947237015
0.03106234036386013,0.025386283174157143,-0.006842977367341518,-0.06061220541596413,0.008667555637657642,-0.02312561497092247
0.030561329796910286,0.025051672011613846,-0.007091758772730827,-0.06030229106545448,0.008451957255601883,-0.022524181753396988
0.029592212289571762,0.025252455845475197,-0.007035900838673115,-0.060337577015161514,0.008846351876854897,-0.022323882207274437
0.030482886359095573,0.02552192099392414,-0.007478660438209772,-0.060619793832302094,0.00844990648329258,-0.0226113423705101
0.03111608512699604,0.025138337165117264,-0.0076371231116354465,-0.060513921082019806,0.008723224513232708,-0.022861305624246597
0.030414212495088577,0.02545556053519249,-0.00770385330542922,-0.06007363647222519,0.00888869445770979,-0.022804174572229385
0.031695447862148285,0.02557983808219433,-0.006388540379703045,-0.05962797626852989,0.008956740610301495,-0.022521382197737694
0.03136339411139488,0.025736108422279358,-0.006544110830873251,-0.059655413031578064,0.00851783063262701,-0.02312365174293518
0.0310138538479805,0.025856824591755867,-0.007204687222838402,-0.059712003916502,0.008433394134044647,-0.023542433977127075
0.03084246627986431,0.025688674300909042,-0.007597292773425579,-0.060119595378637314,0.008987946435809135,-0.02545114979147911
0.030731825157999992,0.025929326191544533,-0.007120512425899506,-0.05966225638985634,0.008927084505558014,-0.02318926900625229
0.030731825157999992,0.025929326191544533,-0.007120512425899506,-0.05966225638985634,0.008927084505558014,-0.02318926900625229
0.031373247504234314,0.02566649205982685,-0.006588592194020748,-0.05973270162940025,0.008734183385968208,-0.02239782176911831
0.03142832592129707,0.025862209498882294,-0.006958257406949997,-0.06143255904316902,0.00935550220310688,-0.021817296743392944
0.03119291178882122,0.02560533583164215,-0.007569312583655119,-0.059247929602861404,0.008920491673052311,-0.0229403767734766
0.03112313337624073,0.02573290280997753,-0.0073934015817940235,-0.06028467416763306,0.008786222897469997,-0.0236950870603323
0.031230099499225616,0.025989431887865067,-0.007285997271537781,-0.06286215782165527,0.00877672154456377,-0.023986930027604103
0.03175152465701103,0.026077402755618095,-0.007745658978819847,-0.061775509268045425,0.008955338038504124,-0.02334558591246605
0.03154762089252472,0.026183266192674637,-0.007098065689206123,-0.0632249116897583,0.00941021554172039,-0.02435740828514099
0.031560081988573074,0.02581532672047615,-0.0070472341030836105,-0.06358622014522552,0.009279735386371613,-0.024346228688955307
0.03140442073345184,0.02570502646267414,-0.0070391325280070305,-0.06352458894252777,0.009284616447985172,-0.02343175932765007
0.03152398765087128,0.02577870897948742,-0.006838417146354914,-0.06353867053985596,0.00909081194549799,-0.02262379415333271
0.03148481622338295,0.0260128453373909,-0.0071256631053984165,-0.06378167122602463,0.009850394912064075,-0.023068102076649666
0.031308189034461975,0.026342637836933136,-0.007176979444921017,-0.06428539752960205,0.00926448218524456,-0.023819753900170326
0.03209312632679939,0.026408957317471504,-0.007216490339487791,-0.06489301472902298,0.009476973675191402,-0.024728605523705482
0.03201163560152054,0.026530671864748,-0.00714257312938571,-0.06568434834480286,0.009610041975975037,-0.02455313317477703
0.031794942915439606,0.025947267189621925,-0.007568033412098885,-0.06566489487886429,0.009212805889546871,-0.02457970380783081
0.031421780586242676,0.02601413056254387,-0.00760446023195982,-0.06659822165966034,0.009163323789834976,-0.024152368307113647
0.032252050936222076,0.026803890243172646,-0.007109323516488075,-0.06514322012662888,0.009205715730786324,-0.02369186282157898
0.03342689201235771,0.026904482394456863,-0.007499634753912687,-0.06578197330236435,0.0092013543471694,-0.023966556414961815
0.033349212259054184,0.02645210735499859,-0.00817266758531332,-0.06872881203889847,0.009277009405195713,-0.024010054767131805
0.030912410467863083,0.02693074569106102,-0.007677036803215742,-0.06577497720718384,0.009369412437081337,-0.023120449855923653
0.032081302255392075,0.027444833889603615,-0.006978918798267841,-0.06609905511140823,0.009349790401756763,-0.02348952181637287
0.03321680426597595,0.026850363239645958,-0.007618330419063568,-0.06727387011051178,0.009357655420899391,-0.024066632613539696
0.0329940989613533,0.026500333100557327,-0.007750928867608309,-0.06704987585544586,0.009688121266663074,-0.024056345224380493
0.03377801552414894,0.026126166805624962,-0.008042908273637295,-0.0668872594833374,0.010138392448425293,-0.024106882512569427
0.0341748371720314,0.02627473510801792,-0.007090460043400526,-0.06635495275259018,0.009277762845158577,-0.024227546527981758
0.03365269675850868,0.027402080595493317,-0.007211409043520689,-0.06631853431463242,0.00949493795633316,-0.024090152233839035
0.03270294889807701,0.026986343786120415,-0.008240584284067154,-0.0664653554558754,0.009707827121019363,-0.02469361200928688
0.033514924347400665,0.027237704023718834,-0.007987716235220432,-0.06721143424510956,0.009623660705983639,-0.02508489228785038
0.034296683967113495,0.02718195505440235,-0.007065638434141874,-0.06753315031528473,0.01021819282323122,-0.024687189608812332
0.034296683967113495,0.02718195505440235,-0.007065638434141874,-0.06753315031528473,0.01021819282323122,-0.024687189608812332
0.03429052606225014,0.02721988409757614,-0.007272448856383562,-0.06793490797281265,0.010058853775262833,-0.024189544841647148
0.03418273851275444,0.02770964242517948,-0.008411511778831482,-0.06822619587182999,0.009519156068563461,-0.02381822094321251
0.03424304723739624,0.0279164407402277,-0.008801531046628952,-0.07124742865562439,0.00957251526415348,-0.02431495115160942
0.0331362746655941,0.0278814397752285,-0.00871451385319233,-0.06781315058469772,0.009847637265920639,-0.024913012981414795
0.035892315208911896,0.02811257354915142,-0.007782754488289356,-0.06789126247167587,0.009748786687850952,-0.02440284937620163
0.035658128559589386,0.0278799869120121,-0.007773530203849077,-0.07166556268930435,0.010321661829948425,-0.024759141728281975
0.035332091152668,0.028325945138931274,-0.008092688396573067,-0.06978865712881088,0.010242891497910023,-0.02536427602171898
0.03484617546200752,0.028768572956323624,-0.00934828445315361,-0.07028482109308243,0.009538868442177773,-0.025063488632440567
0.03566284477710724,0.02870025672018528,-0.008124582469463348,-0.07177447527647018,0.009463422000408173,-0.025242215022444725
0.03630685806274414,0.028402678668498993,-0.007812469266355038,-0.07262417674064636,0.009648800827562809,-0.024147910997271538
0.0357452817261219,0.02910032868385315,-0.008157448843121529,-0.07250358164310455,0.009896914474666119,-0.023987170308828354
0.0355369858443737,0.028704173862934113,-0.00842215958982706,-0.07178474962711334,0.010443753562867641,-0.025124412029981613
