davideferrari95/blind_handover_controller/data/Test 298 - [2024-02-08 -- 14-03-27]/joint_states_data.csv
shoulder_pan_joint,shoulder_lift_joint,elbow_joint,wrist_1_joint,wrist_2_joint,wrist_3_joint
0.004564525093883276,0.008722390048205853,-0.011853274889290333,0.0035257902927696705,-5.815392069052905e-05,0.0062805661000311375
0.004564525093883276,0.008722390048205853,-0.011853274889290333,0.0035257902927696705,-5.815392069052905e-05,0.0062805661000311375
0.005018007010221481,0.008604797534644604,-0.011254987679421902,0.00365511910058558,-5.741203131037764e-05,0.005306456238031387
0.004921287763863802,0.008924094960093498,-0.011495714075863361,0.0034156511537730694,-5.668877201969735e-05,0.004856360610574484
0.004921287763863802,0.008924094960093498,-0.011495714075863361,0.0034156511537730694,-5.668877201969735e-05,0.004856360610574484
0.004547818563878536,0.00936178956180811,-0.011456824839115143,0.003502259496599436,-5.598352072411217e-05,0.005187034606933594
0.004976707976311445,0.008720570243895054,-0.011905835010111332,0.0036504643503576517,-5.5295593483606353e-05,0.005678518209606409
0.004956241697072983,0.009032348170876503,-0.011609276756644249,0.003424504306167364,-5.4624382755719125e-05,0.006134281866252422
0.004753070883452892,0.009188095107674599,-0.011381842195987701,0.0032669713255017996,-5.39692809979897e-05,0.005721102934330702
0.004588006064295769,0.00859455019235611,-0.01206326112151146,0.0032112314365804195,-5.3329698857851326e-05,0.005725593771785498
0.00473971338942647,0.009311765432357788,-0.01177186518907547,0.003117084503173828,-5.270509063848294e-05,0.005376859102398157
0.005220556631684303,0.008692139759659767,-0.01168663427233696,0.0034823298919945955,-5.209493974689394e-05,0.00504890875890851
0.004682515282183886,0.008463161066174507,-0.011969057843089104,0.003753644647076726,-5.149876233190298e-05,0.005143724847584963
0.004536225460469723,0.008853631094098091,-0.011075842194259167,0.003388501238077879,-5.0916089094243944e-05,0.005221441853791475
0.004982023499906063,0.008644482120871544,-0.011455572210252285,0.0030773517210036516,-5.0346439820714295e-05,0.005711211822926998
0.005034632049500942,0.008594189770519733,-0.012361755594611168,0.0031656469218432903,-4.978937067789957e-05,0.005389398895204067
0.004453673958778381,0.008535661734640598,-0.01153079979121685,0.0032916241325438023,-6.413458322640508e-06,0.005663880612701178
0.00451237428933382,0.008962947875261307,-0.01187607366591692,0.003179975086823106,-4.1875301803884213e-07,0.005390736740082502
0.005142355803400278,0.009224186651408672,-0.011665700934827328,0.0030212136916816235,-2.7341576114281452e-08,0.005118109285831451
0.004995773546397686,0.008726966567337513,-0.012790936045348644,0.0029599624685943127,-1.7852095357540065e-09,0.005691442638635635
0.004791707266122103,0.008572016842663288,-0.011798831634223461,0.003128065960481763,-7.610627406062775e-12,0.005706426687538624
0.004680076614022255,0.008679660968482494,-0.011980640701949596,0.003208311740309,-4.969196169997414e-13,0.005297877825796604
0.004590771161019802,0.008553814142942429,-0.011619809083640575,0.0032658304553478956,-3.244530227711033e-14,0.005410904996097088
0.005401844624429941,0.009033029899001122,-0.011954644694924355,0.0030790248420089483,-2.1184463417419502e-15,0.00534027861431241
0.005141770467162132,0.0085678119212389,-0.011323612183332443,0.002881542779505253,-1.3831940826055338e-16,0.005748543422669172
0.004936097655445337,0.00829081516712904,-0.010889096185564995,0.0031282231211662292,-9.031269597236651e-18,0.00563626317307353
0.005072190426290035,0.008574930019676685,-0.012417671270668507,0.0032765481155365705,-5.89677361450717e-19,0.005525103770196438
0.004953304771333933,0.008948858827352524,-0.011429359205067158,0.0035430763382464647,-3.8501719378520213e-20,0.005464532412588596
0.004801727831363678,0.008619937114417553,-0.012087548151612282,0.0033230497501790524,-2.513887103769964e-21,0.005652171093970537
0.005338870454579592,0.00874519906938076,-0.011441275477409363,0.0035398926120251417,-1.6413886915096217e-22,0.005839370656758547
0.005198677536100149,0.008775133639574051,-0.012270087376236916,0.003829082241281867,-1.0717095071429023e-23,0.005990670993924141
0.005198677536100149,0.008775133639574051,-0.012270087376236916,0.003829082241281867,-1.0717095071429023e-23,0.005990670993924141
0.004883112385869026,0.008493822999298573,-0.011176272295415401,0.003491043346002698,-6.997497475568556e-25,0.005897957365959883
0.004801570903509855,0.008234279230237007,-0.010568107478320599,0.003473488613963127,-4.5688657344399557e-26,0.005886082537472248
0.0048187836073338985,0.008661004714667797,-0.011253666132688522,0.0031641582027077675,-2.9831429947113653e-27,0.006103618536144495
0.00496416911482811,0.008695445023477077,-0.011355740018188953,0.003171239048242569,-1.9477792584944445e-28,0.005787569098174572
0.00566312950104475,0.008847511373460293,-0.011723654344677925,0.003252279246225953,-1.2717606049229913e-29,0.005787419620901346
0.00525993388146162,0.008193432353436947,-0.011885418556630611,0.0031778228003531694,-8.303687392231236e-31,0.005356019828468561
0.004999419208616018,0.008521282114088535,-0.011470617726445198,0.0036926257889717817,-5.421714374135199e-32,0.005342082120478153
0.005226382054388523,0.008573736064136028,-0.011488445103168488,0.004200708586722612,-3.539992053951703e-33,0.005553817376494408
0.005009776912629604,0.008550171740353107,-0.01132298819720745,0.0040777442045509815,-2.311361914641142e-34,0.00605275621637702
0.00533308507874608,0.008797395043075085,-0.011191477067768574,0.0035510705783963203,-1.5091540888157189e-35,0.005901213735342026
0.005657823756337166,0.008485290221869946,-0.011541168205440044,0.003240505699068308,-9.853696728236633e-37,0.005658187437802553
0.005489371716976166,0.008792633190751076,-0.010582185350358486,0.0029292383696883917,-6.433759218479103e-38,0.005248238332569599
0.005631875712424517,0.008317806757986546,-0.010943491943180561,0.0029620288405567408,-4.20078451038365e-39,0.005273385904729366
0.005093137267976999,0.00858476385474205,-0.0109479995444417,0.003334740875288844,-2.7428175361615374e-40,0.005653765983879566
0.0052751596085727215,0.008393751457333565,-0.010493909008800983,0.003640746232122183,-1.7908594374071162e-41,0.005911451298743486
0.005268022418022156,0.008448111824691296,-0.011167014017701149,0.00368679640814662,-1.1686829192468974e-42,0.005555475130677223
0.005892365239560604,0.008475915528833866,-0.010893131606280804,0.003763007465749979,-7.567011707354012e-44,0.005675056017935276
0.005380409304052591,0.008161131292581558,-0.010986213572323322,0.0036564157344400883,-5.605193857299268e-45,0.0053313556127250195
0.005057686008512974,0.008278746157884598,-0.011193592101335526,0.003524279920384288,-0.0,0.00533154234290123
0.005672235507518053,0.00855238176882267,-0.010460696183145046,0.0033173030242323875,-0.0,0.005657556001096964
0.00578390434384346,0.008864276111125946,-0.010920265689492226,0.0032266678754240274,-0.0,0.0051378533244132996
0.005792765412479639,0.008587616495788097,-0.010694640688598156,0.0030593727715313435,-0.0,0.005232684779912233
0.005743812303990126,0.008656165562570095,-0.011417019180953503,0.0030871599446982145,-0.0,0.0056047094985842705
0.005109263118356466,0.008340704254806042,-0.01076197624206543,0.0032101392280310392,-0.0,0.005351351108402014
0.0050886101089417934,0.00818734709173441,-0.010796346701681614,0.0033339872024953365,-0.0,0.0057191974483430386
0.005629698280245066,0.008367162197828293,-0.011132773943245411,0.003425978822633624,-0.0,0.005315891467034817
0.005629698280245066,0.008367162197828293,-0.011132773943245411,0.003425978822633624,-0.0,0.005315891467034817
0.005933606997132301,0.008807579055428505,-0.010600960813462734,0.0036015722434967756,-0.0,0.0052888840436935425
0.005312284454703331,0.008286472409963608,-0.010906384326517582,0.0033522711601108313,-0.0,0.005621904041618109
0.0054583060555160046,0.008189442567527294,-0.010335851460695267,0.003422179725021124,-0.0,0.005580025725066662
0.0052124629728496075,0.008835109882056713,-0.010532763786613941,0.0032573030330240726,-0.0,0.0057579101994633675
0.005807572044432163,0.00857213418930769,-0.011031118221580982,0.003232886316254735,-0.0,0.005299596581608057
0.0058136810548603535,0.008505521342158318,-0.010317335836589336,0.0031931365374475718,-0.0,0.005181402433663607
0.005697060376405716,0.008299870416522026,-0.011046044528484344,0.003522824263200164,-0.0,0.005497101694345474
0.005615069530904293,0.008677730336785316,-0.010612518526613712,0.003359268419444561,-0.0,0.005947388708591461
0.005503875203430653,0.008900822140276432,-0.010412152856588364,0.00356714497320354,-0.0,0.005960735958069563
0.005863339640200138,0.00807610247284174,-0.010187892243266106,0.0037464872002601624,-0.0,0.00591305922716856
0.006155927665531635,0.008644729852676392,-0.01053674891591072,0.0034712546039372683,-0.0,0.005204722285270691
0.005955255124717951,0.008637656457722187,-0.010002577677369118,0.0034764688462018967,-0.0,0.005307849030941725
0.005704683717340231,0.008601648733019829,-0.010253893211483955,0.003211699426174164,-0.0,0.005220314022153616
0.005622907541692257,0.008238070644438267,-0.010391655378043652,0.0033454634249210358,-0.0,0.005871028173714876
0.0056666904129087925,0.00862651877105236,-0.009895908646285534,0.0034707908052951097,-0.0,0.006123050581663847
0.006121713202446699,0.008280935697257519,-0.010699781589210033,0.0033700589556246996,-0.0,0.005851401947438717
0.005851335357874632,0.0082241240888834,-0.010987311601638794,0.003492978634312749,-0.0,0.005218951962888241
0.005769564304500818,0.008472703397274017,-0.010031080804765224,0.003680446883663535,-0.0,0.0051767281256616116
0.00598499272018671,0.008173477835953236,-0.010660463012754917,0.0037840965669602156,-0.0,0.005571422167122364
0.005577322095632553,0.00820346549153328,-0.010718883946537971,0.004045715555548668,-0.0,0.005693868733942509
0.00584993464872241,0.00804672110825777,-0.010698515921831131,0.0037917429581284523,-0.0,0.005351091269403696
0.006026033777743578,0.007921197451651096,-0.010202274657785892,0.003658019006252289,-0.0,0.005244258791208267
0.005414772778749466,0.00800954271107912,-0.010252085514366627,0.003487959271296859,-0.0,0.005313794128596783
0.005272549111396074,0.008725995197892189,-0.010723359882831573,0.003975145518779755,-0.0,0.006015896797180176
0.006163888145238161,0.008532586507499218,-0.010178164578974247,0.004069671034812927,-0.0,0.006016692146658897
0.00557120842859149,0.007782934233546257,-0.010906030423939228,0.004276384133845568,-0.0,0.005870967637747526
0.005283728241920471,0.007873696275055408,-0.010697700083255768,0.0036221661139279604,-0.0,0.005251470021903515
0.00556653318926692,0.008159860968589783,-0.010016239248216152,0.00336081488057971,-0.0,0.005177356768399477
0.005347991827875376,0.0076087783090770245,-0.01086884643882513,0.0032951387111097574,-0.0,0.005167623516172171
0.005347991827875376,0.0076087783090770245,-0.01086884643882513,0.0032951387111097574,-0.0,0.005167623516172171
0.005776352249085903,0.008152869530022144,-0.01081556361168623,0.003154277801513672,-0.0,0.0058610630221664906
0.005922405049204826,0.007950854487717152,-0.010491038672626019,0.0030473468359559774,-0.0,0.005873511545360088
0.005985073745250702,0.008344565518200397,-0.01085797231644392,0.0030020710546523333,-0.0,0.005599452648311853
0.005552932620048523,0.007953334599733353,-0.010085669346153736,0.003192172385752201,-0.0,0.005152876488864422
0.005756402853876352,0.007658245507627726,-0.01010311022400856,0.003433715086430311,-0.0,0.005283483769744635
0.005479737650603056,0.007766352966427803,-0.010724563151597977,0.0034312244970351458,-0.0,0.005809485446661711
0.005968812853097916,0.007984270341694355,-0.010361422784626484,0.003230154514312744,-0.0,0.006085795816034079
0.0062820627354085445,0.007655900437384844,-0.011007552035152912,0.00337388482876122,-0.0,0.006029963027685881
0.005951613653451204,0.0073671843856573105,-0.011005089618265629,0.0035160568077117205,-0.0,0.0060745528899133205
0.005724393296986818,0.007528503425419331,-0.01088725496083498,0.00346636981703341,-0.0,0.006214062217622995
0.005611307453364134,0.007491957861930132,-0.011483222246170044,0.0035650446079671383,-0.0,0.006636021193116903
0.006185120902955532,0.00731469364836812,-0.010544716380536556,0.0037247342988848686,-0.0,0.005973281338810921
0.005715955980122089,0.007155585568398237,-0.010593391954898834,0.0038189988117665052,-0.0,0.005350030492991209
0.006041106767952442,0.00815801415592432,-0.011948544532060623,0.0033891377970576286,-0.0,0.005866892170161009
0.005747225601226091,0.008357303217053413,-0.011435678228735924,0.0033814478665590286,-0.0,0.005935454275459051
0.005743819754570723,0.007253442890942097,-0.010623031295835972,0.0034074068535119295,-0.0,0.0062791272066533566
0.005608313716948032,0.007783797569572926,-0.010581240989267826,0.003627969417721033,-0.0,0.005676768720149994
0.005608313716948032,0.007783797569572926,-0.010581240989267826,0.003627969417721033,-0.0,0.005676768720149994
0.005841763690114021,0.006823323667049408,-0.0114745507016778,0.0034582922235131264,-0.0,0.00537380063906312
0.006040511652827263,0.006933717522770166,-0.010502835735678673,0.003210510592907667,-0.0,0.005377048160880804
0.005953929387032986,0.007296289317309856,-0.011717066168785095,0.003076431807130575,-0.0,0.005593388807028532
0.005815259180963039,0.006942343432456255,-0.011189397424459457,0.0031387575436383486,-0.0,0.005522849969565868
0.006066411267966032,0.006786474958062172,-0.011615055613219738,0.003200483275577426,-0.0,0.005472870543599129
0.005782304797321558,0.0070374649949371815,-0.011426491662859917,0.003569315653294325,-0.0,0.0054770163260400295
0.005650705192238092,0.006910315714776516,-0.010345560498535633,0.0037782008294016123,-0.0,0.005750484764575958
0.005650705192238092,0.006910315714776516,-0.010345560498535633,0.0037782008294016123,-0.0,0.005750484764575958
0.0060126762837171555,0.007292387541383505,-0.010777905583381653,0.003039433853700757,-0.0,0.005853466689586639
0.006339541636407375,0.007495282217860222,-0.010677780024707317,0.0029105711728334427,-0.0,0.006103645544499159
0.006339541636407375,0.007495282217860222,-0.010677780024707317,0.0029105711728334427,-0.0,0.006103645544499159
0.006331365089863539,0.007196126505732536,-0.01100651454180479,0.0033762601669877768,-0.0,0.005774288903921843
0.0060376329347491264,0.007408132776618004,-0.01191258430480957,0.0036212976556271315,-0.0,0.0056247226893901825
0.0060376329347491264,0.007408132776618004,-0.01191258430480957,0.0036212976556271315,-0.0,0.0056247226893901825
0.005980812478810549,0.007278884761035442,-0.011414537206292152,0.0034303953871130943,-0.0,0.005743706598877907
0.0065405541099607944,0.007066051941365004,-0.010135090909898281,0.0031348844058811665,-0.0,0.005719102919101715
0.0066032977774739265,0.007433305960148573,-0.011076412163674831,0.0030629367101937532,-0.0,0.006109500769525766
0.0062026469968259335,0.007539867889136076,-0.01066815946251154,0.003386522876098752,-0.0,0.005631407722830772
0.0062554082833230495,0.006962949875742197,-0.010521900840103626,0.003279832424595952,-0.0,0.005796112585812807
0.006460641976445913,0.006977767217904329,-0.011671521700918674,0.0032579207327216864,-0.0,0.006414307747036219
0.00611578393727541,0.007481061387807131,-0.010829335078597069,0.003238776931539178,-0.0,0.0061417073011398315
0.006305507384240627,0.007450808305293322,-0.010310301557183266,0.003516507102176547,-0.0,0.005686931777745485
0.005872112698853016,0.007298932410776615,-0.010645415633916855,0.003807364497333765,-0.0,0.005603215657174587
0.0062216115184128284,0.007319369353353977,-0.010277372784912586,0.003994348458945751,-0.0,0.0061528622172772884
0.006775694899260998,0.007937416434288025,-0.010866746306419373,0.0040267957374453545,-0.0,0.006298442836850882
0.006468523759394884,0.007486375048756599,-0.010663681663572788,0.003584570251405239,-0.0,0.006050050724297762
0.006096946075558662,0.007226648740470409,-0.010540965013206005,0.0033470322377979755,-0.0,0.0061260005459189415
0.006604690570384264,0.007029741071164608,-0.010471334680914879,0.0033779386430978775,-0.0,0.006406494881957769
0.006495418958365917,0.007717526983469725,-0.010070035234093666,0.0037826388143002987,-0.0,0.00626503536477685
0.006247041746973991,0.00805331114679575,-0.010751992464065552,0.0038215252570807934,-0.0,0.005804797634482384
0.006098610814660788,0.007042474113404751,-0.010307147167623043,0.0033998533617705107,-0.0,0.005984074901789427
0.0067330580204725266,0.007278239354491234,-0.010169006884098053,0.0035120302345603704,-0.0,0.005412348546087742
0.006737775169312954,0.007251538801938295,-0.010791403241455555,0.003260495141148567,-0.0,0.0058655524626374245
0.006348120514303446,0.007333034183830023,-0.01095993909984827,0.0032963899429887533,-0.0,0.0062918271869421005
0.0063848840072751045,0.008043099194765091,-0.010421346873044968,0.0033672694116830826,-0.0,0.006020878907293081
0.00674543296918273,0.007887464016675949,-0.010650476440787315,0.003458538791164756,-0.0,0.006101643200963736
0.006696444470435381,0.007506691385060549,-0.009916153736412525,0.00322551722638309,-0.0,0.005826407112181187
0.006579962093383074,0.0068221427500247955,-0.010358182713389397,0.00355144077911973,-0.0,0.006005971692502499
0.006451374851167202,0.0072317891754209995,-0.010620424523949623,0.003326094476506114,-0.0,0.006255683489143848
0.006403050385415554,0.0080869160592556,-0.010324841365218163,0.0030798164661973715,-0.0,0.0061020744033157825
0.006403050385415554,0.0080869160592556,-0.010324841365218163,0.0030798164661973715,-0.0,0.0061020744033157825
0.0071489582769572735,0.007635228801518679,-0.011035419069230556,0.0031234610360115767,-0.0,0.006095597054809332
0.006883999332785606,0.006782479118555784,-0.010987836867570877,0.0032483257818967104,-0.0,0.005898802075535059
0.006570756901055574,0.007210137322545052,-0.010957727208733559,0.003522630315274,-0.0,0.005988576449453831
0.006259485147893429,0.008121424354612827,-0.011288413777947426,0.003915113862603903,-0.0,0.006552690174430609
0.006901368033140898,0.007760537788271904,-0.010321537964046001,0.004036810249090195,-0.0,0.0065911440178751945
0.006893450859934092,0.006810355465859175,-0.010573077015578747,0.003807220607995987,-0.0,0.006297828163951635
0.007187368348240852,0.007146779447793961,-0.011037066578865051,0.00350758689455688,-0.0,0.0062677571550011635
0.006963974330574274,0.008190312422811985,-0.010021534748375416,0.0031895518768578768,-0.0,0.006396514363586903
0.006777491886168718,0.00772828608751297,-0.01044852938503027,0.00343927089124918,-0.0,0.007028884720057249
0.007139889523386955,0.006894236896187067,-0.010747608728706837,0.0032997531816363335,-0.0,0.006577424705028534
0.007144976407289505,0.007032880559563637,-0.010132594034075737,0.0035166419111192226,-0.0,0.006526066455990076
0.006983481347560883,0.007510705851018429,-0.010905724950134754,0.003665693337097764,-0.0,0.0068222833797335625
0.006691237445920706,0.00734239537268877,-0.010812060907483101,0.003741456428542733,-0.0,0.00673821521922946
0.00703025097027421,0.006963212508708239,-0.011276277713477612,0.0038388720713555813,-0.0,0.006422465201467276
0.007196138612926006,0.007078256923705339,-0.011023127473890781,0.003885593730956316,-0.0,0.006695092190057039
0.007026021834462881,0.00698842154815793,-0.011144274845719337,0.003862796351313591,-0.0,0.006251597311347723
0.00772142456844449,0.006839481182396412,-0.011033167131245136,0.0035717026330530643,-0.0,0.006383180618286133
0.00784105621278286,0.007191740442067385,-0.010503792203962803,0.0034462513867765665,-0.0,0.0066127292811870575
0.006895049940794706,0.007841380313038826,-0.011244578287005424,0.003558958414942026,-0.0,0.006410356145352125
0.006895049940794706,0.007841380313038826,-0.011244578287005424,0.003558958414942026,-0.0,0.006410356145352125
0.006642263848334551,0.0071573699824512005,-0.0113378232344985,0.004198573529720306,-0.0,0.006090532056987286
0.007490459829568863,0.007386878132820129,-0.010503900237381458,0.003696771804243326,-0.0,0.006398160941898823
0.006912805140018463,0.00718022882938385,-0.011393547989428043,0.0035427443217486143,-0.0,0.006759034004062414
0.006912805140018463,0.00718022882938385,-0.011393547989428043,0.0035427443217486143,-0.0,0.006759034004062414
0.006922923494130373,0.007289533503353596,-0.01163544598966837,0.004224895965307951,-0.0,0.006329333875328302
0.007042907178401947,0.006775337271392345,-0.011452535167336464,0.004079996142536402,-0.0,0.006371757946908474
0.0074256728403270245,0.00704507390037179,-0.011384966783225536,0.0035256531555205584,-0.0,0.006544350180774927
0.007430222351104021,0.007039884105324745,-0.011767977848649025,0.003327441168949008,-0.0,0.00637186411768198
0.007120847702026367,0.007288367487490177,-0.01060748565942049,0.0034503063652664423,-0.0,0.006623047403991222
0.006958118174225092,0.006787445861846209,-0.010599777102470398,0.003656226908788085,-0.0,0.00677165761590004
0.007210636045783758,0.007098345085978508,-0.011869784444570541,0.0037648670841008425,-0.0,0.006998295895755291
0.0073465569876134396,0.006628197152167559,-0.011225332506000996,0.003812843933701515,-0.0,0.006634212564677
0.007210170850157738,0.007280619349330664,-0.011360160075128078,0.004214966669678688,-0.0,0.006541423499584198
0.00741902319714427,0.007236872799694538,-0.01120873261243105,0.00403203908354044,-0.0,0.0062428913079202175
0.007503724191337824,0.006990550551563501,-0.010766739957034588,0.0038614722434431314,-0.0,0.006461227312684059
0.008054686710238457,0.006728379521518946,-0.011307037435472012,0.003813672810792923,-0.0,0.0071280281990766525
0.0076685696840286255,0.007064198609441519,-0.010640377178788185,0.00350151676684618,-0.0,0.007188722491264343
0.007054767571389675,0.006930494215339422,-0.010848394595086575,0.0034114534500986338,-0.0,0.006359896622598171
0.007354323286563158,0.006888233125209808,-0.01065120566636324,0.004157882183790207,-0.0,0.006392359267920256
0.008009159937500954,0.007357321679592133,-0.0114356754347682,0.0039937421679496765,-0.0,0.006930691190063953
0.007860464043915272,0.007314709015190601,-0.011580348946154118,0.0037977145984768867,-0.0,0.006753097753971815
0.007935503497719765,0.007231825031340122,-0.011090418323874474,0.0037133339792490005,-0.0,0.00644218223169446
0.007885309867560863,0.007283744402229786,-0.011322304606437683,0.0038283327594399452,-0.0,0.006937031634151936
0.0071493093855679035,0.008034305647015572,-0.01098724640905857,0.003874049987643957,-0.0,0.007103621959686279
0.008041990920901299,0.007731609512120485,-0.012060726061463356,0.003806955413892865,-0.0,0.006860863883048296
0.008041990920901299,0.007731609512120485,-0.012060726061463356,0.003806955413892865,-0.0,0.006860863883048296
0.007707098964601755,0.007063936907798052,-0.011516163125634193,0.003757996018975973,-0.0,0.006762094330042601
0.007787016220390797,0.007246647961437702,-0.010954145342111588,0.00424038153141737,-0.0,0.006923264358192682
0.007366579491645098,0.007896012626588345,-0.011689127422869205,0.004188844934105873,-0.0,0.007078020833432674
0.0073718479834496975,0.007096674293279648,-0.01151346880942583,0.00392719404771924,-0.0,0.006884071975946426
0.007532198913395405,0.006767209153622389,-0.011632707901299,0.003797196550294757,-0.0,0.00720255309715867
0.007642480544745922,0.006778381764888763,-0.012031443417072296,0.004302362911403179,-0.0,0.006730824243277311
0.007510100491344929,0.007202649023383856,-0.011547251604497433,0.004132024943828583,-0.0,0.006725828628987074
0.007681622169911861,0.007379063405096531,-0.011584232561290264,0.003864050144329667,-0.0,0.006843406241387129
0.007572955451905727,0.007174853701144457,-0.011574957519769669,0.004086472559720278,-0.0,0.006854711100459099
0.00824720598757267,0.007182110100984573,-0.011225619353353977,0.004064149688929319,-0.0,0.0068451096303761005
0.007934105582535267,0.007335716392844915,-0.01174062117934227,0.0038800828624516726,-0.0,0.007079153787344694
0.00842882227152586,0.007295055780559778,-0.011623932980000973,0.0037121407222002745,-0.0,0.007356828544288874
0.007768547628074884,0.007401126436889172,-0.011910734698176384,0.004411668982356787,-0.0,0.007287411484867334
0.007768547628074884,0.007401126436889172,-0.011910734698176384,0.004411668982356787,-0.0,0.007287411484867334
0.0074306512251496315,0.00708408746868372,-0.012038500979542732,0.003979404456913471,-0.0,0.006650699768215418
0.008077667094767094,0.0070867277681827545,-0.011832326650619507,0.00383429485373199,-0.0,0.006912264507263899
0.007956072688102722,0.007090800441801548,-0.011430432088673115,0.004156042356044054,-0.0,0.007022410165518522
0.008237575180828571,0.007549772039055824,-0.011757869273424149,0.004008491989225149,-0.0,0.007600388489663601
0.007927208207547665,0.007260005455464125,-0.011736796237528324,0.0037828541826456785,-0.0,0.007665535435080528
0.007670057937502861,0.007022429723292589,-0.011489532887935638,0.004162900149822235,-0.0,0.0068747503682971
0.007990707643330097,0.007373944390565157,-0.011235397309064865,0.004189412109553814,-0.0,0.006851463112980127
0.007990707643330097,0.007373944390565157,-0.011235397309064865,0.004189412109553814,-0.0,0.006851463112980127
0.008742461912333965,0.007802537176758051,-0.011693569831550121,0.004174946341663599,-0.0,0.007634004112333059
0.008107855916023254,0.007122255861759186,-0.011832409538328648,0.00390394264832139,-0.0,0.007156409323215485
0.008145326748490334,0.0071326978504657745,-0.01197897084057331,0.004308557137846947,-0.0,0.0072134118527174
0.00818362832069397,0.007130492944270372,-0.010667016729712486,0.0041452073492109776,-0.0,0.007370208855718374
0.00870292168110609,0.0075146774761378765,-0.01106258574873209,0.004219497554004192,-0.0,0.007859677076339722
0.00870292168110609,0.0075146774761378765,-0.01106258574873209,0.004219497554004192,-0.0,0.007859677076339722
0.007990079000592232,0.007129724603146315,-0.010754083283245564,0.004547021351754665,-0.0,0.007536633405834436
0.00842912308871746,0.006850458215922117,-0.009818211197853088,0.00469583785161376,-0.0,0.0073388200253248215
0.009039211086928844,0.007505906745791435,-0.012201664038002491,0.0043935892172157764,-0.0,0.007320957724004984
0.008726667612791061,0.0077688563615083694,-0.011324658058583736,0.003991841804236174,-0.0,0.007471526972949505
0.007825382985174656,0.00672004371881485,-0.011561783030629158,0.003768265014514327,-0.0,0.007230972871184349
0.008691555820405483,0.0067462008446455,-0.011269721202552319,0.004187481477856636,-0.0,0.007029565051198006
0.00862192828208208,0.006961354054510593,-0.010466248728334904,0.0043085841462016106,-0.0,0.007314363494515419
0.008427934721112251,0.007355010136961937,-0.011435388587415218,0.004295165650546551,-0.0,0.007950014434754848
0.008240249939262867,0.007168200798332691,-0.011050424538552761,0.004494141321629286,-0.0,0.0076974923722445965
0.00854373350739479,0.00711513077840209,-0.011810642667114735,0.004495933651924133,-0.0,0.007459157612174749
0.008959727361798286,0.0068982751108706,-0.011925362050533295,0.004329304210841656,-0.0,0.007414704654365778
0.008276134729385376,0.00723425904288888,-0.01050973404198885,0.004440074320882559,-0.0,0.007922140881419182
0.008766461163759232,0.007294683717191219,-0.01164382416754961,0.004313393961638212,-0.0,0.008251501247286797
0.008708476088941097,0.006807432975620031,-0.011005171574652195,0.004391390830278397,-0.0,0.007990284822881222
0.009253790602087975,0.006834083236753941,-0.011155776679515839,0.0047424859367311,-0.0,0.00827614963054657
0.008779226802289486,0.007027444429695606,-0.010888664051890373,0.004957692231982946,-0.0,0.007984106428921223
0.008584477007389069,0.006905888207256794,-0.01168759074062109,0.004567413125187159,-0.0,0.0076731420122087
0.00858240108937025,0.006738764233887196,-0.011729041114449501,0.004417279735207558,-0.0,0.008141061291098595
0.008752573281526566,0.00667511997744441,-0.011331051588058472,0.004578448832035065,-0.0,0.008174959570169449
0.008838820271193981,0.007049574516713619,-0.011951849795877934,0.004320153500884771,-0.0,0.008080967701971531
0.008730767294764519,0.0072486866265535355,-0.011586629785597324,0.004329552873969078,-0.0,0.00815963838249445
0.00910032819956541,0.007227731868624687,-0.011561563238501549,0.0048668598756194115,-0.0,0.008385122753679752
0.009361185133457184,0.00703718326985836,-0.011297615244984627,0.004920314531773329,-0.0,0.009080588817596436
0.009361185133457184,0.00703718326985836,-0.011297615244984627,0.004920314531773329,-0.0,0.009080588817596436
0.008378949016332626,0.007337457034736872,-0.01152943167835474,0.004446372389793396,-0.0,0.008672892116010189
0.008757172152400017,0.0069475239142775536,-0.011911141686141491,0.004298805259168148,-0.0,0.007791280746459961
0.009042168036103249,0.006720053032040596,-0.011431554332375526,0.004157716408371925,-0.0,0.007930144667625427
0.008759910240769386,0.006884850095957518,-0.011924434453248978,0.0044567701406776905,-0.0,0.007801109459251165
0.009135295636951923,0.0072496128268539906,-0.011281058192253113,0.00444086454808712,-0.0,0.007918943651020527
0.008927632123231888,0.00692362617701292,-0.010878374800086021,0.004701475612819195,-0.0,0.00873712357133627
0.009663359262049198,0.007167423143982887,-0.011637366376817226,0.004899899009615183,-0.0,0.008742362260818481
0.008707981556653976,0.006592602469027042,-0.011306798085570335,0.004406983032822609,-0.0,0.007899959571659565
0.009237668476998806,0.006814703345298767,-0.012022114358842373,0.004289962351322174,-0.0,0.007753967773169279
0.008985811844468117,0.0070049455389380455,-0.011521285399794579,0.004232437815517187,-0.0,0.00788350310176611
0.00885398406535387,0.007070011459290981,-0.011683217249810696,0.004534251056611538,-0.0,0.008195343427360058
0.009375548921525478,0.0071174390614032745,-0.012366573326289654,0.004601066000759602,-0.0,0.008341453038156033
0.009233363904058933,0.006980637554079294,-0.011219391599297523,0.005181130953133106,-0.0,0.008295433595776558
0.00870022177696228,0.00799353513866663,-0.011854857206344604,0.0051787481643259525,-0.0,0.008378827013075352
0.009520607069134712,0.007050595711916685,-0.01129759382456541,0.004733063280582428,-0.0,0.0081790154799819
0.00879734568297863,0.006843834649771452,-0.012036323547363281,0.004368097987025976,-0.0,0.008891680277884007
0.008917578496038914,0.007085522171109915,-0.011476834304630756,0.004429231863468885,-0.0,0.008409623056650162
0.009838530793786049,0.007042661774903536,-0.011483929120004177,0.0046147918328642845,-0.0,0.00825528148561716
0.0091909971088171,0.006745671387761831,-0.011470374651253223,0.005245011765509844,-0.0,0.008192449808120728
0.009212331846356392,0.006847763899713755,-0.011181386187672615,0.005523162893950939,-0.0,0.008465353399515152
0.009139567613601685,0.007378076668828726,-0.01155872829258442,0.004740286618471146,-0.0,0.00832215417176485
0.00915083009749651,0.007497296668589115,-0.011155132204294205,0.004522060044109821,-0.0,0.008652054704725742
0.00915083009749651,0.007497296668589115,-0.011155132204294205,0.004522060044109821,-0.0,0.008652054704725742
0.008768641389906406,0.006974964868277311,-0.011521969921886921,0.004555282182991505,-0.0,0.008785574696958065
0.009379476308822632,0.006731019355356693,-0.011583874002099037,0.004789222497493029,-0.0,0.008850309997797012
0.00939978752285242,0.007060102187097073,-0.011852608062326908,0.004973225295543671,-0.0,0.008422674611210823
0.008948907256126404,0.008040780201554298,-0.011365989223122597,0.005185534246265888,-0.0,0.008459225296974182
0.009198911488056183,0.006993547547608614,-0.01109570823609829,0.005407832562923431,-5.167600647837389e-06,0.008789975196123123
0.009794958867132664,0.007041823118925095,-0.011748796328902245,0.005145774222910404,-3.374074140083394e-07,0.008497665636241436
0.009375167079269886,0.0072014350444078445,-0.011747507378458977,0.004810024052858353,-2.2030292257113615e-08,0.008389104157686234
0.009111234918236732,0.006950972136110067,-0.011516861617565155,0.004698076285421848,-1.438420604849e-09,0.008744620718061924
0.00942105334252119,0.0069089108146727085,-0.011953460052609444,0.00473345723003149,-9.391858818430521e-11,0.008420778438448906
0.009339090436697006,0.007087343838065863,-0.0114141795784235,0.005089325364679098,-6.1322123594276245e-12,0.00849050935357809
0.010133796371519566,0.007116853725165129,-0.012193869799375534,0.005226112902164459,-4.00389628136405e-13,0.008527270518243313
0.009404598735272884,0.0069610304199159145,-0.012097254395484924,0.004675770178437233,-2.614258263263381e-14,0.009040267206728458
0.009464291855692863,0.007256504148244858,-0.011482861824333668,0.004545423202216625,-1.706923854647921e-15,0.008814644068479538
0.009946100413799286,0.006846996955573559,-0.011694646440446377,0.004929780028760433,-1.1144994822176067e-16,0.008796392939984798
0.009764781221747398,0.0067179640755057335,-0.011447367258369923,0.0049161165952682495,-7.276884865280071e-18,0.009200921282172203
0.009575492702424526,0.006780493538826704,-0.012360960245132446,0.0050391629338264465,-4.751285630437612e-19,0.009246764704585075
0.009855437092483044,0.006822015158832073,-0.011795551516115665,0.005278909578919411,-3.1022500913832055e-20,0.008885703980922699
0.010183728300035,0.00664302846416831,-0.011750010773539543,0.005206194706261158,-2.0255476197760727e-21,0.008767940104007721
0.009311443194746971,0.006553148850798607,-0.012330534867942333,0.004967120476067066,-0.00016104352835100144,0.008661082945764065
0.009325383231043816,0.006920266896486282,-0.01125409360975027,0.005620724521577358,-0.00028799514984712005,0.008591690100729465
0.010135956108570099,0.0066313836723566055,-0.011609937064349651,0.005335716530680656,-0.00030891704955138266,0.008930071257054806
0.010135956108570099,0.0066313836723566055,-0.011609937064349651,0.005335716530680656,-0.00030891704955138266,0.008930071257054806
0.010709180496633053,0.006834305822849274,-0.01248772069811821,0.0048692007549107075,-0.0002829121076501906,0.009189685806632042
0.010005693882703781,0.007448840886354446,-0.01161445863544941,0.0049798451364040375,-0.0002688489039428532,0.009377931244671345
0.010632522404193878,0.0075118388049304485,-0.012425024062395096,0.004985031671822071,-0.0002876075159292668,0.00932795088738203
0.010242117568850517,0.006773929577320814,-0.012041949667036533,0.005142132751643658,-0.0002845180279109627,0.008888439275324345
0.009921815246343613,0.00689847394824028,-0.011990949511528015,0.005331847351044416,-0.00027284130919724703,0.009595613926649094
0.010652722790837288,0.007393337786197662,-0.012139281257987022,0.005039578769356012,-0.000261553970631212,0.00924698170274496
0.010271390900015831,0.0067986235953867435,-0.012461433187127113,0.004879343789070845,-0.0002511284837964922,0.009411782026290894
0.010271390900015831,0.0067986235953867435,-0.012461433187127113,0.004879343789070845,-0.0002511284837964922,0.009411782026290894
0.010498495772480965,0.006772164721041918,-0.012841600924730301,0.004822606686502695,-0.0002714117872528732,0.009634921327233315
0.009992805309593678,0.00718145165592432,-0.012596018612384796,0.005566632375121117,-0.0002563247689977288,0.009380302391946316
0.009992805309593678,0.00718145165592432,-0.012596018612384796,0.005566632375121117,-0.0002563247689977288,0.009380302391946316
0.010166332125663757,0.007331927306950092,-0.01234212052077055,0.005744944792240858,-0.0002475287765264511,0.009471671655774117
0.010677540674805641,0.006562329828739166,-0.012325786054134369,0.005632421001791954,-0.00023930183670017868,0.009591873735189438
0.010699104517698288,0.006408028770238161,-0.012204011902213097,0.005535287316888571,-0.00023160348064266145,0.009130880236625671
0.01051303930580616,0.0069722821936011314,-0.011822035536170006,0.005935970693826675,-0.00022438519226852804,0.009424511343240738
0.010610927827656269,0.007052488625049591,-0.012380249798297882,0.005868688225746155,-0.00023013079771772027,0.009453454986214638
0.009833118878304958,0.006681636907160282,-0.011717397719621658,0.006081033498048782,-0.00022318116680253297,0.00991519819945097
0.010221322998404503,0.006479285191744566,-0.012044059112668037,0.0056116157211363316,-0.00021291129814926535,0.009675180539488792
0.010305885225534439,0.006746937520802021,-0.012524992227554321,0.005734075326472521,-0.00020330847473815084,0.008857853710651398
0.010029001161456108,0.007235893048346043,-0.012427117675542831,0.005437140353024006,-0.00019451927801128477,0.009025640785694122
0.01050958875566721,0.006847051903605461,-0.012126738205552101,0.005887214560061693,-0.00018645766249392182,0.009637376293540001
0.0104076461866498,0.006952918600291014,-0.011600371450185776,0.006174866575747728,-0.00017903752450365573,0.010124755091965199
0.010259742848575115,0.007022290490567684,-0.012292045168578625,0.0054900976829230785,-0.00018904540047515184,0.010153254494071007
0.01034651417285204,0.007526974193751812,-0.012091998010873795,0.0052306028082966805,-0.0001978593209059909,0.009874580428004265
0.01018541119992733,0.006982138380408287,-0.012413193471729755,0.0055407085455954075,-0.00019185787823516876,0.009802702814340591
0.010953187942504883,0.006649399641901255,-0.012363058514893055,0.005630176980048418,-0.00018533905677031726,0.009814533405005932
0.01156056672334671,0.006709447596222162,-0.012151566334068775,0.005820512771606445,-0.00017919260426424444,0.009855134412646294
0.010860459879040718,0.006962910760194063,-0.012069841846823692,0.005747825838625431,-0.0001680392015259713,0.009574385359883308
0.011240807361900806,0.006960343569517136,-0.012106670998036861,0.005689629353582859,-0.00016296749527100474,0.010491486638784409
0.010577978566288948,0.0068605984561145306,-0.011928603984415531,0.005809004418551922,-0.00017772088176570833,0.010203592479228973
0.010326381772756577,0.007404798176139593,-0.01184241846203804,0.00620209239423275,-0.0001788587833289057,0.00966282282024622
0.010685687884688377,0.007105379831045866,-0.012174859642982483,0.006240866146981716,-0.00017431356536690146,0.010218183510005474
0.01120794378221035,0.006788723636418581,-0.011836946941912174,0.005564972758293152,-0.00016964587848633528,0.009524852968752384
0.010972646996378899,0.006748651620000601,-0.012426902540028095,0.00580667844042182,-0.00016519874043297023,0.009467033669352531
0.010239851661026478,0.00702643021941185,-0.011861548759043217,0.006020883098244667,-0.0001609774335520342,0.009831706061959267
0.011005627922713757,0.007080954033881426,-0.012006839737296104,0.0065854573622345924,-0.00015696654736530036,0.009654331021010876
0.012044738978147507,0.006849068682640791,-0.01222934853285551,0.006321246735751629,-0.00016936958127189428,0.009495255537331104
0.012044738978147507,0.006849068682640791,-0.01222934853285551,0.006321246735751629,-0.00016936958127189428,0.009495255537331104
0.01228378526866436,0.006453005596995354,-0.012074431404471397,0.005789652932435274,-0.00017050537280738354,0.010437521152198315
0.012457212433218956,0.006488607730716467,-0.012772749178111553,0.005614509806036949,-0.00016688939649611712,0.010132674127817154
0.01217443123459816,0.0068188440054655075,-0.011785561218857765,0.005901533644646406,-0.00016313006926793605,0.00962064042687416
0.012338978238403797,0.006888945586979389,-0.012273226864635944,0.006380449514836073,-0.00015951709065120667,0.010298790410161018
0.012445786036550999,0.0066210124641656876,-0.012230564840137959,0.0068593272008001804,-0.00015605951193720102,0.010065577924251556
0.012146374210715294,0.0061694663017988205,-0.012619477696716785,0.006875219754874706,-0.00015274867473635823,0.010070376098155975
0.01271732710301876,0.006083826068788767,-0.012521930038928986,0.006079488433897495,-0.00014957529492676258,0.010559020563960075
0.012369086034595966,0.005728875752538443,-0.011899331584572792,0.006673329509794712,-0.0001467429829062894,0.010337398387491703
0.01265163253992796,0.006033729296177626,-0.012434708885848522,0.0069411750882864,-0.00014297284360509366,0.010530677624046803
0.01273032184690237,0.006338374223560095,-0.011950202286243439,0.006888120900839567,-0.00013862631749361753,0.010198328644037247
0.012675068341195583,0.006087666843086481,-0.012547076679766178,0.006257304921746254,-0.00013448655954562128,0.009867997840046883
0.012911631725728512,0.006296231411397457,-0.012399539351463318,0.006927346345037222,-0.0001305838522966951,0.010244449600577354
0.012549180537462234,0.006106447894126177,-0.012248181737959385,0.006735166534781456,-0.00012690119910985231,0.010305527597665787
0.01324323657900095,0.005818037781864405,-0.012225569225847721,0.006683026906102896,-0.00012342043919488788,0.010557977482676506
0.012869873084127903,0.006040568463504314,-0.011766258627176285,0.006747475825250149,-0.0001201255145133473,0.010099878534674644
0.013014446012675762,0.005579138174653053,-0.012431355193257332,0.006447209976613522,-0.00011700213508447632,0.010709541849792004
0.01288781687617302,0.006171120330691338,-0.01232897024601698,0.006497483234852552,-0.0001327043428318575,0.010397291742265224
0.012586752884089947,0.005925662815570831,-0.011856820434331894,0.006590430159121752,-0.0001301932497881353,0.010235445573925972
0.012592521496117115,0.005425076000392437,-0.011877845041453838,0.0065374490804970264,-0.00012717214121948928,0.010485637001693249
0.012988320551812649,0.005778527352958918,-0.012452224269509315,0.006300393957644701,-0.00012424869055394083,0.010667163878679276
0.012452531605958939,0.005594632588326931,-0.011666837148368359,0.00639705965295434,-0.00012145423534093425,0.010724199935793877
0.012732919305562973,0.00598874082788825,-0.012218896299600601,0.006096649914979935,-0.0001187826128443703,0.010891268961131573
0.012518910691142082,0.006129730958491564,-0.012658689171075821,0.006300723180174828,-0.00011622590682236478,0.011366112157702446
0.012380428612232208,0.005409384611994028,-0.011909624561667442,0.006573437247425318,-0.0001137769577326253,0.01135250087827444
0.012960733845829964,0.005482404492795467,-0.011614098213613033,0.006759177427738905,-0.0001114291517296806,0.011399070732295513
0.012718894518911839,0.005721097346395254,-0.011276050470769405,0.006819885689765215,-0.00010917621693806723,0.011990245431661606
0.012741154991090298,0.0061694057658314705,-0.012009651400148869,0.0067063430324196815,-0.00010701263090595603,0.011320195160806179
0.012823197059333324,0.006048551294952631,-0.011610657908022404,0.0065140496008098125,-0.00010493307490833104,0.01027258113026619
0.013169616460800171,0.005535217002034187,-0.012219357304275036,0.0068029193207621574,-0.00011784013622673228,0.010674707591533661
0.013169616460800171,0.005535217002034187,-0.012219357304275036,0.0068029193207621574,-0.00011784013622673228,0.010674707591533661
0.012502748519182205,0.00535626569762826,-0.012084648944437504,0.0068858833983540535,-0.00011769516277126968,0.011058049276471138
0.013082950375974178,0.005638378206640482,-0.011203162372112274,0.007019791752099991,-0.00011566861940082163,0.01173477340489626
0.01276917289942503,0.005898001603782177,-0.011899562552571297,0.007043787743896246,-0.00011359179188730195,0.011541997082531452
0.013141890987753868,0.006332844961434603,-0.01166027132421732,0.007233441341668367,-0.00011158050619997084,0.011472055688500404
0.01275333296507597,0.006448864471167326,-0.011788548901677132,0.007685428950935602,-0.00010963866952806711,0.011258077807724476
0.013013777323067188,0.0060876538045704365,-0.01230787392705679,0.007262803614139557,-0.00010776316776173189,0.011395923793315887
0.01311444491147995,0.005981398280709982,-0.01199386641383171,0.007039538584649563,-0.00010595094499876723,0.011930284090340137
0.01317236665636301,0.006555553060024977,-0.012479911558330059,0.006906357128173113,-0.00011524860747158527,0.011540429666638374
0.01282523199915886,0.006807607598602772,-0.012112126685678959,0.0071484725922346115,-0.00011689605162246153,0.01128360815346241
0.012759733013808727,0.0062875887379050255,-0.012690277770161629,0.007236811798065901,-0.00011525459558470175,0.011682368814945221
0.013215333223342896,0.006207529921084642,-0.012772449292242527,0.007210018578916788,-0.00011345349776092917,0.011487958021461964
0.0128964614123106,0.0064736888743937016,-0.012577845714986324,0.006796543952077627,-0.00011169440404046327,0.01162341795861721
0.013041874393820763,0.0073148589581251144,-0.012463638558983803,0.007043701596558094,-0.00010998823563568294,0.011318022385239601
0.01289941743016243,0.006650284864008427,-0.012349814176559448,0.00722544128075242,-0.00010833334090420976,0.011686412617564201
0.013242967426776886,0.006211132276803255,-0.01290754321962595,0.006970736663788557,-0.00010672746429918334,0.011632992886006832
0.01327570155262947,0.006319479551166296,-0.012380784377455711,0.006536323111504316,-0.00010524524259380996,0.011757757514715195
0.013072646223008633,0.0066914972849190235,-0.011569438502192497,0.006893888581544161,-0.00011277117300778627,0.011861642822623253
0.013294621370732784,0.006863625254482031,-0.013356751762330532,0.006455271504819393,-0.00011006514978362247,0.01160290464758873
0.013409683480858803,0.006194202229380608,-0.013612359762191772,0.00656599085777998,-0.00010744048631750047,0.011747941374778748
0.0132264643907547,0.006353097502142191,-0.013338478282094002,0.006707570515573025,-0.0001049352649715729,0.011430580168962479
0.013283801265060902,0.006768354680389166,-0.012855654582381248,0.007039074786007404,-0.00010254394874209538,0.012206429615616798
0.013023504056036472,0.006890695076435804,-0.013347318395972252,0.00691647082567215,-0.0001002592543954961,0.011871076188981533
0.013584593310952187,0.006686085369437933,-0.01358509436249733,0.006731029134243727,-0.00010771877714432776,0.011694272980093956
0.0129875922575593,0.006447272840887308,-0.012952693738043308,0.006720523815602064,-0.00011452752369223163,0.012167000211775303
0.013584354892373085,0.006524828262627125,-0.013504048809409142,0.006853377912193537,-0.00011273056588834152,0.011871987022459507
0.013377293944358826,0.006881317123770714,-0.012735913507640362,0.007128319703042507,-0.00011046326835639775,0.012047141790390015
0.013377293944358826,0.006881317123770714,-0.012735913507640362,0.007128319703042507,-0.00011046326835639775,0.012047141790390015
0.013504449278116226,0.0069235810078680515,-0.013197292573750019,0.0069877211935818195,-0.00010825140634551644,0.011915868148207664
0.013193708844482899,0.006873867474496365,-0.013070967048406601,0.006599027197808027,-0.00010612398909870535,0.01188037171959877
0.013004290871322155,0.0063181547448039055,-0.013320625759661198,0.00720946816727519,-0.00012027014599880204,0.011602741666138172
0.01306419912725687,0.006588651333004236,-0.012992789968848228,0.006884331814944744,-0.00011905351129826158,0.011294451542198658
0.013058212585747242,0.007006839849054813,-0.013668185099959373,0.007007363252341747,-0.00011691310646710917,0.011603293940424919
0.013573702424764633,0.006217177025973797,-0.013417116366326809,0.006891490425914526,-0.0001228580658789724,0.012151810340583324
0.013227186165750027,0.006036894861608744,-0.013579990714788437,0.007097945548593998,-0.00012829470506403595,0.012510226108133793
0.013741646893322468,0.00639380281791091,-0.013284523040056229,0.007923882454633713,-0.00012653798330575228,0.012679912149906158
0.01335937436670065,0.006826457567512989,-0.013316701166331768,0.0075608775950968266,-0.0001243844599230215,0.012845152989029884
0.013301157392561436,0.006334216333925724,-0.013323934748768806,0.006758764386177063,-0.0001222742284880951,0.012777898460626602
0.013412836007773876,0.006217233836650848,-0.012703005224466324,0.006607609335333109,-0.00019423541380092502,0.012402388267219067
0.013691483996808529,0.006503979675471783,-0.01370509434491396,0.0071762134321033955,-0.00019626655557658523,0.014090606942772865
0.013490620069205761,0.006313444580882788,-0.013354945927858353,0.007414199877530336,-0.000188720558071509,0.011945601552724838
0.01378193311393261,0.006527449935674667,-0.013488240540027618,0.007014499045908451,-0.00020795108866877854,0.011988198384642601
0.013408330269157887,0.00659592729061842,-0.013095329515635967,0.007082466036081314,-0.0002083710569422692,0.01214341726154089
0.013530381955206394,0.006715692114084959,-0.013242440298199654,0.007495641242712736,-0.0002011596952797845,0.012489392422139645
0.013422263786196709,0.0059698112308979034,-0.012561982497572899,0.0073753525502979755,-0.00022410838573705405,0.013048657216131687
0.013608111068606377,0.006391954142600298,-0.013156224973499775,0.00733871990814805,-0.00021830938931088895,0.013072160072624683
0.01378735899925232,0.006761149503290653,-0.013195205479860306,0.00793676357716322,-0.00021112107788212597,0.013330645859241486
0.013837624341249466,0.006356718018651009,-0.012863529846072197,0.007610610220581293,-0.00022422749316319823,0.012669443152844906
0.013450383208692074,0.005742412526160479,-0.013076437637209892,0.007795048411935568,-0.00021912241936661303,0.012652168981730938
0.013630975969135761,0.005909132305532694,-0.013628378510475159,0.00792800635099411,-0.0002127589687006548,0.012801184318959713
0.014141404069960117,0.006173701956868172,-0.012652519159018993,0.008100270293653011,-0.0002066588931484148,0.01301052700728178
0.013107812032103539,0.005798179190605879,-0.01319353561848402,0.0075365412048995495,-0.00027948166825808585,0.012362072244286537
0.014906295575201511,0.005696275271475315,-0.012862223200500011,0.00736561045050621,-0.000287254253635183,0.01226941030472517
0.015291615389287472,0.005683196242898703,-0.013167771510779858,0.008153250440955162,-0.00027158757438883185,0.012330553494393826
0.014642084948718548,0.006328102201223373,-0.01297658123075962,0.00763758085668087,-0.00028119131457060575,0.01304034423083067
0.014957932755351067,0.006323482841253281,-0.013169702142477036,0.007995763793587685,-0.00028919411124661565,0.012821950949728489
0.014957932755351067,0.006323482841253281,-0.013169702142477036,0.007995763793587685,-0.00028919411124661565,0.012821950949728489
0.014691954478621483,0.0054082004353404045,-0.013517828658223152,0.007722520735114813,-0.0002625995548442006,0.012731335125863552
0.01489785872399807,0.005694585386663675,-0.013549581170082092,0.008048268035054207,-0.0002865760470740497,0.013254757970571518
0.01489785872399807,0.005694585386663675,-0.013549581170082092,0.008048268035054207,-0.0002865760470740497,0.013254757970571518
0.015278643928468227,0.005964155308902264,-0.01320141926407814,0.007907555438578129,-0.0002788459532894194,0.013214859180152416
0.015549697913229465,0.005961166229099035,-0.013681719079613686,0.0075917295180261135,-0.00026733498089015484,0.013058590702712536
0.015388982370495796,0.006061761640012264,-0.013274423778057098,0.008225711062550545,-0.0002564706082921475,0.01316077634692192
0.015595542266964912,0.005345038138329983,-0.013376663438975811,0.00850463006645441,-0.0002769579296000302,0.012981044128537178
0.015458737500011921,0.005456604063510895,-0.012936176732182503,0.007756287697702646,-0.0002707333769649267,0.01303846761584282
0.015676476061344147,0.005541246850043535,-0.013659031130373478,0.0078122299164533615,-0.0002611845557112247,0.01293106097728014
0.015353953465819359,0.005546890199184418,-0.013377290219068527,0.007830897346138954,-0.0002520576526876539,0.013003582134842873
0.015635691583156586,0.005491754971444607,-0.01359742321074009,0.007889481261372566,-0.00024353225308004767,0.01302705891430378
0.015457031317055225,0.0054479665122926235,-0.012989267706871033,0.007615296635776758,-0.0002679626049939543,0.013566812500357628
0.016119737178087234,0.005408927798271179,-0.01353819202631712,0.007516366895288229,-0.0002576818806119263,0.013485599309206009
0.015753451734781265,0.005596818868070841,-0.01353059709072113,0.007711439859122038,-0.00024403419229201972,0.013873943127691746
0.016225764527916908,0.005322963465005159,-0.013858270831406116,0.008264757692813873,-0.00023149691696744412,0.013585980981588364
0.015872642397880554,0.005380779970437288,-0.01367145124822855,0.008276558481156826,-0.00022016857110429555,0.013683458790183067
0.015699297189712524,0.005463490262627602,-0.01361880823969841,0.008447479456663132,-0.00020989640324842185,0.013710886240005493
0.015898242592811584,0.004967426415532827,-0.013742545619606972,0.008313954807817936,-0.00023790654086042196,0.013593539595603943
0.01597202755510807,0.005239713471382856,-0.014101700857281685,0.008016294799745083,-0.00022093836741987616,0.012876704335212708
0.01583772897720337,0.00556970527395606,-0.013744876720011234,0.008587549440562725,-0.00024523562751710415,0.014529220759868622
0.016494479030370712,0.005712632089853287,-0.014077089726924896,0.008829363621771336,-0.0002381163212703541,0.013512367382645607
0.01607721671462059,0.006102597340941429,-0.013661169447004795,0.008046268485486507,-0.0002295782760484144,0.014017843641340733
0.016460126265883446,0.005478633102029562,-0.014145439490675926,0.00831029936671257,-0.00022151398297864944,0.014280104078352451
0.01629689149558544,0.004990171641111374,-0.013275505043566227,0.008519573137164116,-0.00021398971148300916,0.014133112505078316
0.01634776033461094,0.005255348049104214,-0.013896427117288113,0.008632565848529339,-0.00020695905550383031,0.013793664053082466
0.016123760491609573,0.005555576179176569,-0.013642814010381699,0.008553697727620602,-0.000200375696294941,0.014305599965155125
0.016123760491609573,0.005555576179176569,-0.013642814010381699,0.008553697727620602,-0.000200375696294941,0.014305599965155125
0.016698403283953667,0.005413651466369629,-0.013626274652779102,0.00867201667279005,-0.0002150641375919804,0.014508732594549656
0.01637287437915802,0.005547723732888699,-0.01428145356476307,0.00821571797132492,-0.00020903610857203603,0.014763428829610348
0.01673787459731102,0.005217854864895344,-0.013685086742043495,0.00875134952366352,-0.00020315176516305655,0.01433522067964077
0.016450585797429085,0.005900614894926548,-0.014664429239928722,0.009029635228216648,-0.00019757762493100017,0.013869709335267544
0.016450585797429085,0.005900614894926548,-0.014664429239928722,0.009029635228216648,-0.00019757762493100017,0.013869709335267544
0.01645948737859726,0.005523116327822208,-0.013978473842144012,0.008222009055316448,-0.0001925495598698035,0.014214757829904556
0.016490209847688675,0.00571403419598937,-0.014019808731973171,0.008294404484331608,-0.00019805457850452513,0.014191028662025928
0.016215626150369644,0.00540473498404026,-0.013639742508530617,0.008760446682572365,-0.00019057991448789835,0.014275399968028069
0.016914816573262215,0.005771168507635593,-0.01416322123259306,0.008653637021780014,-0.0002145977778127417,0.014466644264757633
0.016375195235013962,0.00549166789278388,-0.01429466251283884,0.008398045785725117,-0.0002105839957948774,0.015040826983749866
0.01683788187801838,0.005744353402405977,-0.014805291779339314,0.008726066909730434,-0.00020295282592996955,0.014808517880737782
0.01706741750240326,0.005403317976742983,-0.014489353634417057,0.00872926414012909,-0.00021158841263968498,0.015285279601812363
0.017237549647688866,0.0057239956222474575,-0.015012540854513645,0.008855682797729969,-0.0002191572857555002,0.014928633347153664
0.017597632482647896,0.005275297909975052,-0.014178767800331116,0.009205625392496586,-0.00023523035633843392,0.014862986281514168
0.017295178025960922,0.005996096413582563,-0.014977315440773964,0.009325689636170864,-0.00023473490728065372,0.0145975761115551
0.017574863508343697,0.0060144769959151745,-0.014650341123342514,0.00899549014866352,-0.00022777749109081924,0.01501241885125637
0.017118990421295166,0.00557711860165,-0.01529974490404129,0.00901809148490429,-0.00038706252234987915,0.014820565469563007
0.01679266057908535,0.005608040373772383,-0.014908120967447758,0.00915098562836647,-0.00037851958768442273,0.014950990676879883
0.01771603710949421,0.006197165697813034,-0.015426130965352058,0.0091619361191988,-0.0004020740743726492,0.015004724264144897
0.017354832962155342,0.006317449733614922,-0.014683532528579235,0.009083070792257786,-0.0003891705418936908,0.01544246356934309
0.01795331761240959,0.0057309092953801155,-0.015446094796061516,0.008721173740923405,-0.0004086080298293382,0.015159713104367256
0.017025671899318695,0.005723588168621063,-0.015084738843142986,0.00882819015532732,-0.00037417671410366893,0.014697491191327572
0.018265707418322563,0.006132653448730707,-0.014911704696714878,0.009164929389953613,-0.0004002204514108598,0.01493485365062952
0.018010227009654045,0.005670339334756136,-0.01519915834069252,0.009146195836365223,-0.00048628789954818785,0.015057302080094814
0.01810740865767002,0.0059072175063192844,-0.01534540206193924,0.008751950226724148,-0.0005525538581423461,0.015236854553222656
0.018103141337633133,0.00555972196161747,-0.015535486862063408,0.008995193988084793,-0.0005547086475417018,0.015142574906349182
0.017775509506464005,0.0056659625843167305,-0.015621436759829521,0.009544478729367256,-0.0005827596760354936,0.015253596939146519
0.018357310444116592,0.005529772024601698,-0.01511627808213234,0.009725931100547314,-0.000573203491512686,0.01586993783712387
0.017946287989616394,0.005610330495983362,-0.015112615190446377,0.009898865595459938,-0.0007513756863772869,0.014351923950016499
0.01749233528971672,0.006067732814699411,-0.014905567280948162,0.010362842120230198,-0.0008292722632177174,0.014768600463867188
0.01808859594166279,0.005509837064892054,-0.015651199966669083,0.00978140626102686,-0.000826536153908819,0.014812091365456581
0.018665838986635208,0.005731196142733097,-0.014909284189343452,0.009781046770513058,-0.0008346206741407514,0.01518766675144434
0.018665838986635208,0.005731196142733097,-0.014909284189343452,0.009781046770513058,-0.0008346206741407514,0.01518766675144434
0.018404053524136543,0.005500991828739643,-0.015249304473400116,0.010058627463877201,-0.0007710951031185687,0.015055890195071697
0.01807347871363163,0.005788372363895178,-0.014746381901204586,0.009763780049979687,-0.0008166180341504514,0.01527046225965023
0.018300862982869148,0.00603873934596777,-0.015085128135979176,0.009936272166669369,-0.0008312065619975328,0.015093060210347176
0.018809838220477104,0.006036133039742708,-0.014575670473277569,0.00995741505175829,-0.0008406888227909803,0.01555765699595213
0.01863233558833599,0.005366739816963673,-0.015539596788585186,0.009739791043102741,-0.0008551367791369557,0.015768418088555336
0.01845167577266693,0.005737029481679201,-0.014690897427499294,0.010210120119154453,-0.0010258620604872704,0.015796154737472534
0.018706250935792923,0.005795786157250404,-0.015129044651985168,0.009830541908740997,-0.0010280465940013528,0.015613114461302757
0.018542513251304626,0.005858086049556732,-0.014527566730976105,0.00918150320649147,-0.0009459074353799224,0.015866344794631004
0.0186948049813509,0.0060866232961416245,-0.01514501590281725,0.009815477766096592,-0.000935538555495441,0.016249390318989754
0.019171755760908127,0.005404198542237282,-0.014896800741553307,0.01012390572577715,-0.0010279531124979258,0.01572677306830883
0.019061248749494553,0.005912533961236477,-0.015306220389902592,0.010181440971791744,-0.0010608234442770481,0.016226038336753845
0.018717119470238686,0.005567875225096941,-0.01503064390271902,0.009621652774512768,-0.0010404231725260615,0.016268271952867508
0.019383210688829422,0.005907728336751461,-0.015100841410458088,0.010273918509483337,-0.0009473536629229784,0.016218217089772224
0.018904564902186394,0.005563134793192148,-0.015402448363602161,0.010448375716805458,-0.000945455685723573,0.01624118722975254
0.01954108662903309,0.0054593775421381,-0.015575491823256016,0.00997652392834425,-0.0009338432573713362,0.01639830693602562
0.019336437806487083,0.005660783499479294,-0.014907020144164562,0.009030911140143871,-0.0009209850104525685,0.016133945435285568
0.018961995840072632,0.005859258119016886,-0.015136850997805595,0.009338805451989174,-0.0008832499734126031,0.01613830402493477
0.01953493058681488,0.006173594854772091,-0.015190405771136284,0.009719332680106163,-0.000760808412451297,0.015885114669799805
0.019113382324576378,0.006146087311208248,-0.01528423372656107,0.008980327285826206,-0.0007724488386884332,0.01638801209628582
0.019123882055282593,0.005458592902868986,-0.015063450671732426,0.00881883129477501,-0.0007370028761215508,0.01612137258052826
0.019797436892986298,0.005987023003399372,-0.015578618273139,0.009314416907727718,-0.0007034959271550179,0.01640651933848858
0.019757892936468124,0.005962406285107136,-0.014839098788797855,0.008987436071038246,-0.0006356360972858965,0.016450397670269012
0.019195236265659332,0.006172083783894777,-0.015248376876115799,0.009966074489057064,-0.0005775022436864674,0.016466399654746056
0.019195236265659332,0.006172083783894777,-0.015248376876115799,0.009966074489057064,-0.0005775022436864674,0.016466399654746056
0.01975076273083687,0.00531805818900466,-0.014979546889662743,0.009450950659811497,-0.0005289724795147777,0.016708504408597946
0.020010098814964294,0.004727915860712528,-0.015466880053281784,0.009365921840071678,-0.00048796291230246425,0.01647627167403698
0.01911090314388275,0.005231409799307585,-0.01462807971984148,0.00968315452337265,-0.00045285976375453174,0.016763178631663322
0.01958301290869713,0.0051423716358840466,-0.015360205434262753,0.010569201782345772,-0.00042247099918313324,0.016666321083903313
0.019991328939795494,0.005492066498845816,-0.014868703670799732,0.010337048210203648,-0.0003959059249609709,0.01701021008193493
0.01941896602511406,0.00520748645067215,-0.015399905852973461,0.010642819106578827,-0.00039839273085817695,0.017559299245476723
0.019874190911650658,0.0051912725903093815,-0.015224814414978027,0.011033919639885426,-0.0004001422203145921,0.01621139608323574
0.019908549264073372,0.004946828354150057,-0.015259415842592716,0.010737339034676552,-0.00038055042386986315,0.01641840673983097
0.020223841071128845,0.00515474658459425,-0.014948507770895958,0.011003299616277218,-0.00036153726978227496,0.016920307651162148
0.020339040085673332,0.005520937964320183,-0.015291978605091572,0.010688714683055878,-0.00034425288322381675,0.016993314027786255
0.020569343119859695,0.005371598992496729,-0.015431065112352371,0.010411855764687061,-0.0003285403363406658,0.017031680792570114
0.019802404567599297,0.005697748623788357,-0.015145490877330303,0.010700870305299759,-0.00031419965671375394,0.017409777268767357
0.017530467361211777,0.005285223014652729,-0.015342005528509617,0.010471007786691189,-0.0003010588698089123,0.017646610736846924
0.020550072193145752,0.005224499385803938,-0.015192358754575253,0.010619222186505795,-0.00028897306765429676,0.017020048573613167
0.02119062840938568,0.00544150173664093,-0.01577433943748474,0.010847157798707485,-0.00027782106189988554,0.017329977825284004
0.02043873444199562,0.004919198341667652,-0.015146861784160137,0.010294588282704353,-0.0002674973220564425,0.01705266162753105
0.019808072596788406,0.00537877855822444,-0.015472833067178726,0.010880250483751297,-0.0002579139545559883,0.016837209463119507
0.0205368734896183,0.005160655826330185,-0.015122533775866032,0.010798015631735325,-0.00024899342679418623,0.01702919602394104
0.020526248961687088,0.004726432263851166,-0.015119975432753563,0.010060932487249374,-0.00023288409283850342,0.01797834411263466
0.020678123459219933,0.00531909940764308,-0.015673186630010605,0.01066691055893898,-0.00022558646742254496,0.017911965027451515
0.020770207047462463,0.005045893136411905,-0.015280617401003838,0.010158943943679333,-0.000218732631765306,0.017081860452890396
0.020208897069096565,0.005257720593363047,-0.015458842739462852,0.010436994954943657,-0.00018333135813008994,0.017597947269678116
0.02043033391237259,0.005056270398199558,-0.01560878288000822,0.010464191436767578,-0.00015032576629891992,0.017900699749588966
0.02077641896903515,0.004847820848226547,-0.01584726944565773,0.010217168368399143,-0.000143764351378195,0.018600262701511383
0.021176887676119804,0.0051641627214848995,-0.01669362373650074,0.010702652856707573,-0.00013920191850047559,0.01852421648800373
0.02089717611670494,0.005085415672510862,-0.015521200373768806,0.010614615865051746,-0.00013501729699783027,0.01811818592250347
0.02089717611670494,0.005085415672510862,-0.015521200373768806,0.010614615865051746,-0.00013501729699783027,0.01811818592250347
0.020979786291718483,0.004991315305233002,-0.016054566949605942,0.010932195000350475,-0.00013108356506563723,0.017826400697231293
0.02085435576736927,0.005351978819817305,-0.016047034412622452,0.009750009514391422,-0.00012386641174089164,0.017494376748800278
0.02085435576736927,0.005351978819817305,-0.016047034412622452,0.009750009514391422,-0.00012386641174089164,0.017494376748800278
0.02076883614063263,0.005261908285319805,-0.015040467493236065,0.009760546498000622,-0.00012054810940753669,0.017884133383631706
0.021332452073693275,0.0049717905931174755,-0.015604694373905659,0.009817334823310375,-0.00011740285845007747,0.01761632226407528
0.021600879728794098,0.004616496153175831,-0.01586323417723179,0.009861591272056103,-0.00011441759124863893,0.018213648349046707
0.021279653534293175,0.005088051315397024,-0.01675822213292122,0.010319355875253677,-0.00011158044799230993,0.01833689771592617
0.021276677027344704,0.005457079038023949,-0.016544247046113014,0.010474136099219322,-0.000127791689010337,0.018149342387914658
0.021751530468463898,0.005380603484809399,-0.015568030998110771,0.010340197011828423,-0.00012738266377709806,0.017965933308005333
0.021478889510035515,0.005035749636590481,-0.01584791950881481,0.010789843276143074,-0.00012461328878998756,0.01761722005903721
0.02124667353928089,0.0049013313837349415,-0.015545527450740337,0.010804484598338604,-0.00012181322381366044,0.018061140552163124
0.021716129034757614,0.005660971160978079,-0.01611536368727684,0.010763420723378658,-0.00011912661284441128,0.01821955107152462
0.02199537493288517,0.005387341603636742,-0.015747472643852234,0.010914245620369911,-0.00011655531852738932,0.018108149990439415
0.021931681782007217,0.005398355424404144,-0.01626729965209961,0.010883456096053123,-0.0001140925960498862,0.017854604870080948
0.021659603342413902,0.005437706597149372,-0.01588992029428482,0.011145208030939102,-0.00011173178063472733,0.01816037856042385
0.02182215452194214,0.005069361533969641,-0.0163800660520792,0.011456035077571869,-0.0001184412176371552,0.01838802732527256
0.022158179432153702,0.005442151799798012,-0.016283219680190086,0.011311082169413567,-0.00012456849799491465,0.018546700477600098
0.022051651030778885,0.005172910634428263,-0.01603574864566326,0.011276455596089363,-0.00012269556464161724,0.018485279753804207
0.021992579102516174,0.005814238451421261,-0.01612352579832077,0.011190397664904594,-0.00011813205492217094,0.018603969365358353
0.02253054454922676,0.00528855063021183,-0.016431214287877083,0.011259284801781178,-0.00011595764954108745,0.018346037715673447
0.022221900522708893,0.005309667903929949,-0.015778547152876854,0.010978754609823227,-0.00012593355495482683,0.01854586787521839
0.022352086380124092,0.005277881398797035,-0.016243234276771545,0.01130607072263956,-0.00012754398630931973,0.01873101107776165
0.0224422886967659,0.005569423083215952,-0.016234245151281357,0.011644170619547367,-0.0001255704410141334,0.018372131511569023
0.022551393136382103,0.005273013841360807,-0.01633554883301258,0.011283631436526775,-0.00012343405978754163,0.01845957338809967
0.022667644545435905,0.005221521481871605,-0.016428720206022263,0.01165713369846344,-0.0001422908389940858,0.018476609140634537
0.022885316982865334,0.005308846477419138,-0.016093816608190536,0.011220313608646393,-0.0001446396781830117,0.018400888890028
0.022885316982865334,0.005308846477419138,-0.016093816608190536,0.011220313608646393,-0.0001446396781830117,0.018400888890028
0.02261895313858986,0.004961221478879452,-0.016265951097011566,0.011344990693032742,-0.00014057332009542733,0.018686387687921524
0.022548506036400795,0.004908313043415546,-0.015765929594635963,0.011134287342429161,-0.00016177623183466494,0.018765967339277267
0.022740336135029793,0.005423068534582853,-0.016359759494662285,0.011074181646108627,-0.00017167053010780364,0.018825823441147804
0.02156050130724907,0.005138940177857876,-0.016136644408106804,0.011619768105447292,-0.00017908848531078547,0.01881810463964939
0.022690394893288612,0.005200302228331566,-0.016423288732767105,0.01156153529882431,-0.00018719100626185536,0.01932460628449917
0.023521190509200096,0.0050004832446575165,-0.016613127663731575,0.011436864733695984,-0.00019373504619579762,0.01929798163473606
0.023418908938765526,0.00529087008908391,-0.016149092465639114,0.011458446271717548,-0.0001894629531307146,0.01920158602297306
0.023361602798104286,0.005012896843254566,-0.016667423769831657,0.01132773607969284,-0.0004621722036972642,0.018626881763339043
0.02378789521753788,0.005145883187651634,-0.016086524352431297,0.012027435936033726,-0.0005005705170333385,0.018479451537132263
0.022878583520650864,0.005520994309335947,-0.01671782322227955,0.01213847752660513,-0.000477303663501516,0.018651606515049934
0.02208750881254673,0.005125755909830332,-0.01586393266916275,0.011765917763113976,-0.0004935593460686505,0.018944691866636276
0.02267431654036045,0.004750430583953857,-0.016077667474746704,0.012002886272966862,-0.00047322650789283216,0.0194801427423954
0.023649850860238075,0.004700358025729656,-0.016277840360999107,0.01183538418263197,-0.0004956060438416898,0.019329359754920006
0.023392576724290848,0.005132589489221573,-0.016621671617031097,0.011986184865236282,-0.00047069054562598467,0.018716901540756226
0.02313653565943241,0.004931777250021696,-0.016837293282151222,0.011453046463429928,-0.0004434156871866435,0.018872255459427834
0.023455467075109482,0.004923228640109301,-0.015763312578201294,0.011545591987669468,-0.0005050800391472876,0.018930584192276
0.02391286939382553,0.004935748875141144,-0.01648459956049919,0.01171498466283083,-0.0005280595505610108,0.01948421634733677
0.02317526377737522,0.004921209532767534,-0.016177484765648842,0.011475765146315098,-0.0005003104452043772,0.019145384430885315
0.02362920716404915,0.005374919157475233,-0.016629723832011223,0.011633560992777348,-0.0004933763993903995,0.018574576824903488
0.02337793819606304,0.0051335557363927364,-0.01650191657245159,0.012073193676769733,-0.00045780607615597546,0.019684532657265663
0.023363856598734856,0.005222971551120281,-0.016896788030862808,0.01237472239881754,-0.00048349075950682163,0.018822217360138893
0.023775320500135422,0.005087422206997871,-0.016135532408952713,0.011611429043114185,-0.0004565204435493797,0.018527042120695114
0.023943515494465828,0.004977275617420673,-0.016311852261424065,0.012193294242024422,-0.00048602453898638487,0.01969834789633751
0.023944998160004616,0.005145051516592503,-0.01635197177529335,0.01203370001167059,-0.0004567846190184355,0.019933629781007767
0.02361491695046425,0.005061580333858728,-0.01690022461116314,0.012261195108294487,-0.00048748651170171797,0.01924382895231247
0.023853380233049393,0.005722737405449152,-0.01762661151587963,0.012169656343758106,-0.0004561027162708342,0.019329436123371124
0.023853380233049393,0.005722737405449152,-0.01762661151587963,0.012169656343758106,-0.0004561027162708342,0.019329436123371124
0.023748749867081642,0.005365568213164806,-0.01671813242137432,0.012637303210794926,-0.0004551455785986036,0.019772913306951523
0.02384577877819538,0.004791731014847755,-0.017427394166588783,0.012528490275144577,-0.000453444488812238,0.01951586827635765
0.023654552176594734,0.004913580138236284,-0.01668984815478325,0.011552879586815834,-0.00042488527833484113,0.019638657569885254
0.024337444454431534,0.005239342804998159,-0.01669897697865963,0.012295618653297424,-0.0004473169392440468,0.01982901431620121
0.02405303344130516,0.0050752367824316025,-0.016451949253678322,0.011774199083447456,-0.00042747522820718586,0.019945641979575157
0.02353758178651333,0.005327754188328981,-0.017378609627485275,0.0115204444155097,-0.00040529121179133654,0.020031461492180824
0.0236887838691473,0.005090991035103798,-0.017588617280125618,0.011255722492933273,-0.00042607838986441493,0.020231567323207855
0.023785468190908432,0.004580543842166662,-0.017155222594738007,0.011495722457766533,-0.00039275019662454724,0.020372938364744186
0.024259794503450394,0.004456188529729843,-0.017148377373814583,0.012128313072025776,-0.0004237823886796832,0.019692013040184975
0.024337099865078926,0.00490855285897851,-0.016625825315713882,0.01199547853320837,-0.00040081667248159647,0.02008170820772648
0.02311149425804615,0.004931816831231117,-0.01762748509645462,0.011961909011006355,-0.0004315325350034982,0.020487099885940552
0.024496620520949364,0.0051928358152508736,-0.01813730224967003,0.012025037780404091,-0.0004502877127379179,0.020430395379662514
0.024813272058963776,0.00484501663595438,-0.01701025851070881,0.011669332161545753,-0.00043918966548517346,0.02074415422976017
0.024132754653692245,0.0047090365551412106,-0.017201006412506104,0.011692599393427372,-0.0006138287135399878,0.020806265994906425
0.024296071380376816,0.004440666176378727,-0.01729729399085045,0.011107463389635086,-0.0006052216049283743,0.020393220707774162
0.024464517831802368,0.004583330359309912,-0.017467524856328964,0.011950189247727394,-0.0005795353790745139,0.02102109044790268
0.02433001808822155,0.005076099187135696,-0.016539327800273895,0.011446868069469929,-0.0005967685719951987,0.020643005147576332
0.02539566531777382,0.004888176452368498,-0.01737699843943119,0.012095106765627861,-0.0005593276000581682,0.020721904933452606
0.024346493184566498,0.004883095622062683,-0.017722975462675095,0.011993537656962872,-0.0006267590215429664,0.020791834220290184
0.025110533460974693,0.004794534295797348,-0.01756388135254383,0.012316240929067135,-0.0005662585608661175,0.020770464092493057
0.024147147312760353,0.004392225760966539,-0.01770252361893654,0.012607350014150143,-0.0005905256257392466,0.02089553512632847
0.024845583364367485,0.004531443119049072,-0.016795221716165543,0.012824198231101036,-0.0005428940057754517,0.020910490304231644
0.024845583364367485,0.004531443119049072,-0.016795221716165543,0.012824198231101036,-0.0005428940057754517,0.020910490304231644
0.02527473494410515,0.004431774839758873,-0.017526239156723022,0.013153347186744213,-0.0004939468344673514,0.020797794684767723
0.025409922003746033,0.004924677778035402,-0.017832482233643532,0.011996455490589142,-0.0005226058419793844,0.021038929000496864
0.02464902028441429,0.004945213906466961,-0.017300885170698166,0.012143132276833057,-0.00048677349695935845,0.02112460695207119
0.025250190868973732,0.004587425384670496,-0.01755566895008087,0.01214788481593132,-0.0004521133960224688,0.021402373909950256
0.025722701102495193,0.004335036966949701,-0.017263706773519516,0.013050166890025139,-0.0004218395915813744,0.02169693075120449
0.02574816532433033,0.004492958076298237,-0.017580950632691383,0.012922418303787708,-0.0004228224279358983,0.02200806513428688
0.02537357620894909,0.004635412711650133,-0.01790178380906582,0.012570672668516636,-0.00042324623791500926,0.021494679152965546
0.025260545313358307,0.00463193841278553,-0.01726219616830349,0.013184024952352047,-0.00040130247361958027,0.021706704050302505
0.02556557208299637,0.004618766717612743,-0.01738341525197029,0.014287342317402363,-0.000380211160518229,0.02191319316625595
0.02644706703722477,0.0045814733020961285,-0.01730431243777275,0.014187584631145,-0.0003611403808463365,0.021896665915846825
0.026351789012551308,0.004597706254571676,-0.017672572284936905,0.013647007755935192,-0.00034497128217481077,0.022150250151753426
0.025775134563446045,0.004641505889594555,-0.017693137750029564,0.013657158240675926,-0.00029261899180710316,0.022534308955073357
0.026308318600058556,0.004238935187458992,-0.016936548054218292,0.013509908691048622,-0.0002728998370002955,0.021689603105187416
0.02621406689286232,0.004404871258884668,-0.017657935619354248,0.013518864288926125,-0.00025716834352351725,0.021491652354598045
0.02598094940185547,0.004479299299418926,-0.01753380335867405,0.013419211842119694,-0.0002885451540350914,0.022024214267730713
0.026499951258301735,0.004844463896006346,-0.017438329756259918,0.013721064664423466,-0.0002767083060462028,0.022484727203845978
0.02560250088572502,0.004342618398368359,-0.017684224992990494,0.013134824112057686,-0.0002848331059794873,0.02285192534327507
0.026858892291784286,0.004362582694739103,-0.01738695055246353,0.013650099746882915,-0.00029155108495615423,0.02192172035574913
0.027095424011349678,0.004254710394889116,-0.017647650092840195,0.013072330504655838,-0.0003094422281719744,0.021081453189253807
0.027207739651203156,0.004502120427787304,-0.017153676599264145,0.01363667193800211,-0.00030568393412977457,0.021621253341436386
0.027257276698946953,0.004366923589259386,-0.017646536231040955,0.013556867837905884,-0.0003770816547330469,0.02275419980287552
0.027231940999627113,0.004497794434428215,-0.017394382506608963,0.013079834170639515,-0.00041345349745824933,0.022376352921128273
0.027206873521208763,0.004220542497932911,-0.017768753692507744,0.013564983382821083,-0.00041693251114338636,0.022368112578988075
0.027259033173322678,0.0043738894164562225,-0.017408089712262154,0.013619604520499706,-0.0004206692101433873,0.023595860227942467
0.027963127940893173,0.004233078565448523,-0.017381364479660988,0.013869510032236576,-0.00042149462387897074,0.023367129266262054
0.02737533487379551,0.004497970920056105,-0.017758969217538834,0.013970393687486649,-0.0004495902394410223,0.02271740511059761
0.02762247622013092,0.00411940598860383,-0.017196889966726303,0.013742269948124886,-0.0005509142065420747,0.021992526948451996
0.02762247622013092,0.00411940598860383,-0.017196889966726303,0.013742269948124886,-0.0005509142065420747,0.021992526948451996
0.028047172352671623,0.004246264696121216,-0.017665885388851166,0.014074561186134815,-0.0006540740141645074,0.02194390445947647
0.027576947584748268,0.004602442961186171,-0.017966654151678085,0.01406150497496128,-0.0006359904655255377,0.02291731722652912
0.028020290657877922,0.004547945223748684,-0.017337670549750328,0.014008931815624237,-0.0006608439143747091,0.023454925045371056
0.028145212680101395,0.0043340930715203285,-0.017619377002120018,0.013961388729512691,-0.0006035009282641113,0.02335757575929165
0.028179889544844627,0.004546393174678087,-0.017500093206763268,0.014479974284768105,-0.0006241397350095212,0.02341959811747074
0.028345057740807533,0.004429589491337538,-0.01789214089512825,0.01397138275206089,-0.0007194768986664712,0.023145535960793495
0.028675133362412453,0.00429781898856163,-0.01810429058969021,0.014572437852621078,-0.0007345487829297781,0.023020178079605103
0.02899632602930069,0.004440994001924992,-0.017604416236281395,0.014347434975206852,-0.0006727775325998664,0.023363614454865456
0.029010748490691185,0.004574226681143045,-0.01804104633629322,0.014596573077142239,-0.0006925280904397368,0.023356128484010696
0.029017601162195206,0.00461660698056221,-0.018126092851161957,0.014165538363158703,-0.0006952105322852731,0.02382052317261696
0.029251426458358765,0.004249295219779015,-0.017882371321320534,0.014426998794078827,-0.0006530759274028242,0.023776846006512642
0.03000025451183319,0.004323712550103664,-0.0180838443338871,0.014389464631676674,-0.0006826414610259235,0.02348644845187664
0.030662745237350464,0.004602242261171341,-0.01754782535135746,0.014638343825936317,-0.0007110463920980692,0.02358025126159191
0.02965131588280201,0.004740150645375252,-0.018524734303355217,0.013818771578371525,-0.0007260375423356891,0.02376217022538185
0.028406251221895218,0.004432534333318472,-0.019571715965867043,0.014444787986576557,-0.0007316238479688764,0.023951739072799683
0.030248215422034264,0.004400969948619604,-0.018367521464824677,0.014702959917485714,-0.0007987134740687907,0.02434076927602291
0.03022388182580471,0.004301677457988262,-0.018360033631324768,0.014791840687394142,-0.0008496964001096785,0.02425064705312252
0.03065766952931881,0.0047287954948842525,-0.018004518002271652,0.01493155863136053,-0.0007533008465543389,0.02395009435713291
0.03156159818172455,0.004659860394895077,-0.018585367128252983,0.014524081721901894,-0.0007170680910348892,0.02399338409304619
0.031055433675646782,0.004314475227147341,-0.018641632050275803,0.014380957931280136,-0.0007323126774281263,0.023942964151501656
0.02936209738254547,0.004467605613172054,-0.01895136944949627,0.01429947279393673,-0.0006760411779396236,0.023862918838858604
0.029950637370347977,0.004384408704936504,-0.0188042800873518,0.014583864249289036,-0.0006343768327496946,0.02354271523654461
0.03132164105772972,0.004152686335146427,-0.018571853637695312,0.014991306699812412,-0.0006548723904415965,0.02361622452735901
0.03099467046558857,0.004458868410438299,-0.018853232264518738,0.01500484999269247,-0.0006434553652070463,0.024349071085453033
0.030723463743925095,0.004658487159758806,-0.018817059695720673,0.015008971095085144,-0.0006234024767763913,0.024636665359139442
0.030723463743925095,0.004658487159758806,-0.018817059695720673,0.015008971095085144,-0.0006234024767763913,0.024636665359139442
0.030843455344438553,0.004892532713711262,-0.01875445432960987,0.015037039294838905,-0.0006399753619916737,0.024731915444135666
0.03063184581696987,0.004766508005559444,-0.019066039472818375,0.014447561465203762,-0.0007073151064105332,0.024040548130869865
0.030526237562298775,0.004371121525764465,-0.019576286897063255,0.013969567604362965,-0.000740386894904077,0.02360176108777523
0.03053271397948265,0.004351861774921417,-0.018160713836550713,0.014205433428287506,-0.0007609796011820436,0.02324007824063301
0.03058849275112152,0.004591471049934626,-0.019915279000997543,0.01442436408251524,-0.0007766436319798231,0.024352295324206352
0.03085615672171116,0.0047030034475028515,-0.018584826961159706,0.014574358239769936,-0.0007228985778056085,0.02439950779080391
0.030655596405267715,0.004646032117307186,-0.018169701099395752,0.01520201750099659,-0.0008020968525670469,0.024605510756373405
0.030585000291466713,0.005057228729128838,-0.019270936027169228,0.014790087938308716,-0.000701946031767875,0.024811243638396263
0.0308750681579113,0.004897901322692633,-0.01904996857047081,0.01469956524670124,-0.0007126234704628587,0.024880481883883476
0.031129255890846252,0.004439468961209059,-0.018550576642155647,0.014347600750625134,-0.0006419282290153205,0.02476589009165764
0.031059885397553444,0.004489254206418991,-0.019068246707320213,0.014386092312633991,-0.0005744477966800332,0.024644257500767708
0.030902095139026642,0.004986490122973919,-0.01887698844075203,0.01476430892944336,-0.0005936769885011017,0.0242563858628273
0.030729081481695175,0.005064825993031263,-0.018054600805044174,0.014926785603165627,-0.0005517528625205159,0.024591296911239624
0.03157675266265869,0.004402646794915199,-0.018492789939045906,0.015454280190169811,-0.0005704774521291256,0.025587543845176697
0.03195155784487724,0.00447978638112545,-0.018840327858924866,0.01514526642858982,-0.0005368405836634338,0.0258305873721838
0.03100929781794548,0.004493787884712219,-0.018969785422086716,0.015393132343888283,-0.000465553835965693,0.025378959253430367
0.030005285516381264,0.004583301953971386,-0.019209548830986023,0.015323263593018055,-0.0004933809395879507,0.025099636986851692
0.03113080933690071,0.004651229362934828,-0.019186843186616898,0.016046226024627686,-0.000527336960658431,0.025062939152121544
0.031355682760477066,0.005126591771841049,-0.019029170274734497,0.016148921102285385,-0.0007149269804358482,0.025558367371559143
0.03231307119131088,0.005116904154419899,-0.018688054755330086,0.016029084101319313,-0.0008432825561612844,0.025486096739768982
0.03230995312333107,0.004856646526604891,-0.018684061244130135,0.015821194276213646,-0.0007949412683956325,0.025340016931295395
0.032178230583667755,0.0048050484620034695,-0.019083501771092415,0.01589757576584816,-0.0007815939607098699,0.02542141079902649
0.031090933829545975,0.004807738587260246,-0.018984002992510796,0.015529408119618893,-0.0007677396642975509,0.02564687468111515
0.031315792351961136,0.0048699574545025826,-0.018925411626696587,0.015976089984178543,-0.000735144189093262,0.02583155781030655
0.031797245144844055,0.005071212537586689,-0.01884787157177925,0.01565597765147686,-0.0006749816820956767,0.025460904464125633
0.031797245144844055,0.005071212537586689,-0.01884787157177925,0.01565597765147686,-0.0006749816820956767,0.025460904464125633
0.031689420342445374,0.005392936058342457,-0.018462153151631355,0.01606469415128231,-0.0006231876322999597,0.026319470256567
0.03205551952123642,0.004942344035953283,-0.01889663375914097,0.015428740531206131,-0.00060227420181036,0.02598431520164013
0.032118044793605804,0.004525707568973303,-0.01909909024834633,0.015966925770044327,-0.0005841219681315124,0.025725172832608223
0.03192490339279175,0.004397539887577295,-0.019061652943491936,0.015733759850263596,-0.0006117813172750175,0.026012450456619263
0.03207191452383995,0.004598943516612053,-0.019346561282873154,0.01611344702541828,-0.0006215668981894851,0.02603507786989212
0.0321117639541626,0.0046966057270765305,-0.019472604617476463,0.015955064445734024,-0.0005892374319955707,0.026189856231212616
0.03232906013727188,0.004686275497078896,-0.01885814033448696,0.015976056456565857,-0.0006186347454786301,0.026062799617648125
0.03194407373666763,0.005192469339817762,-0.01912955939769745,0.016004489734768867,-0.0006649335846304893,0.025818506255745888
0.0321798101067543,0.004923322703689337,-0.019192000851035118,0.01576177030801773,-0.0006537556182593107,0.02575175277888775
0.0325751006603241,0.004747378174215555,-0.018542537465691566,0.015937834978103638,-0.0006324826390482485,0.02605324052274227
0.031712692230939865,0.004961227532476187,-0.01934378780424595,0.015414014458656311,-0.0006484391051344573,0.026085853576660156
0.03298867493867874,0.005027985665947199,-0.019932348281145096,0.015843693166971207,-0.0007567335851490498,0.025905288755893707
0.03301362320780754,0.004816045984625816,-0.019730543717741966,0.015795761719346046,-0.000823132402729243,0.02617614157497883
0.03285704180598259,0.005406648851931095,-0.01972067914903164,0.016142286360263824,-0.0008280674228444695,0.026138339191675186
0.03267495334148407,0.005157841369509697,-0.019878527149558067,0.016366511583328247,-0.0008362216176465154,0.025982223451137543
0.033090878278017044,0.004860724322497845,-0.01908855140209198,0.016664806753396988,-0.0009339867974631488,0.026226457208395004
0.03306207433342934,0.005120428279042244,-0.019684981554746628,0.015937965363264084,-0.0010364481713622808,0.0266768429428339
0.0336112380027771,0.004726138431578875,-0.019757278263568878,0.016000118106603622,-0.0009649534476920962,0.027495048940181732
0.033550724387168884,0.00495188357308507,-0.019860725849866867,0.01572808250784874,-0.0009842906147241592,0.027719710022211075
0.03391223028302193,0.005228562746196985,-0.019840795546770096,0.0166708305478096,-0.0009704165859147906,0.026920124888420105
0.033498745411634445,0.00473812036216259,-0.019653474912047386,0.01657078228890896,-0.0009411062346771359,0.026109907776117325
0.03365691006183624,0.005000503733754158,-0.019636478275060654,0.016800882294774055,-0.0008463467238470912,0.02649259753525257
0.03385666757822037,0.005381906405091286,-0.02093915455043316,0.0170228723436594,-0.0008394684991799295,0.027400191873311996
0.03363432735204697,0.004996756557375193,-0.020717168226838112,0.0166005939245224,-0.0007713304366916418,0.02696850709617138
0.03382474184036255,0.004999173805117607,-0.019499873742461205,0.016490230336785316,-0.0006791554042138159,0.026775699108839035
0.034855157136917114,0.005218620412051678,-0.020882299169898033,0.016252921894192696,-0.0006926056812517345,0.02800573781132698
0.03466441482305527,0.004704831633716822,-0.020428871735930443,0.016952229663729668,-0.0006259704241529107,0.027503805235028267
0.03262469917535782,0.0050627486780285835,-0.019278010353446007,0.01646130345761776,-0.0005616602720692754,0.025690792128443718
0.03416305035352707,0.005441085901111364,-0.01965521275997162,0.016425736248493195,-0.0005496093654073775,0.02651374414563179
0.03464622423052788,0.00507867056876421,-0.020900128409266472,0.016871945932507515,-0.0005394971230998635,0.02760876715183258
0.03464622423052788,0.00507867056876421,-0.020900128409266472,0.016871945932507515,-0.0005394971230998635,0.02760876715183258
0.03553992137312889,0.005144260823726654,-0.02019878476858139,0.01669137366116047,-0.000494672916829586,0.027692383155226707
0.03553992137312889,0.005144260823726654,-0.02019878476858139,0.01669137366116047,-0.000494672916829586,0.027692383155226707
0.03438335284590721,0.0048330435529351234,-0.020445097237825394,0.016673583537340164,-0.0004903086228296161,0.027211731299757957
0.0342981182038784,0.004926126915961504,-0.02033325657248497,0.017051493749022484,-0.00046083246706984937,0.027517380192875862
0.03419186919927597,0.004854271188378334,-0.02005651593208313,0.01693764701485634,-0.00043321726843714714,0.027625249698758125
0.03538064286112785,0.004699959419667721,-0.02028517611324787,0.016790885478258133,-0.00038009416311979294,0.027744892984628677
0.03423604741692543,0.0051604085601866245,-0.02086610160768032,0.017263229936361313,-0.00034774173400364816,0.02762218751013279
0.03540809080004692,0.005082514137029648,-0.02085457369685173,0.017419543117284775,-0.00037830538349226117,0.02790890634059906
0.03583267703652382,0.004813953768461943,-0.019958266988396645,0.01749548316001892,-0.0003606160753406584,0.02822086215019226
0.03510647639632225,0.004763856530189514,-0.020383423194289207,0.01692376658320427,-0.000380033248802647,0.028110995888710022
0.03480298072099686,0.0050521474331617355,-0.02070772834122181,0.016619617119431496,-0.00039651893894188106,0.028056884184479713
0.03566587716341019,0.004998271819204092,-0.02017172798514366,0.017025083303451538,-0.00040008113137446344,0.028187785297632217
0.035373274236917496,0.004894335754215717,-0.020492851734161377,0.016254903748631477,-0.0005710901459679008,0.02791764959692955
0.035314418375492096,0.005238449666649103,-0.02098272554576397,0.016617614775896072,-0.0006161830388009548,0.028310760855674744
0.03565521165728569,0.0045281825587153435,-0.020645584911108017,0.016428787261247635,-0.000627715780865401,0.028212780132889748
0.03577280417084694,0.0038277176208794117,-0.020540911704301834,0.018345188349485397,-0.0005976121756248176,0.02852262370288372
0.035543300211429596,0.00396247673779726,-0.0207333043217659,0.01821020618081093,-0.0005680560134351254,0.028548726812005043
0.036960188299417496,0.0039809695445001125,-0.019941512495279312,0.01855154149234295,-0.0005866567953489721,0.028536884114146233
0.03604230657219887,0.004403717815876007,-0.020653339102864265,0.018690314143896103,-0.0005717461463063955,0.028483137488365173
0.03499997779726982,0.004069100599735975,-0.020884981378912926,0.018467852845788002,-0.0006053632241673768,0.028606196865439415
0.03642399236559868,0.0037380591966211796,-0.02043435536324978,0.01826649345457554,-0.0006171163404360414,0.029263868927955627
0.03600364923477173,0.0037491219118237495,-0.02010534517467022,0.01787281222641468,-0.0006213495507836342,0.029437240213155746
0.03651069849729538,0.003804159117862582,-0.020507974550127983,0.017928894609212875,-0.0006067107897251844,0.02923959493637085
0.03707998991012573,0.0036089743953198195,-0.02050958201289177,0.018003366887569427,-0.0006873974925838411,0.02797965332865715
0.03738784417510033,0.0035752293188124895,-0.01985926181077957,0.017348559573292732,-0.000727531616576016,0.02792334370315075
0.03502935543656349,0.0036498408298939466,-0.02021113783121109,0.017549380660057068,-0.0007218489772640169,0.028918016701936722
0.03502935543656349,0.0036498408298939466,-0.02021113783121109,0.017549380660057068,-0.0007218489772640169,0.028918016701936722
0.037486519664525986,0.0037970661651343107,-0.020229950547218323,0.017673401162028313,-0.0007094925385899842,0.028491610661149025
0.037486519664525986,0.0037970661651343107,-0.020229950547218323,0.017673401162028313,-0.0007094925385899842,0.028491610661149025
0.03669629618525505,0.003460515523329377,-0.020059796050190926,0.017882822081446648,-0.000653452065307647,0.0298600010573864
0.03696037083864212,0.003556680865585804,-0.020614396780729294,0.01744149625301361,-0.0006937873549759388,0.028985129669308662
0.03665215149521828,0.0038653211668133736,-0.020456938073039055,0.017533782869577408,-0.0006975674768909812,0.02858080342411995
0.037446457892656326,0.0035176461096853018,-0.020118314772844315,0.01794811710715294,-0.0006934333359822631,0.02840198390185833
0.036834925413131714,0.003605114296078682,-0.020600171759724617,0.017646629363298416,-0.0007136617787182331,0.029134372249245644
0.03653788939118385,0.003751884214580059,-0.02100968174636364,0.018006980419158936,-0.0006897904095239937,0.030177172273397446
0.037109050899744034,0.0038483277894556522,-0.02099178358912468,0.017623107880353928,-0.0007476875325664878,0.029982564970850945
0.03719281032681465,0.00428454764187336,-0.020942743867635727,0.017724722623825073,-0.0007717839325778186,0.029317336156964302
0.03777299076318741,0.004145908635109663,-0.021182121708989143,0.01828760653734207,-0.0006896285922266543,0.029535697773098946
0.037640031427145004,0.0035089561715722084,-0.02117185853421688,0.01788501627743244,-0.0007069109124131501,0.029105274006724358
0.03732123225927353,0.0035670457873493433,-0.0201981570571661,0.01779847964644432,-0.0007199600804597139,0.0287639033049345
0.03741670399904251,0.003829613095149398,-0.02050074003636837,0.017814474180340767,-0.000753311556763947,0.029463522136211395
0.03664511442184448,0.0039837295189499855,-0.02121707983314991,0.017464343458414078,-0.0008003269322216511,0.03010348603129387
0.03844229504466057,0.0035022355150431395,-0.021186111494898796,0.017978565767407417,-0.0008069298346526921,0.029776891693472862
0.03822711855173111,0.003620619187131524,-0.020256154239177704,0.01802094839513302,-0.0007278690463863313,0.029891718178987503
0.0371563546359539,0.003771585412323475,-0.021054035052657127,0.018348155543208122,-0.0007213830831460655,0.029987677931785583
0.037961214780807495,0.00420829514041543,-0.020967688411474228,0.018015030771493912,-0.0007660678820684552,0.030147386714816093
0.03780544921755791,0.003567714476957917,-0.02062270976603031,0.01812596432864666,-0.0007879039039835334,0.03010644018650055
0.03816613927483559,0.0035583365242928267,-0.021419581025838852,0.01824244111776352,-0.0008016777574084699,0.02993035316467285
0.03817349299788475,0.0036826464347541332,-0.02052849903702736,0.01823609136044979,-0.0007660449482500553,0.03013925813138485
0.0378350205719471,0.004127078223973513,-0.020294656977057457,0.018362466245889664,-0.0008470930042676628,0.030092956498265266
0.03765524923801422,0.004277728497982025,-0.020374050363898277,0.01811114139854908,-0.0007586482097394764,0.030148416757583618
0.03765524923801422,0.004277728497982025,-0.020374050363898277,0.01811114139854908,-0.0007586482097394764,0.030148416757583618
0.03784244880080223,0.004044358152896166,-0.021477079018950462,0.017818162217736244,-0.0007724838797003031,0.03018178604543209
0.03880232572555542,0.004329352639615536,-0.020964227616786957,0.018000587821006775,-0.0007371495012193918,0.02991066873073578
0.03804519772529602,0.004126576706767082,-0.020690759643912315,0.017785100266337395,-0.000703628989867866,0.030235949903726578
0.03689594194293022,0.003960750997066498,-0.020670322701334953,0.018255213275551796,-0.0007139000808820128,0.029909484088420868
0.037944063544273376,0.0038920887745916843,-0.021190349012613297,0.018469376489520073,-0.0006619886844418943,0.03072776272892952
0.03805399313569069,0.004010461736470461,-0.020716294646263123,0.017746122553944588,-0.000600097409915179,0.03059213235974312
0.03928662836551666,0.004048478323966265,-0.020630156621336937,0.017831310629844666,-0.0006292443722486496,0.03131509944796562
0.03923393785953522,0.004557679407298565,-0.020928019657731056,0.017951657995581627,-0.0006387013709172606,0.03162462264299393
0.0375855453312397,0.004203693009912968,-0.021134110167622566,0.018392225727438927,-0.0006409945199266076,0.0305339228361845
0.0371391624212265,0.004290569107979536,-0.020817121490836143,0.019622130319476128,-0.0006301638204604387,0.02976483665406704
0.0391828715801239,0.004225891549140215,-0.020840272307395935,0.019162608310580254,-0.0008659262675791979,0.030120419338345528
0.03890727460384369,0.004423611797392368,-0.02110230177640915,0.018725169822573662,-0.0008837986388243735,0.031449493020772934
0.03860840946435928,0.004390456713736057,-0.02088804356753826,0.018712470307946205,-0.0008581025758758187,0.031166067346930504
0.03888315707445145,0.004400487057864666,-0.02107178419828415,0.01824445091187954,-0.0008121488499455154,0.032340001314878464
0.03888315334916115,0.004700221586972475,-0.02118518017232418,0.018593892455101013,-0.0007367855287156999,0.032131318002939224
0.03904477134346962,0.004797144327312708,-0.021292049437761307,0.01857522502541542,-0.0007458186591975391,0.031436480581760406
0.038590800017118454,0.004772435873746872,-0.020700842142105103,0.018171988427639008,-0.0007408881210722029,0.03037841059267521
0.038905706256628036,0.004321245476603508,-0.02107786014676094,0.01805318519473076,-0.0007591986795887351,0.030403977259993553
0.03856096789240837,0.00457632914185524,-0.02086341753602028,0.018791191279888153,-0.0007197769009508193,0.0321459099650383
0.040150485932826996,0.005014258902519941,-0.02044655755162239,0.019658289849758148,-0.0007487607072107494,0.031708650290966034
0.03992057219147682,0.00456045800819993,-0.02084539830684662,0.019311806187033653,-0.0007693226216360927,0.03163604438304901
0.03793792799115181,0.004280453082174063,-0.020977409556508064,0.018330536782741547,-0.0007859065663069487,0.03153165057301521
0.039410434663295746,0.0039747850969433784,-0.020900283008813858,0.018895292654633522,-0.0007988194120116532,0.031920839101076126
0.03917308151721954,0.003867408959195018,-0.021791769191622734,0.018935400992631912,-0.0008903382113203406,0.03205164894461632
0.039579782634973526,0.00440837349742651,-0.02180018275976181,0.018962400034070015,-0.0010157041251659393,0.031945161521434784
0.040244244039058685,0.0047014132142066956,-0.02191573940217495,0.019385075196623802,-0.0010404674103483558,0.031680766493082047
0.03865722566843033,0.0044115385971963406,-0.021573148667812347,0.019694967195391655,-0.0014059103559702635,0.031923942267894745
0.03821953386068344,0.004534733947366476,-0.021699311211705208,0.019257638603448868,-0.0013972254237160087,0.032060086727142334
0.03821953386068344,0.004534733947366476,-0.021699311211705208,0.019257638603448868,-0.0013972254237160087,0.032060086727142334
0.04005979746580124,0.004247651901096106,-0.021793289110064507,0.019513865932822227,-0.0013326496118679643,0.032258886843919754
0.03991458937525749,0.004054221324622631,-0.02232515439391136,0.01929076388478279,-0.0012455747928470373,0.032031282782554626
0.04021034762263298,0.003940833732485771,-0.022568458691239357,0.019121231511235237,-0.001180059276521206,0.032985348254442215
0.039606839418411255,0.00423145666718483,-0.022138817235827446,0.019578387960791588,-0.001096409629099071,0.03244509920477867
0.04009966179728508,0.004590773954987526,-0.022319475188851357,0.019121816381812096,-0.0010296052787452936,0.032626330852508545
0.04058089107275009,0.004589811433106661,-0.022307800129055977,0.019110867753624916,-0.0009528605150990188,0.03278806805610657
0.04066159576177597,0.0043571218848228455,-0.021973777562379837,0.01951664127409458,-0.0007986533455550671,0.03314995765686035
0.04047515615820885,0.004463916178792715,-0.022067207843065262,0.019329195842146873,-0.0007928507984615862,0.03276590257883072
0.04022262245416641,0.00434928759932518,-0.022750940173864365,0.018922317773103714,-0.00079014350194484,0.032738108187913895
0.04092007502913475,0.004278041422367096,-0.022085197269916534,0.019666749984025955,-0.0008018011576496065,0.034328725188970566
0.041212983429431915,0.004395048134028912,-0.02232925407588482,0.01954827457666397,-0.0008467298466712236,0.03417907655239105
0.0406966507434845,0.004571395460516214,-0.0228390134871006,0.019010664895176888,-0.0008025235147215426,0.032431796193122864
0.04166657477617264,0.0047407918609678745,-0.023006148636341095,0.01938421092927456,-0.0008136302349157631,0.03204954415559769
