davideferrari95/blind_handover_controller/data/Test 142 - [2024-02-07 -- 17-25-34]/joint_states_data.csv
shoulder_pan_joint,shoulder_lift_joint,elbow_joint,wrist_1_joint,wrist_2_joint,wrist_3_joint
-0.004862549714744091,-0.003673452651128173,0.005301886238157749,-0.0012482758611440659,0.0,-0.003684727242216468
-0.004801930859684944,-0.003706976305693388,0.005209070164710283,-0.0012299930676817894,0.0,-0.004134198650717735
-0.004801930859684944,-0.003706976305693388,0.005209070164710283,-0.0012299930676817894,0.0,-0.004134198650717735
-0.004856758750975132,-0.003662496106699109,0.004701675847172737,-0.0015528163639828563,0.0,-0.004219891503453255
-0.004322152119129896,-0.003616765607148409,0.004832647740840912,-0.0014553393702954054,0.0,-0.00403271708637476
-0.004216276109218597,-0.003540514037013054,0.004750365857034922,-0.0014410715084522963,0.0,-0.0039164163172245026
-0.00467381626367569,-0.003405850613489747,0.004699970595538616,-0.0014842427335679531,0.0,-0.0040509761311113834
-0.004784780088812113,-0.003376060165464878,0.0046833879314363,-0.0014350924175232649,0.0,-0.003629484446719289
-0.004381745122373104,-0.003170889802277088,0.004917167592793703,-0.0015580335166305304,0.0,-0.0036015489604324102
-0.004430544096976519,-0.0035198223777115345,0.0047727650962769985,-0.001517872093245387,0.0,-0.0037591434083878994
-0.004163626581430435,-0.003990240395069122,0.004370285198092461,-0.0015241013607010245,0.0,-0.0039045847952365875
-0.00338188954629004,-0.0042288638651371,0.003980343695729971,-0.0013576846104115248,0.0,-0.004120491445064545
-0.0034497519955039024,-0.00402238592505455,0.004310915246605873,-0.0011667554499581456,0.0,-0.004102600272744894
-0.003863266436383128,-0.003939751069992781,0.00413145637139678,-0.0009641954093240201,0.0,-0.004414148163050413
-0.004005732014775276,-0.0036219009198248386,0.004313414450734854,-0.0008825928089208901,0.0,-0.004193542525172234
-0.0038956953212618828,-0.0035746332723647356,0.004506563302129507,-0.0008237588335759938,0.0,-0.003927998710423708
-0.0037587739061564207,-0.0037492525298148394,0.004137651529163122,-0.0007316190749406815,0.0,-0.004067372065037489
-0.003675451735034585,-0.004018771927803755,0.004349362570792437,-0.000724001438356936,0.0,-0.004232569132000208
-0.0037603690288960934,-0.004371295683085918,0.00433696573600173,-0.0006769094616174698,0.0,-0.004457899834960699
-0.0033556700218468904,-0.004418719094246626,0.004061802756041288,-0.0006199406343512237,0.0,-0.004083399195224047
-0.0034797480329871178,-0.004000178538262844,0.003850318491458893,-0.0005708343232981861,8.723617952455243e-07,-0.003878287272527814
-0.0037162424996495247,-0.003784453496336937,0.004269545432180166,-0.0005288925603963435,5.695899574220675e-08,-0.004020932130515575
-0.0037483531050384045,-0.004340429790318012,0.004206715617328882,-0.0004926740075461566,3.7190155399713376e-09,-0.003941624891012907
-0.003667490091174841,-0.00462022889405489,0.003534510964527726,-0.00046110720722936094,2.4282514887730144e-10,-0.0037782934959977865
-0.003300617914646864,-0.004567209165543318,0.0042145452462136745,-0.00030025714659132063,1.035201655300022e-12,-0.0038427209947258234
-0.003300617914646864,-0.004567209165543318,0.0042145452462136745,-0.00030025714659132063,1.035201655300022e-12,-0.0038427209947258234
-0.003186712274327874,-0.004536536987870932,0.0037495174910873175,-0.00026338885072618723,4.4132271554103535e-15,-0.003785837907344103
-0.003186712274327874,-0.004536536987870932,0.0037495174910873175,-0.00026338885072618723,4.4132271554103535e-15,-0.003785837907344103
-0.003454438643530011,-0.004873845260590315,0.0034969323314726353,-0.0002488122845534235,2.8815221773577924e-16,-0.00375224812887609
-0.0033002053387463093,-0.004559771623462439,0.0037046128418296576,-0.00023577094543725252,1.8814280935161493e-17,-0.0036248075775802135
-0.0035607514437288046,-0.004476381465792656,0.004068601410835981,-0.00022403024195227772,1.2284382762818353e-18,-0.0035486898850649595
-0.0036452445201575756,-0.004710065666586161,0.004097003024071455,-0.00021340246894396842,8.020823371810349e-20,-0.0036478694528341293
-0.0037366310134530067,-0.004883571062237024,0.0039334348402917385,-0.00020373883307911456,-0.0002636208082549274,-0.004078270867466927
-0.0037677595391869545,-0.005695793777704239,0.0037578875198960304,-0.00019491139391902834,-0.00032224151073023677,-0.004140435252338648
-0.0033657581079751253,-0.005369335878640413,0.003641058225184679,-0.00018681825895328075,-0.00036231864942237735,-0.003770985873416066
-0.0035569975152611732,-0.004608859308063984,0.00361443217843771,-0.00017937009397428483,-0.0003433175152167678,-0.0035994541831314564
-0.0033099206630140543,-0.004217841196805239,0.0036227030213922262,-0.0001724932953948155,-0.0003626930702012032,-0.0037551005370914936
-0.0031968853436410427,-0.005090529564768076,0.0036970116198062897,-0.0001661247806623578,-0.00035468576243147254,-0.0038591637276113033
-0.003173197153955698,-0.005192799028009176,0.0043397811241447926,-0.00016020957264117897,-0.00037200431688688695,-0.003821522928774357
-0.0035811346024274826,-0.005448189098387957,0.004198830109089613,-0.00015470127982553095,-0.00036434593494050205,-0.0037634153850376606
-0.003565911902114749,-0.005691091530025005,0.003942747134715319,-0.00014955938968341798,-0.00034748681355267763,-0.0038027928676456213
-0.003504806896671653,-0.004869550466537476,0.0038794015999883413,-0.00014474774070549756,-0.000441076816059649,-0.0037787980400025845
-0.0032131962943822145,-0.004332116339355707,0.00390809727832675,-0.00014023661788087338,-0.00043498509330675006,-0.003642889205366373
-0.0030762755777686834,-0.004959790967404842,0.003999549429863691,-0.00013599808153230697,-0.00047288319910876453,-0.003525098320096731
-0.00311298412270844,-0.005023095291107893,0.0040364922024309635,-0.00013200822286307812,-0.0004393724666442722,-0.0036014935467392206
-0.003273632377386093,-0.004894368816167116,0.0040374998934566975,-0.00012824581062886864,-0.0004563615657389164,-0.003672595601528883
-0.003378132591024041,-0.005369414575397968,0.003941168077290058,-0.00012469213106669486,-0.00047055742470547557,-0.0037282209377735853
-0.003173728007823229,-0.005099612288177013,0.00389387016184628,-0.00012132983829360455,-0.00046895453124307096,-0.0037770159542560577
-0.0030725421383976936,-0.004524740390479565,0.003860201220959425,-0.00011814416939159855,-0.0005190775846131146,-0.004293221514672041
-0.003242506179958582,-0.004940706305205822,0.004315673839300871,-0.00011224990885239094,-0.000526429561432451,-0.004229503683745861
-0.003242506179958582,-0.004940706305205822,0.004315673839300871,-0.00011224990885239094,-0.000526429561432451,-0.004229503683745861
-0.003363420255482197,-0.004922280088067055,0.004183657001703978,-0.0001095180050469935,-0.0005177413113415241,-0.004217224661260843
-0.0032755467109382153,-0.0047799283638596535,0.00369204836897552,-0.00010691594070522115,-0.00047491065924987197,-0.0040548802353441715
-0.0030632182024419308,-0.004593471996486187,0.0035381270572543144,-0.0001044345335685648,-0.0004900451749563217,-0.0038979630917310715
-0.003377425018697977,-0.004544730298221111,0.004043227527290583,-0.00010206570732407272,-0.00047003396321088076,-0.0038627057801932096
-0.0032343193888664246,-0.004701764788478613,0.004273357335478067,-9.98020768747665e-05,-0.0004924913519062102,-0.0034376655239611864
-0.003086224664002657,-0.004533926956355572,0.004469072446227074,-9.763668640516698e-05,-0.0004679223638959229,-0.00356653262861073
-0.003123044967651367,-0.004411198198795319,0.0043361312709748745,-9.556324948789552e-05,-0.00048509653424844146,-0.004013660363852978
-0.003308924613520503,-0.004438305273652077,0.00352641474455595,-9.35759162530303e-05,-0.0005221795290708542,-0.004190739244222641
-0.003369014710187912,-0.004560527391731739,0.0035615372471511364,-9.166976815322414e-05,-0.0005252794944681227,-0.004060863051563501
-0.0035113743506371975,-0.004701156169176102,0.0038355167489498854,-8.983958105091006e-05,-0.0005542875733226538,-0.0038787515368312597
-0.0032265877816826105,-0.004259096924215555,0.004043680615723133,-8.808096026768908e-05,-0.0007451378623954952,-0.0034537664614617825
-0.003170456737279892,-0.00396790960803628,0.004083910025656223,-8.639010047772899e-05,-0.0009174075676128268,-0.0034972764551639557
-0.0033234073780477047,-0.004010478500276804,0.003999397158622742,-8.476285438518971e-05,-0.0009426574688404799,-0.003686979878693819
-0.003056173911318183,-0.004018248524516821,0.003399995854124427,-8.319578046211973e-05,-0.0009232175070792437,-0.004189290571957827
-0.0031718392856419086,-0.0039626057259738445,0.0034862731117755175,-8.168556814780459e-05,-0.0008500144467689097,-0.004333146382123232
-0.003304071957245469,-0.004358785692602396,0.0036770482547581196,-8.02291979198344e-05,-0.0009668418788351119,-0.003987217787653208
-0.0031757543329149485,-0.004093141760677099,0.003905144752934575,-7.882387581048533e-05,-0.0008923191344365478,-0.003772696712985635
-0.0034692566841840744,-0.003848659573122859,0.003487218404188752,-7.746700430288911e-05,-0.0008801879594102502,-0.003707414260134101
-0.0037665236741304398,-0.004374745301902294,0.003493937896564603,-7.615592767251655e-05,-0.0008817664929665625,-0.0036816163919866085
-0.0034042566549032927,-0.004124363884329796,0.0035808351822197437,-7.488861592719331e-05,-0.0008951039053499699,-0.0036410389002412558
-0.003553805872797966,-0.003951990976929665,0.004216606263071299,-7.366271165665239e-05,-0.0009053625399246812,-0.0036847267765551805
-0.0031522458884865046,-0.004357527010142803,0.004161892458796501,-7.247633766382933e-05,-0.0009672114974819124,-0.0038372520357370377
-0.003345317207276821,-0.0046292198821902275,0.003835314651951194,-7.021457713562995e-05,-0.00106015894562006,-0.0033694684971123934
-0.003571120323613286,-0.004178257193416357,0.0034340377897024155,-6.913590914336964e-05,-0.0010818613227456808,-0.003353239968419075
-0.003571120323613286,-0.004178257193416357,0.0034340377897024155,-6.913590914336964e-05,-0.0010818613227456808,-0.003353239968419075
-0.0033500809222459793,-0.004426152911037207,0.0034388334024697542,-6.138181925052777e-05,-0.0010754793183878064,-0.0035053722094744444
-0.0035724749322980642,-0.004341572988778353,0.0041808150708675385,-5.4111089411890134e-05,-0.001120327040553093,-0.0031465315259993076
-0.0033332551829516888,-0.004539933055639267,0.004047424532473087,-5.290135231916793e-05,-0.0010948171839118004,-0.003205380868166685
-0.003507900284603238,-0.004177786409854889,0.0038826274685561657,-5.210853851167485e-05,-0.00092087168013677,-0.003184913657605648
-0.0031178942881524563,-0.004297190811485052,0.003920755349099636,-5.136330219102092e-05,-0.0009081658790819347,-0.0034637451171875
-0.003089429112151265,-0.004177150782197714,0.0034806670155376196,-5.0640664994716644e-05,-0.0008985825115814805,-0.003979827277362347
-0.0033625224605202675,-0.004297804553061724,0.0034939032047986984,-4.9938222218770534e-05,-0.0008109824266284704,-0.004191357176750898
-0.0037138969637453556,-0.004624752793461084,0.0035869355779141188,-4.9254977056989446e-05,-0.0007028518011793494,-0.003958273679018021
-0.0033873242791742086,-0.004614593926817179,0.004187814891338348,-4.8590220103506e-05,-0.0005891997716389596,-0.0035042178351432085
-0.003113085636869073,-0.004378720186650753,0.004137929063290358,-4.7943085519364104e-05,-0.0005693798302672803,-0.0033131283707916737
-0.003343854798004031,-0.004279990680515766,0.004014916718006134,-3.85271487175487e-05,-0.0005552201764658093,-0.00304839457385242
-0.003692934988066554,-0.00432432210072875,0.0035604676231741905,-3.522312908899039e-05,-0.0005060523399151862,-0.003215939039364457
-0.0032790591940283775,-0.004371878691017628,0.004079337231814861,-3.4588927519507706e-05,-0.00046282217954285443,-0.003328448859974742
-0.003275234019383788,-0.004385627340525389,0.004146913532167673,-3.413963349885307e-05,-0.00042626369395293295,-0.003481332678347826
-0.0033304758835583925,-0.004660354927182198,0.003633122658357024,-3.371261482243426e-05,-0.000456258247140795,-0.003759168554097414
-0.0031897802837193012,-0.004486453253775835,0.0033083476591855288,1.1298164281470235e-05,-0.0004291549266781658,-0.0034791131038218737
-0.003180235857143998,-0.004396603908389807,0.0032518033403903246,2.534984923840966e-05,-0.00040201525553129613,-0.00343335815705359
-0.003273140173405409,-0.004548451863229275,0.0034739228431135416,2.591246993688401e-05,-0.0003779047983698547,-0.003641195595264435
-0.0032087659928947687,-0.004672421608120203,0.003616870613768697,2.5604478651075624e-05,-0.0003565106599126011,-0.0034165203105658293
-0.0032208040356636047,-0.004414943978190422,0.0036411171313375235,3.622596705099568e-05,-0.00033740964136086404,-0.0034559769555926323
-0.0033257673494517803,-0.00450793607160449,0.0036467367317527533,3.724278576555662e-05,-0.0003425733302719891,-0.0032455746550112963
-0.003384106792509556,-0.004570604767650366,0.003743445500731468,4.751136293634772e-05,-0.0003467620408628136,-0.003186071291565895
-0.0031694816425442696,-0.004651662893593311,0.003415243700146675,4.835473737330176e-05,-0.0003321161202620715,-0.0032157485838979483
-0.003052238840609789,-0.004629664588719606,0.00360213709063828,5.897236769669689e-05,-0.0003175530000589788,-0.0031445554923266172
-0.003052238840609789,-0.004629664588719606,0.00360213709063828,5.897236769669689e-05,-0.0003175530000589788,-0.0031445554923266172
-0.00365762272849679,-0.004350403323769569,0.0034774192608892918,0.0004922704538330436,-0.00029181301943026483,-0.0033552339300513268
-0.0033036628738045692,-0.004173998720943928,0.003667597658932209,0.000474925443995744,-0.00028044433565810323,-0.0036281978245824575
-0.003214063821360469,-0.004011292476207018,0.0032773837447166443,0.000501055212225765,-0.00026992877246811986,-0.004210606217384338
-0.003394841914996505,-0.004392672795802355,0.0035629987251013517,0.0005013032932765782,-0.00020602511358447373,-0.003290006658062339
-0.003394841914996505,-0.004392672795802355,0.0035629987251013517,0.0005013032932765782,-0.00020602511358447373,-0.003290006658062339
-0.003646156983450055,-0.004114367999136448,0.003560026176273823,0.0006885802140459418,-0.00019431347027420998,-0.0029438845813274384
-0.003334962297230959,-0.003856976982206106,0.003423765068873763,0.0007257002871483564,-0.00018609207472763956,-0.0029412643052637577
-0.00305985938757658,-0.004246278665959835,0.0031795725226402283,0.0007471259450539947,-0.00017868926806841046,-0.0032600348349660635
-0.0027815846260637045,-0.005081875715404749,0.003271393943578005,0.0007570024463348091,-0.00017186274635605514,-0.003983774222433567
-0.0028757520485669374,-0.004094169940799475,0.003647215198725462,0.0008022572728805244,-0.00016553921159356833,-0.00418522022664547
-0.0033576181158423424,-0.0033392151817679405,0.0037778285332024097,0.0008433688199147582,-0.0001596648507984355,-0.004032857716083527
-0.0032728086225688457,-0.004024507477879524,0.00341106322593987,0.0008535203523933887,-0.00015419327246490866,-0.0034827766939997673
-0.003127890173345804,-0.004565533250570297,0.0033296558540314436,0.0008597230771556497,-0.00014908421144355088,-0.0031259532552212477
-0.0030020885169506073,-0.004620494786649942,0.0030837026424705982,0.0008221919415518641,-0.00014430301962420344,-0.0029466182459145784
-0.003019507508724928,-0.004309502430260181,0.0032916332129389048,0.0009886018233373761,-0.0001535350747872144,-0.0029123732820153236
-0.0031276033259928226,-0.004049431066960096,0.003548986744135618,0.0010037582833319902,-0.0001617956586414948,-0.0031707461457699537
-0.003166498616337776,-0.0038648017216473818,0.0035267749335616827,0.0012282949173823,-0.00015790465113241225,-0.0032048423308879137
-0.0033091800287365913,-0.004373934585601091,0.0033415432553738356,0.0014635490952059627,-0.0001534715702291578,-0.00321654393337667
-0.0031495580915361643,-0.0045512341894209385,0.003073051106184721,0.001439938903786242,-0.00014923348498996347,-0.003247839165851474
-0.002933189505711198,-0.0046599567867815495,0.003386632539331913,0.0015255431644618511,-0.00014522009587381035,-0.0030151421669870615
-0.0029741977341473103,-0.004186735022813082,0.003730176016688347,0.0014611022779718041,-0.0001414168073097244,-0.0032210838980972767
-0.0032652460504323244,-0.0038972662296146154,0.003382771508768201,0.0014209384098649025,-0.00013780768495053053,-0.0033671052660793066
-0.003242283361032605,-0.0043707555159926414,0.0035094753839075565,0.0015560556203126907,-0.00013437804591376334,-0.003513653064146638
-0.003261955687776208,-0.004457125440239906,0.0032116216607391834,0.0016832976834848523,-0.00012800697004422545,-0.0030369244050234556
-0.0028218210209161043,-0.0044638291001319885,0.0031933565624058247,0.0016627134755253792,-0.00012504261394497007,-0.0027654836885631084
-0.0026771887205541134,-0.004399011842906475,0.0032255647238343954,0.0015446868492290378,-0.00012221248471178114,-0.0029080170206725597
-0.0030790898017585278,-0.004359996411949396,0.0034070140682160854,0.0015723418910056353,-0.00011950780753977597,-0.0030575471464544535
-0.003157335100695491,-0.004411856643855572,0.003671372076496482,0.0014888219302520156,-0.00011692006228258833,-0.0033542171586304903
-0.0030483503360301256,-0.0043018171563744545,0.00335693359375,0.0014983240980654955,-0.00011444210394984111,-0.0032159697730094194
-0.0030483503360301256,-0.0043018171563744545,0.00335693359375,0.0014983240980654955,-0.00011444210394984111,-0.0032159697730094194
-0.0029969869647175074,-0.004359048791229725,0.0035832501016557217,0.0014621107839047909,-0.00011206704220967367,-0.003106563352048397
-0.0028443874325603247,-0.004351941868662834,0.0031966178212314844,0.0015209312550723553,-0.00010978846694342792,-0.002990333829075098
-0.002959348727017641,-0.004493912681937218,0.0032884336542338133,0.0016003920463845134,-0.00010760073200799525,-0.0027759638614952564
-0.002732720924541354,-0.004555624444037676,0.003338363254442811,0.0015621299389749765,-0.00010549860598985106,-0.0025345718022435904
-0.0027104674372822046,-0.004603280685842037,0.0035167380701750517,0.0016942955553531647,-0.00010347687202738598,-0.0025723520666360855
-0.00328594958409667,-0.00411599176004529,0.0033148895017802715,0.0016939801862463355,-0.00010153129551326856,-0.002686531748622656
-0.0032356425654143095,-0.003844132414087653,0.003615880385041237,0.0015299370279535651,-9.965747449314222e-05,-0.0027999402955174446
-0.003073782427236438,-0.0037391851656138897,0.003349853679537773,0.0015180639456957579,-9.785160364117473e-05,-0.0027575131971389055
-0.0029324693605303764,-0.0043022166937589645,0.0035111475735902786,0.001445445348508656,-9.610997949494049e-05,-0.002795926993712783
-0.002804329851642251,-0.004086424130946398,0.0031041589099913836,0.0013131953310221434,-9.442930604564026e-05,-0.002600990002974868
-0.0027679074555635452,-0.004110419657081366,0.003103017108514905,0.0013941889628767967,-9.280638914788142e-05,-0.0026497403159737587
-0.0027809625025838614,-0.004020377062261105,0.0033657727763056755,0.001575292320922017,-9.123834024649113e-05,-0.0028265074361115694
-0.0029458252247422934,-0.003871736815199256,0.0032478217035531998,0.0019520812202244997,-8.972237992566079e-05,-0.003112734528258443
-0.0031892075203359127,-0.0037057260051369667,0.0030422115232795477,0.002153285313397646,-8.825599798001349e-05,-0.003089447971433401
-0.00287656974978745,-0.0036584450863301754,0.002903558313846588,0.0022192848846316338,-8.683672058396041e-05,-0.0027080627623945475
-0.0029963559936732054,-0.0041911425068974495,0.002895642537623644,0.0021002013236284256,-8.546237950213253e-05,-0.002659589285030961
-0.003021714510396123,-0.004135811235755682,0.0031441242899745703,0.0018186902161687613,-8.413091563852504e-05,-0.0024777064099907875
-0.002651890041306615,-0.0039489371702075005,0.0031892601400613785,0.0016683932626619935,-8.284025534521788e-05,-0.002395596820861101
-0.002743201795965433,-0.003828075248748064,0.002834060462191701,0.0014564217999577522,-8.0374265962746e-05,-0.002827573334798217
-0.002743201795965433,-0.003828075248748064,0.002834060462191701,0.0014564217999577522,-8.0374265962746e-05,-0.002827573334798217
-0.0025876560248434544,-0.003434448502957821,0.0030853967182338238,0.0016461412888020277,-7.805082714185119e-05,-0.003191995667293668
-0.0025404903572052717,-0.0032363301143050194,0.0030517191626131535,0.0017875984776765108,-8.891251491149887e-05,-0.0030175663996487856
-0.0026809503324329853,-0.003372299252077937,0.0031203520484268665,0.001804748666472733,-4.951889786752872e-05,-0.0030549599323421717
-0.0026809503324329853,-0.003372299252077937,0.0031203520484268665,0.001804748666472733,-4.951889786752872e-05,-0.0030549599323421717
-0.0025518215261399746,-0.0036871922202408314,0.003251035697758198,0.001773074152879417,-4.935745891998522e-05,-0.002725016325712204
-0.0027295993641018867,-0.0038533711340278387,0.003054252592846751,0.0017170236678794026,0.00023357852478511631,-0.0023934037890285254
-0.0027295993641018867,-0.0038533711340278387,0.003054252592846751,0.0017170236678794026,0.00023357852478511631,-0.0023934037890285254
-0.002496239962056279,-0.003844363847747445,0.0033587978687137365,0.0016481478232890368,0.00019998026255052537,-0.00240701949223876
-0.0021140449680387974,-0.0038441671058535576,0.003238252829760313,0.0015947219217196107,4.620193431037478e-05,-0.0023953947238624096
-0.001790071721188724,-0.003793662181124091,0.0032153551001101732,0.0016201877733692527,3.0166561373334844e-06,-0.002796630375087261
-0.0016492913709953427,-0.0036455728113651276,0.0033487100154161453,0.0016793684335425496,1.9696608433150686e-07,-0.002726145787164569
-0.0015201226342469454,-0.0036074838135391474,0.003133898600935936,0.0018808830063790083,1.286047890403097e-08,-0.002665590262040496
-0.0015033658128231764,-0.0037264639977365732,0.003136826679110527,0.0019269195618107915,8.396973671942476e-10,-0.0026239510625600815
-0.0019940847996622324,-0.004286353942006826,0.0029606400057673454,0.001993152080103755,5.482623730013181e-11,-0.002354908501729369
-0.0019813142716884613,-0.004184354096651077,0.0031777401454746723,0.0019871494732797146,3.579761704078366e-12,-0.002304690657183528
-0.0019259321270510554,-0.003647075966000557,0.0031282114796340466,0.0018326037097722292,2.337328735505656e-13,-0.002463339827954769
-0.0017297508893534541,-0.0033997767604887486,0.003110281890258193,0.0018177423626184464,1.5261085784304927e-14,-0.0026609066408127546
-0.0013886321103200316,-0.003463537897914648,0.003050925675779581,0.0016477996250614524,9.964399241501839e-16,-0.002734598470851779
-0.0012552487896755338,-0.003577384864911437,0.0028878548182547092,0.001500402926467359,6.50604087727007e-17,-0.0027735617477446795
-0.001301949261687696,-0.003574573202058673,0.002686387160792947,0.0014212324749678373,4.2479798319114795e-18,-0.002682087477296591
-0.001499040168710053,-0.0034789119381457567,0.002539603505283594,0.0013672377681359649,2.773627325263741e-19,-0.0024863858707249165
-0.0015877545811235905,-0.0035497036296874285,0.002821519272401929,0.001582943252287805,1.8109802808334418e-20,-0.002540161134675145
-0.001914600026793778,-0.0039070467464625835,0.00294953933916986,0.0015547442017123103,1.1824407512055232e-21,-0.002406658139079809
-0.001682452391833067,-0.003926851786673069,0.0029200499411672354,0.0017875542398542166,7.720493326976658e-23,-0.002304911380633712
-0.0015109991654753685,-0.003768078749999404,0.0026707248762249947,0.0017694159178063273,5.0409304415976385e-24,-0.0022213321644812822
-0.0013128515565767884,-0.0036339752841740847,0.002933282172307372,0.001547298626974225,3.2913670665629893e-25,-0.0021242043003439903
-0.0011385787511244416,-0.0035133669152855873,0.0030431037303060293,0.0015205548843368888,2.1490275121035155e-26,-0.0022587082348763943
-0.0011106891324743629,-0.0038777950685471296,0.0023258747532963753,0.0014589781640097499,9.161642125065897e-29,-0.0022635662462562323
-0.001326591125689447,-0.0040306206792593,0.0020899472292512655,0.0015298416838049889,5.981897406023798e-30,-0.00240385252982378
-0.0013809296069666743,-0.003855197923257947,0.0019961700309067965,0.0017992992652580142,3.9057513676834e-31,-0.0021975988056510687
-0.0014141350984573364,-0.0035357242450118065,0.002281425055116415,0.001873453613370657,2.5501765132649993e-32,-0.002243724884465337
-0.0014141350984573364,-0.0035357242450118065,0.002281425055116415,0.001873453613370657,2.5501765132649993e-32,-0.002243724884465337
-0.001377444015815854,-0.003574822098016739,0.0023320468608289957,0.00192214734852314,1.6650831561649624e-33,-0.002278503030538559
-0.0012860804563388228,-0.003920848481357098,0.0026203470770269632,0.001804266357794404,1.0871804015588447e-34,-0.002218096749857068
-0.0012202664511278272,-0.0039148791693151,0.0025890893302857876,0.0017108034808188677,7.098510771309579e-36,-0.002267969772219658
-0.0010581815149635077,-0.003665606025606394,0.002125971484929323,0.0015689725987613201,4.634820903061585e-37,-0.0021866888273507357
-0.0010232484200969338,-0.003452685894444585,0.0018545837374404073,0.0014344995142892003,3.026206608757031e-38,-0.002259862842038274
-0.001100545865483582,-0.0035467424895614386,0.0017608937341719866,0.0013903665821999311,1.9758966957258153e-39,-0.002166374120861292
-0.0012004647869616747,-0.0037237494252622128,0.0018876292742788792,0.0015979140298441052,1.290119444165286e-40,-0.0023263052571564913
-0.0011651127133518457,-0.004020671360194683,0.0019526956602931023,0.002359062200412154,8.423205069056475e-42,-0.0026581541169434786
-0.0012210365384817123,-0.003965640906244516,0.002263701520860195,0.002789163263514638,5.493089980153283e-43,-0.0024492840748280287
-0.0010954283643513918,-0.003758673556149006,0.0021582634653896093,0.0026394901797175407,3.6433760072445244e-44,-0.002307663206011057
-0.00115791498683393,-0.0035492314491420984,0.0018436501268297434,0.0023413256276398897,2.802596928649634e-45,-0.0020346103701740503
-0.0011500561377033591,-0.0033866306766867638,0.001820057281292975,0.0021086728665977716,0.0,-0.0019557077903300524
-0.0011228328803554177,-0.0035866498947143555,0.0016573176253587008,0.0020055293571203947,0.0,-0.0017898230580613017
-0.001274262904189527,-0.003769415430724621,0.0015838185790926218,0.0023094334173947573,0.0,-0.0019412938272580504
-0.0012491600355133414,-0.003842376871034503,0.0016137632774189115,0.0027454057708382607,0.0,-0.0019498063484206796
-0.0012034233659505844,-0.003822013270109892,0.00176142412237823,0.003354214131832123,0.0,-0.0021839377004653215
-0.0011825325200334191,-0.0034782523289322853,0.0017787577817216516,0.003363996744155884,0.0,-0.0021388758905231953
-0.0011421090457588434,-0.0035257020499557257,0.0019006951479241252,0.0028278538957238197,0.0,-0.0020709061063826084
-0.001201072009280324,-0.0036308434791862965,0.0018192187417298555,0.002396020572632551,0.0,-0.001983035122975707
-0.001073193154297769,-0.0036410719621926546,0.001564125414006412,0.0018373136408627033,0.0,-0.0017918744124472141
-0.0011105649173259735,-0.0037234125193208456,0.001419499865733087,0.0017490253085270524,0.0,-0.0017504546558484435
-0.0010739577701315284,-0.0037722517736256123,0.0014369487762451172,0.0019269981421530247,0.0,-0.0018148991512134671
-0.0010476032039150596,-0.003362889401614666,0.0015762565890327096,0.0020704814232885838,0.0,-0.001832272158935666
-0.0010515610920265317,-0.003933072555810213,0.0017498658271506429,0.002133504254743457,0.0,-0.0019159306539222598
-0.0010515610920265317,-0.003933072555810213,0.0017498658271506429,0.002133504254743457,0.0,-0.0019159306539222598
-0.0009996934095397592,-0.003972139209508896,0.001596414833329618,0.0019722175784409046,0.0,-0.001777864876203239
-0.0009996934095397592,-0.003972139209508896,0.001596414833329618,0.0019722175784409046,0.0,-0.001777864876203239
-0.0009928903309628367,-0.0034688985906541348,0.0015846722526475787,0.0024307891726493835,0.0,-0.00162133586127311
-0.0009788434254005551,-0.004278798121958971,0.0017017716309055686,0.002454799599945545,0.0,-0.001613117870874703
-0.0009788434254005551,-0.004278798121958971,0.0017017716309055686,0.002454799599945545,0.0,-0.001613117870874703
-0.000885932007804513,-0.004199653398245573,0.0017997067188844085,0.002524237148463726,0.0,-0.0016536321491003036
-0.0008864752599038184,-0.0044766999781131744,0.002029946306720376,0.0024417617823928595,0.0,-0.001582084922119975
-0.0008530461927875876,-0.004191030282527208,0.001978906337171793,0.0022681052796542645,0.0,-0.0017015562625601888
-0.0008386157569475472,-0.0039059454575181007,0.001954037230461836,0.001894689747132361,0.0,-0.0015803731512278318
-0.000764633237849921,-0.004290770273655653,0.001861479366198182,0.0017551816999912262,0.0,-0.0016029615653678775
-0.0007802495965734124,-0.004134711809456348,0.0019472995772957802,0.001700393040664494,0.0,-0.0015935399569571018
-0.0007827257504686713,-0.003952660597860813,0.0019260169938206673,0.0018948179204016924,0.0,-0.001514179864898324
-0.0007156908977776766,-0.0038123305421322584,0.001909111742861569,0.002261432120576501,0.0,-0.001388265984132886
-0.000705332902725786,-0.003994292113929987,0.0018934826366603374,0.0022921068593859673,0.0,-0.0013887303648516536
-0.0007197065278887749,-0.003990462515503168,0.0019161259988322854,0.002361463150009513,0.0,-0.0012824904406443238
-0.0006466609775088727,-0.0038497878704220057,0.0017418451607227325,0.002141160424798727,0.0,-0.0012313754996284842
-0.0006621101056225598,-0.004249585326761007,0.0016109627904370427,0.002175298286601901,0.0,-0.0012627913383767009
-0.0006085863569751382,-0.0036513078957796097,0.0015485590556636453,0.0019941329956054688,0.0,-0.001163872191682458
-0.0006332150078378618,-0.0034465270582586527,0.0015859735431149602,0.002051660092547536,0.0,-0.001255357638001442
-0.0006466573104262352,-0.003537852084264159,0.0017076758667826653,0.0018821359844878316,0.0,-0.0013152080355212092
-0.0006486220518127084,-0.003678068984299898,0.0016863633645698428,0.0017835801700130105,0.0,-0.001315643428824842
-0.0006105899228714406,-0.003563091391697526,0.0018683179514482617,0.0017875719349831343,0.0,-0.0014406446134671569
-0.0006365469307638705,-0.003338555106893182,0.0017189249629154801,0.001987501746043563,0.0,-0.0013921573990955949
-0.0006160477641969919,-0.0037291853222995996,0.0016606181161478162,0.002176254289224744,0.0,-0.0014538654359057546
-0.0008233479456976056,-0.0034568849951028824,0.0015910648507997394,0.0021180100739002228,0.0,-0.0014085810398682952
-0.0008457816438749433,-0.003081809263676405,0.0018818973330780864,0.002292994875460863,0.0,-0.001461129984818399
-0.0008438138174824417,-0.003342637326568365,0.001727200811728835,0.002182785887271166,0.0,-0.0013752393424510956
-0.0008438138174824417,-0.003342637326568365,0.001727200811728835,0.002182785887271166,0.0,-0.0013752393424510956
-0.000970003311522305,-0.003089039819315076,0.0017626495100557804,0.002090408466756344,0.0,-0.0013018875615671277
-0.0010355859994888306,-0.0033010453917086124,0.0017240915913134813,0.002092323498800397,0.0,-0.0012500990414991975
-0.0008854959160089493,-0.0034872745163738728,0.0015628095716238022,0.002043492393568158,0.0,-0.0012310086749494076
-0.0008856712956912816,-0.0033746284898370504,0.0016146079869940877,0.0022435414139181376,0.0,-0.0011982540600001812
-0.0008842136012390256,-0.003497836645692587,0.0015196227468550205,0.0021693669259548187,0.0,-0.0011704058852046728
-0.0008383305976167321,-0.003256990108639002,0.001554193440824747,0.0023327507078647614,0.0,-0.0012171913404017687
-0.0008204054902307689,-0.003112427657470107,0.0015447917394340038,0.0025831549428403378,0.0,-0.0012079031439498067
-0.0008312294376082718,-0.0034057374577969313,0.0014286215882748365,0.0023740713950246572,0.0,-0.0011893181363120675
-0.0007684429874643683,-0.003204645123332739,0.0015383597929030657,0.002286042319610715,0.0,-0.001154460827820003
-0.000781751237809658,-0.0032629072666168213,0.0014298802707344294,0.0022911913692951202,0.0,-0.0011101807467639446
-0.0008365547400899231,-0.003377400804311037,0.0015696765622124076,0.0022075134329497814,0.0,-0.0010780006414279342
-0.0008030540193431079,-0.0034436925780028105,0.0015690363943576813,0.0021026055328547955,0.0,-0.0010346478084102273
-0.000736308575142175,-0.003739041741937399,0.0014742034254595637,0.002034401521086693,0.0,-0.001017087372019887
-0.0007517903577536345,-0.003994007594883442,0.001540927216410637,0.0020693750120699406,0.0,-0.0009985262295231223
-0.0006752699264325202,-0.0037144708912819624,0.001496965647675097,0.00206653936766088,0.0,-0.0009762366535142064
-0.000686443701852113,-0.0034251566976308823,0.0016519108321517706,0.0024022627621889114,0.0,-0.000919380399864167
-0.0006353604258038104,-0.003142421832308173,0.0016693092184141278,0.002477241912856698,0.0,-0.0009271760936826468
-0.0005871946923434734,-0.0035643011797219515,0.0016781870508566499,0.0025377364363521338,0.0,-0.0009238588390871882
-0.0005187532515265048,-0.0038626035675406456,0.0015642928192391992,0.0027751403395086527,0.0,-0.0008910096366889775
-0.0004650968185160309,-0.003913256339728832,0.001589772291481495,0.002846732037141919,0.0,-0.0008396371849812567
-0.000502232403960079,-0.0038323800545185804,0.001634506625123322,0.002529171062633395,0.0,-0.0008638878352940083
-0.00046242590178735554,-0.0037614258471876383,0.0015846304595470428,0.002579730236902833,0.0,-0.0008696181466802955
-0.0004578842781484127,-0.0037294202484190464,0.001722987974062562,0.0027198991738259792,0.0,-0.0007665334269404411
-0.00042920216219499707,-0.0038010147400200367,0.0017346712993457913,0.0025807011406868696,0.0,-0.0006948924856260419
-0.0004018550389446318,-0.0034624978434294462,0.0016919908812269568,0.002453066408634186,0.0,-0.0006919756415300071
-0.00043095005094073713,-0.00413087522611022,0.0015073887770995498,0.0025193318724632263,0.0,-0.000649679102934897
-0.0004072844749316573,-0.004176326096057892,0.0015362751437351108,0.0023798178881406784,0.0,-0.0005970785277895629
-0.0003864348109345883,-0.004039254505187273,0.0014753920258954167,0.002288003219291568,0.0,-0.0005247644730843604
-0.0003755966026801616,-0.003974176477640867,0.0015951605746522546,0.002246056217700243,0.0,-0.0005132348742336035
-0.0003469217917881906,-0.0040076845325529575,0.0016429980751127005,0.0023689251393079758,0.0,-0.0005055332439951599
-0.0003855750837828964,-0.004071595147252083,0.001799868419766426,0.002420262433588505,0.0,-0.0005020865937694907
-0.0003855750837828964,-0.004071595147252083,0.001799868419766426,0.002420262433588505,0.0,-0.0005020865937694907
-0.0003606711979955435,-0.003508135909214616,0.0018080383306369185,0.0022747702896595,0.0,-0.0004966777632944286
-0.0003381060087122023,-0.003570584347471595,0.0018102473113685846,0.002205061260610819,0.0,-0.00046243867836892605
-0.00031824366305954754,-0.0037643855903297663,0.001807527500204742,0.0021816797088831663,0.0,-0.0004762051976285875
-0.00030046768370084465,-0.003877796698361635,0.0016215245705097914,0.002371381502598524,0.0,-0.0004598943633027375
-0.00028462745831348,-0.0039012643974274397,0.0016868970124050975,0.002477887785062194,0.0,-0.0004331397940404713
-0.00027042589499615133,-0.003946988377720118,0.0015372370835393667,0.002423544181510806,0.0,-0.0004086084372829646
-0.0002575285907369107,-0.0034308102913200855,0.0015033571980893612,0.0024678532499819994,0.0,-0.0003866594342980534
-0.00024576898431405425,-0.003355589462444186,0.0014348354889079928,0.00223100115545094,0.0,-0.00037879409501329064
-0.00023506843717768788,-0.0032828431576490402,0.0013502637157216668,0.00222131609916687,0.0,-0.000353958283085376
-0.0002252978883916512,-0.003068858990445733,0.0013765161857008934,0.002464212477207184,0.0,-0.00032843207009136677
-0.00021627405658364296,-0.0033752114977687597,0.0012951511889696121,0.002961804624646902,0.0,-0.00030609697569161654
-0.00020794570446014404,-0.003252931172028184,0.001227410975843668,0.00290870969183743,0.0,-0.0002865923452191055
-0.0002002345718210563,-0.0034402995370328426,0.0011395999463275075,0.0029989085160195827,0.0,-0.00026942489785142243
-0.00019307502952869982,-0.0032372751738876104,0.0010941782966256142,0.0027974508702754974,0.0,-0.0002541985013522208
-0.00018640981579665095,-0.003197210608050227,0.0010567689314484596,0.002601702231913805,0.0,-0.00027608679374679923
-0.0001801901526050642,-0.003321185242384672,0.0010376841528341174,0.0024508205242455006,0.0,-0.00027323816902935505
-0.00016891630366444588,-0.0032950155436992645,0.0010497441980987787,0.002522671828046441,0.0,-0.00024879767443053424
-0.00013759346620645374,-0.003301055170595646,0.0010275425156578422,0.0027413007337599993,0.0,-0.00023784000950399786
-0.00010636173828970641,-0.003150035860016942,0.0009352303459309042,0.0027838118840008974,0.0,-0.00022780441213399172
-7.757299317745492e-05,-0.0031224784906953573,0.0009279882069677114,0.0025283517315983772,0.0,-0.00021858169930055737
-7.507069676648825e-05,-0.003145921044051647,0.0009219847270287573,0.002563601126894355,0.0,-0.00021007655595894903
-7.507069676648825e-05,-0.003145921044051647,0.0009219847270287573,0.002563601126894355,0.0,-0.00021007655595894903
-9.639963536756113e-05,-0.003183783497661352,0.000918668694794178,0.0027469052001833916,0.0,-0.00020220856822561473
-9.48024753597565e-05,-0.003401970025151968,0.0009194986778311431,0.003201435087248683,0.0,-0.00019490862905513495
-9.238233178621158e-05,-0.0037341637071222067,0.0010596744250506163,0.003154778154566884,0.0,-0.00018811762856785208
-6.786319136153907e-05,-0.0034709277097135782,0.0010382549371570349,0.002882096916437149,0.0,-0.00018178414029534906
-6.591899000341073e-05,-0.003264135681092739,0.0010484261438250542,0.0023954687640070915,0.0,-0.00017586337344255298
5.634477565763518e-05,-0.0030024393927305937,0.0010636618826538324,0.002444491721689701,0.0,-0.00016510809655301273
5.634477565763518e-05,-0.0030024393927305937,0.0010636618826538324,0.002444491721689701,0.0,-0.00016510809655301273
5.465563299367204e-05,-0.003205270506441593,0.000936609401833266,0.002744172466918826,0.0,-0.000160208874149248
5.3045147069497034e-05,-0.003327895887196064,0.0009296967182308435,0.00286017544567585,0.0,-0.00015559249732177705
5.1526738388929516e-05,-0.0034930494148284197,0.000922492821700871,0.0028827108908444643,0.0,-0.00015123448974918574
6.655505421804264e-05,-0.0037347478792071342,0.0008779132040217519,0.0030273848678916693,0.0,-0.00014711389667354524
7.298950367840007e-05,-0.003387490753084421,0.0008854851475916803,0.0029791181441396475,0.0,-0.0001432121789548546
8.677335426909849e-05,-0.003572528250515461,0.0008875548955984414,0.0027637104503810406,0.0,-0.00013951200526207685
9.23567422432825e-05,-0.0037640733644366264,0.0008890694589354098,0.00257390970364213,0.0,-0.0001191973642562516
0.00011004257976310328,-0.0037702186964452267,0.000983673264272511,0.002496885135769844,0.0,-0.00011093054490629584
0.00010989961447194219,-0.00333480560220778,0.0009881817968562245,0.002560568507760763,0.0,-0.00010792190005304292
0.00010731292422860861,-0.003425530856475234,0.0009746354771777987,0.0024972273968160152,0.0,-0.0001053719170158729
0.00026408888516016304,-0.0037137854378670454,0.00095478689763695,0.0028155846521258354,0.0,-0.00010295936954207718
0.0003024598699994385,-0.0034866167698055506,0.0008220992749556899,0.002982755657285452,0.0,-9.845396562013775e-05
0.00028342107543721795,-0.003588626394048333,0.0008334406884387136,0.003322076052427292,0.0,-9.634603338781744e-05
0.00031919058528728783,-0.0036401187535375357,0.0008422721293754876,0.0031753825023770332,0.0,-9.432638034923002e-05
0.00030204138602130115,-0.003536629257723689,0.0007443233043886721,0.0033069553319364786,0.0,-9.238991333404556e-05
0.0003172791039105505,-0.0034263210836797953,0.0004041724605485797,0.0032644658349454403,0.0,-9.053100802702829e-05
0.0003172791039105505,-0.0034263210836797953,0.0004041724605485797,0.0032644658349454403,0.0,-9.053100802702829e-05
0.0003167135873809457,-0.003390677273273468,0.00044023030204698443,0.0030922116711735725,0.0,-8.874561171978712e-05
0.00030174991115927696,-0.003563853446394205,0.0003921550523955375,0.0032767015509307384,0.0,-7.078237103996798e-05
0.0003285180719103664,-0.0033212127164006233,0.00034250644966959953,0.0031478528399020433,0.0,-6.83781472616829e-05
0.000314702425384894,-0.003523927414789796,0.00030392600456252694,0.0028788880445063114,0.0,-6.703558756271377e-05
0.00030152974068187177,-0.0032853116281330585,0.0002731589484028518,0.0027981235180050135,0.0,-6.580578337889165e-05
0.0003413874073885381,-0.003090386278927326,0.00024805220891721547,0.002656125696375966,0.0,-5.2633724408224225e-05
0.00034147509722970426,-0.003165408270433545,0.00022717328101862222,0.002551801735535264,0.0,-4.788538353750482e-05
0.0003592340217437595,-0.0032548541203141212,0.000209537087357603,0.002802008530125022,0.0,-4.680606798501685e-05
0.0003558157477527857,-0.0030184045899659395,0.00019444365170784295,0.002674751915037632,0.0,2.690661494852975e-05
0.0003830947680398822,-0.0028528969269245863,0.00018137760343961418,0.002539201872423291,0.0,3.6407687730388716e-05
0.0003669546567834914,-0.002850207034498453,0.00022581957455258816,0.002444787882268429,0.0,3.632888910942711e-05
0.00039047954487614334,-0.0029146946035325527,0.00021318143990356475,0.0025574229657649994,0.0,5.114217128721066e-05
0.00037561895442195237,-0.0031457047443836927,0.00020126900926698,0.002477167174220085,0.0,5.229117232374847e-05
0.0005184506881050766,-0.0030620957259088755,0.00019061296188738197,0.002673767041414976,0.0,6.633573502767831e-05
0.0005766874528490007,-0.0029694901313632727,0.00018102538888342679,0.0028110116254538298,0.0,6.716314237564802e-05
0.0006083351327106357,-0.002702694619074464,0.000144109086249955,0.0026322512421756983,0.0,8.042057015700266e-05
0.0006097903824411333,-0.0029458897188305855,0.00012356186925899237,0.002668156521394849,0.0,0.00029115081997588277
0.000586232403293252,-0.003076495137065649,0.00011798134801210836,0.0027369798626750708,0.0,0.0005206211353652179
0.000586232403293252,-0.003076495137065649,0.00011798134801210836,0.0027369798626750708,0.0,0.0005206211353652179
0.0008133224328048527,-0.0031301062554121017,0.0001501818187534809,0.002822736045345664,0.0,0.0005053992499597371
0.0007979183574207127,-0.0029330472461879253,0.00010840578033821657,0.0030118764843791723,0.0,0.0005645781639032066
0.0007407077355310321,-0.003008536295965314,0.00010047518298961222,0.003050487255677581,0.0,0.0008128702756948769
0.0007538771023973823,-0.0030364578124135733,9.682459494797513e-05,0.0029927175492048264,0.0,0.0008614203543402255
0.0007345114136114717,-0.0030102196615189314,9.347166633233428e-05,0.002968213986605406,0.0,0.0008689899696037173
0.0007369054947048426,-0.0027789813466370106,9.033993410412222e-05,0.0028073019348084927,0.0,0.0008834759937599301
0.0006834547384642065,-0.0029935932252556086,8.741870988160372e-05,0.0029166878666728735,0.0,0.001122723100706935
0.0006956934812478721,-0.0030208583921194077,8.209877705667168e-05,0.0033944284077733755,0.0,0.0011137973051518202
0.0006956934812478721,-0.0030208583921194077,8.209877705667168e-05,0.0033944284077733755,0.0,0.0011137973051518202
0.0007755313999950886,-0.0033598507288843393,7.967925921548158e-05,0.0037222332321107388,0.0,0.0012854916276410222
0.0009394454536959529,-0.003112205769866705,7.739497232250869e-05,0.0038653051014989614,0.0,0.0012468162458389997
0.000980560900643468,-0.00322558730840683,7.523566455347463e-05,0.0038002145010977983,0.0,0.001201083417981863
0.0018301800591871142,-0.0032763145864009857,7.319874566746876e-05,0.003521144390106201,0.0,0.001119495602324605
0.0017457123612985015,-0.003130707424134016,7.12641776772216e-05,0.003394485218450427,0.0,0.001069781486876309
0.002042382722720504,-0.0033744294196367264,6.943391781533137e-05,0.003122952999547124,0.0,0.0011122258147224784
0.0018373654456809163,-0.0032363629434257746,6.769305764464661e-05,0.0030457465909421444,0.0,0.0012929976219311357
0.0017270970856770873,-0.0030373590998351574,6.603744986932725e-05,0.0029092852491885424,0.0,0.001555164228193462
0.001744981505908072,-0.002923165913671255,6.446093902923167e-05,0.0032499616499990225,0.0,0.0028989992570132017
0.0021015116944909096,-0.0032137446105480194,6.295775528997183e-05,0.003228297922760248,0.0,0.00326430331915617
0.0025600483641028404,-0.0032287314534187317,6.152330752229318e-05,0.003217359073460102,0.0,0.0026573913637548685
0.002535151317715645,-0.003608390223234892,6.015258622937836e-05,0.003218425437808037,0.0,0.002155855530872941
0.0027239948976784945,-0.00343799265101552,5.884162237634882e-05,0.0034464308992028236,0.0,0.0018594702705740929
0.002622254891321063,-0.0029894376639276743,5.758662518928759e-05,0.003649091348052025,0.0,0.001549587119370699
0.0023827196564525366,-0.0029028672724962234,5.6384102208539844e-05,0.0036537121050059795,0.0,0.0015861584106460214
0.0025587487034499645,-0.002787673845887184,5.523078652913682e-05,0.003484718268737197,0.0,0.002118217758834362
0.0028080237098038197,-0.003171132644638419,5.4123538575368e-05,0.0031254386994987726,0.0,0.0024696211330592632
0.003363870782777667,-0.003196155186742544,5.3059993661008775e-05,0.0034045546781271696,0.0,0.002570648677647114
0.0031638741493225098,-0.0030522888991981745,5.1053411880275235e-05,0.0035611018538475037,0.0,0.0025799020659178495
0.0031638741493225098,-0.0030522888991981745,5.1053411880275235e-05,0.0035611018538475037,0.0,0.0025799020659178495
0.003155322978273034,-0.0030872609931975603,5.010599852539599e-05,0.0036162505857646465,0.0,0.0024841714184731245
0.0034353630617260933,-0.0032268043141812086,5.080743903818075e-06,0.00318765826523304,0.0,0.002775810193270445
0.0034353630617260933,-0.0032268043141812086,5.080743903818075e-06,0.00318765826523304,0.0,0.002775810193270445
0.003247617743909359,-0.003486606990918517,-1.6805655832285993e-05,0.003187339985743165,0.0,0.0028468819800764322
0.003061986295506358,-0.0032736354041844606,-1.6784648323664442e-05,0.0033400862012058496,0.0,0.002697015181183815
0.00317975296638906,-0.003093991195783019,-1.648120269237552e-05,0.0029903973918408155,0.0,0.0026344030629843473
0.003376479260623455,-0.003061667550355196,-1.6184858395718038e-05,0.0028736230451613665,0.0,0.0026339832693338394
0.0034367942716926336,-0.002910046838223934,-1.5898953279247507e-05,0.002924085594713688,0.0,0.002541519235819578
0.003178325016051531,-0.002863678615540266,-1.5622994396835566e-05,0.003219048259779811,0.0,0.002693720394745469
0.0034592817537486553,-0.002691116649657488,-1.5356414223788306e-05,0.0034267317969352007,0.0,0.0027284864336252213
0.0037621785886585712,-0.0028832517564296722,-1.5098788026080001e-05,0.003630253253504634,0.0,0.0026260761078447104
0.003420997876673937,-0.003374455962330103,-1.4849678336759098e-05,0.003776112338528037,0.0,0.0027657062746584415
0.0035382555797696114,-0.0034319735132157803,-1.4608634955948219e-05,0.003754321252927184,0.0,0.002739486051723361
0.0037867536302655935,-0.003112486330792308,-1.4375304999703076e-05,0.003796173259615898,0.0,0.0025037184823304415
0.0034028636291623116,-0.002877952763810754,-2.664612838998437e-05,0.003428374184295535,0.0,0.0026246327906847
0.004158615600317717,-0.0026736431755125523,-2.783842501230538e-05,0.0030748355202376842,0.0,0.0029906013514846563
0.004078250844031572,-0.002834763377904892,-2.7435675292508677e-05,0.003256624797359109,0.0,0.003360123373568058
0.0038885839749127626,-0.002961526159197092,-2.7024047085433267e-05,0.0036461902782320976,0.0,0.0033803589176386595
0.0036966747138649225,-0.002925198059529066,-2.662438237166498e-05,0.0035475969780236483,0.0,0.003124245908111334
0.004086150322109461,-0.0027784896083176136,-2.6236288249492645e-05,0.003430702956393361,0.0,0.0028954201843589544
0.004085985943675041,-0.002992723835632205,-3.67527682101354e-05,0.0036350570153445005,0.0,0.0029603135772049427
0.0043620881624519825,-0.0033295494504272938,-3.7685782444896176e-05,0.0037224406842142344,0.0,0.0030646556988358498
0.004130944609642029,-0.003321266733109951,-3.6681223718915135e-05,0.003487542737275362,0.0,0.003521899227052927
0.004130944609642029,-0.003321266733109951,-3.6681223718915135e-05,0.003487542737275362,0.0,0.003521899227052927
0.004079714417457581,-0.0029305974021553993,-3.618958726292476e-05,0.003235887736082077,0.0,0.003677535802125931
0.004079714417457581,-0.0029305974021553993,-3.618958726292476e-05,0.003235887736082077,0.0,0.003677535802125931
0.004377547651529312,-0.0029869822319597006,-3.5710938391275704e-05,0.004048051778227091,0.0,0.003668910823762417
0.004817387089133263,-0.0030002056155353785,-4.652531788451597e-05,0.004124409519135952,0.0,0.003352417843416333
0.004922708496451378,-0.003119338769465685,-4.6381308493437245e-05,0.003970623016357422,0.0,0.003242457751184702
0.0050949337892234325,-0.0028651137836277485,-4.579736923915334e-05,0.0034879115410149097,0.0,0.003420081455260515
0.004859282169491053,-0.0028955144807696342,-4.522215749602765e-05,0.003563659731298685,0.0,0.0035017505288124084
0.004875467624515295,-0.0031800454016774893,-4.466114114620723e-05,0.0042395503260195255,0.0,0.0034614589530974627
0.005081355106085539,-0.0035500077065080404,-0.0001441796775907278,0.004132522735744715,0.0,0.003642564406618476
0.0049242377281188965,-0.0036921347491443157,-0.00014362719957716763,0.0034387388732284307,0.0,0.003828172106295824
0.004908632952719927,-0.002505295677110553,-0.0001392374251736328,0.0035079671069979668,0.0,0.003939309157431126
0.005668753292411566,-0.0019253934733569622,-0.00013505901733879,0.0037071160040795803,0.0,0.003484654240310192
0.005442890804260969,-0.0016324686584994197,-0.0001483564410591498,0.0043364777229726315,0.0,0.0035365300718694925
0.005781484302133322,-0.0014942217385396361,-0.0001527727145003155,0.004114934243261814,0.0,0.003709666198119521
0.005655657034367323,-0.0013369283406063914,-0.00014868189464323223,0.003932936582714319,0.0,0.0038344941567629576
0.0055288393050432205,-0.0019652280025184155,-0.00016784557374194264,0.003880841890349984,0.0,0.0042433347553014755
0.005662116687744856,-0.0024687054101377726,-0.00016439719183836132,0.003941931761801243,0.0,0.0041672587394714355
0.006091082002967596,-0.0024697785265743732,-0.00016022885392885655,0.00389137607999146,0.0,0.00412895018234849
0.0056316605769097805,-0.0022002863697707653,-0.0001776799763320014,0.0038179955445230007,0.0,0.004107230808585882
0.005303117446601391,-0.001803516992367804,-0.00017424281395506114,0.0037332396022975445,0.0,0.0038713584654033184
0.00541521143168211,-0.0013515364844352007,-0.00029017479391768575,0.0036447574384510517,0.0,0.0037749314215034246
0.006226444151252508,-0.001253791037015617,-0.0003283144033048302,0.0037788336630910635,0.0,0.003919024486094713
0.006319036707282066,-0.0012409808114171028,-0.000306729634758085,0.003916408866643906,0.0,0.004423907957971096
0.00574033847078681,-0.0014549511251971126,-0.0003437751729506999,0.0035856578033417463,0.0,0.00462469644844532
0.005915221758186817,-0.0014563604490831494,-0.0003239124489482492,0.0035945111885666847,0.0,0.004676328040659428
0.005824094172567129,-0.002167393919080496,-0.00030558870639652014,0.0037681881804019213,0.0,0.004336741287261248
0.005824094172567129,-0.002167393919080496,-0.00030558870639652014,0.0037681881804019213,0.0,0.004336741287261248
0.006148891989141703,-0.0017395326867699623,-0.0003202586667612195,0.004005725495517254,0.0,0.0035548775922507048
0.005972817540168762,-0.001533920643851161,-0.00034314245567657053,0.003965673036873341,0.0,0.004009929019957781
0.006095683202147484,-0.0014232571702450514,-0.0003321695257909596,0.0039013687055557966,0.0,0.004351117182523012
0.006292352452874184,-0.0012227061670273542,-0.0004249135381542146,0.003935056738555431,0.0,0.004416228272020817
0.006363015156239271,-0.0012833948712795973,-0.0004535531043075025,0.004203621298074722,0.0,0.004808328114449978
0.006441472098231316,-0.001656724140048027,-0.0004418753960635513,0.004136647563427687,0.0,0.0045183622278273106
0.006745614111423492,-0.0017313591670244932,-0.00045324568054638803,0.004301905632019043,0.0,0.004329431336373091
0.0068554747849702835,-0.0019694960210472345,-0.0004430091648828238,0.004258574452251196,0.0,0.004307304974645376
0.006349296774715185,-0.0017708701780065894,-0.00047248831833712757,0.004462114535272121,0.0,0.0045888181775808334
0.006609353702515364,-0.0016144447727128863,-0.000654095783829689,0.004170740954577923,0.0,0.004960308782756329
0.006840231362730265,-0.0015146932564675808,-0.0006996418815106153,0.004244878888130188,0.0,0.004537109285593033
0.006829672027379274,-0.001523862243629992,-0.0006993199931457639,0.004257514141499996,0.0,0.004381706938147545
0.006429745350033045,-0.001445787725970149,-0.0006588195101357996,0.00436751265078783,0.0,0.004370716400444508
0.006739743985235691,-0.0015716517809778452,-0.0006826618919149041,0.0045705088414251804,0.0,0.004491680301725864
0.006700088270008564,-0.0015074510592967272,-0.0009116643341258168,0.004139211028814316,0.0,0.0046514407731592655
0.006829350255429745,-0.0018084172625094652,-0.0008239123271778226,0.003923126496374607,0.0,0.004974530078470707
0.00671659829095006,-0.0017345509259030223,-0.0008293536375276744,0.004257007502019405,0.0,0.004681667312979698
0.006324328947812319,-0.001981062116101384,-0.00083752884529531,0.004527357406914234,0.0,0.00501841027289629
0.007051828317344189,-0.0019726771861314774,-0.0007664919830858707,0.004809988662600517,0.0,0.0052536348812282085
0.0072436463087797165,-0.0019955490715801716,-0.0008931858465075493,0.0047837719321250916,0.0,0.005082626361399889
0.006658021826297045,-0.00181274872738868,-0.0008956564124673605,0.004782235715538263,0.0,0.004644965752959251
0.006882138550281525,-0.0018481961451470852,-0.0009053755202330649,0.004549764096736908,0.0,0.004816785454750061
0.007289248984307051,-0.001683232025243342,-0.001053833868354559,0.004528599325567484,0.0,0.004962398204952478
0.007289248984307051,-0.001683232025243342,-0.001053833868354559,0.004528599325567484,0.0,0.004962398204952478
0.007368421647697687,-0.0017406934639438987,-0.0010296663967892528,0.0045275562442839146,0.0,0.005727814044803381
0.007476156111806631,-0.00187874271068722,-0.0010125517146661878,0.004533902741968632,0.0,0.005274650640785694
0.007108047604560852,-0.0018669944256544113,-0.0011012792820110917,0.004479286260902882,0.0,0.005120996385812759
0.007290917914360762,-0.0021770328748971224,-0.0011039841920137405,0.004583036061376333,0.0,0.005449111107736826
0.007341304793953896,-0.0019512478029355407,-0.001084639923647046,0.004427183885127306,0.0,0.0059312982484698296
0.006767279002815485,-0.002076328732073307,-0.0012960422318428755,0.004323200322687626,0.0,0.005843612365424633
0.005557710770517588,-0.001889188657514751,-0.0012678398052230477,0.0042330739088356495,0.0,0.005989713128656149
0.004517573397606611,-0.002026912523433566,-0.001237615942955017,0.004011982586234808,0.0,0.005648129153996706
0.004495410714298487,-0.002074304735288024,-0.0013971134321764112,0.004208167549222708,0.0,0.005549506284296513
0.005907821003347635,-0.0023007970303297043,-0.0014383371453732252,0.004462365061044693,0.0,0.005310533568263054
0.005520702805370092,-0.0027225997764617205,-0.0014675329439342022,0.005027680192142725,0.0,0.005821223370730877
0.005311339162290096,-0.0024444537702947855,-0.0015537604922428727,0.004854722414165735,0.0,0.005924304015934467
0.005123748444020748,-0.002487546531483531,-0.001484258915297687,0.004699463956058025,0.0,0.005807161331176758
0.005855305586010218,-0.00221783178858459,-0.001709239324554801,0.0042463988065719604,0.0,0.005989130586385727
0.005776391364634037,-0.002159061376005411,-0.0016256282106041908,0.004156759940087795,0.0,0.005801944527775049
0.005666922312229872,-0.002312188036739826,-0.001929916674271226,0.004212474916130304,0.0,0.00626970874145627
0.005094484426081181,-0.002097493037581444,-0.0018202473875135183,0.004850217141211033,0.0,0.006561081390827894
0.005150158889591694,-0.0022017129231244326,-0.0020816479809582233,0.00488781463354826,0.0,0.0066522276028990746
0.006127404049038887,-0.0020230840891599655,-0.0023678902070969343,0.004858556669205427,0.0,0.00593618955463171
0.006246083416044712,-0.0020405491814017296,-0.002302489709109068,0.004976178053766489,0.0,0.005529747810214758
0.005588160827755928,-0.001986925723031163,-0.002430638996884227,0.004881391767412424,0.0,0.006197329610586166
0.005765944253653288,-0.0019904496148228645,-0.0026995574589818716,0.004721835255622864,0.0,0.006706820800900459
0.005986708216369152,-0.001888407045044005,-0.002520166104659438,0.005034903530031443,0.0,0.006498619448393583
0.006672253832221031,-0.0022218667436391115,-0.0026344521902501583,0.004892658442258835,0.0,0.0060486579313874245
0.006142535246908665,-0.0022105220705270767,-0.0025997981429100037,0.004593131132423878,0.0,0.005742087960243225
0.005976219195872545,-0.002422133693471551,-0.0028569730930030346,0.004808061756193638,0.0,0.006298966705799103
0.005976219195872545,-0.002422133693471551,-0.0028569730930030346,0.004808061756193638,0.0,0.006298966705799103
0.006569067016243935,-0.002164944540709257,-0.0028763478621840477,0.004799364600330591,0.0,0.006067459471523762
0.006700937170535326,-0.0020602145232260227,-0.002829251578077674,0.004917991813272238,0.0,0.006060457322746515
0.007074186112731695,-0.001875651185400784,-0.0032787013333290815,0.004813302308320999,0.0,0.006461591925472021
0.0064621721394360065,-0.0019266157178208232,-0.003001421457156539,0.004321281332522631,0.0,0.00706755043938756
0.006538781337440014,-0.0017817722400650382,-0.0031334960367530584,0.0042914352379739285,0.0,0.006974019575864077
0.007144943345338106,-0.001998834777623415,-0.003415674902498722,0.00456053065136075,0.0,0.007067115977406502
0.007065142504870892,-0.0018190050031989813,-0.0032085315324366093,0.0046527390368282795,0.0,0.0065494077280163765
0.006887433119118214,-0.0020027682185173035,-0.003476786660030484,0.0046041118912398815,0.0,0.00656847795471549
0.006712125148624182,-0.0018185718217864633,-0.0032752908300608397,0.005001838784664869,0.0,0.006970528978854418
0.0070114838890731335,-0.0018162154592573643,-0.0034828961361199617,0.0046404399909079075,0.0,0.007026350125670433
0.007112348917871714,-0.001811578287743032,-0.0032502624671906233,0.004555048421025276,0.0,0.006690135691314936
0.007120222318917513,-0.0020124258007854223,-0.003314091358333826,0.004546805284917355,0.0,0.007046142593026161
0.00706246355548501,-0.0018848699983209372,-0.003513188101351261,0.004734269343316555,0.0,0.007079545874148607
0.0069834389723837376,-0.0021916995756328106,-0.0037806520704180002,0.004787825513631105,0.0,0.006753934547305107
0.007710710633546114,-0.002436551032587886,-0.004217682406306267,0.005186127498745918,0.0,0.006838924717158079
0.007800192106515169,-0.002351036062464118,-0.0035539621021598577,0.0055543906055390835,0.0,0.007217078004032373
0.008114340715110302,-0.0024091133382171392,-0.0034464013297110796,0.0052729821763932705,0.0,0.007095163222402334
0.00802699290215969,-0.002158252289518714,-0.003638603026047349,0.004959386773407459,0.0,0.007276392076164484
0.008206001482903957,-0.0021360605023801327,-0.00438664061948657,0.005135874729603529,0.0,0.007478444837033749
0.00785794947296381,-0.0020265670027583838,-0.004164933692663908,0.005085488315671682,0.0,0.007071581203490496
0.007807901594787836,-0.0021854261867702007,-0.004416686948388815,0.005809576716274023,0.0,0.0072354478761553764
0.00777864083647728,-0.002185872523114085,-0.004641225561499596,0.005502080079168081,0.0,0.0073286788538098335
0.007592242676764727,-0.0021442733705043793,-0.003923923242837191,0.005073352251201868,0.0,0.008034499362111092
0.008161322213709354,-0.002053995616734028,-0.0038672632072120905,0.004909712355583906,0.0,0.007803239393979311
0.008477753028273582,-0.001909359940327704,-0.004286847542971373,0.00460412260144949,0.0,0.007675631437450647
0.008477753028273582,-0.001909359940327704,-0.004286847542971373,0.00460412260144949,0.0,0.007675631437450647
0.008195515722036362,-0.001883827499113977,-0.004397361073642969,0.004836179781705141,0.0,0.007528270594775677
0.008045939728617668,-0.0019198110094293952,-0.004447153303772211,0.00525806425139308,0.0,0.007177852094173431
0.008883417584002018,-0.0019052285933867097,-0.0043518017046153545,0.0051152328960597515,0.0,0.0075155096128582954
0.008571494370698929,-0.0023738895542919636,-0.004549404140561819,0.004922707565128803,0.0,0.007753531914204359
0.008268351666629314,-0.002382447477430105,-0.004254890605807304,0.004798063542693853,0.0,0.007437173742800951
0.008419124409556389,-0.0025280595291405916,-0.00425089942291379,0.004918440245091915,0.0,0.007208501920104027
0.008762402459979057,-0.0022976722102612257,-0.004181848373264074,0.005190701689571142,0.0,0.007514883764088154
0.00877278670668602,-0.002226758049800992,-0.004402284510433674,0.005415655672550201,0.0,0.007128982339054346
0.008917255327105522,-0.002075126627460122,-0.005088265053927898,0.005110171623528004,0.0,0.00627355370670557
0.009405432268977165,-0.002001113025471568,-0.005113058723509312,0.0052001699805259705,0.0,0.006014181300997734
0.0093621164560318,-0.0019501603674143553,-0.005423923023045063,0.005215832497924566,0.0,0.006559080444276333
0.008557415567338467,-0.001914712367579341,-0.004990803077816963,0.005171559751033783,0.0,0.0073238397017121315
0.009004379622638226,-0.0018841518322005868,-0.004580804146826267,0.005688166711479425,0.0,0.006920134648680687
0.008711014874279499,-0.0018740869127213955,-0.005032348912209272,0.0054472400806844234,0.0,0.006459834519773722
0.008736041374504566,-0.0019251405028626323,-0.005577471107244492,0.0052567897364497185,0.0,0.006601511966437101
0.009298959746956825,-0.0017491210019215941,-0.006151749286800623,0.0050691780634224415,0.0,0.007376120891422033
0.008865772746503353,-0.0016985326074063778,-0.005450034514069557,0.004926036112010479,0.0,0.007294246461242437
0.008802324533462524,-0.0016962470253929496,-0.004920525010675192,0.00565432570874691,0.0,0.006839585956186056
0.00860094465315342,-0.0015966446371749043,-0.005306644830852747,0.005642540752887726,0.0,0.006766400765627623
0.009453441947698593,-0.0018388453172519803,-0.005271630827337503,0.005270115099847317,0.0,0.006849672645330429
0.00916206743568182,-0.001751013332977891,-0.0064189499244093895,0.004962136037647724,0.0,0.007154263090342283
0.008733798749744892,-0.0021221525967121124,-0.006111648865044117,0.005154295824468136,0.0,0.007450035307556391
0.009373188950121403,-0.0019309582421556115,-0.005538116209208965,0.005343717988580465,0.0,0.0070811244659125805
0.008708789944648743,-0.0017402806552127004,-0.005742920096963644,0.005759988911449909,0.0,0.007396202068775892
0.008979435078799725,-0.0016416393918916583,-0.00668689887970686,0.005272773094475269,0.0,0.006984887644648552
0.008979435078799725,-0.0016416393918916583,-0.00668689887970686,0.005272773094475269,0.0,0.006984887644648552
0.009412589482963085,-0.0015210367273539305,-0.006279750727117062,0.004956927616149187,0.0,0.0070714582689106464
0.009110811166465282,-0.0016163710970431566,-0.005895418114960194,0.005361806135624647,0.0,0.007010822184383869
0.009547711350023746,-0.001737853861413896,-0.006200934294611216,0.005565643310546875,0.0,0.0073310136795043945
0.009627968072891235,-0.0018445601454004645,-0.0061539593152701855,0.00578923849388957,0.0,0.007628150284290314
0.009348046965897083,-0.001866193488240242,-0.006635469850152731,0.005491104442626238,-7.662526513740886e-06,0.007480104453861713
0.009203130379319191,-0.0017073166090995073,-0.0068674576468765736,0.005423528142273426,-0.0003680843801703304,0.007037279196083546
0.010488682426512241,-0.0015997319715097547,-0.00687749357894063,0.005040415562689304,-0.0004248319601174444,0.0074247498996555805
0.009251703508198261,-0.0015040874714031816,-0.006307391915470362,0.00489209545776248,-0.00040319529944099486,0.007077453192323446
0.009611434303224087,-0.001514148316346109,-0.006532804109156132,0.005491495132446289,-0.00043402198934927583,0.007244125008583069
0.00984535925090313,-0.0015649076085537672,-0.006857689004391432,0.005340910051018,-0.0004096314369235188,0.007320512551814318
0.009984023869037628,-0.0014781298814341426,-0.006644490174949169,0.0056734755635261536,-0.00043238556827418506,0.00801863893866539
0.009390695951879025,-0.0016498516779392958,-0.006276399828493595,0.0055651855655014515,-0.00041402396163903177,0.007667531259357929
0.010082321241497993,-0.001747100381180644,-0.006408527959138155,0.005771465599536896,-0.0003919076989404857,0.007415652275085449
0.00996299460530281,-0.0021176731679588556,-0.007006214000284672,0.0055497488938272,-0.0004728140775114298,0.007918980903923512
0.009411605075001717,-0.00195238646119833,-0.0066316197626292706,0.005858604796230793,-0.0004588190349750221,0.00793594028800726
0.00991979893296957,-0.0017607881454750896,-0.006269700825214386,0.006264479830861092,-0.0004183658747933805,0.006958373822271824
0.009664429351687431,-0.001546802930533886,-0.006216633599251509,0.005779116414487362,-0.00038287954521365464,0.007108995225280523
0.010045317001640797,-0.0012602756032720208,-0.006747451610863209,0.005859389901161194,-0.00035284014302305877,0.007901649922132492
0.010254913941025734,-0.0010501178912818432,-0.007452688179910183,0.00594358379021287,-0.0003589075931813568,0.007908274419605732
0.010116836987435818,-0.0008999148849397898,-0.006903593894094229,0.005910188890993595,-0.0003637752670329064,0.007602940779179335
0.00993489008396864,-0.0007992616738192737,-0.006606638431549072,0.006281846668571234,-0.00032225745962932706,0.007993455044925213
0.009834484197199345,-0.0006391219212673604,-0.00718647288158536,0.0060706245712935925,-0.00030411093030124903,0.00791902095079422
0.009932473301887512,-0.0006614946178160608,-0.006737598218023777,0.005620579235255718,-0.00031128854607231915,0.00859862845391035
0.01020644698292017,-0.000712686451151967,-0.006819817703217268,0.006061933934688568,-0.0003172628639731556,0.008134862408041954
0.010060022585093975,-0.0012863819720223546,-0.006867298390716314,0.006593523547053337,-0.0003033968387171626,0.008266925811767578
0.010060022585093975,-0.0012863819720223546,-0.006867298390716314,0.006593523547053337,-0.0003033968387171626,0.008266925811767578
0.01010212767869234,-0.0012714134063571692,-0.007307218853384256,0.006234959699213505,-0.0002895422512665391,0.008179698139429092
0.010017848573625088,-0.001074764528311789,-0.005654273554682732,0.005949912592768669,-0.0002768219565041363,0.008248403668403625
0.0096406489610672,-0.0010329626966267824,-0.003212668001651764,0.006089618895202875,-0.00028369593201205134,0.008286656811833382
0.010331057012081146,-0.0009155431180261075,-0.0027549893129616976,0.0064202104695141315,-0.0002895435900427401,0.008567770011723042
0.010162224061787128,-0.0007967054261825979,-0.0030040573328733444,0.005779195576906204,-0.0002794333267956972,0.008325382135808468
0.009607641026377678,-0.0006746892468072474,-0.005655079614371061,0.005007005762308836,-0.0002690627006813884,0.00874294526875019
0.01007858943194151,-0.0007781549938954413,-0.005120910704135895,0.005350704304873943,-0.0002593740646261722,0.008358350954949856
0.010151252150535583,-0.0008169235661625862,-0.00435831630602479,0.007057129871100187,-0.00022450867982115597,0.008680364117026329
0.01059778593480587,-0.0009543373598717153,-0.0037180085200816393,0.007695293053984642,-0.0002107032632920891,0.008415650576353073
0.010694789700210094,-0.0010373445693403482,-0.003384117502719164,0.00749921565875411,-0.00023853332095313817,0.008270565420389175
0.010195734910666943,-0.0010043659713119268,-0.00356115004979074,0.007211583666503429,-0.00023076664365362376,0.008458851836621761
0.009985610842704773,-0.0008796293404884636,-0.004043628927320242,0.007149927783757448,-0.00022145966067910194,0.009265626780688763
0.01053985022008419,-0.0007719571585766971,-0.004072632174938917,0.006856432184576988,-0.00021274351456668228,0.008862847462296486
0.010375632904469967,-0.0007738374988548458,-0.004191387910395861,0.006998549681156874,-0.00023647674242965877,0.008783513680100441
0.010167170315980911,-0.0007083416567184031,-0.004161405842751265,0.00680608069524169,-0.00022991931473370641,0.008577222004532814
0.010927116498351097,-0.0006465243641287088,-0.004658018704503775,0.0066100372932851315,-0.00022195346537046134,0.008557516150176525
0.010211409069597721,-0.0005419757799245417,-0.004744579084217548,0.007051447406411171,-0.00022942022769711912,0.009137616492807865
0.010595069266855717,-0.000568188086617738,-0.00433026347309351,0.006819389760494232,-0.0002359524369239807,0.008717337623238564
0.01078951358795166,-0.0005235827993601561,-0.004328662063926458,0.006485522259026766,-0.00022935432207304984,0.00839047972112894
0.010127522982656956,-0.0005292825517244637,-0.00473747169598937,0.0061981892213225365,-0.00022233082563616335,0.008168675005435944
0.01067887432873249,-0.0005113566294312477,-0.004844024311751127,0.0062149325385689735,-0.0002974047383759171,0.008811519481241703
0.010639549233019352,-0.0004732687084469944,-0.004884646739810705,0.006333458703011274,-0.00030412073829211295,0.009138956665992737
0.010546264238655567,-0.00047020739293657243,-0.005244443193078041,0.006327684037387371,-0.00026945836725644767,0.00943074468523264
0.010783020406961441,-0.0005019525997340679,-0.004731401801109314,0.00639874255284667,-0.00025423572515137494,0.009126733057200909
0.011133800260722637,-0.0005133298691362143,-0.0050833518616855145,0.006773634813725948,-0.00028544283122755587,0.00910163763910532
0.010503992438316345,-0.0004946744302287698,-0.005311515182256699,0.006698336917907,-0.0002738830808084458,0.009267905727028847
0.010415290482342243,-0.0005279770703054965,-0.0051153250969946384,0.007015745621174574,-0.0002608414797578007,0.008845875039696693
0.010415290482342243,-0.0005279770703054965,-0.0051153250969946384,0.007015745621174574,-0.0002608414797578007,0.008845875039696693
0.010113566182553768,-0.0005601859302259982,-0.0054269032552838326,0.006543793715536594,-0.0002794547763187438,0.008769667707383633
0.010663371533155441,-0.0009001221042126417,-0.005162359680980444,0.006205636542290449,-0.00027680658968165517,0.008709769695997238
0.010020062327384949,-0.0009146705851890147,-0.005808213725686073,0.006546634249389172,-0.00026575560332275927,0.008819793350994587
0.010604062117636204,-0.000916200689971447,-0.0053899711929261684,0.006675485521554947,-0.00025503753568045795,0.00908569898456335
0.010214890353381634,-0.0010824603959918022,-0.005428736098110676,0.0064926669001579285,-0.0002622558968141675,0.008863965049386024
0.010253279469907284,-0.0010602413676679134,-0.005803687963634729,0.006289813667535782,-0.00026847192202694714,0.00904535036534071
0.010337352752685547,-0.0009022852755151689,-0.00628808606415987,0.0065842196345329285,-0.0002598290448077023,0.008882803842425346
0.010481572709977627,-0.0009000249556265771,-0.005955817643553019,0.007013693917542696,-0.00028728711185976863,0.009242800064384937
0.010048498399555683,-0.0008620376465842128,-0.00574523163959384,0.006501848343759775,-0.0002753952285274863,0.009429981000721455
0.010622421279549599,-0.0008007425349205732,-0.005850608926266432,0.00603479752317071,-0.0002598589053377509,0.009630109183490276
0.010913372039794922,-0.0006938789738342166,-0.006222676485776901,0.00629760418087244,-0.0002819152141455561,0.008895650506019592
0.010692322626709938,-0.000727002858184278,-0.006310698576271534,0.006989470683038235,-0.0002657410514075309,0.009158874861896038
0.010692322626709938,-0.000727002858184278,-0.006310698576271534,0.006989470683038235,-0.0002657410514075309,0.009158874861896038
0.010711039416491985,-0.0007452068966813385,-0.006257126107811928,0.006753202527761459,-0.00029264652403071523,0.00968342274427414
0.01050577498972416,-0.0006847648764960468,-0.006765478290617466,0.006340452935546637,-0.0002821082598529756,0.00975351594388485
0.010517382062971592,-0.0007954300381243229,-0.006982505787163973,0.006699818652123213,-0.0002701754856389016,0.00927260983735323
0.010265556164085865,-0.0008022498805075884,-0.006000666879117489,0.007287122309207916,-0.0002864255220629275,0.009186482056975365
0.01054040901362896,-0.0007111993036232889,-0.005852690897881985,0.007535905111581087,-0.0002837548381648958,0.009379533119499683
0.010892542079091072,-0.0006285486160777509,-0.006535469088703394,0.006959284655749798,-0.00027353892801329494,0.01013755053281784
0.010721945203840733,-0.0005947527824901044,-0.00756916543468833,0.007110178004950285,-0.00032389877014793456,0.009385094046592712
0.010776810348033905,-0.0005434464546851814,-0.007032403256744146,0.008024167269468307,-0.00030696182511746883,0.00953957624733448
0.011100423522293568,-0.0005687513621523976,-0.006557281594723463,0.007097853347659111,-0.0003373929066583514,0.009821085259318352
0.011746334843337536,-0.0005296320305205882,-0.007096094079315662,0.006703768856823444,-0.00032395965536125004,0.010329043492674828
0.010600465349853039,-0.0004575478669721633,-0.007359473034739494,0.007221153471618891,-0.00030604220228269696,0.009454790502786636
0.010837236419320107,-0.00046831450890749693,-0.0067245871759951115,0.00696993013843894,-0.00031318829860538244,0.008961611427366734
0.010837236419320107,-0.00046831450890749693,-0.0067245871759951115,0.00696993013843894,-0.00031318829860538244,0.008961611427366734
0.01194077543914318,-0.00045485334703698754,-0.006818555295467377,0.006822037044912577,-0.0003191026044078171,0.009245586581528187
0.01067783311009407,-0.000488783756736666,-0.007337962277233601,0.006928619928658009,-0.00030507115297950804,0.010287011042237282
0.011755929328501225,-0.0005115759558975697,-0.007250395603477955,0.006950588431209326,-0.00031138185295276344,0.009961468167603016
0.01159029919654131,-0.0004843329079449177,-0.007079636678099632,0.006871593650430441,-0.0003165718517266214,0.010089741088449955
0.010512012057006359,-0.0006343663553707302,-0.007543427404016256,0.006681927479803562,-0.00030441954731941223,0.00991810206323862
0.01168646290898323,-0.0006519161979667842,-0.007865842431783676,0.0066647096537053585,-0.00029214585083536804,0.009962166659533978
0.011295298114418983,-0.0006135102594271302,-0.0077687278389930725,0.007117785979062319,-0.00028075737645849586,0.009929078631103039
0.011156445369124413,-0.0006319896783679724,-0.00748941395431757,0.007108575664460659,-0.0003091883263550699,0.010690385475754738
0.011178734712302685,-0.0005834504845552146,-0.00747614074498415,0.0072745829820632935,-0.0003020252042915672,0.010433955118060112
0.009635131806135178,-0.0006011723889969289,-0.007654858287423849,0.0070814285427331924,-0.0002838537620846182,0.010959585197269917
0.011886432766914368,-0.0005625656922347844,-0.007823916152119637,0.007355739362537861,-0.00026705919299274683,0.010744170285761356
0.011856886558234692,-0.0005698428140021861,-0.007361404597759247,0.007792181335389614,-0.0002892562188208103,0.010557015426456928
0.01121579110622406,-0.0005267859087325633,-0.007584015838801861,0.007655870635062456,-0.0002855953644029796,0.010678638704121113
0.011488022282719612,-0.0005621651071123779,-0.007849539630115032,0.007162528578191996,-0.0002719682815950364,0.010820387862622738
0.011436493135988712,-0.0005124004674144089,-0.008799421600997448,0.00689705228433013,-0.00029083125991746783,0.010819210670888424
0.011567148379981518,-0.0005448763258755207,-0.00783911719918251,0.0076635852456092834,-0.00028756927349604666,0.010808036662638187
0.011258609592914581,-0.0005024449783377349,-0.007367882877588272,0.007977153174579144,-0.00027563993353396654,0.010463004931807518
0.011956254951655865,-0.0005087581230327487,-0.007594474591314793,0.007628778461366892,-0.0002641247701831162,0.01081114262342453
0.011514319106936455,-0.00046553241554647684,-0.007552621886134148,0.007807627320289612,-0.00027387135196477175,0.010489246807992458
0.01254604384303093,-0.0004807711811736226,-0.007052190136164427,0.007176355458796024,-0.0002678272721823305,0.010852301493287086
0.011599957011640072,-0.000511575082782656,-0.007974117994308472,0.0069148847833275795,-0.00025848241057246923,0.01112411543726921
0.011784499511122704,-0.0004759806324727833,-0.007956069894134998,0.007166876457631588,-0.0002495403459761292,0.011155862361192703
0.012166890315711498,-0.0004851147241424769,-0.007697645574808121,0.008126315660774708,-0.0002668265951797366,0.010611354373395443
0.011850903742015362,-0.00047184358118101954,-0.007756527047604322,0.008323479443788528,-0.0002602155436761677,0.010647747665643692
0.012225843034684658,-0.00043925089994445443,-0.007903140038251877,0.007719335146248341,-0.00024653153377585113,0.010815471410751343
0.011729471385478973,-0.00046225416008383036,-0.0075973994098603725,0.0075651975348591805,-0.00023375840100925416,0.011079537682235241
0.01231364905834198,-0.000440466363215819,-0.007293357513844967,0.00835824478417635,-0.00022221397375687957,0.010805496945977211
0.01231364905834198,-0.000440466363215819,-0.007293357513844967,0.00835824478417635,-0.00022221397375687957,0.010805496945977211
0.01163439266383648,-0.0004968921421095729,-0.007352675311267376,0.007965154945850372,-0.0002117539697792381,0.010845080018043518
0.011670601554214954,-0.0005397910135798156,-0.008197027258574963,0.007282760925590992,-0.00020223591127432883,0.010938490740954876
0.012762285768985748,-0.0005703697097487748,-0.008094391785562038,0.007349062245339155,-0.0001935359905473888,0.010322138667106628
0.012913445010781288,-0.0005258869496174157,-0.007419939152896404,0.00813966616988182,-0.00018555382848717272,0.010754509828984737
0.01352493092417717,-0.0005463832640089095,-0.007123169954866171,0.007667058613151312,-0.00017820407811086625,0.0103851817548275
0.013069708831608295,-0.0005149364587850869,-0.0072219036519527435,0.007396981120109558,-0.00017141527496278286,0.010595710016787052
0.013216816820204258,-0.0004806549404747784,-0.008705297484993935,0.008093040436506271,-0.00018955224368255585,0.010806513018906116
0.013217512518167496,-0.0005631844978779554,-0.007761246990412474,0.007826682180166245,-0.00019057290046475828,0.010679212398827076
0.013571212068200111,-0.0005144969909451902,-0.0071747456677258015,0.007498752325773239,-0.00018456265388522297,0.010559472255408764
0.013157927431166172,-0.0005503000575117767,-0.007906457409262657,0.007672943640500307,-0.0001784942578524351,0.010911951772868633
0.013277162797749043,-0.0005025811260566115,-0.00817066989839077,0.007773539982736111,-0.00017278475570492446,0.010891489684581757
0.013497701846063137,-0.0005353331216610968,-0.007634695153683424,0.007501893676817417,-0.000167426944244653,0.011127591133117676
0.013733391650021076,-0.0005404308903962374,-0.008154121227562428,0.007679575588554144,-0.0001623914868105203,0.011168750002980232
0.01389114186167717,-0.0005235225544311106,-0.008324776776134968,0.00767262140288949,-0.00015765056014060974,0.011099284514784813
0.013834141194820404,-0.0005645256023854017,-0.007973979227244854,0.008186085149645805,-0.00016570986190345138,0.011500660330057144
0.013719368726015091,-0.000542529218364507,-0.00886447262018919,0.007468799594789743,-0.0001690574863459915,0.01159766037017107
0.013884534128010273,-0.000520098430570215,-0.008624709211289883,0.007889083586633205,-0.0001646880409680307,0.01140634249895811
0.013884534128010273,-0.000520098430570215,-0.008624709211289883,0.007889083586633205,-0.0001646880409680307,0.01140634249895811
0.014310570433735847,-0.0005087452591396868,-0.007565648760646582,0.00815937016159296,-0.00016749366477597505,0.01189069077372551
0.014214741997420788,-0.0005302249919623137,-0.00888426136225462,0.007627763319760561,-0.00017378829943481833,0.011976586654782295
0.014362307265400887,-0.0005007655709050596,-0.008999322541058064,0.008209018036723137,-0.00017035174823831767,0.011957217007875443
0.014362307265400887,-0.0005007655709050596,-0.008999322541058064,0.008209018036723137,-0.00017035174823831767,0.011957217007875443
0.013663344085216522,-0.0005419441149570048,-0.00796462781727314,0.008518802933394909,-0.00016645748110022396,0.01180512085556984
0.014434244483709335,-0.0004930883878841996,-0.008338098414242268,0.008070027455687523,-0.00015912145317997783,0.011860357597470284
0.014228264801204205,-0.0005225632339715958,-0.008156168274581432,0.008042119443416595,-0.00015284714754670858,0.013490700162947178
0.014453175477683544,-0.0004852866695728153,-0.008116219192743301,0.008443114347755909,-0.0001477705518482253,0.011459761299192905
0.014057367108762264,-0.0005164872272871435,-0.008449283428490162,0.008319796063005924,-0.0001678953121881932,0.010967271402478218
0.014850979670882225,-0.00047996919602155685,-0.008543439209461212,0.007726081646978855,-0.00016614359628874809,0.011758822947740555
0.014281626790761948,-0.0005020793760195374,-0.008456559851765633,0.00767382001504302,-0.00016140066145453602,0.0120006762444973
0.015035836957395077,-0.0004759234725497663,-0.008231251500546932,0.008242080919444561,-0.00017607855261303484,0.012196156196296215
0.014432883821427822,-0.0004997925134375691,-0.008578105829656124,0.007772421929985285,-0.00017725289217196405,0.011733894236385822
0.014539218507707119,-0.00047509444993920624,-0.008418087847530842,0.007546768523752689,-0.00018491352966520935,0.011952185072004795
0.01388556882739067,-0.0005055973306298256,-0.008275918662548065,0.007040055468678474,-0.0001914128806674853,0.012217897921800613
0.014437772333621979,-0.00047089357394725084,-0.008984144777059555,0.007335091475397348,-0.00018731781165115535,0.01212190743535757
0.01443993579596281,-0.0004803513584192842,-0.00866618100553751,0.008234255015850067,-0.0003804115694947541,0.01222687866538763
0.014733782969415188,-0.0004675508535001427,-0.008557491935789585,0.008067644201219082,-0.00036337581695988774,0.011574050411581993
0.014432721771299839,-0.0004367460496723652,-0.008860123343765736,0.007838709279894829,-0.00038655870594084263,0.012161479331552982
0.014592611230909824,-0.00025405638734810054,-0.008873599581420422,0.008331223390996456,-0.0003751446201931685,0.012259546667337418
0.014070376753807068,-0.00011538996477611363,-0.008916880935430527,0.008496755734086037,-0.00040624645771458745,0.012398754246532917
0.014070376753807068,-0.00011538996477611363,-0.008916880935430527,0.008496755734086037,-0.00040624645771458745,0.012398754246532917
0.015114203095436096,-6.2125815603053525e-09,-0.00938391499221325,0.008654442615807056,-0.0005693593993782997,0.012298990041017532
0.015114203095436096,-6.2125815603053525e-09,-0.00938391499221325,0.008654442615807056,-0.0005693593993782997,0.012298990041017532
0.014984584413468838,-8.334970214018966e-11,-0.00810945499688387,0.008392859250307083,-0.0005116503452882171,0.011880551464855671
0.014640414156019688,-1.5002654338031746e-14,-0.008608334697782993,0.0088307224214077,-0.0005001017707400024,0.012340277433395386
0.014640414156019688,-1.5002654338031746e-14,-0.008608334697782993,0.0088307224214077,-0.0005001017707400024,0.012340277433395386
0.015128834173083305,-2.0127973780687994e-16,-0.008663976565003395,0.009055857546627522,-0.0004580051463562995,0.012152410112321377
0.015444002114236355,-2.7004245810885773e-18,-0.008187761530280113,0.008541266433894634,-0.00042218848830088973,0.012428255751729012
0.015518462285399437,-4.860669082545815e-22,-0.009152010083198547,0.009185433387756348,-0.00042532538645900786,0.013002223335206509
0.015518462285399437,-4.860669082545815e-22,-0.009152010083198547,0.009185433387756348,-0.00042532538645900786,0.013002223335206509
0.015636680647730827,-6.5212074198613315e-24,-0.008557671681046486,0.00880372803658247,-0.0003988850221503526,0.012800825759768486
0.015512143261730671,-8.749033200081484e-26,-0.00818079337477684,0.008607850410044193,-0.0003751553304027766,0.012808605097234249
0.015458852984011173,-1.173794500979247e-27,-0.009427450597286224,0.008299622684717178,-0.0004011433047708124,0.012706680223345757
0.01581323891878128,-1.5747952997062164e-29,-0.008855815976858139,0.008190235123038292,-0.00038287515053525567,0.012986469082534313
0.0150374136865139,-2.1127888773826483e-31,-0.008549405261874199,0.007682034280151129,-0.00036372794420458376,0.013193204067647457
0.015901124104857445,-2.834576057313325e-33,-0.009134490974247456,0.008589143864810467,-0.00034624370164237916,0.013235559687018394
0.015562490560114384,-3.802945778044581e-35,-0.009299186058342457,0.008223139680922031,-0.00030588533263653517,0.01305047981441021
0.01583637297153473,-5.102137125332339e-37,-0.008843125775456429,0.008127907291054726,-0.00027991682873107493,0.012492122128605843
0.015746621415019035,-6.845167835918691e-39,-0.00894599873572588,0.00866567250341177,-0.0002630894014146179,0.012733357958495617
0.01563182845711708,-9.183689745645554e-41,-0.009020891971886158,0.008814351633191109,-0.0002485230506863445,0.012450259178876877
0.015594017691910267,-1.2317413501415142e-42,-0.00850648246705532,0.008935975842177868,-0.00027627957751974463,0.012607409618794918
0.015504107810556889,-1.6815581571897805e-44,-0.009548273868858814,0.00930535513907671,-0.0002681393816601485,0.012497538700699806
0.015226764604449272,-0.0,-0.009642073884606361,0.0099176075309515,-0.00025579959037713706,0.012703062035143375
0.015260878019034863,0.0,-0.00919423345476389,0.00916839949786663,-0.0002743149525485933,0.012527123093605042
0.015543642453849316,0.0,-0.008269133977591991,0.009700951166450977,-0.0002719312906265259,0.012553845532238483
0.01537199504673481,0.0,-0.0088746203109622,0.009887945838272572,-0.00026127015007659793,0.012825152836740017
0.01549874059855938,0.0,-0.008250166662037373,0.008995898067951202,-0.0002751554420683533,0.013248004950582981
0.015498367138206959,0.0,-0.00883458275347948,0.009351151995360851,-0.0002656700962688774,0.012892263010144234
0.015498367138206959,0.0,-0.00883458275347948,0.009351151995360851,-0.0002656700962688774,0.012892263010144234
0.015748262405395508,0.0,-0.008751744404435158,0.00890319049358368,-0.00031220412347465754,0.012804248370230198
0.0164103452116251,0.0,-0.009592181071639061,0.009067212231457233,-0.0003273933252785355,0.013292642310261726
0.0164103452116251,0.0,-0.009592181071639061,0.009067212231457233,-0.0003273933252785355,0.013292642310261726
0.015727976337075233,0.0,-0.008819318376481533,0.00869120191782713,-0.0003354857617523521,0.013190997764468193
0.015727976337075233,0.0,-0.008819318376481533,0.00869120191782713,-0.0003354857617523521,0.013190997764468193
0.01589616946876049,0.0,-0.00873493030667305,0.009132505394518375,-0.0003407158947084099,0.01276856567710638
0.015985719859600067,0.0,-0.009431208483874798,0.009074525907635689,-0.0003246805863454938,0.012731990776956081
0.015638818964362144,0.0,-0.009202494286000729,0.008366668596863747,-0.0003499528975225985,0.013083970174193382
0.01573082245886326,0.0,-0.009146612137556076,0.008331778459250927,-0.00033629039535298944,0.012898766435682774
0.015592772513628006,0.0,-0.01012908574193716,0.009116505272686481,-0.0003214481403119862,0.012904682196676731
0.015863876789808273,0.0,-0.009353820234537125,0.00908646173775196,-0.0003598534385673702,0.014566367492079735
0.016203580424189568,0.0,-0.00927815306931734,0.008414823561906815,-0.00037891173269599676,0.012817421928048134
0.016718000173568726,0.0,-0.009972264990210533,0.00911471713334322,-0.0003524566418491304,0.01285059005022049
0.016165772452950478,0.0,-0.009434581734240055,0.008740322664380074,-0.00032703595934435725,0.013383317738771439
0.015917524695396423,0.0,-0.009022429585456848,0.008118145167827606,-0.00036158028524369,0.013747229240834713
0.016118248924613,0.0,-0.009671292267739773,0.008266281336545944,-0.00034234850318171084,0.013863454572856426
0.016075963154435158,0.0,-0.00970038864761591,0.009267304092645645,-0.0003482962492853403,0.013980195857584476
0.01646125689148903,0.0,-0.008830210193991661,0.009838107973337173,-0.0003528985835146159,0.0137613695114851
0.016215819865465164,0.0,-0.00949972216039896,0.009820233099162579,-0.0003356684173922986,0.014047238044440746
0.016565445810556412,0.0,-0.009836027398705482,0.009959966875612736,-0.000318781821988523,0.013726272620260715
0.016068655997514725,0.0,-0.009258757345378399,0.010020648129284382,-0.0003245960979256779,0.013879834674298763
0.01650748774409294,0.0,-0.009935817681252956,0.00990548450499773,-0.00032939109951257706,0.013623061589896679
0.01650748774409294,0.0,-0.009935817681252956,0.00990548450499773,-0.00032939109951257706,0.013623061589896679
0.017002632841467857,0.0,-0.009184569120407104,0.009701947681605816,-0.00031210522865876555,0.014014089480042458
0.017002632841467857,0.0,-0.009184569120407104,0.009701947681605816,-0.00031210522865876555,0.014014089480042458
0.015893258154392242,0.0,-0.009354068897664547,0.009712500497698784,-0.00029539555544033647,0.013979796320199966
0.01636655628681183,0.0,-0.00929716695100069,0.009468193165957928,-0.0002774231252260506,0.014266540296375751
0.016437023878097534,0.0,-0.009330245666205883,0.009541687555611134,-0.0002613212272990495,0.014272685162723064
0.01666448824107647,0.0,-0.010149223729968071,0.00973675400018692,-0.0002929559850599617,0.014593509025871754
0.016474870964884758,3.831532012554817e-05,-0.009838338941335678,0.009066722355782986,-0.00026703195180743933,0.01433695200830698
0.016474870964884758,3.831532012554817e-05,-0.009838338941335678,0.009066722355782986,-0.00026703195180743933,0.01433695200830698
0.016840018332004547,3.1073985155671835e-05,-0.009922556579113007,0.009656548500061035,-0.0002857687941286713,0.014008942991495132
0.01633935235440731,3.045984158234205e-05,-0.009944365359842777,0.009458581916987896,-0.00028278163517825305,0.014538338407874107
0.016854196786880493,2.9951184842502698e-05,-0.009887143969535828,0.009403527714312077,-0.00029988144524395466,0.014208430424332619
0.015612722374498844,2.9460923542501405e-05,-0.010348713025450706,0.009990265592932701,-0.0002965838648378849,0.014283007942140102
0.017234548926353455,2.8987162295379676e-05,-0.01024226937443018,0.009142093360424042,-0.00028541753999888897,0.014153655618429184
0.017214441671967506,2.8527749236673117e-05,-0.01034904271364212,0.009097401052713394,-0.00027578507433645427,0.01446146983653307
0.016838854178786278,2.80821059277514e-05,-0.010486828163266182,0.009741060435771942,-0.0003269243170507252,0.014523453079164028
0.017537401989102364,2.7651320124277845e-05,-0.00957662146538496,0.009781654924154282,-0.00030912208603695035,0.014914887957274914
0.0170050747692585,2.7232408683630638e-05,-0.010391898453235626,0.009056600742042065,-0.00031768373446539044,0.01432470791041851
0.017186632379889488,3.565820588846691e-05,-0.010114524513483047,0.0095454016700387,-0.0003245019179303199,0.014562302269041538
0.01737508736550808,3.958825982408598e-05,-0.00979878194630146,0.010012458078563213,-0.00030770181911066175,0.014258167706429958
0.017231568694114685,3.9075108361430466e-05,-0.011222120374441147,0.009315125644207,-0.00029121150146238506,0.014752709306776524
0.01757388934493065,3.851845031022094e-05,-0.01149783656001091,0.009909924119710922,-0.0003161789500154555,0.014853631146252155
0.017462970688939095,4.631185584003106e-05,-0.010313215665519238,0.010284283198416233,-0.0003062644391320646,0.014968293718993664
0.017748424783349037,4.987532156519592e-05,-0.010000073350965977,0.009780826978385448,-0.0002924038271885365,0.01490767765790224
0.018168067559599876,4.924942913930863e-05,-0.010349921882152557,0.010211541317403316,-0.00027945300098508596,0.015119346790015697
0.01805560104548931,5.976012835162692e-05,-0.01088762003928423,0.010018239729106426,-0.0002931767958216369,0.014820448122918606
0.01805560104548931,5.976012835162692e-05,-0.01088762003928423,0.010018239729106426,-0.0002931767958216369,0.014820448122918606
0.017556218430399895,5.913362474530004e-05,-0.010566438548266888,0.010771180503070354,-0.00028282657149247825,0.014705153182148933
0.016521606594324112,5.8368768804939464e-05,-0.009965341538190842,0.010251923464238644,-0.00031789252534508705,0.014942747540771961
0.017953891307115555,5.762142609455623e-05,-0.010451660491526127,0.009833905845880508,-0.0003002791781909764,0.01498093269765377
0.017806289717555046,5.689298268407583e-05,-0.00999696645885706,0.009979846887290478,-0.00028170717996545136,0.01503489725291729
0.01788012869656086,5.618269642582163e-05,-0.010047747753560543,0.009672481566667557,-0.00031097567989490926,0.015064477920532227
0.017925268039107323,5.548986518988386e-05,-0.010633393190801144,0.009500870481133461,-0.000299967301543802,0.01548430509865284
0.017516544088721275,0.00016545961261726916,-0.009898501448333263,0.010024890303611755,-0.0003256179334130138,0.015594147145748138
0.018307529389858246,0.0001732371747493744,-0.010862009599804878,0.009655329398810863,-0.0003149809781461954,0.015383264049887657
0.018097929656505585,0.00016699791012797505,-0.010377221740782261,0.010103093460202217,-0.00032128600287251174,0.015759559348225594
0.018316177651286125,0.00016102459630928934,-0.00987524539232254,0.010003624483942986,-0.0003262073441874236,0.015570985153317451
0.01846654899418354,0.00015546179201919585,-0.010320121422410011,0.009963383898139,-0.0003147241659462452,0.015613921917974949
0.018492355942726135,0.0001502702507423237,-0.009917443618178368,0.009995016269385815,-0.0004032592405565083,0.015321306884288788
0.018637312576174736,0.00014541417476721108,-0.010106531903147697,0.010296509601175785,-0.0003771085466723889,0.01534704864025116
0.018218062818050385,0.00014086214650887996,-0.010846521705389023,0.010064715519547462,-0.0004131447640247643,0.015404339879751205
0.018542107194662094,0.00013658709940500557,-0.01022431906312704,0.010057954117655754,-0.00038772416883148253,0.01565103605389595
0.019143778830766678,0.00015416796668432653,-0.010717684403061867,0.01111797895282507,-0.0003947570512536913,0.01574072800576687
0.019143778830766678,0.00015416796668432653,-0.010717684403061867,0.01111797895282507,-0.0003947570512536913,0.01574072800576687
0.018916554749011993,0.000150220439536497,-0.009873492643237114,0.010632665827870369,-0.0003723267582245171,0.015882844105362892
0.018889594823122025,0.00016953819431364536,-0.009615106508135796,0.009944137185811996,-0.0003950539685320109,0.015904853120446205
0.01912069320678711,0.00016601182869635522,-0.01047338917851448,0.009711353108286858,-0.00038013968151062727,0.015968015417456627
0.01912069320678711,0.00016601182869635522,-0.01047338917851448,0.009711353108286858,-0.00038013968151062727,0.015968015417456627
0.01921023428440094,0.00017760045011527836,-0.009674115106463432,0.010519606061279774,-0.00040519965114071965,0.015697799623012543
0.01921023428440094,0.00017760045011527836,-0.009674115106463432,0.010519606061279774,-0.00040519965114071965,0.015697799623012543
0.01861869916319847,0.0001719026331556961,-0.01000232994556427,0.011261673644185066,-0.0003984839131589979,0.016281791031360626
0.019495362415909767,0.00024306561681441963,-0.009847021661698818,0.011122497729957104,-0.00038586423033848405,0.016015173867344856
0.017462927848100662,0.0002625657944008708,-0.00980143528431654,0.010699949227273464,-0.0003946509095840156,0.016071457415819168
0.017462927848100662,0.0002625657944008708,-0.00980143528431654,0.010699949227273464,-0.0003946509095840156,0.016071457415819168
0.019659703597426414,0.00025200555683113635,-0.010753178037703037,0.009831910952925682,-0.00041751880780793726,0.01561533659696579
0.019549626857042313,0.00024079061404336244,-0.009953968226909637,0.010130401700735092,-0.00047704222379252315,0.015678592026233673
0.0189711581915617,0.00026438283384777606,-0.009414654225111008,0.010524610057473183,-0.000547258707229048,0.016352083534002304
0.019531195983290672,0.0002578592102508992,-0.010604492388665676,0.010618334636092186,-0.000540749344509095,0.01674175262451172
0.019601095467805862,0.00024777452927082777,-0.010250665247440338,0.010357806459069252,-0.0005341531941667199,0.016506696119904518
0.0191961657255888,0.00027198129100725055,-0.01008535735309124,0.010507446713745594,-0.0005257865996100008,0.016284756362438202
0.019626559689641,0.0002625158231239766,-0.010149112902581692,0.010106731206178665,-0.0005521820276044309,0.01592489704489708
0.019763365387916565,0.0004034987941849977,-0.010099237784743309,0.010657211765646935,-0.0006792446365579963,0.01656487211585045
0.01952761970460415,0.00037617440102621913,-0.010656854137778282,0.01039047446101904,-0.0007328165811486542,0.016821712255477905
0.01973297819495201,0.00034722694545052946,-0.011788041330873966,0.0102968979626894,-0.000673377129714936,0.017664289101958275
0.0203379075974226,0.00037907151272520423,-0.01137872226536274,0.010917681269347668,-0.000693230947945267,0.01740599237382412
0.020421043038368225,0.00036085175815969706,-0.011346958577632904,0.010536442510783672,-0.000673375092446804,0.016435496509075165
0.01993190124630928,0.00033833517227321863,-0.011727338656783104,0.010873950086534023,-0.0006518610171042383,0.016222724691033363
0.0203576497733593,0.00035311380634084344,-0.01165758352726698,0.011893229559063911,-0.0006546857766807079,0.016073215752840042
0.020219437777996063,0.00035051978193223476,-0.011609835550189018,0.01064140722155571,-0.0006183384102769196,0.016210725530982018
0.020473593845963478,0.00037777729448862374,-0.011554593220353127,0.010667248629033566,-0.0006478680297732353,0.016810987144708633
0.02049093507230282,0.00042831027531065047,-0.011340459808707237,0.010244615375995636,-0.000584496941883117,0.01704738475382328
0.02056191675364971,0.000503064482472837,-0.011808480136096478,0.009977096691727638,-0.0005701220943592489,0.017563730478286743
0.02037678100168705,0.0005396821652539074,-0.011785709299147129,0.010424838401377201,-0.0005578720010817051,0.01695375144481659
0.020618192851543427,0.0010489944834262133,-0.011883918195962906,0.009885556995868683,-0.0005415276391431689,0.017350375652313232
0.020799821242690086,0.0010208709863945842,-0.011634592898190022,0.01066158339381218,-0.0005056124646216631,0.01719418354332447
0.020627982914447784,0.0008638959843665361,-0.012283219024538994,0.010731123387813568,-0.00047254739911295474,0.017391514033079147
0.021027738228440285,0.0007446915842592716,-0.011614099144935608,0.01041631679981947,-0.00044054759200662374,0.017400087788701057
0.021027738228440285,0.0007446915842592716,-0.011614099144935608,0.01041631679981947,-0.00044054759200662374,0.017400087788701057
0.021320737898349762,0.000761762319598347,-0.012018240056931973,0.010622553527355194,-0.000402023404603824,0.017538994550704956
0.02133735828101635,0.0007662008865736425,-0.011955847032368183,0.010588159784674644,-0.00043764273868873715,0.017624657601118088
0.02104470692574978,0.0006678920472040772,-0.012384563684463501,0.011349767446517944,-0.00040895381243899465,0.017272770404815674
0.02113289013504982,0.000676398107316345,-0.012116325087845325,0.011336512863636017,-0.0004393677518237382,0.017537331208586693
0.02117999456822872,0.0007011471316218376,-0.011332947760820389,0.011172860860824585,-0.00045790261356160045,0.01716192625463009
0.02149464748799801,0.0007211731863208115,-0.011781400069594383,0.01142022293061018,-0.00044353315024636686,0.017055049538612366
0.021328601986169815,0.0011603928869590163,-0.011385957710444927,0.011126858182251453,-0.0005757570615969598,0.017170703038573265
0.022113824263215065,0.0010187190491706133,-0.011807000264525414,0.011771772988140583,-0.0005322446813806891,0.017450429499149323
0.022208785638213158,0.000998380477540195,-0.012221461161971092,0.01152043603360653,-0.0004773241525981575,0.017692873254418373
0.021287625655531883,0.0009812579955905676,-0.011839752085506916,0.011307827197015285,-0.0005058866227045655,0.017543436959385872
0.020113803446292877,0.0008723325445316732,-0.011838121339678764,0.01159921009093523,-0.0004717478877864778,0.017536433413624763
0.0226072259247303,0.0007825489155948162,-0.011910386383533478,0.011390901170670986,-0.0004968825378455222,0.01792912185192108
0.02219628356397152,0.0007947319536469877,-0.012262878008186817,0.011079422198235989,-0.0004684591549448669,0.017524365335702896
0.021879246458411217,0.0008082296699285507,-0.012203182093799114,0.01125754602253437,-0.00043653586180880666,0.017574792727828026
0.021154262125492096,0.0008187081548385322,-0.011652967892587185,0.011086562648415565,-0.00045118562411516905,0.017678916454315186
0.022090140730142593,0.001019553979858756,-0.01258740946650505,0.011293723247945309,-0.00043717623339034617,0.01748434081673622
0.02243678830564022,0.0010420815087854862,-0.011906677857041359,0.011221352033317089,-0.00041296964627690613,0.017647013068199158
