davideferrari95/blind_handover_controller/data/Test 297 - [2024-02-08 -- 14-02-52]/joint_states_data.csv
shoulder_pan_joint,shoulder_lift_joint,elbow_joint,wrist_1_joint,wrist_2_joint,wrist_3_joint
0.0036633422132581472,0.00768595514819026,-0.00889342837035656,0.003434406593441963,0.0,0.004175360314548016
0.003649794729426503,0.007226318586617708,-0.008836326189339161,0.003269022097811103,0.0,0.003973634913563728
0.003649794729426503,0.007226318586617708,-0.008836326189339161,0.003269022097811103,0.0,0.003973634913563728
0.0037942498456686735,0.007094767410308123,-0.008981028571724892,0.0029680838342756033,0.0,0.004222775809466839
0.0038953423500061035,0.008121305145323277,-0.008429703302681446,0.0028332825750112534,0.0,0.003777152858674526
0.003614629153162241,0.008241696283221245,-0.008360194973647594,0.0026860786601901054,0.0,0.0034269671887159348
0.003475264646112919,0.007023494224995375,-0.009053398855030537,0.0027445130981504917,0.0,0.0032920760568231344
0.003694650251418352,0.008041374385356903,-0.008900445885956287,0.0026362785138189793,0.0,0.0034148122649639845
0.003853572765365243,0.0078110964968800545,-0.008020788431167603,0.002721469383686781,0.0,0.003915161360055208
0.003904336132109165,0.006657784339040518,-0.008598842658102512,0.0027424669824540615,0.0,0.004131669644266367
0.0034251895267516375,0.007322399877011776,-0.009046919643878937,0.003049904713407159,0.0,0.0050246515311300755
0.0034251895267516375,0.007322399877011776,-0.009046919643878937,0.003049904713407159,0.0,0.0050246515311300755
0.0033728175330907106,0.007420046720653772,-0.008131545037031174,0.0029295573476701975,0.0,0.004369666799902916
0.003513649571686983,0.00803941860795021,-0.008165447972714901,0.003039988223463297,0.0,0.003386576659977436
0.00371718592941761,0.007751057855784893,-0.008821451105177402,0.0026500425301492214,0.0,0.0030566442292183638
0.003769508795812726,0.007100078742951155,-0.00845943670719862,0.0025710794143378735,0.0,0.003455431666225195
0.003653009422123432,0.006687062792479992,-0.008053604513406754,0.0024737706407904625,0.0,0.003910121042281389
0.0035640245769172907,0.007089284248650074,-0.008649955503642559,0.002595571568235755,0.0,0.004785274621099234
0.0035141264088451862,0.007166613359004259,-0.008760632015764713,0.0026953036431223154,0.0,0.004792405758053064
0.0034410280641168356,0.007107692304998636,-0.008332587778568268,0.0027661523781716824,0.0,0.004353327210992575
0.003566712373867631,0.006809210870414972,-0.009034818038344383,0.002699085045605898,0.0,0.004463686142116785
0.00377982622012496,0.00718341488391161,-0.008698036894202232,0.0024538098368793726,0.0,0.004167492501437664
0.004008937627077103,0.007226531393826008,-0.008465108461678028,0.002491638995707035,0.0,0.003952896222472191
0.003975422587245703,0.007259710226207972,-0.008060786873102188,0.0026187156327068806,0.0,0.003858237061649561
0.0035056807100772858,0.007745040580630302,-0.008780630305409431,0.0024746472481638193,0.0,0.004077600315213203
0.0036650337278842926,0.007385354023426771,-0.00829298235476017,0.0024280743673443794,0.0,0.004359967075288296
0.003809260204434395,0.007020734250545502,-0.008507104590535164,0.002366455737501383,0.0,0.00463186064735055
0.0038123989943414927,0.00703943707048893,-0.008673019707202911,0.0025821339804679155,0.0,0.004855572711676359
0.0038376825395971537,0.00758706359192729,-0.008348699659109116,0.0025874022394418716,0.0,0.004579402972012758
0.0038773505948483944,0.0072761522606015205,-0.008280506357550621,0.0024842023849487305,0.0,0.0042892866767942905
0.003963899333029985,0.006937885656952858,-0.008791700005531311,0.0024684444069862366,0.0,0.003985457122325897
0.003487797686830163,0.007238311227411032,-0.008396551012992859,0.002482048701494932,0.0,0.004272247198969126
0.004099338315427303,0.007446393370628357,-0.008410236798226833,0.0025095290038734674,0.0,0.004114660434424877
0.004188857041299343,0.007180991116911173,-0.008981224149465561,0.0027279099449515343,0.0,0.004422081168740988
0.003992343321442604,0.007000660989433527,-0.008511653169989586,0.0025970281567424536,0.0,0.004144215956330299
0.0038862505462020636,0.007429891731590033,-0.008232560940086842,0.0025176890194416046,0.0,0.004424932412803173
0.00403880700469017,0.007670535705983639,-0.008114716969430447,0.0027449100743979216,0.0,0.004141480661928654
0.004108895547688007,0.007416029926389456,-0.009145688265562057,0.002753991400822997,0.0,0.0041568698361516
0.004082893021404743,0.0074486806988716125,-0.008572484366595745,0.00249772472307086,0.0,0.004066158551722765
0.003858602372929454,0.007034943904727697,-0.008222335949540138,0.002330827061086893,0.0,0.004086629021912813
0.003858602372929454,0.007034943904727697,-0.008222335949540138,0.002330827061086893,0.0,0.004086629021912813
0.004120674915611744,0.0074166408739984035,-0.009130013175308704,0.002309344708919525,0.0,0.004708888474851847
0.003990034107118845,0.007401267997920513,-0.008656938560307026,0.0022595995105803013,0.0,0.0047578709200024605
0.003773769596591592,0.00739485677331686,-0.008432135917246342,0.002215179381892085,0.0,0.00446140905842185
0.003676905995234847,0.0075303250923752785,-0.009330200031399727,0.0021129408851265907,0.0,0.0041066850535571575
0.0037846826016902924,0.007036043796688318,-0.008652807213366032,0.0021043559536337852,0.0,0.00422561913728714
0.004286849871277809,0.006806042045354843,-0.00820496678352356,0.001988144824281335,0.0,0.004072843585163355
0.004474828951060772,0.0066059911623597145,-0.008268489502370358,0.002177034504711628,0.0,0.004330214112997055
0.004212034400552511,0.006812130566686392,-0.009266981855034828,0.002092427806928754,0.0,0.00441074138507247
0.004035822115838528,0.007271320093423128,-0.008835451677441597,0.0022562160156667233,0.0,0.0043102349154651165
0.004005637019872665,0.006969423033297062,-0.00806859228760004,0.002507275203242898,0.0,0.004054270684719086
0.003937589470297098,0.006644159089773893,-0.009306319057941437,0.0025495069567114115,0.0,0.004569364711642265
0.003859698073938489,0.00687834108248353,-0.008633173070847988,0.002650747774168849,0.0,0.004634659271687269
0.0043492368422448635,0.0068758949637413025,-0.008398500271141529,0.0024024536833167076,0.0,0.004677215591073036
0.0041130841709673405,0.006789896637201309,-0.008976745419204235,0.0024804144632071257,0.0,0.004758569411933422
0.00412112707272172,0.006662482861429453,-0.008624034933745861,0.002493604552000761,0.0,0.004362598992884159
0.00392641918733716,0.006241445429623127,-0.008538994006812572,0.002437173156067729,0.0,0.004038526676595211
0.00369503116235137,0.006879158318042755,-0.009535644203424454,0.0024270485155284405,0.0,0.004190824460238218
0.003691168036311865,0.006717592012137175,-0.009077874943614006,0.002416973002254963,0.0,0.00451163062825799
0.0038698455318808556,0.006712909322232008,-0.008530930615961552,0.002453750232234597,0.0,0.004527111072093248
0.004560183268040419,0.00700876209884882,-0.00865870714187622,0.0027075919788330793,0.0,0.004597927443683147
0.004604053683578968,0.00676260469481349,-0.008962122723460197,0.0026181151624768972,0.0,0.004429461434483528
0.004268409218639135,0.0068825483322143555,-0.008968864567577839,0.002422385849058628,0.0,0.004038321319967508
0.004009626340121031,0.006578236352652311,-0.00927518866956234,0.0023411328438669443,0.0,0.004151738714426756
0.004068333189934492,0.006678061094135046,-0.009153992868959904,0.0021863437723368406,0.0,0.004567086696624756
0.004173660650849342,0.006191499065607786,-0.008993965573608875,0.0021362986881285906,0.0,0.004815326072275639
0.004074453841894865,0.006647026631981134,-0.009302315302193165,0.002204854041337967,0.0,0.004319293890148401
0.0043929265812039375,0.006992995273321867,-0.00952694471925497,0.0021684356033802032,0.0,0.004422541707754135
0.0041553848423063755,0.006393447984009981,-0.009309763088822365,0.002104665618389845,0.0,0.0041427952237427235
0.0041553848423063755,0.006393447984009981,-0.009309763088822365,0.002104665618389845,0.0,0.0041427952237427235
0.004071751609444618,0.005943123251199722,-0.009342042729258537,0.002129391534253955,0.0,0.003933083266019821
0.003947216086089611,0.006262958515435457,-0.009487999603152275,0.0019581131637096405,0.0,0.004113325383514166
0.0038405591621994972,0.0067090378142893314,-0.00966006238013506,0.0019036952871829271,0.0,0.004248508717864752
0.003801068989560008,0.006267549004405737,-0.008997255936264992,0.0016770672518759966,0.0,0.004385456908494234
0.004308322910219431,0.005795396398752928,-0.009800690226256847,0.00170438876375556,0.0,0.004519272595643997
0.00422076229006052,0.006003343965858221,-0.008951141498982906,0.0015974474372342229,0.0,0.004586803261190653
0.004428061656653881,0.006547704339027405,-0.008855752646923065,0.0018512512324377894,0.0,0.004280043765902519
0.004283929709345102,0.006641268264502287,-0.008875024504959583,0.0021502473391592503,0.0,0.0042237890884280205
0.0041422550566494465,0.0061800177209079266,-0.008726277388632298,0.0022356160916388035,0.0,0.004041410982608795
0.004398598335683346,0.006059285253286362,-0.008852028287947178,0.0021863384172320366,0.0,0.004343138076364994
0.004198889248073101,0.006402736995369196,-0.009039723314344883,0.0020177357364445925,0.0,0.004467610735446215
0.004334386438131332,0.006523539312183857,-0.008705961517989635,0.002024057088419795,0.0,0.004609281662851572
0.004594727419316769,0.006269880570471287,-0.008877960033714771,0.002189910737797618,0.0,0.0044697923585772514
0.004639128688722849,0.006073432508856058,-0.008835531771183014,0.0025450740940868855,0.0,0.0043780929408967495
0.004755865782499313,0.006189422216266394,-0.008407236076891422,0.002513611689209938,0.0,0.004261258989572525
0.004312897101044655,0.0070202588103711605,-0.009118273854255676,0.0024868780747056007,0.0,0.004788381513208151
0.004229352809488773,0.0064881304278969765,-0.009136106818914413,0.0022019201423972845,0.0,0.0048735663294792175
0.00402922835201025,0.006357750855386257,-0.008910453878343105,0.0022135116159915924,0.0,0.004553322680294514
0.004345990717411041,0.006519726011902094,-0.008461365476250648,0.0021740617230534554,0.0,0.004340450745075941
0.004712630994617939,0.0068360744044184685,-0.008796070702373981,0.00221783178858459,0.0,0.004318981897085905
0.004721533041447401,0.006959793623536825,-0.009761380031704903,0.0024678243789821863,0.0,0.0043525719083845615
0.004282461944967508,0.006366463378071785,-0.008840091526508331,0.0025019701570272446,0.0,0.004043720196932554
0.004313104785978794,0.0070840283297002316,-0.008075187914073467,0.0024013498332351446,0.0,0.004341460298746824
0.004498550668358803,0.006557921413332224,-0.00917061511427164,0.0023885900154709816,0.0,0.004189923405647278
0.004612651653587818,0.006700801197439432,-0.008635729551315308,0.002195899374783039,0.0,0.00440718000754714
0.005317069124430418,0.00665311049669981,-0.008454116992652416,0.002273266203701496,0.0,0.004586617927998304
0.005081501789391041,0.006587287411093712,-0.009170465171337128,0.002339621540158987,0.0,0.004655768163502216
0.005081501789391041,0.006587287411093712,-0.009170465171337128,0.002339621540158987,0.0,0.004655768163502216
0.003970850259065628,0.006483402568846941,-0.008857588283717632,0.0023439601063728333,0.0,0.004165475722402334
0.0037968612741678953,0.006712066475301981,-0.008365759626030922,0.0025165986735373735,0.0,0.0038887877017259598
0.004233476705849171,0.006738300435245037,-0.00901640672236681,0.0025972940493375063,0.0,0.004162952303886414
0.004457063972949982,0.006747798528522253,-0.008667876943945885,0.002518937224522233,0.0,0.004246882162988186
0.00405846256762743,0.007058498915284872,-0.008509797975420952,0.0025062840431928635,0.0,0.0045197587460279465
0.004361008293926716,0.006989258341491222,-0.008171496912837029,0.0023982601705938578,0.0,0.004549134057015181
0.0046911705285310745,0.0075435456819832325,-0.008447215892374516,0.0025130475405603647,0.0,0.004615928046405315
0.004653629381209612,0.006850139703601599,-0.00849970243871212,0.0023945930879563093,0.0,0.004223736934363842
0.004616690333932638,0.0071036797016859055,-0.008570846170186996,0.002209912519901991,0.0,0.0043076276779174805
0.004714985378086567,0.00710365129634738,-0.00903088878840208,0.0020728788804262877,0.0,0.004366996698081493
0.004342232830822468,0.006950694601982832,-0.008987350389361382,0.0020469743758440018,0.0,0.004388491157442331
0.004487364552915096,0.006911197677254677,-0.008079254068434238,0.0022471582051366568,0.0,0.00459383986890316
0.005027699749916792,0.007221654057502747,-0.008781070820987225,0.0022760480642318726,0.0,0.004913630895316601
0.0049862549640238285,0.007093696855008602,-0.009058668278157711,0.0024098691064864397,0.0,0.004509827122092247
0.004728626925498247,0.006606304552406073,-0.008391608484089375,0.002290701726451516,0.0,0.003798150457441807
0.004613896366208792,0.006247468292713165,-0.008492646738886833,0.0021898869890719652,0.0,0.003845526836812496
0.004787227604538202,0.006675729062408209,-0.008861536160111427,0.0019823438487946987,0.0,0.004169183317571878
0.004824161063879728,0.006801104173064232,-0.008490413427352905,0.001939735491760075,0.0,0.004567657597362995
0.005220555234700441,0.0074004060588777065,-0.008942335844039917,0.002181981923058629,0.0,0.004788610618561506
0.0050153364427387714,0.006532576400786638,-0.008810802362859249,0.002214740728959441,0.0,0.004801636096090078
0.004904082044959068,0.006301846820861101,-0.008582341484725475,0.002371127251535654,0.0,0.004677547141909599
0.005076266825199127,0.006898445542901754,-0.007931719534099102,0.0022260593250393867,0.0,0.00419201422482729
0.004854612518101931,0.007046191953122616,-0.008844695053994656,0.0024480437859892845,0.0,0.003945536445826292
0.0048493691720068455,0.007333302404731512,-0.008479240350425243,0.002336130477488041,0.0,0.004311294760555029
0.0048493691720068455,0.007333302404731512,-0.008479240350425243,0.002336130477488041,0.0,0.004311294760555029
0.004744299687445164,0.0065307910554111,-0.008138286881148815,0.0022030205000191927,0.0,0.004671512171626091
0.005235301796346903,0.00688741821795702,-0.008656826801598072,0.0020562505815178156,0.0,0.0046717217192053795
0.005235301796346903,0.00688741821795702,-0.008656826801598072,0.0020562505815178156,0.0,0.0046717217192053795
0.004850597586482763,0.007308750879019499,-0.008454752154648304,0.002001748885959387,0.0,0.004640463273972273
0.004788159858435392,0.006951665971428156,-0.008001288399100304,0.002050254959613085,0.0,0.0045799980871379375
0.0052436236292123795,0.006454063579440117,-0.008842079900205135,0.0024796766228973866,0.0,0.004630478098988533
0.005165667738765478,0.006389807444065809,-0.008576793596148491,0.0025388773065060377,0.0,0.0046523152850568295
0.0052957297302782536,0.006729397922754288,-0.008230531588196754,0.0025379664730280638,0.0,0.004864167422056198
0.005134635139256716,0.007196938619017601,-0.008833161555230618,0.002607022412121296,0.0,0.005081245210021734
0.0049129668623209,0.006990670692175627,-0.008705751970410347,0.002480443101376295,0.0,0.005113034974783659
0.005199908744543791,0.006361575797200203,-0.008129536174237728,0.0023950638715177774,0.0,0.004869782365858555
0.005324439611285925,0.0068929437547922134,-0.008892327547073364,0.002439624397084117,0.0,0.005141149740666151
0.005565555300563574,0.00670198816806078,-0.008285705000162125,0.002496192930266261,0.0,0.005538413301110268
0.005323504563421011,0.006407541688531637,-0.007913099601864815,0.002723235869780183,0.0,0.004950487986207008
0.0053444430232048035,0.006464684847742319,-0.007887022569775581,0.002574712736532092,0.0,0.004611355718225241
0.00502148550003767,0.006655761040747166,-0.009153895080089569,0.002375593176111579,0.0,0.005027512088418007
0.005046808626502752,0.006526174955070019,-0.008213835768401623,0.002337657380849123,0.0,0.005287046544253826
0.005438577849417925,0.006174712907522917,-0.00800714548677206,0.002235004212707281,0.0,0.005261927377432585
0.0055581508204340935,0.006404995918273926,-0.008339582942426205,0.002349940361455083,0.0,0.005114974454045296
0.005384370218962431,0.006839138921350241,-0.00876950565725565,0.002547741634771228,0.0,0.005052815191447735
0.005445213057100773,0.006704220548272133,-0.008152642287313938,0.002465290715917945,0.0,0.005210286471992731
0.006030084565281868,0.00628691166639328,-0.007651038467884064,0.0026539333630353212,0.0,0.005072305910289288
0.00570814311504364,0.006146813277155161,-0.008903950452804565,0.0026958626694977283,0.0,0.004986690357327461
0.005295378156006336,0.006631771102547646,-0.008605617098510265,0.002648875815793872,0.0,0.005137588828802109
0.005049696657806635,0.006872700992971659,-0.007793529890477657,0.0024279530625790358,0.0,0.005217746831476688
0.005770768970251083,0.006472524255514145,-0.008627433329820633,0.002330947434529662,0.0,0.005159229505807161
0.005546547472476959,0.006134632043540478,-0.009118316695094109,0.0022988845594227314,0.0,0.005338163580745459
0.005769215524196625,0.0065251560881733894,-0.008458879776299,0.002514885738492012,0.0,0.0051038977690041065
0.005769215524196625,0.0065251560881733894,-0.008458879776299,0.002514885738492012,0.0,0.0051038977690041065
0.005551981274038553,0.00663844496011734,-0.008287373930215836,0.002738123992457986,0.0,0.005238888319581747
0.005565417464822531,0.006561873946338892,-0.008911343291401863,0.0025471732951700687,0.0,0.0051496331579983234
0.005576992407441139,0.0061720809899270535,-0.008687361143529415,0.002589847194030881,0.0,0.005037513095885515
0.0060975877568125725,0.006479952484369278,-0.008037442341446877,0.0024466770701110363,0.0,0.005167000461369753
0.0058419001288712025,0.0066179921850562096,-0.008904781192541122,0.0023431689478456974,0.0,0.005317288916558027
0.005960437469184399,0.0073908125050365925,-0.009192687459290028,0.002501700771972537,0.0,0.0055397734977304935
0.0054126763716340065,0.006648019887506962,-0.009062099270522594,0.0025955508463084698,0.0,0.005285380873829126
0.005699722096323967,0.0069167595356702805,-0.009248967282474041,0.002668987959623337,0.0,0.005269089713692665
0.005849657580256462,0.007039633113890886,-0.008671722374856472,0.0027698844205588102,0.0,0.005347291938960552
0.005909712985157967,0.006802417803555727,-0.008203365840017796,0.0025237344671040773,0.0,0.005497578531503677
0.0057580070570111275,0.006269708275794983,-0.00943367276340723,0.002476548543199897,0.0,0.005303853657096624
0.005501703824847937,0.006477709859609604,-0.009074985049664974,0.00224016304127872,0.0,0.005642658565193415
0.005542176775634289,0.006579400505870581,-0.008580625988543034,0.002236423548310995,0.0,0.005443285219371319
0.006046006456017494,0.0074680219404399395,-0.009036310948431492,0.002699376316741109,0.0,0.005384613759815693
0.006432467605918646,0.006808878388255835,-0.009229322895407677,0.0032970185857266188,0.0,0.0055709960870444775
0.006016598083078861,0.00645437091588974,-0.008576879277825356,0.0032219155691564083,0.0,0.005490259267389774
0.0057595036923885345,0.00660657836124301,-0.008691752329468727,0.0027757128700613976,0.0,0.005616410635411739
0.005725345574319363,0.0067098685540258884,-0.009335098788142204,0.002451184904202819,0.0,0.00548440869897604
0.006309087388217449,0.006634823977947235,-0.008586496114730835,0.0024815015494823456,0.0,0.005679408088326454
0.006309087388217449,0.006634823977947235,-0.008586496114730835,0.0024815015494823456,0.0,0.005679408088326454
0.0060104867443442345,0.006586196832358837,-0.009368657134473324,0.002828662982210517,0.0,0.005175519734621048
0.0060104867443442345,0.006586196832358837,-0.009368657134473324,0.002828662982210517,0.0,0.005175519734621048
0.005903721321374178,0.0068855611607432365,-0.0090561518445611,0.0028551595751196146,0.0,0.0052574388682842255
0.005846180487424135,0.006630332209169865,-0.008992674760520458,0.0026740783359855413,0.0,0.005515705328434706
0.006249596364796162,0.006659500766545534,-0.009764322079718113,0.002560542430728674,0.0,0.005358677823096514
0.006423834711313248,0.006666483357548714,-0.009324675425887108,0.002775256521999836,0.0,0.005681145470589399
0.006558559834957123,0.0064055221155285835,-0.008460761047899723,0.002893094439059496,0.0,0.005490710027515888
0.005989737343043089,0.006460897624492645,-0.008959999307990074,0.0028870648238807917,0.0,0.00575270177796483
0.006244291551411152,0.006564270239323378,-0.009200464002788067,0.0027221229393035173,0.0,0.00523249339312315
0.006713641341775656,0.006326514296233654,-0.009113826788961887,0.00263743638060987,0.0,0.0058137401938438416
0.006220905110239983,0.006509335711598396,-0.009196829050779343,0.0026299741584807634,7.90333615441341e-07,0.005676172208040953
0.006087636109441519,0.006296450737863779,-0.009510282427072525,0.002530763391405344,5.1603141315581524e-08,0.005807753186672926
0.005853597074747086,0.006382257677614689,-0.00879659317433834,0.00282869185321033,3.369316603496486e-09,0.005460982210934162
0.00665653869509697,0.0061827306635677814,-0.009937980212271214,0.0029346768278628588,1.4363925847360459e-11,0.005283605773001909
0.006444577127695084,0.00604506628587842,-0.009153837338089943,0.002851719968020916,9.378616589936217e-13,0.005766833201050758
0.0062488685362041,0.006645272485911846,-0.008623565547168255,0.0028533185832202435,6.123566416308193e-14,0.005825447384268045
0.006125178653746843,0.007437661290168762,-0.009232303127646446,0.002817698987200856,3.998251738506842e-15,0.005735549610108137
0.0068899961188435555,0.007042324170470238,-0.008969003334641457,0.0030513552483171225,2.6105722193989027e-16,0.005363029893487692
0.0069707161746919155,0.006278707180172205,-0.008924441412091255,0.0032332143746316433,1.7045171561120857e-17,0.005614932160824537
0.006245793774724007,0.00631370535120368,-0.009279346093535423,0.0029617699328809977,1.1129278804127866e-18,0.005568389780819416
0.005757278297096491,0.006574348546564579,-0.008577284403145313,0.002811150625348091,7.266623353739227e-20,0.006345221307128668
0.005760457366704941,0.0065908851101994514,-0.009176206775009632,0.0030819077510386705,4.744586016775558e-21,0.006161483004689217
0.006232432089745998,0.006091675721108913,-0.009546345099806786,0.003101483453065157,3.097875455029149e-22,0.005990147590637207
0.0067453207448124886,0.005948149133473635,-0.009773416444659233,0.002968661254271865,2.0226912680342378e-23,0.005849346052855253
0.006854634266346693,0.006046270951628685,-0.008751156739890575,0.0026565412990748882,1.320672864982341e-24,0.005891526583582163
0.006247712764889002,0.006389224901795387,-0.009174014441668987,0.002451853360980749,8.623050264624942e-26,0.006080648861825466
0.006390206515789032,0.006521191913634539,-0.008851727470755577,0.0032526839058846235,5.630235866030446e-27,0.005807062145322561
0.006828952115029097,0.006468781735748053,-0.008628183044493198,0.0037061949260532856,3.676141892508469e-28,0.006172156427055597
0.006828952115029097,0.006468781735748053,-0.008628183044493198,0.0037061949260532856,3.676141892508469e-28,0.006172156427055597
0.006307913921773434,0.006298229098320007,-0.009142301045358181,0.0029312765691429377,1.5671970923015973e-30,0.006527302321046591
0.006307913921773434,0.006298229098320007,-0.009142301045358181,0.0029312765691429377,1.5671970923015973e-30,0.006527302321046591
0.00647783512249589,0.006264267489314079,-0.008510041981935501,0.002799079054966569,1.0232677148413662e-31,0.00621400959789753
0.006579054519534111,0.006027983035892248,-0.008335450664162636,0.002920605707913637,6.681207200278545e-33,0.006247065961360931
0.006663238164037466,0.005908583756536245,-0.009157037362456322,0.003064816351979971,4.362350453042705e-34,0.006092694588005543
0.006498793140053749,0.0060323793441057205,-0.008443779312074184,0.0030252886936068535,1.8597383912862543e-36,0.006096136290580034
0.006498793140053749,0.0060323793441057205,-0.008443779312074184,0.0030252886936068535,1.8597383912862543e-36,0.006096136290580034
0.006355272140353918,0.006387106142938137,-0.009061373770236969,0.003026946447789669,1.2142763508093097e-37,0.005878952331840992
0.007319231983274221,0.00610834127292037,-0.009290792047977448,0.003178880549967289,7.928356134558667e-39,0.0061540729366242886
0.0066213360987603664,0.005982556380331516,-0.008943897671997547,0.0032976740039885044,5.176648760939453e-40,0.006528385914862156
0.00652780756354332,0.0059181079268455505,-0.008632992394268513,0.003198641585186124,3.379931895951459e-41,0.006244063377380371
0.006707303691655397,0.005875850562006235,-0.009064323268830776,0.0030634438153356314,2.207045081311587e-42,0.0063220239244401455
0.00750874076038599,0.005943454336374998,-0.008754092268645763,0.003185378387570381,9.80908925027372e-45,0.006550949532538652
0.006784383207559586,0.006122199818491936,-0.009574122726917267,0.0031924028880894184,0.0,0.006140315905213356
0.006530953571200371,0.006008632481098175,-0.009337663650512695,0.0032425331883132458,0.0,0.005983317270874977
0.006654825527220964,0.005970155820250511,-0.0090711684897542,0.0033092545345425606,0.0,0.006320488173514605
0.007261298596858978,0.006076636724174023,-0.009501448832452297,0.0035389731638133526,0.0,0.006487804930657148
0.007068748585879803,0.005919911433011293,-0.0091234240680933,0.0036849691532552242,0.0,0.0066605121828615665
0.00658717704936862,0.005900404416024685,-0.008452191017568111,0.0033127437345683575,0.0,0.006452960427850485
0.0065857418812811375,0.005505998153239489,-0.009637829847633839,0.0030782369431108236,0.0,0.006288392934948206
0.007017903961241245,0.005271421279758215,-0.009509813971817493,0.0028940984047949314,0.0,0.006409975700080395
0.007118783425539732,0.005678887944668531,-0.008991816081106663,0.002916043857112527,0.0,0.006647342350333929
0.007118783425539732,0.005678887944668531,-0.008991816081106663,0.002916043857112527,0.0,0.006647342350333929
0.007233039941638708,0.006089143920689821,-0.008895216509699821,0.0033538718707859516,0.0,0.007151912897825241
0.007378322072327137,0.005677651613950729,-0.009104052558541298,0.0033817836083471775,0.0,0.007317138370126486
0.007378322072327137,0.005677651613950729,-0.009104052558541298,0.0033817836083471775,0.0,0.007317138370126486
0.0077257314696908,0.00527989724650979,-0.00930536538362503,0.0035402588546276093,0.0,0.007424043957144022
0.007755685597658157,0.005769887939095497,-0.009436387568712234,0.00342015759088099,0.0,0.006386304274201393
0.007010689936578274,0.006413787137717009,-0.009401066228747368,0.003476848592981696,0.0,0.0064651863649487495
0.007456539664417505,0.0056941625662148,-0.008762718178331852,0.003339537885040045,0.0,0.006519803311675787
0.00784403644502163,0.005266275722533464,-0.009682340547442436,0.0035340820904821157,0.0,0.007046121638268232
0.006919125560671091,0.005309485364705324,-0.009425221011042595,0.0033241237979382277,0.0,0.006772992666810751
0.007163862232118845,0.005291808862239122,-0.009295400232076645,0.0031246021389961243,0.0,0.006696689873933792
0.007283363025635481,0.0059908730909228325,-0.00965537317097187,0.0031188717111945152,0.0,0.007116954308003187
0.007535822223871946,0.00557976309210062,-0.00950288213789463,0.003383209463208914,0.0,0.007102747913450003
0.008024811744689941,0.0055295443162322044,-0.008812552317976952,0.0036366318818181753,0.0,0.006594783626496792
0.006881830282509327,0.005570481531322002,-0.009520892053842545,0.0033959588035941124,0.0,0.006457392126321793
0.0075039067305624485,0.00544161768630147,-0.00888710469007492,0.003559698350727558,0.0,0.007054371293634176
0.008097594603896141,0.005787206348031759,-0.010371586307883263,0.0033894823864102364,0.0,0.006966587156057358
0.007827335968613625,0.005438786465674639,-0.00983379129320383,0.003527742112055421,0.0,0.007065591402351856
0.007766977418214083,0.005346348974853754,-0.009284527972340584,0.0034365204628556967,0.0,0.00681815342977643
0.007638028357177973,0.005246282089501619,-0.009481391869485378,0.003385657211765647,0.0,0.006845514755696058
0.00810655765235424,0.005594975780695677,-0.009675035253167152,0.0036037908867001534,0.0,0.006933620665222406
0.007750049699097872,0.005461889784783125,-0.009992066770792007,0.004314114339649677,0.0,0.007040436379611492
0.007720031309872866,0.00576181523501873,-0.009390014223754406,0.00412791920825839,0.0,0.007087206933647394
0.007954002358019352,0.005634634755551815,-0.00971563532948494,0.0035132099874317646,0.0,0.006981876213103533
0.007872533053159714,0.005659034941345453,-0.009577687829732895,0.003113384358584881,0.0,0.007205455098301172
0.007607102394104004,0.005428708624094725,-0.009087293408811092,0.003215333679690957,0.0,0.007360156625509262
0.007607102394104004,0.005428708624094725,-0.009087293408811092,0.003215333679690957,0.0,0.007360156625509262
0.008200105279684067,0.005814526230096817,-0.010014429688453674,0.003620766568928957,0.0,0.007057252340018749
0.008186588063836098,0.005575769580900669,-0.009560756385326385,0.003730528987944126,0.0,0.007099233102053404
0.00782702211290598,0.005503440275788307,-0.009377121925354004,0.003743584267795086,0.0,0.00791273545473814
0.00762571394443512,0.0051536643877625465,-0.009836379438638687,0.003805638523772359,0.0,0.0077024283818900585
0.008059904910624027,0.005297340452671051,-0.009477456100285053,0.003760821418836713,0.0,0.0070429518818855286
0.007960209622979164,0.005619168281555176,-0.009680154733359814,0.0036516631953418255,0.0,0.007072048727422953
0.00812209490686655,0.005245628766715527,-0.010086235590279102,0.003566272556781769,0.0,0.00785706378519535
0.00830438919365406,0.00536178657785058,-0.009385494515299797,0.0033822166733443737,0.0,0.007879569195210934
0.008167543448507786,0.005402921233326197,-0.009858566336333752,0.003465538378804922,0.0,0.00716070830821991
0.008484739810228348,0.005489523988217115,-0.009798833169043064,0.003727337811142206,0.0,0.007382697891443968
0.00784115120768547,0.005424560513347387,-0.00928664579987526,0.003924954682588577,0.0,0.00797188188880682
0.008939510211348534,0.00569875305518508,-0.009306704625487328,0.004125805571675301,0.0,0.007878449745476246
0.008264209143817425,0.005192791577428579,-0.009914864785969257,0.004157803021371365,0.0,0.007701370865106583
0.00808036606758833,0.005229926202446222,-0.00982298981398344,0.00391276553273201,0.0,0.007601338904350996
0.00813086237758398,0.005449528805911541,-0.009537485428154469,0.0037349893245846033,0.0,0.0076595875434577465
0.008533317595720291,0.005746348761022091,-0.009626546874642372,0.0037927899975329638,0.0,0.007647546008229256
0.008851294405758381,0.005842676851898432,-0.009228712879121304,0.003875116817653179,0.0,0.007677768357098103
0.008741631172597408,0.005608557257801294,-0.009850786067545414,0.004229736514389515,0.0,0.007628357037901878
0.00878649577498436,0.005226646549999714,-0.010072505101561546,0.00410373043268919,0.0,0.0074433875270187855
0.008440893143415451,0.005354501772671938,-0.009261241182684898,0.004365867469459772,0.0,0.0077866800129413605
0.008440893143415451,0.005354501772671938,-0.009261241182684898,0.004365867469459772,0.0,0.0077866800129413605
0.008869118988513947,0.006257198750972748,-0.009884265251457691,0.003973875194787979,0.0,0.008010783232748508
0.00901091005653143,0.005555665586143732,-0.009592722170054913,0.003927610814571381,0.0,0.007623522542417049
0.008652076125144958,0.005297347903251648,-0.010732137598097324,0.004086638335138559,0.0,0.007994195446372032
0.009101906791329384,0.005260610952973366,-0.010517941787838936,0.004185690078884363,0.0,0.008294853381812572
0.008977248333394527,0.005746861919760704,-0.009839316830039024,0.004099354613572359,0.0,0.008037424646317959
0.008646497502923012,0.00598764605820179,-0.010201869532465935,0.00402398407459259,0.0,0.00801484752446413
0.008941028267145157,0.0060394383035600185,-0.010919596999883652,0.004186100326478481,0.0,0.008081335574388504
0.009300142526626587,0.005277516320347786,-0.010458018630743027,0.004129814449697733,0.0,0.008450218476355076
0.009026231244206429,0.005205945577472448,-0.010676270350813866,0.004317102022469044,0.0,0.008330040611326694
0.009195241145789623,0.005210218019783497,-0.009979275986552238,0.004166474565863609,0.0,0.008000648580491543
0.009195241145789623,0.005210218019783497,-0.009979275986552238,0.004166474565863609,0.0,0.008000648580491543
0.009245479479432106,0.006330064032226801,-0.010711807757616043,0.004272520076483488,0.0,0.008199909701943398
0.009002145379781723,0.006046409718692303,-0.010568851605057716,0.004565224051475525,0.0,0.008355025202035904
0.009278355166316032,0.005714624188840389,-0.010370348580181599,0.00454031303524971,0.0,0.008192440494894981
0.0093723488971591,0.005128005985170603,-0.011015723459422588,0.004467878956347704,0.0,0.008090559393167496
0.009033831767737865,0.005484277848154306,-0.010707681998610497,0.0040894378907978535,0.0,0.008049401454627514
0.009962229058146477,0.005722440779209137,-0.010556106455624104,0.004273658152669668,0.0,0.008147203363478184
0.00928463228046894,0.00607043644413352,-0.010804242454469204,0.004425214137881994,0.0,0.00806963350623846
0.009554382413625717,0.0057302131317555904,-0.010131647810339928,0.004642865154892206,0.0,0.007658445741981268
0.009100113995373249,0.005574987735599279,-0.010427543893456459,0.004527052864432335,0.0,0.008035372942686081
0.009538194164633751,0.0052358536049723625,-0.010619401931762695,0.004301313776522875,0.0,0.008179068565368652
0.009748527780175209,0.00592140993103385,-0.0100560262799263,0.004201830830425024,0.0,0.008294221013784409
0.008865143172442913,0.005795558448880911,-0.010724133811891079,0.004414185415953398,0.0,0.008346568793058395
0.009538459591567516,0.005973282270133495,-0.010803020559251308,0.004555780440568924,0.0,0.008745113387703896
0.009697859175503254,0.005249624140560627,-0.01044057309627533,0.004474021960049868,0.0,0.007718665990978479
0.00950191356241703,0.005205600522458553,-0.01075203437358141,0.004540803376585245,0.0,0.008106345310807228
0.00932034756988287,0.006254576146602631,-0.009763038717210293,0.004440505523234606,0.0,0.008823887445032597
0.008987014181911945,0.005970831494778395,-0.01116150338202715,0.004986337386071682,0.0,0.008700577542185783
0.009461740963160992,0.005736118648201227,-0.010707876645028591,0.004856530576944351,0.0,0.008741799741983414
0.010395837016403675,0.005266849417239428,-0.010272335261106491,0.004487009719014168,0.0,0.008931735530495644
0.009250403381884098,0.005608574021607637,-0.010577315464615822,0.004514902364462614,0.0,0.008876102045178413
0.0095137320458889,0.005884381011128426,-0.010117186233401299,0.004914309363812208,0.0,0.008648423478007317
0.010760101489722729,0.0060134269297122955,-0.010440686717629433,0.005056355148553848,0.0,0.008832983672618866
0.009796874597668648,0.005895140580832958,-0.010814286768436432,0.004840431269258261,0.0,0.008694056421518326
0.009576564654707909,0.005393825471401215,-0.010446322150528431,0.004705434199422598,0.0,0.008966553024947643
0.009661003015935421,0.0056691463105380535,-0.010843915864825249,0.0047385734505951405,0.0,0.009182853624224663
0.009605849161744118,0.005403211805969477,-0.01087060198187828,0.0047955382615327835,0.0,0.009011894464492798
0.01010369323194027,0.005864130798727274,-0.010452005080878735,0.0051370104774832726,0.0,0.009024916216731071
0.010100461542606354,0.005983229726552963,-0.010891623795032501,0.005474225152283907,0.0,0.009180488996207714
0.0096829142421484,0.005778763443231583,-0.010103580541908741,0.005368378479033709,0.0,0.00916014239192009
0.0096829142421484,0.005778763443231583,-0.010103580541908741,0.005368378479033709,0.0,0.00916014239192009
0.010553955100476742,0.005291865672916174,-0.010906587354838848,0.004628511145710945,0.0,0.00959826447069645
0.010553955100476742,0.005291865672916174,-0.010906587354838848,0.004628511145710945,0.0,0.00959826447069645
0.01005206722766161,0.00575388316065073,-0.011099237017333508,0.004719361662864685,-0.00025023272610269487,0.009372116066515446
0.010214549489319324,0.006153178866952658,-0.01045163068920374,0.0048450687900185585,-0.0002661268226802349,0.009137305431067944
0.01109967939555645,0.005560599267482758,-0.010715218260884285,0.005298588424921036,-0.0002531602222006768,0.009324409998953342
0.010235321708023548,0.005689067300409079,-0.010465411469340324,0.005641920957714319,-0.00023979658726602793,0.009408063255250454
0.010150520130991936,0.005301945377141237,-0.01116615254431963,0.00536323431879282,-0.0002670898975338787,0.009150644764304161
0.010307230986654758,0.005880617070943117,-0.010545504279434681,0.00461338646709919,-0.0002596440608613193,0.009184727445244789
0.010210218839347363,0.006349349394440651,-0.010774003341794014,0.004564446397125721,-0.00024806641158647835,0.009443582966923714
0.010749144479632378,0.005469958297908306,-0.011507394723594189,0.004689041990786791,-0.00025651772739365697,0.009101716801524162
0.010217438451945782,0.005233169067651033,-0.010378386825323105,0.005612263455986977,-0.0002637597790453583,0.009064128622412682
0.010345962829887867,0.005431400611996651,-0.010156749747693539,0.005319609306752682,-0.0002542878792155534,0.009197349660098553
0.01031601894646883,0.005082552321255207,-0.010979891754686832,0.005369755905121565,-0.0002770497521851212,0.008902261964976788
0.01015118882060051,0.005455599166452885,-0.010583609342575073,0.005177117884159088,-0.00026883214013651013,0.008687840774655342
0.010834815911948681,0.005515147931873798,-0.01072297990322113,0.004952819552272558,-0.0003096755244769156,0.00916268490254879
0.010380452498793602,0.0052085695788264275,-0.010449987836182117,0.005672395695000887,-0.00030845662695355713,0.009061234071850777
0.011651386506855488,0.005720941349864006,-0.010953124612569809,0.005968200042843819,-0.00034383725142106414,0.009000997990369797
0.010661483742296696,0.005505637265741825,-0.010269167833030224,0.005332527216523886,-0.00032663566526025534,0.009883762337267399
0.00994180142879486,0.005797578487545252,-0.0105453385040164,0.005019775126129389,-0.00035603652941063046,0.009220813401043415
0.01074652187526226,0.005674474406987429,-0.010923434980213642,0.004830501973628998,-0.00033995258854702115,0.00966526847332716
0.010301501490175724,0.005562486592680216,-0.01078428141772747,0.005364974029362202,-0.00034523248905315995,0.009464203380048275
0.010386554524302483,0.005144556984305382,-0.011079816147685051,0.005614979658275843,-0.0003493339754641056,0.00950576551258564
0.01052310224622488,0.0059187933802604675,-0.011122995987534523,0.005550755653530359,-0.0003344675642438233,0.0095449760556221
0.010464428924024105,0.005510746035724878,-0.010642039589583874,0.005476519465446472,-0.00043931687832809985,0.009765000082552433
0.010171276517212391,0.005384787451475859,-0.010907942429184914,0.005167488940060139,-0.0004362999461591244,0.009620780125260353
0.010716813616454601,0.005629141349345446,-0.010732237249612808,0.0053733647800982,-0.00040007944335229695,0.009398791939020157
0.010716813616454601,0.005629141349345446,-0.010732237249612808,0.0053733647800982,-0.00040007944335229695,0.009398791939020157
0.010081504471600056,0.005243335850536823,-0.011058458127081394,0.005796543322503567,-0.00042146333726122975,0.009557022713124752
0.010471982881426811,0.0051900725811719894,-0.011095253750681877,0.005896373651921749,-0.0004064527165610343,0.009834789671003819
0.010638234205543995,0.005691399797797203,-0.010836931876838207,0.005362930707633495,-0.00037900335155427456,0.009837869554758072
0.01034987810999155,0.0058466168120503426,-0.011235468089580536,0.005290083587169647,-0.00039763652603141963,0.0101026501506567
0.01057846937328577,0.0057523250579833984,-0.011039262637495995,0.005374410189688206,-0.0003867704945150763,0.009812552481889725
0.010686800815165043,0.0057846857234835625,-0.011196599341928959,0.0058615244925022125,-0.0003652307204902172,0.010388852097094059
0.011222230270504951,0.005596032366156578,-0.01176727656275034,0.005903470795601606,-0.0003452618548180908,0.010171678848564625
0.011348653584718704,0.00573813496157527,-0.0106243547052145,0.005567597690969706,-0.0003273197798989713,0.010448597371578217
0.01118893176317215,0.006153726484626532,-0.010538256727159023,0.005501800216734409,-0.0003111490805167705,0.010758532211184502
0.010669407434761524,0.0054035731591284275,-0.011448925361037254,0.005466547328978777,-0.00029650217038579285,0.009838559664785862
0.012498382478952408,0.005402181297540665,-0.01178539078682661,0.0057565816678106785,-0.0002831702004186809,0.00913183856755495
0.012628743425011635,0.005636720918118954,-0.011872869916260242,0.006313481368124485,-0.0002709897526074201,0.009634144604206085
0.012616017833352089,0.006141061428934336,-0.011614319868385792,0.006212698295712471,-0.00025981213548220694,0.01057186909019947
0.012165168300271034,0.005801485851407051,-0.010378643870353699,0.00619663717225194,-0.00028273992938920856,0.010279394686222076
0.011923929676413536,0.005425587762147188,-0.011850687675178051,0.005641639698296785,-0.00026421985239721835,0.010874632745981216
0.01175648346543312,0.00579264247789979,-0.01166028343141079,0.006093078758567572,-0.0002548738266341388,0.0102241737768054
0.01257096417248249,0.005718891508877277,-0.011744176968932152,0.005903508979827166,-0.00024616095470264554,0.010277963243424892
0.012355593964457512,0.006035813596099615,-0.010601812973618507,0.005795811302959919,-0.00023842098016757518,0.01010697428137064
0.012789754197001457,0.005838049575686455,-0.010806161910295486,0.005714842583984137,-0.00020268961088731885,0.009806634858250618
0.012612678110599518,0.00584711879491806,-0.012043043039739132,0.006006157025694847,-0.00019238577806390822,0.010958057828247547
0.013055159710347652,0.006065254099667072,-0.01062404178082943,0.006387785077095032,-0.0001843924110289663,0.011019321158528328
0.013332630507647991,0.005821554455906153,-0.010909209959208965,0.006186156067997217,-0.00020783772924914956,0.010379428043961525
0.01322710420936346,0.006111669819802046,-0.011835681274533272,0.006255908869206905,-0.00020419221254996955,0.010202029719948769
0.013039007782936096,0.005779518745839596,-0.010650025680661201,0.005960044451057911,-0.00019701688142959028,0.010357261635363102
0.012915368191897869,0.005597867537289858,-0.011759621091187,0.0060433330945670605,-0.00020562416466418654,0.010112158954143524
0.013445880264043808,0.005810161121189594,-0.011249060742557049,0.006420911755412817,-0.00021318606741260737,0.010587617754936218
0.012822049669921398,0.005812850780785084,-0.011391134932637215,0.0065221888944506645,-0.00020712570403702557,0.010612670332193375
0.013372784480452538,0.005510753486305475,-0.011425300501286983,0.006497248541563749,-0.00020059183589182794,0.010387897491455078
0.013372784480452538,0.005510753486305475,-0.011425300501286983,0.006497248541563749,-0.00020059183589182794,0.010387897491455078
0.012858893722295761,0.0055283368565142155,-0.01116893906146288,0.00661945715546608,-0.00022030629043001682,0.01059317123144865
0.013578683137893677,0.005523950792849064,-0.011781293898820877,0.006620780564844608,-0.00021540444868151098,0.010518452152609825
0.0131872883066535,0.0057722460478544235,-0.01120831910520792,0.00661156140267849,-0.00020925418357364833,0.010254873894155025
0.013260438106954098,0.005348624661564827,-0.010896054096519947,0.006702716462314129,-0.00026162018184550107,0.010594669729471207
0.01300367433577776,0.005623262841254473,-0.01155608706176281,0.00642818259075284,-0.00029910795274190605,0.009976656176149845
0.013215660117566586,0.00579739548265934,-0.0116589879617095,0.006456112023442984,-0.0003114656137768179,0.010592200793325901
0.013521932996809483,0.005638571456074715,-0.011553884483873844,0.0067505789920687675,-0.00031874259002506733,0.010336033999919891
0.01343925204128027,0.005144214723259211,-0.011189611628651619,0.006220718380063772,-0.00030255905585363507,0.010213538073003292
0.013584463857114315,0.0056279925629496574,-0.010983731597661972,0.006375626660883427,-0.00028660468524321914,0.010622164234519005
0.013128387741744518,0.005449322052299976,-0.011415043845772743,0.0065862867049872875,-0.0003056286950595677,0.01060769334435463
0.013649839907884598,0.005828171502798796,-0.011220731772482395,0.006864623632282019,-0.000301506370306015,0.010764829814434052
0.013461912982165813,0.005227513145655394,-0.01189615111798048,0.006348446011543274,-0.00030852333293296397,0.011050558649003506
0.012963026762008667,0.00525888055562973,-0.011344868689775467,0.006452589295804501,-0.00030189615790732205,0.011271669529378414
0.012963026762008667,0.00525888055562973,-0.011344868689775467,0.006452589295804501,-0.00030189615790732205,0.011271669529378414
0.01350429281592369,0.005313308443874121,-0.011196868494153023,0.007085778284817934,-0.00034334068186581135,0.01122480258345604
0.013574175536632538,0.005614235065877438,-0.011436952278017998,0.006750221364200115,-0.00033925045863725245,0.011364849284291267
0.013096134178340435,0.00542892562225461,-0.011856797151267529,0.006287099327892065,-0.0003167858230881393,0.011068541556596756
0.01354123093187809,0.0050093382596969604,-0.011888093315064907,0.006095643155276775,-0.00029602667200379074,0.011104668490588665
0.013472769409418106,0.005188277456909418,-0.012572103179991245,0.006951758172363043,-0.00031865068012848496,0.011429467238485813
0.013166159391403198,0.005035236477851868,-0.01189796719700098,0.006769144907593727,-0.0003129600954707712,0.011164400726556778
0.013474266976118088,0.00524029228836298,-0.011958620510995388,0.006777574308216572,-0.0002966016763821244,0.011539462953805923
0.013636614196002483,0.0055849505588412285,-0.01174343004822731,0.006409757304936647,-0.0003248439752496779,0.011197800748050213
0.01377375889569521,0.0052038030698895454,-0.01160794124007225,0.006509948521852493,-0.0003116230363957584,0.011107099242508411
0.013306128792464733,0.004914961289614439,-0.012682287953794003,0.007187721785157919,-0.0002971086069010198,0.011864825151860714
0.013306128792464733,0.004914961289614439,-0.012682287953794003,0.007187721785157919,-0.0002971086069010198,0.011864825151860714
0.013515830971300602,0.0053011332638561726,-0.011600926518440247,0.00662419805303216,-0.0002837355132214725,0.011524418368935585
0.013183859176933765,0.005511503200978041,-0.012243006378412247,0.006434055045247078,-0.0003051153616979718,0.01078622043132782
0.013800726272165775,0.005622130818665028,-0.012523045763373375,0.00643658172339201,-0.00029713165713474154,0.011270509101450443
0.01370958611369133,0.005440996028482914,-0.011999092064797878,0.007073130924254656,-0.0002856440842151642,0.011633586138486862
0.013686029240489006,0.0052964892238378525,-0.011587677523493767,0.007408078759908676,-0.0002908564347308129,0.012279970571398735
0.013686029240489006,0.0052964892238378525,-0.011587677523493767,0.007408078759908676,-0.0002908564347308129,0.012279970571398735
0.013978181406855583,0.005413178354501724,-0.012509421445429325,0.0065073287114501,-0.0002752151631284505,0.012431480921804905
0.013818700797855854,0.005740390159189701,-0.01213417574763298,0.0066423192620277405,-0.000259480148088187,0.012073609977960587
0.01434542890638113,0.005509630311280489,-0.012807094492018223,0.006954817567020655,-0.00029101475956849754,0.012318778783082962
0.013745020143687725,0.0054555670358240604,-0.012220161966979504,0.006949715316295624,-0.00027895771199837327,0.012333473190665245
0.013579421676695347,0.005209952127188444,-0.011943378485739231,0.007028575055301189,-0.00029808463295921683,0.012189879082143307
0.013580581173300743,0.005354408174753189,-0.01209262851625681,0.006537031382322311,-0.00029441979131661355,0.012665568850934505
0.013597228564321995,0.005075760185718536,-0.012463816441595554,0.006978753954172134,-0.00030774594051763415,0.012145365588366985
0.01399229746311903,0.00536771398037672,-0.011889757588505745,0.007113303057849407,-0.0002957191609311849,0.011713063344359398
0.013881541788578033,0.005426462274044752,-0.012248198501765728,0.006527783814817667,-0.00034384653554297984,0.012027301825582981
0.014311175793409348,0.005448169074952602,-0.012251120992004871,0.006657818332314491,-0.00037262809928506613,0.012125241570174694
0.014280210249125957,0.004843492526561022,-0.012297993525862694,0.007131282705813646,-0.0003475865232758224,0.012472990900278091
0.014335045590996742,0.004309565294533968,-0.012650788761675358,0.007093509659171104,-0.0003228748682886362,0.012824785895645618
0.014169475995004177,0.004568786825984716,-0.011755145154893398,0.0066095259971916676,-0.00033053435618057847,0.013168667443096638
0.013795892708003521,0.005186868365854025,-0.01204595249146223,0.007059602532535791,-0.00033679575426504016,0.012986664660274982
0.013806364499032497,0.004887586925178766,-0.012256289832293987,0.007724627386778593,-0.0003186730609741062,0.012650197371840477
0.014167229644954205,0.004646996036171913,-0.012154948897659779,0.007601845543831587,-0.00034442407195456326,0.012382286600768566
0.01422477513551712,0.0051322802901268005,-0.012056306004524231,0.006999253761023283,-0.00033220433397218585,0.012610792182385921
0.01416357234120369,0.004548273514956236,-0.011481138877570629,0.007128523197025061,-0.0003159300540573895,0.012250011786818504
0.014305961318314075,0.004580990877002478,-0.012381421402096748,0.007655881345272064,-0.0003218524798285216,0.012566693127155304
0.014305961318314075,0.004580990877002478,-0.012381421402096748,0.007655881345272064,-0.0003218524798285216,0.012566693127155304
0.014160647056996822,0.004627574700862169,-0.011708814650774002,0.007101423107087612,-0.00032673345413058996,0.012369786389172077
0.013942638412117958,0.004571459721773863,-0.011923683807253838,0.007266252301633358,-0.00031376571860164404,0.012710406444966793
0.013924776576459408,0.004589403048157692,-0.012574327178299427,0.007509646937251091,-0.0003380686976015568,0.012470326386392117
0.014489413239061832,0.004696492105722427,-0.01184071134775877,0.007709326222538948,-0.00032006579567678273,0.012209547683596611
0.014225602149963379,0.004319766536355019,-0.012293975800275803,0.007469367701560259,-0.0003508763911668211,0.01249700877815485
0.01500699296593666,0.00419443566352129,-0.011587058193981647,0.007363044191151857,-0.0003361128910910338,0.011992081999778748
0.014377186074852943,0.004820575471967459,-0.012471106834709644,0.00744230579584837,-0.0003168476396240294,0.012106570415198803
0.01435400452464819,0.00480953324586153,-0.012492197565734386,0.007061832584440708,-0.00029930801247246563,0.01239370834082365
0.014163529500365257,0.004450493026524782,-0.012500673532485962,0.007027837447822094,-0.00032449388527311385,0.012805500067770481
0.01497993990778923,0.004606186877936125,-0.012093964032828808,0.007319301832467318,-0.00031392209348268807,0.012755966745316982
0.014177459292113781,0.004362714011222124,-0.011298531666398048,0.007575109601020813,-0.00029936691862531006,0.012976009398698807
0.014362256042659283,0.0045013949275016785,-0.012208518572151661,0.007665262557566166,-0.0003057603316847235,0.01305889617651701
0.014222845435142517,0.00490427715703845,-0.011864063329994678,0.007340483367443085,-0.0003110956749878824,0.012996339239180088
0.014532461762428284,0.004961828235536814,-0.012314424850046635,0.007135414984077215,-0.00029937110957689583,0.013818606734275818
0.014586408622562885,0.004755190573632717,-0.012309356592595577,0.00736030749976635,-0.0002874947676900774,0.012394754216074944
0.014585508964955807,0.004569556564092636,-0.012583829462528229,0.0075705875642597675,-0.00030522714951075613,0.012810278683900833
0.015028882771730423,0.004694145638495684,-0.012001920491456985,0.007427484728395939,-0.0002873100165743381,0.013569138012826443
0.014409139752388,0.004521809983998537,-0.012349182739853859,0.007512671407312155,-0.00031687962473370135,0.013777948915958405
0.014480075798928738,0.005028084851801395,-0.011850430630147457,0.0076279002241790295,-0.00030534889083355665,0.01400983240455389
0.01444711908698082,0.004876390099525452,-0.012416180223226547,0.007471083197742701,-0.00033430728944949806,0.013767313212156296
0.014725860208272934,0.00471115717664361,-0.012579322792589664,0.007256938610225916,-0.00032026387634687126,0.013620546087622643
0.014928106218576431,0.004512557294219732,-0.011819199658930302,0.008077322505414486,-0.0003049505176022649,0.013652953319251537
0.014847795478999615,0.004659008700400591,-0.01239861361682415,0.008329799398779869,-0.00032687370548956096,0.013795491307973862
0.01500735990703106,0.005129449535161257,-0.011896331794559956,0.007786889094859362,-0.00031739650876261294,0.013760845176875591
0.014821227639913559,0.0051633515395224094,-0.011844665743410587,0.007500656880438328,-0.0003043021133635193,0.013241679407656193
0.015195549465715885,0.005317908711731434,-0.012132326140999794,0.007330720312893391,-0.0002928837202489376,0.013525019399821758
0.015266647562384605,0.004997937940061092,-0.013051945716142654,0.008210323750972748,-0.0003610857529565692,0.013613920658826828
0.015266647562384605,0.004997937940061092,-0.013051945716142654,0.008210323750972748,-0.0003610857529565692,0.013613920658826828
0.015270551666617393,0.004784288350492716,-0.01227601245045662,0.008365957997739315,-0.0003398204571567476,0.013753383420407772
0.015058469958603382,0.005021114833652973,-0.011708484962582588,0.008200392127037048,-0.00031631297315470874,0.013229752890765667
0.015316018834710121,0.0052258619107306,-0.0122795719653368,0.008413470350205898,-0.00035052953171543777,0.013297905214130878
0.015126612968742847,0.005129668395966291,-0.011944022960960865,0.008723203092813492,-0.000332524097757414,0.013182259164750576
0.015450927428901196,0.005257695447653532,-0.01266395952552557,0.008411404676735401,-0.00031344880699180067,0.013646845705807209
0.014892961829900742,0.005066626239567995,-0.011939456686377525,0.007870107889175415,-0.00033898503170348704,0.013699382543563843
0.016079502180218697,0.004836943466216326,-0.011850635521113873,0.007839311845600605,-0.00032722021569497883,0.013880849815905094
0.01610463857650757,0.005269292742013931,-0.012465111911296844,0.007627985440194607,-0.00034425739431753755,0.013896469958126545
0.01626497134566307,0.005144594237208366,-0.012202470563352108,0.007883037440478802,-0.0003384093870408833,0.013886491768062115
0.016166314482688904,0.0050458749756217,-0.012580567970871925,0.008446725085377693,-0.00032472048769705,0.013702045194804668
0.01601274684071541,0.005132352001965046,-0.011944372206926346,0.008448099717497826,-0.0003727084840647876,0.013740490190684795
0.01623760536313057,0.00499638170003891,-0.012761622667312622,0.007833290845155716,-0.000348724948707968,0.013846246525645256
0.017040999606251717,0.005367268808186054,-0.012271917425096035,0.008731083944439888,-0.00030218157917261124,0.014000557363033295
0.016865212470293045,0.005016189534217119,-0.012828326784074306,0.009052246809005737,-0.00028315692907199264,0.014521634206175804
0.016802849248051643,0.005527832079678774,-0.012217406183481216,0.008174250833690166,-0.00031246364233084023,0.014372367411851883
0.01640576496720314,0.005122334696352482,-0.013100510463118553,0.008277196437120438,-0.0003013205714523792,0.014514783397316933
0.016655294224619865,0.004770980682224035,-0.01288678776472807,0.008354500867426395,-0.00028578194906003773,0.014336540363729
0.016903920099139214,0.0049619064666330814,-0.013301169499754906,0.008688860572874546,-0.00027143830084241927,0.014288397505879402
0.016611658036708832,0.004863479174673557,-0.013099851086735725,0.008389548398554325,-0.00025844472111202776,0.014139843173325062
0.017219603061676025,0.004834982566535473,-0.013114338740706444,0.008803370408713818,-0.000284932175418362,0.014362987130880356
0.01706482656300068,0.005108837969601154,-0.012999972328543663,0.008932461030781269,-0.00027498946292325854,0.014740962535142899
0.01726796105504036,0.005270449444651604,-0.012628898955881596,0.00853284727782011,-0.0002636421122588217,0.014197512529790401
0.017306137830018997,0.0049737850204110146,-0.014326943084597588,0.009414641186594963,-0.0002843978872988373,0.014842243865132332
0.017109908163547516,0.005414544139057398,-0.013562970794737339,0.008757027797400951,-0.00027772894827649,0.015124337747693062
0.017109908163547516,0.005414544139057398,-0.013562970794737339,0.008757027797400951,-0.00027772894827649,0.015124337747693062
0.01733269728720188,0.005245664156973362,-0.013097123242914677,0.008447370491921902,-0.0002679469180293381,0.014598280191421509
0.016715753823518753,0.00538965268060565,-0.012985093519091606,0.008927160874009132,-0.00026590548804961145,0.01483576837927103
0.017105281352996826,0.005627762526273727,-0.014063234440982342,0.009283231571316719,-0.0002519182162359357,0.015156247653067112
0.017244618386030197,0.005192351993173361,-0.013308042660355568,0.009023109450936317,-0.0002799176727421582,0.015516375191509724
0.017004340887069702,0.005027467850595713,-0.013484252616763115,0.008111347444355488,-0.00027149918605573475,0.015708599239587784
0.017557205632328987,0.004952104762196541,-0.01294691488146782,0.00855550542473793,-0.00025885074865072966,0.015395603142678738
0.01760435290634632,0.005139080807566643,-0.01320134662091732,0.00856838095933199,-0.0002671484253369272,0.014798657968640327
0.017602048814296722,0.005398748908191919,-0.01307576522231102,0.0083762276917696,-0.00027421858976595104,0.015212183818221092
0.018110893666744232,0.0049637071788311005,-0.013409556820988655,0.00879988819360733,-0.00026395104941911995,0.0150758633390069
0.01747610978782177,0.004825664684176445,-0.013104881159961224,0.0093715013936162,-0.0002801726805046201,0.014710784889757633
0.01763695478439331,0.004741932265460491,-0.013360328041017056,0.009466956369578838,-0.00027780234813690186,0.014663061127066612
0.01772010140120983,0.004887215793132782,-0.013363826088607311,0.009786996059119701,-0.00026801173225976527,0.015335085801780224
0.01793673262000084,0.0046500833705067635,-0.012870813719928265,0.009897827170789242,-0.0002588786883279681,0.015449016354978085
0.0179914440959692,0.005300350487232208,-0.01309493649750948,0.010296141728758812,-0.00032582308631390333,0.015779294073581696
0.017873210832476616,0.005090888123959303,-0.013748576864600182,0.009859132580459118,-0.0003568052197806537,0.015756359323859215
0.01848398894071579,0.004776437301188707,-0.012998934835195541,0.009122341871261597,-0.0003691587189678103,0.015840819105505943
0.01830681972205639,0.005058913957327604,-0.014303944073617458,0.009214010089635849,-0.0003732586628757417,0.015548687428236008
0.0188041590154171,0.004958870355039835,-0.013828881084918976,0.0099458834156394,-0.0004010667325928807,0.01558998879045248
0.018687225878238678,0.0054998151026666164,-0.014175712130963802,0.009576305747032166,-0.0006150808185338974,0.01570862904191017
0.018626023083925247,0.005235748831182718,-0.013501851819455624,0.009712510742247105,-0.0006706563872285187,0.016305914148688316
0.01873684674501419,0.005290114786475897,-0.014113157987594604,0.009572871960699558,-0.0006979488534852862,0.01606525480747223
0.018219690769910812,0.005393634550273418,-0.01358365174382925,0.009029217064380646,-0.0006398619152605534,0.01586041785776615
0.01825886033475399,0.005107890348881483,-0.014124870300292969,0.009814097546041012,-0.0006586730596609414,0.015544820576906204
0.018567001447081566,0.005415905267000198,-0.013741823844611645,0.00972131360322237,-0.0006080881576053798,0.015619790181517601
0.019252903759479523,0.0052096908912062645,-0.014597136527299881,0.009168993681669235,-0.0006707609281875193,0.015771837905049324
0.019243866205215454,0.005405461881309748,-0.014176045544445515,0.009556961245834827,-0.0006004584720358253,0.016155682504177094
0.019387517124414444,0.0055412896908819675,-0.014909314922988415,0.010006282478570938,-0.0006290636374615133,0.01616005413234234
0.01908395066857338,0.0051465812139213085,-0.013842499814927578,0.00966624915599823,-0.0006385075394064188,0.015962179750204086
0.01906629279255867,0.004935010336339474,-0.014489400200545788,0.010372537188231945,-0.0005994223174639046,0.016864174976944923
0.019394060596823692,0.005082679446786642,-0.013980450108647346,0.010183386504650116,-0.000621375918854028,0.015238320454955101
0.019394060596823692,0.005082679446786642,-0.013980450108647346,0.010183386504650116,-0.000621375918854028,0.015238320454955101
0.019583364948630333,0.005123969167470932,-0.01416354812681675,0.009432324208319187,-0.0006550566758960485,0.015318443067371845
0.01950838975608349,0.005330907180905342,-0.01410150621086359,0.009203819558024406,-0.0006557286833412945,0.015666170045733452
0.019870663061738014,0.005016028881072998,-0.014331807382404804,0.010018160566687584,-0.0006317115039564669,0.01650334522128105
0.019677914679050446,0.004856553860008717,-0.014268877916038036,0.00990273430943489,-0.0005685788346454501,0.016709083691239357
0.019516797736287117,0.005129870027303696,-0.01431733276695013,0.010161679238080978,-0.0005772935692220926,0.016973407939076424
0.019980747252702713,0.004920244216918945,-0.01414251048117876,0.009967194870114326,-0.0005465392605401576,0.016961682587862015
0.019891440868377686,0.005239601247012615,-0.01436456385999918,0.00964536052197218,-0.0005040448158979416,0.01688225008547306
0.0195376668125391,0.005496209021657705,-0.01437720563262701,0.0102467006072402,-0.00046675445628352463,0.01677343249320984
0.019931146875023842,0.005054698325693607,-0.014472451992332935,0.010851064696907997,-0.0004922655643895268,0.016263213008642197
0.0202393289655447,0.005208084359765053,-0.014345197007060051,0.009476849809288979,-0.0004642736748792231,0.016572492197155952
0.02002360112965107,0.005130541045218706,-0.014562730677425861,0.00944545492529869,-0.0004358785517979413,0.016672929748892784
0.020555881783366203,0.0052964226342737675,-0.014410278759896755,0.009743455797433853,-0.00036707991966977715,0.017041930928826332
0.020133081823587418,0.005281682126224041,-0.014094114303588867,0.010344634763896465,-0.000397963885916397,0.016821376979351044
0.019908713176846504,0.005674568936228752,-0.014446068555116653,0.010178006254136562,-0.0003780733677558601,0.01683169975876808
0.02046872116625309,0.0052838693372905254,-0.014183901250362396,0.01034084614366293,-0.00035381040652282536,0.016611862927675247
0.02034066617488861,0.004918594844639301,-0.014777686446905136,0.011054638773202896,-0.0003320746764075011,0.017024774104356766
0.020146414637565613,0.005148769821971655,-0.014471103437244892,0.010498515330255032,-0.000361354264896363,0.01728024147450924
0.020659267902374268,0.00508500449359417,-0.014697058126330376,0.010060190223157406,-0.00034473970299586654,0.01708420366048813
0.020781761035323143,0.004920369014143944,-0.014345084317028522,0.010780117474496365,-0.0003705491544678807,0.017016790807247162
0.020045092329382896,0.0050813197158277035,-0.014732059091329575,0.011066353879868984,-0.00035672905505634844,0.017194021493196487
0.020456066355109215,0.005014758091419935,-0.014640710316598415,0.010894758626818657,-0.0004011481360066682,0.01720316894352436
0.02094930037856102,0.005274178925901651,-0.014909043908119202,0.011245276778936386,-0.00037288916064426303,0.017380591481924057
0.020306728780269623,0.004968794994056225,-0.014733719639480114,0.010973254218697548,-0.0003952496044803411,0.017163844779133797
0.020567573606967926,0.005068698897957802,-0.0149760190397501,0.010767939500510693,-0.0003829525376204401,0.017282327637076378
0.020853253081440926,0.005012777633965015,-0.014673625119030476,0.010780622251331806,-0.00038758592563681304,0.017348146066069603
0.021531596779823303,0.004862011875957251,-0.014478903263807297,0.01052951067686081,-0.00039031135383993387,0.01731727458536625
0.02099505253136158,0.004919638857245445,-0.01467898953706026,0.010894590057432652,-0.0004080498474650085,0.017613708972930908
0.02112649753689766,0.0056358748115599155,-0.015200856141746044,0.010824897326529026,-0.00039777453639544547,0.01761658675968647
0.020797455683350563,0.005373300984501839,-0.015046468935906887,0.010820051655173302,-0.0004843207134399563,0.018116040155291557
0.020797455683350563,0.005373300984501839,-0.015046468935906887,0.010820051655173302,-0.0004843207134399563,0.018116040155291557
0.020489037036895752,0.004940553568303585,-0.01583663746714592,0.010996978729963303,-0.0004523451207205653,0.01896234042942524
0.022231386974453926,0.004743751138448715,-0.014714890159666538,0.01058740634471178,-0.0004119832592550665,0.01742342859506607
0.02187190018594265,0.005304232705384493,-0.01573116146028042,0.010427335277199745,-0.000413970003137365,0.017406612634658813
0.021375317126512527,0.0051900288090109825,-0.015052719973027706,0.01041082851588726,-0.00041532900650054216,0.01756874844431877
0.021785276010632515,0.0057182530872523785,-0.01536467019468546,0.010543289594352245,-0.000387671374483034,0.017900239676237106
0.02187207154929638,0.0048493328504264355,-0.014499465934932232,0.010287926532328129,-0.00041392669663764536,0.018311480060219765
0.022157415747642517,0.003921446390450001,-0.015190253965556622,0.010080114006996155,-0.00037219541263766587,0.01854025572538376
0.022266827523708344,0.004416469018906355,-0.015689488500356674,0.0106814568862319,-0.0003514528798405081,0.01845988817512989
0.021283378824591637,0.00472828047350049,-0.015437598340213299,0.010992289520800114,-0.0003328778257127851,0.0182986818253994
0.021228890866041183,0.00491718202829361,-0.01529626827687025,0.010844830423593521,-0.0003161669592373073,0.017980171367526054
0.021820228546857834,0.004679699894040823,-0.01584983430802822,0.011116370558738708,-0.00030105336918495595,0.01784612238407135
0.02235049568116665,0.0047394693829119205,-0.015766790136694908,0.010587497614324093,-0.0003176307654939592,0.018335705623030663
0.022285882383584976,0.00427660346031189,-0.0164585392922163,0.010348424315452576,-0.0003133387363050133,0.018727265298366547
0.022058939561247826,0.004471087362617254,-0.016079921275377274,0.01064443588256836,-0.00030086716287769377,0.018865441903471947
0.022175397723913193,0.004513487219810486,-0.016261572018265724,0.010970285162329674,-0.0002888354647438973,0.01847352273762226
0.02209523320198059,0.004355196841061115,-0.01569806970655918,0.011358614079654217,-0.0002776958863250911,0.018575508147478104
0.022362282499670982,0.004411150701344013,-0.016482383012771606,0.01129929255694151,-0.00026850937865674496,0.018649915233254433
0.0226880069822073,0.004595284815877676,-0.015857774764299393,0.010447493754327297,-0.0002314578159712255,0.019161256030201912
0.02236654795706272,0.004740677308291197,-0.01628309115767479,0.010824796743690968,-0.00021868351905141026,0.019404524937272072
0.02252175472676754,0.004184441175311804,-0.016601620241999626,0.010819735005497932,-0.00020845080143772066,0.01897703856229782
0.02281019650399685,0.004351659212261438,-0.016214443370699883,0.01110677421092987,-0.00019921419152524322,0.018542999401688576
0.022764932364225388,0.004171452950686216,-0.016860658302903175,0.011258222162723541,-0.0002238293964182958,0.018221721053123474
0.022546125575900078,0.0043562534265220165,-0.016028864309191704,0.010969926603138447,-0.00021927554917056113,0.018443811684846878
0.022546125575900078,0.0043562534265220165,-0.016028864309191704,0.010969926603138447,-0.00021927554917056113,0.018443811684846878
0.023002933710813522,0.0045327176339924335,-0.016541197896003723,0.01096448116004467,-0.0002110026398440823,0.018520241603255272
0.023487884551286697,0.004638162441551685,-0.01628910005092621,0.011073509231209755,-0.00020308511739131063,0.01886874996125698
0.02341017872095108,0.00438643665984273,-0.016897210851311684,0.011057919822633266,-0.00022613530745729804,0.019179346039891243
0.022675028070807457,0.004459769930690527,-0.016856808215379715,0.011473570950329304,-0.0002202132745878771,0.01917136274278164
0.022905761376023293,0.004125862382352352,-0.0162910558283329,0.011420754715800285,-0.00021290042786858976,0.0189647376537323
0.02322358824312687,0.004255630541592836,-0.016348116099834442,0.011807776987552643,-0.00022772615193389356,0.01905185915529728
0.023319687694311142,0.004563028458505869,-0.01553346961736679,0.011835476383566856,-0.00022741944121662527,0.019020304083824158
0.02346089854836464,0.004197909962385893,-0.016334066167473793,0.011368862353265285,-0.0002941216516774148,0.018924491479992867
0.023799199610948563,0.004476289730519056,-0.015916967764496803,0.011814811266958714,-0.00029882209491916,0.01948973536491394
0.02313871681690216,0.004778614733368158,-0.01637413538992405,0.011507549323141575,-0.0003341319097671658,0.018784118816256523
0.023333918303251266,0.0042878128588199615,-0.016074294224381447,0.011466166004538536,-0.00036384660052135587,0.01895209029316902
0.02401655539870262,0.0040403432212769985,-0.016739077866077423,0.011874613352119923,-0.0005976773099973798,0.019686274230480194
0.023625824600458145,0.004427430219948292,-0.016192225739359856,0.011809011921286583,-0.0007725946488790214,0.019349822774529457
0.023412471637129784,0.004801464732736349,-0.016196763142943382,0.011799962259829044,-0.0007396571454592049,0.019629890099167824
0.023830192163586617,0.004901747219264507,-0.015731286257505417,0.012609994038939476,-0.0007556910859420896,0.019970353692770004
0.023921683430671692,0.005154926795512438,-0.016402974724769592,0.01199931651353836,-0.0006808213656768203,0.019783921539783478
0.02402382157742977,0.004870869219303131,-0.015940655022859573,0.01171182282269001,-0.0006962172337807715,0.019764285534620285
0.022755030542612076,0.004426863975822926,-0.016446130350232124,0.012092458084225655,-0.0006396495155058801,0.019881952553987503
0.02413608320057392,0.0045777433551847935,-0.016697952523827553,0.012009372934699059,-0.0006218977505341172,0.01996609754860401
0.024547550827264786,0.004708996042609215,-0.016096055507659912,0.01244320347905159,-0.0005530613707378507,0.019729387015104294
0.024566922336816788,0.0050587705336511135,-0.016713092103600502,0.012203909456729889,-0.0004928747657686472,0.020182020962238312
0.024334290996193886,0.004964820109307766,-0.01613684371113777,0.01199828740209341,-0.0005091317580081522,0.020317548885941505
0.024258939549326897,0.004687217995524406,-0.016557665541768074,0.012106174603104591,-0.0004835149447899312,0.019824303686618805
0.023713726550340652,0.004532518330961466,-0.0162972342222929,0.012212792411446571,-0.0004449515836313367,0.019982697442173958
0.023713726550340652,0.004532518330961466,-0.0162972342222929,0.012212792411446571,-0.0004449515836313367,0.019982697442173958
0.02359938807785511,0.004609894007444382,-0.016652116551995277,0.012353292666375637,-0.0004748099308926612,0.020315496250987053
0.024959078058600426,0.0047745415940880775,-0.016814585775136948,0.012073486112058163,-0.0004675964592024684,0.0206301212310791
0.024959078058600426,0.0047745415940880775,-0.016814585775136948,0.012073486112058163,-0.0004675964592024684,0.0206301212310791
0.024013079702854156,0.005188348703086376,-0.015785012394189835,0.011954628862440586,-0.0004201166157145053,0.019507989287376404
0.024013079702854156,0.005188348703086376,-0.015785012394189835,0.011954628862440586,-0.0004201166157145053,0.019507989287376404
0.025577466934919357,0.004645932000130415,-0.016519466415047646,0.012833467684686184,-0.00039054840453900397,0.01970340870320797
0.024822723120450974,0.004819086752831936,-0.016187703236937523,0.012243871577084064,-0.000355453637894243,0.020182430744171143
0.02427033893764019,0.004947909619659185,-0.016426702961325645,0.012333136051893234,-0.0003775206860154867,0.020751953125
0.024444473907351494,0.0048140608705580235,-0.016811175271868706,0.012146036140620708,-0.00041199364932253957,0.02126690000295639
0.02388656698167324,0.005239160731434822,-0.016498122364282608,0.012373358011245728,-0.00040081830229610205,0.020451921969652176
0.02432192675769329,0.005350884981453419,-0.016860272735357285,0.012018708512187004,-0.0004175138892605901,0.02026793546974659
0.024936271831393242,0.004847987089306116,-0.01614460162818432,0.01196837704628706,-0.0004064336826559156,0.02060762234032154
0.02493000216782093,0.00486812274903059,-0.016554096713662148,0.01228108536452055,-0.0005395175539888442,0.02082674764096737
0.024569854140281677,0.004877043887972832,-0.016600990667939186,0.012878688983619213,-0.0005784588865935802,0.02057364210486412
0.02467539720237255,0.0053079575300216675,-0.016723865643143654,0.012044972740113735,-0.0005336152389645576,0.019943363964557648
0.02441704086959362,0.005335072986781597,-0.01626714877784252,0.012173609808087349,-0.000561563007067889,0.021467067301273346
0.024758001789450645,0.004823269322514534,-0.016726041212677956,0.012362546287477016,-0.0005746617098338902,0.019796643406152725
0.02465478703379631,0.004511856008321047,-0.015966933220624924,0.01194171141833067,-0.0005489817121997476,0.019888203591108322
0.025423455983400345,0.004893027245998383,-0.016666503623127937,0.011936068534851074,-0.0006505291676148772,0.02078958973288536
0.024857982993125916,0.004958488047122955,-0.016814449802041054,0.011518633924424648,-0.0006780658150091767,0.02138436585664749
0.024818262085318565,0.0049303509294986725,-0.01683962531387806,0.012381942011415958,-0.0006149419350549579,0.021134139969944954
0.024823030456900597,0.0050553083419799805,-0.01673618145287037,0.012790016829967499,-0.0006201487267389894,0.020717699080705643
0.024679940193891525,0.004974305164068937,-0.01653680019080639,0.012686306610703468,-0.0005834324401803315,0.0208167415112257
0.025150422006845474,0.004348438698798418,-0.017445068806409836,0.01296714972704649,-0.000606195826549083,0.021089687943458557
0.025150422006845474,0.004348438698798418,-0.017445068806409836,0.01296714972704649,-0.000606195826549083,0.021089687943458557
0.025299284607172012,0.004305461887270212,-0.017825208604335785,0.01254266407340765,-0.000563445093575865,0.021323127672076225
0.026382427662611008,0.0048087905161082745,-0.01753903366625309,0.012493872083723545,-0.0006004091119393706,0.021370111033320427
0.0258839949965477,0.004789512138813734,-0.016974816098809242,0.01326760370284319,-0.0006307213916443288,0.021575719118118286
0.0258839949965477,0.004789512138813734,-0.016974816098809242,0.01326760370284319,-0.0006307213916443288,0.021575719118118286
0.025377776473760605,0.004494012799113989,-0.01651775650680065,0.012567390687763691,-0.0008510380866937339,0.02117745205760002
0.02545933425426483,0.0045004780404269695,-0.017207534983754158,0.012650279328227043,-0.0008986983448266983,0.02172871120274067
0.02545933425426483,0.0045004780404269695,-0.017207534983754158,0.012650279328227043,-0.0008986983448266983,0.02172871120274067
0.024873435497283936,0.00430553313344717,-0.017905984073877335,0.01190197840332985,-0.0008042270201258361,0.021593259647488594
0.026211652904748917,0.0044868080876767635,-0.017707951366901398,0.012206800282001495,-0.0007020196644589305,0.021557999774813652
0.0266018807888031,0.00464061601087451,-0.017535530030727386,0.012197811156511307,-0.0007171359611675143,0.021601906046271324
0.02603274956345558,0.004706050269305706,-0.017168620601296425,0.013411366380751133,-0.0006493951077573001,0.02173650451004505
0.025583649054169655,0.004549593199044466,-0.01758662983775139,0.012484779581427574,-0.0005890082102268934,0.02139844372868538
0.025546355172991753,0.004262063652276993,-0.018077442422509193,0.01224621944129467,-0.0005950216436758637,0.021770646795630455
0.026234161108732224,0.004464486613869667,-0.017346326261758804,0.012325206771492958,-0.0005656981957145035,0.02179909311234951
0.026515653356909752,0.004276547115296125,-0.01773095689713955,0.012789934873580933,-0.0005255251307971776,0.02180875651538372
0.026355348527431488,0.004528549499809742,-0.017344003543257713,0.012783484533429146,-0.0004261758294887841,0.022286061197519302
0.026851439848542213,0.004626638256013393,-0.017695309594273567,0.011938193812966347,-0.0003638617054093629,0.02198108844459057
0.026065710932016373,0.004275796469300985,-0.017336226999759674,0.01340199913829565,-0.00039272342110052705,0.022035792469978333
0.02638714201748371,0.0043895309790968895,-0.017994368448853493,0.01404179073870182,-0.00040357583202421665,0.02194923907518387
0.026159491389989853,0.004214484244585037,-0.018490877002477646,0.01331041194498539,-0.00040582678047940135,0.022083112969994545
0.02625362016260624,0.004038819577544928,-0.01803690567612648,0.013861934654414654,-0.0004096327756997198,0.022367386147379875
0.027371520176529884,0.0038864619564265013,-0.018012017011642456,0.013914155773818493,-0.0004109127912670374,0.022401871159672737
0.027623526751995087,0.004130309913307428,-0.01755385659635067,0.014433331787586212,-0.0005659971502609551,0.022606046870350838
0.027403276413679123,0.0041915299370884895,-0.017666427418589592,0.014143593609333038,-0.0006358545506373048,0.022739507257938385
0.02734285034239292,0.004355872515588999,-0.01844334416091442,0.014280314557254314,-0.0005944711156189442,0.022539427503943443
0.027210552245378494,0.004114022944122553,-0.017742255702614784,0.013496911153197289,-0.0006141894846223295,0.02265709638595581
0.027452733367681503,0.004518883302807808,-0.017543453723192215,0.013422519899904728,-0.0005692205158993602,0.022679274901747704
0.02744419313967228,0.0042288638651371,-0.017482401803135872,0.013267380185425282,-0.0005920003168284893,0.022666078060865402
0.026580918580293655,0.004372341092675924,-0.017293794080615044,0.013454444706439972,-0.0006187908002175391,0.02292724698781967
0.028344403952360153,0.004416405688971281,-0.017894726246595383,0.013753876090049744,-0.000602524378336966,0.0234209056943655
0.027850542217493057,0.004310244228690863,-0.017237719148397446,0.013233194127678871,-0.0006343020359054208,0.02230253256857395
0.027660923078656197,0.004421929828822613,-0.017646223306655884,0.013471164740622044,-0.0005736055318266153,0.02224944904446602
0.02774878777563572,0.004169182386249304,-0.01803986169397831,0.013068512082099915,-0.0005821184022352099,0.02324686013162136
0.027826672419905663,0.004490915685892105,-0.01767633855342865,0.01358417235314846,-0.000608527276199311,0.023867299780249596
0.028107168152928352,0.00472389068454504,-0.01840464025735855,0.013213452883064747,-0.0006466484046541154,0.023141246289014816
0.02822555974125862,0.004312301054596901,-0.01781100407242775,0.014064828865230083,-0.0007180885877460241,0.021899981424212456
0.028726106509566307,0.004336962942034006,-0.017696382477879524,0.013698996044695377,-0.0007573936600238085,0.022485315799713135
0.02855285070836544,0.004145700950175524,-0.01824290119111538,0.014140227809548378,-0.0007741699228063226,0.023870524019002914
0.02855285070836544,0.004145700950175524,-0.01824290119111538,0.014140227809548378,-0.0007741699228063226,0.023870524019002914
0.028643202036619186,0.004293218720704317,-0.017877625301480293,0.013930294662714005,-0.0008880716050043702,0.024112630635499954
0.029120303690433502,0.004072252660989761,-0.017733272165060043,0.014617768116295338,-0.000964074453804642,0.023418473079800606
0.02866070345044136,0.004482929594814777,-0.018356306478381157,0.014095503836870193,-0.0009586040978319943,0.023296039551496506
0.028931884095072746,0.004686098545789719,-0.018001820892095566,0.014484851621091366,-0.0008898635860532522,0.024772346019744873
0.028828786686062813,0.004271519836038351,-0.01812012307345867,0.013621117919683456,-0.0008793790475465357,0.024296771734952927
0.029130835086107254,0.004012903198599815,-0.01805482804775238,0.014623953960835934,-0.0007953517488203943,0.023443136364221573
0.029243728145956993,0.0042554098181426525,-0.018173228949308395,0.014001777395606041,-0.0007165167480707169,0.02272450365126133
0.02957996539771557,0.0040925717912614346,-0.018660563975572586,0.014729410409927368,-0.0006231671432033181,0.0230244267731905
0.029913991689682007,0.004226364195346832,-0.017810573801398277,0.014270998537540436,-0.0005475490470416844,0.024035071954131126
0.029519708827137947,0.004320647567510605,-0.01873374730348587,0.014281478710472584,-0.000527394819073379,0.024265987798571587
0.030242960900068283,0.004304624628275633,-0.018461177125573158,0.014932177029550076,-0.0005555436364375055,0.024317381903529167
0.031012294813990593,0.004026256036013365,-0.019018540158867836,0.014648551121354103,-0.0005784976528957486,0.02469038777053356
0.031207311898469925,0.004311075899749994,-0.0188697949051857,0.015078204683959484,-0.0005833880859427154,0.024438736960291862
0.028764043003320694,0.00416608015075326,-0.018467698246240616,0.015041448175907135,-0.0005528639885596931,0.024307534098625183
0.03007216565310955,0.003963927738368511,-0.01876344345510006,0.01524400431662798,-0.0005669154925271869,0.024065988138318062
0.030894167721271515,0.004100349731743336,-0.018632223829627037,0.015020755119621754,-0.0005332109867595136,0.024661092087626457
0.030686138197779655,0.00398760661482811,-0.018628569319844246,0.015248660929501057,-0.0005618688883259892,0.024584071710705757
0.030784985050559044,0.0038197790272533894,-0.01937204599380493,0.014566742815077305,-0.0005895384820178151,0.02438599243760109
0.03168706223368645,0.0042798868380486965,-0.019581686705350876,0.014652169309556484,-0.0006343441782519221,0.024475639685988426
0.03137083724141121,0.004126722924411297,-0.018331246450543404,0.014421944506466389,-0.0006870822398923337,0.024461284279823303
0.030466368421912193,0.003928241785615683,-0.01928907074034214,0.014870947226881981,-0.0006614118465222418,0.024471264332532883
0.029980380088090897,0.004364105872809887,-0.019619185477495193,0.014762317761778831,-0.0005925777950324118,0.024719195440411568
0.029980380088090897,0.004364105872809887,-0.019619185477495193,0.014762317761778831,-0.0005925777950324118,0.024719195440411568
0.031485483050346375,0.004177292808890343,-0.019075704738497734,0.014872574247419834,-0.00061669887509197,0.024799305945634842
0.031529273837804794,0.004399571102112532,-0.018793243914842606,0.014767833054065704,-0.0005665885983034968,0.024911511689424515
0.031140051782131195,0.004176130518317223,-0.018908653408288956,0.015088716521859169,-0.0005201165331527591,0.02491086535155773
0.03140627220273018,0.0041827973909676075,-0.01957659237086773,0.014697860926389694,-0.0004804433265235275,0.024743519723415375
0.03179825469851494,0.0041492655873298645,-0.018973587080836296,0.014102489687502384,-0.0005056615918874741,0.02476494386792183
0.03139972314238548,0.004389290697872639,-0.018971560522913933,0.014191101305186749,-0.0004760770534630865,0.024660270661115646
0.03155723586678505,0.004092127550393343,-0.01925141178071499,0.014561799354851246,-0.00044677432742901146,0.024780796840786934
0.03125918656587601,0.004414350260049105,-0.019675226882100105,0.0148296058177948,-0.0004206745943520218,0.025104843080043793
0.031100165098905563,0.004162185359746218,-0.01940353959798813,0.015447404235601425,-0.00037129977135919034,0.025380808860063553
0.031178265810012817,0.004390622954815626,-0.019077777862548828,0.015117726288735867,-0.0003404993622098118,0.02551719918847084
0.0314699225127697,0.004163977690041065,-0.019503489136695862,0.015169077552855015,-0.00037519424222409725,0.025071879848837852
0.03132668882608414,0.00422512274235487,-0.019588230177760124,0.015226760879158974,-0.00038311415119096637,0.02471323497593403
0.03154510259628296,0.004065028391778469,-0.01890096254646778,0.014524083584547043,-0.0003862684825435281,0.02425861358642578
0.03158868849277496,0.0038174567744135857,-0.0192406103014946,0.014546915888786316,-0.0003910341765731573,0.025167545303702354
0.031750649213790894,0.003745517460629344,-0.019623320549726486,0.014818958938121796,-0.00039326856494881213,0.02518145926296711
0.03199571743607521,0.004138439428061247,-0.019563807174563408,0.0156378373503685,-0.0005888597224839032,0.026346730068325996
0.03300770744681358,0.00441061332821846,-0.019658876582980156,0.01572786085307598,-0.0006023149471729994,0.026283005252480507
0.03198991343379021,0.004624105989933014,-0.019163962453603745,0.014996771700680256,-0.0005883384728804231,0.025886520743370056
0.030611472204327583,0.004275642801076174,-0.019353948533535004,0.01575331948697567,-0.0006123274215497077,0.025016553699970245
0.03128499165177345,0.004258568864315748,-0.01948940008878708,0.015860816463828087,-0.0007897468167357147,0.02489069104194641
0.03223133087158203,0.004176839720457792,-0.0189643707126379,0.01614389382302761,-0.0008629151852801442,0.025539804250001907
0.03208492323756218,0.004810834303498268,-0.019599488005042076,0.01620062068104744,-0.0008552104700356722,0.026435762643814087
0.03280540555715561,0.004512496758252382,-0.01970038004219532,0.015818946063518524,-0.0007787822396494448,0.02638927847146988
0.03303668648004532,0.004554778803139925,-0.01902913860976696,0.0160976629704237,-0.0007671038620173931,0.02588776871562004
0.03300238773226738,0.004429327789694071,-0.01972908340394497,0.01586597040295601,-0.0007133471081033349,0.025866342708468437
0.032085590064525604,0.004376252181828022,-0.019807301461696625,0.01612156257033348,-0.0006503068143501878,0.026115573942661285
0.03207826986908913,0.004876895807683468,-0.019074302166700363,0.015689946711063385,-0.0006069977534934878,0.0262993685901165
0.03207826986908913,0.004876895807683468,-0.019074302166700363,0.015689946711063385,-0.0006069977534934878,0.0262993685901165
0.03277268633246422,0.004528986290097237,-0.019709458574652672,0.015770291909575462,-0.0005735279410146177,0.026230715215206146
0.03277268633246422,0.004528986290097237,-0.019709458574652672,0.015770291909575462,-0.0005735279410146177,0.026230715215206146
0.03296787291765213,0.004087351728230715,-0.019568804651498795,0.01566154696047306,-0.0005531310453079641,0.026516133919358253
0.03296787291765213,0.004087351728230715,-0.019568804651498795,0.01566154696047306,-0.0005531310453079641,0.026516133919358253
0.03244151175022125,0.004797260742634535,-0.019595440477132797,0.01601247861981392,-0.0005772882723249495,0.02666269987821579
0.03304442763328552,0.0049059572629630566,-0.019036423414945602,0.01628950983285904,-0.0005979054840281606,0.026409050449728966
0.032673560082912445,0.004239831119775772,-0.01966245099902153,0.015565267764031887,-0.0006361673586070538,0.027478361502289772
0.032772742211818695,0.004364991560578346,-0.019956739619374275,0.015674350783228874,-0.0006665799883194268,0.026279954239726067
0.03287971764802933,0.004280573688447475,-0.01940756104886532,0.0156331155449152,-0.0006907462957315147,0.02634546533226967
0.033325813710689545,0.004437285475432873,-0.019537094980478287,0.01640070416033268,-0.0008560942951589823,0.026722639799118042
0.033968206495046616,0.004943858832120895,-0.019800683483481407,0.015861187130212784,-0.0009983268100768328,0.026821305975317955
0.03196098282933235,0.004896271973848343,-0.019599810242652893,0.016080444678664207,-0.0009913007961586118,0.026709768921136856
0.03377094864845276,0.004465730860829353,-0.01953153870999813,0.015990417450666428,-0.000947386201005429,0.02700217254459858
0.034123048186302185,0.004434629343450069,-0.019986053928732872,0.01603991724550724,-0.0008862715912982821,0.02700643800199032
0.03380300849676132,0.004508144687861204,-0.0197305791079998,0.016084739938378334,-0.0008642623433843255,0.026948731392621994
0.03412050008773804,0.004358719568699598,-0.020160097628831863,0.01612521894276142,-0.0007545884582214057,0.026922382414340973
0.034109946340322495,0.004553942941129208,-0.020046452060341835,0.015847932547330856,-0.0006750453030690551,0.026727408170700073
0.034249067306518555,0.004518759902566671,-0.019288625568151474,0.016586067155003548,-0.0006868088385090232,0.026774412021040916
0.03427553549408913,0.004692760296165943,-0.019919300451874733,0.016329685226082802,-0.0006956374272704124,0.026996372267603874
0.034308165311813354,0.004851318430155516,-0.021530184894800186,0.016738174483180046,-0.0006568839307874441,0.02727816440165043
0.03474407270550728,0.0048141577281057835,-0.020529942587018013,0.016346337273716927,-0.0006603894871659577,0.027088753879070282
0.03508725017309189,0.004323970526456833,-0.020010311156511307,0.015919705852866173,-0.000686981133185327,0.027013858780264854
0.03461436927318573,0.00417906790971756,-0.02020188793540001,0.01646101102232933,-0.00066368468105793,0.027288611978292465
0.03415950387716293,0.004787438083440065,-0.020199058577418327,0.016045624390244484,-0.0006663642707280815,0.02775447629392147
0.0346272736787796,0.004780040122568607,-0.01992500014603138,0.016450228169560432,-0.000627866480499506,0.027886928990483284
0.035804472863674164,0.004299638792872429,-0.0204397551715374,0.01624366082251072,-0.0005786502151750028,0.02691989205777645
0.03593454882502556,0.004471387714147568,-0.020407112315297127,0.016932234168052673,-0.0005356498877517879,0.0264973696321249
0.03360677883028984,0.004519257694482803,-0.019784050062298775,0.016756465658545494,-0.0005599329597316682,0.02723759412765503
0.03448473662137985,0.004688757937401533,-0.021059321239590645,0.016581444069743156,-0.0005077006062492728,0.02822154201567173
0.03448473662137985,0.004688757937401533,-0.021059321239590645,0.016581444069743156,-0.0005077006062492728,0.02822154201567173
0.035862404853105545,0.004901441745460033,-0.021212561056017876,0.016965357586741447,-0.000535400933586061,0.027936968952417374
0.03558215871453285,0.004835910629481077,-0.021072344854474068,0.01706969365477562,-0.0004968027933500707,0.028590267524123192
0.036419592797756195,0.004581117071211338,-0.020136898383498192,0.017641793936491013,-0.0005260754842311144,0.028966641053557396
0.03537995368242264,0.004300838802009821,-0.020679529756307602,0.017622893676161766,-0.0005237112054601312,0.028128009289503098
0.03528605028986931,0.004848055075854063,-0.02017832361161709,0.01715853624045849,-0.0005173246609047055,0.02712075226008892
0.03544148802757263,0.004925103392452002,-0.019775904715061188,0.017058592289686203,-0.0005710011464543641,0.028143279254436493
0.0362437441945076,0.004506619647145271,-0.019783463329076767,0.016971860080957413,-0.0005696277366951108,0.028863051906228065
0.034636057913303375,0.004620021674782038,-0.021159455180168152,0.01726260781288147,-0.0005564887542277575,0.02879394218325615
0.03611057251691818,0.004407389555126429,-0.02089677006006241,0.018040278926491737,-0.0005071673658676445,0.02808966115117073
0.0367421880364418,0.0040088556706905365,-0.02062695287168026,0.01732075959444046,-0.0005355299799703062,0.02828259952366352
0.03615322709083557,0.003956087864935398,-0.020927920937538147,0.017639612779021263,-0.0005592746310867369,0.028376400470733643
0.03643691539764404,0.004027960821986198,-0.021195905283093452,0.017496375367045403,-0.0006501906318590045,0.028575969859957695
0.03645835444331169,0.004626190289855003,-0.02027929201722145,0.017301522195339203,-0.0006875513936392963,0.02812717668712139
0.03566644713282585,0.004627224989235401,-0.02024351991713047,0.016882209107279778,-0.000712463166564703,0.028072413057088852
0.03604631498456001,0.0043089925311505795,-0.020934907719492912,0.017259446904063225,-0.0008972403593361378,0.028803298249840736
0.03636382892727852,0.003968968987464905,-0.02079841122031212,0.01740933209657669,-0.000953514245338738,0.028855280950665474
0.036276694387197495,0.0037348605692386627,-0.02129763923585415,0.017861120402812958,-0.0008962673018686473,0.02893054112792015
0.03625921532511711,0.0037390554789453745,-0.021327292546629906,0.018151864409446716,-0.0008362793014384806,0.028883490711450577
0.03776883706450462,0.0038603090215474367,-0.020461732521653175,0.018024077638983727,-0.0008325138478539884,0.029001440852880478
0.03647361323237419,0.004334763158112764,-0.020758556202054024,0.019145777449011803,-0.0007573719485662878,0.029053308069705963
0.035882946103811264,0.004149512387812138,-0.02122572623193264,0.018957970663905144,-0.0007042791694402695,0.029203584417700768
0.03721548244357109,0.004458671901375055,-0.021425416693091393,0.01820393092930317,-0.00072035554330796,0.029894836246967316
0.0367068387567997,0.0040998212061822414,-0.021084995940327644,0.018256455659866333,-0.0007412880077026784,0.02978089265525341
0.03804002329707146,0.003941974136978388,-0.021047860383987427,0.017467478290200233,-0.0007457793690264225,0.029744533821940422
0.03793476149439812,0.003939090762287378,-0.02152455970644951,0.01760082133114338,-0.0008314905571751297,0.028985943645238876
0.036741144955158234,0.004278928507119417,-0.020985513925552368,0.01763176918029785,-0.0009505368070676923,0.02904253639280796
0.03636511415243149,0.004352623131126165,-0.02054416947066784,0.01762160286307335,-0.0009498839499428868,0.030458908528089523
0.03636511415243149,0.004352623131126165,-0.02054416947066784,0.01762160286307335,-0.0009498839499428868,0.030458908528089523
0.03750232607126236,0.004344375804066658,-0.02107340283691883,0.018505007028579712,-0.001026638550683856,0.02988365665078163
0.03701357915997505,0.004409260116517544,-0.020677980035543442,0.018249288201332092,-0.0010239718249067664,0.028749551624059677
0.03701357915997505,0.004409260116517544,-0.020677980035543442,0.018249288201332092,-0.0010239718249067664,0.028749551624059677
0.03709591180086136,0.00397550268098712,-0.0210140161216259,0.018295738846063614,-0.0008710742113180459,0.029451077803969383
0.03725934401154518,0.004146614111959934,-0.021298667415976524,0.01809030771255493,-0.0008660298190079629,0.029952356591820717
0.03704674914479256,0.004206162877380848,-0.02087603136897087,0.01833513379096985,-0.0008477674564346671,0.02949710190296173
0.03779074549674988,0.004415466915816069,-0.020618949085474014,0.018541892990469933,-0.0007806269568391144,0.030261730775237083
0.037590064108371735,0.004331246484071016,-0.021787220612168312,0.01816115528345108,-0.0005999724380671978,0.029808426275849342
0.037590064108371735,0.004331246484071016,-0.021787220612168312,0.01816115528345108,-0.0005999724380671978,0.029808426275849342
0.03797919675707817,0.004129795357584953,-0.02126399800181389,0.018179018050432205,-0.0006200921488925815,0.029608655720949173
0.03783048316836357,0.0039081578142941,-0.0211775042116642,0.018052222207188606,-0.0006126865046098828,0.029354341328144073
0.03786853700876236,0.0042955013923347,-0.020854590460658073,0.018712986260652542,-0.0006376689998432994,0.030813515186309814
0.03843196853995323,0.004138384014368057,-0.020945483818650246,0.018674200400710106,-0.000624534790404141,0.031161200255155563
0.0375027060508728,0.004331827163696289,-0.021252697333693504,0.018510885536670685,-0.0007188203744590282,0.03028786927461624
0.039271678775548935,0.004562282934784889,-0.02119886502623558,0.01828317902982235,-0.0007295518298633397,0.030003726482391357
0.03842225670814514,0.0044006467796862125,-0.021364562213420868,0.01859533041715622,-0.0007345629273913801,0.029755480587482452
0.03792226314544678,0.00402445625513792,-0.021374976262450218,0.019039513543248177,-0.0006896235281601548,0.03049146756529808
0.038491714745759964,0.003819011151790619,-0.022411232814192772,0.018355820327997208,-0.0007602774421684444,0.031092261895537376
0.03855942189693451,0.003796508302912116,-0.021844852715730667,0.018421107903122902,-0.0007830465910956264,0.030746717005968094
0.03854097053408623,0.00409012520685792,-0.02210734598338604,0.018491730093955994,-0.0007981175440363586,0.030566301196813583
0.038634639233350754,0.00407281331717968,-0.021463630720973015,0.01816912740468979,-0.0007894732407294214,0.030810153111815453
0.03867310658097267,0.004248832352459431,-0.02136644348502159,0.0183253213763237,-0.0007323903264477849,0.03074064292013645
0.0385664738714695,0.003987729549407959,-0.02153315208852291,0.01808561198413372,-0.0006705800769850612,0.03128691017627716
0.038707513362169266,0.0037713623605668545,-0.022118238732218742,0.017686236649751663,-0.0006531426915898919,0.03109285794198513
0.03991080820560455,0.0037144161760807037,-0.022226154804229736,0.017900759354233742,-0.0006734386552125216,0.031054319813847542
0.039295684546232224,0.004325068090111017,-0.02205277979373932,0.01815725490450859,-0.0006597290048375726,0.03124747797846794
0.038083091378211975,0.0041481368243694305,-0.022328022867441177,0.018991177901625633,-0.0006375830853357911,0.030887072905898094
0.038083091378211975,0.0041481368243694305,-0.022328022867441177,0.018991177901625633,-0.0006375830853357911,0.030887072905898094
0.03886379674077034,0.003886144608259201,-0.022494304925203323,0.0192472655326128,-0.0006531801773235202,0.031149795278906822
0.040303122252225876,0.004149834159761667,-0.02156907506287098,0.01841149292886257,-0.0007107622222974896,0.031436897814273834
0.040303122252225876,0.004149834159761667,-0.02156907506287098,0.01841149292886257,-0.0007107622222974896,0.031436897814273834
0.040475644171237946,0.003992279525846243,-0.021930145099759102,0.018824992701411247,-0.000680501339957118,0.030874498188495636
0.038883026689291,0.0038619849365204573,-0.02222500368952751,0.01935739628970623,-0.0007015925366431475,0.03146990016102791
0.03803481534123421,0.0037916668225079775,-0.022492490708827972,0.019770201295614243,-0.00072140630800277,0.03177238628268242
0.03990453481674194,0.003822608385235071,-0.02250838279724121,0.019574303179979324,-0.0008222587639465928,0.03180389106273651
0.04023038595914841,0.003834643168374896,-0.022203199565410614,0.01910620555281639,-0.0008516251109540462,0.033107317984104156
0.03963392972946167,0.0038489531725645065,-0.022137705236673355,0.018655704334378242,-0.0007667539757676423,0.0326494537293911
0.039784178137779236,0.004136699717491865,-0.022714437916874886,0.018818331882357597,-0.0007549655856564641,0.031303420662879944
0.03995750471949577,0.004676153417676687,-0.02246103808283806,0.01895698346197605,-0.0006964500062167645,0.03121553547680378
0.0403343103826046,0.004265961702913046,-0.021802887320518494,0.019479691982269287,-0.0007118047215044498,0.03254181891679764
0.03954370319843292,0.003896147245541215,-0.02187761850655079,0.019406797364354134,-0.0006579832988791168,0.03217914700508118
0.03958863392472267,0.004195149522274733,-0.022445419803261757,0.018781229853630066,-0.0006589076365344226,0.03260495886206627
0.03947200998663902,0.00425788015127182,-0.02265169285237789,0.01955452747642994,-0.0006854450330138206,0.033100854605436325
0.04103650152683258,0.004228077828884125,-0.022173838689923286,0.019314799457788467,-0.0011724791256710887,0.031172988936305046
0.0402488112449646,0.004075194709002972,-0.022073177620768547,0.019296778365969658,-0.0012200542259961367,0.0310733150690794
0.03885060176253319,0.004182437434792519,-0.02253302000463009,0.01918957196176052,-0.0011927541345357895,0.03256291151046753
0.04001901298761368,0.0040756952948868275,-0.022116584703326225,0.0188303105533123,-0.00119035504758358,0.032834529876708984
0.04013030230998993,0.0038784192875027657,-0.021600689738988876,0.019520681351423264,-0.001174498931504786,0.0322733074426651
0.041267912834882736,0.004298910032957792,-0.022287746891379356,0.019807403907179832,-0.0011274056741967797,0.03219230845570564
0.040846239775419235,0.004216941073536873,-0.022510726004838943,0.019954198971390724,-0.001064815791323781,0.032199926674366
0.038790103048086166,0.003933195024728775,-0.02228701300919056,0.019493242725729942,-0.0009542203624732792,0.032212626188993454
0.039904121309518814,0.004349946975708008,-0.021859601140022278,0.0200608279556036,-0.0008369178976863623,0.032420530915260315
0.0413019098341465,0.004657210316509008,-0.022408558055758476,0.02003549598157406,-0.0007764197653159499,0.03254968672990799
0.04092341288924217,0.004283060319721699,-0.0226969663053751,0.019770946353673935,-0.0007302846061065793,0.032297488301992416
0.040576860308647156,0.003917080350220203,-0.022441083565354347,0.019815761595964432,-0.0007390721002593637,0.032682836055755615
0.04034596309065819,0.0040666935965418816,-0.022267421707510948,0.01944020763039589,-0.000755533401388675,0.03297007083892822
0.04076417535543442,0.004003333859145641,-0.022696539759635925,0.01921846531331539,-0.000785111216828227,0.033150117844343185
0.041532911360263824,0.003821296850219369,-0.02321011945605278,0.019860517233610153,-0.0008191756787709892,0.03291473165154457
0.04096120968461037,0.004306822549551725,-0.023090867325663567,0.019905928522348404,-0.000839454703964293,0.03390836715698242
0.04096120968461037,0.004306822549551725,-0.023090867325663567,0.019905928522348404,-0.000839454703964293,0.03390836715698242
0.04091087356209755,0.004194248002022505,-0.02273634634912014,0.019258573651313782,-0.0008472109911963344,0.03345254808664322
0.041222941130399704,0.00447396095842123,-0.021870410069823265,0.019507717341184616,-0.0009879301069304347,0.03337036445736885
0.04181181639432907,0.004091814626008272,-0.022505294531583786,0.01897178590297699,-0.000997544382698834,0.033248722553253174
0.041637223213911057,0.004218564834445715,-0.023484518751502037,0.01887286826968193,-0.0009836088865995407,0.03377585485577583
