davideferrari95/blind_handover_controller/data/Test 161 - [2024-02-08 -- 11-03-37]/joint_states_data.csv
shoulder_pan_joint,shoulder_lift_joint,elbow_joint,wrist_1_joint,wrist_2_joint,wrist_3_joint
0.0021004066802561283,-0.026490019634366035,-0.00867269653826952,0.029931340366601944,-0.00585388857871294,0.0011667243670672178
0.0021004066802561283,-0.026490019634366035,-0.00867269653826952,0.029931340366601944,-0.00585388857871294,0.0011667243670672178
0.0033651217818260193,-0.025744127109646797,-0.007542082108557224,0.028627097606658936,-0.006961665581911802,0.0012413101503625512
0.004605370108038187,-0.026430370286107063,-0.007347892504185438,0.02817165106534958,-0.006836561486124992,0.0016709178453311324
0.003757408121600747,-0.026645589619874954,-0.007722975220531225,0.02875586785376072,-0.0059325541369616985,0.002311989199370146
0.002372632035985589,-0.024885691702365875,-0.00818290002644062,0.02915186993777752,-0.005498298443853855,0.0022244839929044247
0.002372632035985589,-0.024885691702365875,-0.00818290002644062,0.02915186993777752,-0.005498298443853855,0.0022244839929044247
0.0025844378396868706,-0.025192001834511757,-0.0074407849460840225,0.029056807979941368,-0.005790041293948889,0.0019097565673291683
0.003553409595042467,-0.02637760154902935,-0.008353492245078087,0.029484795406460762,-0.004704959690570831,0.001670486875809729
0.0035661517176777124,-0.025874638929963112,-0.008850464597344398,0.029604803770780563,-0.004387411754578352,0.0012880414724349976
0.0031492237467318773,-0.02568574994802475,-0.008514253422617912,0.029691053554415703,-0.0041488963179290295,0.001251115812920034
0.002811087528243661,-0.026309646666049957,-0.007828732952475548,0.02997962385416031,-0.004204136785119772,0.0012429506750777364
0.002738158218562603,-0.026689808815717697,-0.008965541608631611,0.03017757460474968,-0.004172910936176777,0.0015098248841241002
0.002160125644877553,-0.025291284546256065,-0.008637555874884129,0.030276522040367126,-0.00481024757027626,0.0016048407414928079
0.0017634190153330564,-0.02526897005736828,-0.008267335593700409,0.03060133568942547,-0.00457096379250288,0.001719874911941588
0.0016958571504801512,-0.02513592503964901,-0.008353984914720058,0.03057212196290493,-0.004349943250417709,0.0016396668506786227
0.0014120710548013449,-0.025742191821336746,-0.008528526872396469,0.03025840036571026,-0.003648193785920739,0.0012830519117414951
0.00167936144862324,-0.0258698221296072,-0.008463623933494091,0.0301686841994524,-0.00358689296990633,0.0011844895780086517
0.0018475542310625315,-0.025641221553087234,-0.008670425973832607,0.029839657247066498,-0.004148705396801233,0.0012201870558783412
0.001659543951973319,-0.025780927389860153,-0.00852382741868496,0.030300159007310867,-0.00424469169229269,0.001191218034364283
0.0014135298551991582,-0.026384197175502777,-0.008295592851936817,0.031531598418951035,-0.004055812954902649,0.0012921170564368367
0.0012891723308712244,-0.026814691722393036,-0.00889985915273428,0.0312166977673769,-0.004191359970718622,0.0013020859332755208
0.0012082585599273443,-0.02660740725696087,-0.008982010185718536,0.031039759516716003,-0.003966586198657751,0.0016052288701757789
0.0012082585599273443,-0.02660740725696087,-0.008982010185718536,0.031039759516716003,-0.003966586198657751,0.0016052288701757789
0.0011581541039049625,-0.026461709290742874,-0.008682933636009693,0.030339283868670464,-0.003744363784790039,0.0015802073758095503
0.0009310838649980724,-0.026154380291700363,-0.008403453044593334,0.030959339812397957,-0.003502508392557502,0.0014690208481624722
0.0010156820062547922,-0.025822019204497337,-0.008968559093773365,0.031152546405792236,-0.003490481525659561,0.0013832106487825513
0.0010412533301860094,-0.026423320174217224,-0.009447774849832058,0.03098912350833416,-0.0037287543527781963,0.0013866820372641087
0.00149903807323426,-0.02575453743338585,-0.00827802438288927,0.0321347713470459,-0.0038870261050760746,0.0012389767216518521
0.001399726839736104,-0.025701314210891724,-0.008713711984455585,0.031471893191337585,-0.0038311227690428495,0.0011587332701310515
0.0013085398823022842,-0.026615265756845474,-0.00931448396295309,0.03077542409300804,-0.003774401033297181,0.0011519488180056214
0.0011735365260392427,-0.027128906920552254,-0.009010076522827148,0.03048412874341011,-0.00383618101477623,0.001133230747655034
0.0011190698714926839,-0.02696690708398819,-0.00894214492291212,0.031189342960715294,-0.003817862831056118,0.0012642658548429608
0.0011857792269438505,-0.026652954518795013,-0.00921557191759348,0.03180333226919174,-0.003926848527044058,0.0012161583872511983
0.0010835925349965692,-0.025948286056518555,-0.00923558883368969,0.03139854967594147,-0.0038674704264849424,0.001201980747282505
0.0011504567228257656,-0.02630564756691456,-0.00873684324324131,0.03140564262866974,-0.003775002434849739,0.0012062278110533953
0.001228689099662006,-0.026672326028347015,-0.009706630371510983,0.03151443600654602,-0.0033531873486936092,0.001279655029065907
0.0011044173734262586,-0.026296906173229218,-0.008986158296465874,0.031147494912147522,-0.0034488358069211245,0.0012607707176357508
0.0010948865674436092,-0.026800446212291718,-0.008759762160480022,0.031006943434476852,-0.0037048147059977055,0.0014261765172705054
0.0010567656718194485,-0.027026601135730743,-0.009304070845246315,0.0307391919195652,-0.0038398331962525845,0.001393019687384367
0.0010145669803023338,-0.026611942797899246,-0.009788940660655499,0.03106917440891266,-0.003452517092227936,0.001328091835603118
0.000887240981683135,-0.02595718391239643,-0.008845692500472069,0.03089672513306141,-0.0034669600427150726,0.0012387823080644011
0.0008872303878888488,-0.025734085589647293,-0.00967947207391262,0.031121613457798958,-0.003202641848474741,0.0011753709986805916
0.0007552057504653931,-0.02659938856959343,-0.00923311896622181,0.030974213033914566,-0.0032894250471144915,0.0010928807314485312
0.0007847055676393211,-0.026850009337067604,-0.00961870327591896,0.031038688495755196,-0.0034183498937636614,0.0009381986455991864
0.0008088049362413585,-0.026796255260705948,-0.009123869240283966,0.031344301998615265,-0.003586594946682453,0.000820104731246829
0.0011904200073331594,-0.026569893583655357,-0.008725771680474281,0.03150082007050514,-0.003357775043696165,0.0007500095525756478
0.0011554838856682181,-0.026431243866682053,-0.009375328198075294,0.032272033393383026,-0.0031142898369580507,0.0007644472643733025
0.0011157896369695663,-0.02662273682653904,-0.009178107604384422,0.031369779258966446,-0.002942814724519849,0.0008061490370891988
0.0009906420018523932,-0.026455488055944443,-0.008705729618668556,0.03100578859448433,-0.0029033676255494356,0.000991006032563746
0.0008971160859800875,-0.026378702372312546,-0.008623196743428707,0.03141774609684944,-0.002789626130834222,0.001131187193095684
0.0008963504224084318,-0.02646225318312645,-0.010354292578995228,0.03168616443872452,-0.0028105161618441343,0.001140772015787661
0.0008967492030933499,-0.026316221803426743,-0.008851789869368076,0.03155343979597092,-0.002709008753299713,0.0012282925890758634
0.0008967492030933499,-0.026316221803426743,-0.008851789869368076,0.03155343979597092,-0.002709008753299713,0.0012282925890758634
0.0009069479419849813,-0.02664201147854328,-0.008426444604992867,0.031564611941576004,-0.002977451542392373,0.0012088330695405602
0.0010348341893404722,-0.026805736124515533,-0.00945085845887661,0.03142210468649864,-0.0030082291923463345,0.0010108058340847492
0.0010265574092045426,-0.02693125791847706,-0.009538215585052967,0.03173339366912842,-0.002931765979155898,0.0009736945503391325
0.001008846564218402,-0.026811053976416588,-0.008794249035418034,0.03143290430307388,-0.0027490328066051006,0.0008572723600082099
0.0010887269163504243,-0.026782795786857605,-0.008940625935792923,0.032087378203868866,-0.0029827780090272427,0.0007553203613497317
0.0010571773163974285,-0.02669796533882618,-0.009143738076090813,0.03325522691011429,-0.003013735869899392,0.0007571827154606581
0.000996758695691824,-0.026793191209435463,-0.008752702735364437,0.03222273290157318,-0.002999251941218972,0.0006952100084163249
0.000982577446848154,-0.025453850626945496,-0.009072324261069298,0.030671730637550354,-0.0028356662951409817,0.0006346004665829241
0.0009060256998054683,-0.026938173919916153,-0.009670764207839966,0.03052620403468609,-0.002878770465031266,0.0004993281909264624
0.0009223802480846643,-0.026690872386097908,-0.009303855709731579,0.031478241086006165,-0.00269490503706038,0.0005157928098924458
0.0008299116743728518,-0.02647227607667446,-0.009130837395787239,0.031269825994968414,-0.0025776028633117676,0.0005485040019266307
0.0008379624923691154,-0.026294656097888947,-0.009618105366826057,0.03132319077849388,-0.0024587453808635473,0.0005676678847521544
0.0008422190439887345,-0.025920240208506584,-0.009578065946698189,0.0323559008538723,-0.002356585580855608,0.0005471032927744091
0.0008847680874168873,-0.02627517282962799,-0.008926775306463242,0.03151348978281021,-0.002208665246143937,0.0007686485187150538
0.000887528876774013,-0.02648998238146305,-0.009656636044383049,0.030631383880972862,-0.002230597659945488,0.0007990162121132016
0.0008893752237781882,-0.026619646698236465,-0.009504501707851887,0.030823104083538055,-0.00220989971421659,0.0007895258022472262
0.0008649706724099815,-0.026357155293226242,-0.009001021273434162,0.03192298114299774,-0.0023371900897473097,0.0007251331699080765
0.0009299312951043248,-0.026715898886322975,-0.009305396117269993,0.03316730633378029,-0.0027044329326599836,0.0005906668375246227
0.000926836219150573,-0.02601238712668419,-0.009258115664124489,0.03168026730418205,-0.002800593851134181,0.0005399880465120077
0.000845123955514282,-0.026163453236222267,-0.009647827595472336,0.03166788071393967,-0.0025089639239013195,0.0004973204922862351
0.0008504969300702214,-0.02639094926416874,-0.009598727338016033,0.0321030393242836,-0.002295804675668478,0.00046090729301795363
0.0008884144481271505,-0.026073798537254333,-0.008916930295526981,0.03222835808992386,-0.0020593078806996346,0.0004745839978568256
0.000894921540748328,-0.02555539831519127,-0.009490537457168102,0.03245403617620468,-0.0019879748579114676,0.0004584162961691618
0.000894921540748328,-0.02555539831519127,-0.009490537457168102,0.03245403617620468,-0.0019879748579114676,0.0004584162961691618
0.0008971950737759471,-0.025844434276223183,-0.009081680327653885,0.03268270194530487,-0.0022213039919734,0.00040744352736510336
0.0009550874237902462,-0.025808272883296013,-0.009182900190353394,0.032790523022413254,-0.0025237046647816896,0.00038561629480682313
0.0009550874237902462,-0.025808272883296013,-0.009182900190353394,0.032790523022413254,-0.0025237046647816896,0.00038561629480682313
0.0009508748771622777,-0.02551109530031681,-0.00952592957764864,0.03245158866047859,-0.002200487069785595,0.0003172619908582419
0.0009431635844521224,-0.026237457990646362,-0.009545673616230488,0.03281484171748161,-0.0016284171724691987,0.0002827358548529446
0.0009374459041282535,-0.02633330412209034,-0.009511568583548069,0.032413218170404434,-0.0015298286452889442,0.00029092200566083193
0.0009241533698514104,-0.025057798251509666,-0.009274658747017384,0.032284583896398544,-0.0014883368276059628,0.0002985821629408747
0.0009187921532429755,-0.02504744566977024,-0.009189504198729992,0.03265983611345291,-0.0016120049403980374,0.0002844061818905175
0.0009053100366145372,-0.024598579853773117,-0.009633520618081093,0.03377765789628029,-0.0018855415983125567,0.0003122178604826331
0.0009137405431829393,-0.024532880634069443,-0.009683213196694851,0.03284088522195816,-0.0020964904688298702,0.00030008514295332134
0.0009391678031533957,-0.02546282485127449,-0.009121433831751347,0.030917484313249588,-0.0018566475482657552,0.0002866092254407704
0.0009488294017501175,-0.025385648012161255,-0.009455251507461071,0.03067753091454506,-0.0016879421891644597,0.000293291435809806
0.0009416043758392334,-0.024859068915247917,-0.009997626766562462,0.03169959783554077,-0.0015296349301934242,0.0002989351924043149
0.0009371864725835621,-0.025321489199995995,-0.00941938441246748,0.03141297027468681,-0.0014845934929326177,0.00028813580865971744
0.0011297175660729408,-0.025544211268424988,-0.009260001592338085,0.03172484040260315,-0.0015254262834787369,0.0002771199797280133
0.0009850877104327083,-0.02443530783057213,-0.009586120024323463,0.03291378170251846,-0.001482006162405014,0.00026804758817888796
0.0009608431719243526,-0.024479158222675323,-0.009361841715872288,0.031831029802560806,-0.0016465132357552648,0.00031328730983659625
0.000917537952773273,-0.02429749257862568,-0.009282496757805347,0.02986319176852703,-0.0015422626165673137,0.0002932170464191586
0.0010151673341169953,-0.024610595777630806,-0.009067143313586712,0.031115276739001274,-0.0015922044403851032,0.000275291851721704
0.000999930896796286,-0.024288907647132874,-0.00898066721856594,0.03164391964673996,-0.0014856734778732061,0.00025941626518033445
0.0010760107543319464,-0.023987671360373497,-0.009915871545672417,0.031397927552461624,-0.0013232723576948047,0.00024527127970941365
0.0011167969787493348,-0.024546559900045395,-0.009567935951054096,0.031026136130094528,-0.0013449513353407383,0.00026690377853810787
0.0011849041329696774,-0.024041369557380676,-0.008863857015967369,0.03131262585520744,-0.0012684745015576482,0.0002645886270329356
0.0012836825335398316,-0.024197014048695564,-0.009340130724012852,0.031218407675623894,-0.0012043701717630029,0.0002528982295189053
0.0012981672771275043,-0.024221254512667656,-0.008832775056362152,0.031034911051392555,-0.0011617329437285662,0.0002416254865238443
0.0012216258328408003,-0.024030175060033798,-0.008497864007949829,0.031100962311029434,-0.0011369093554094434,0.00023127756139729172
0.0011689370730891824,-0.023969000205397606,-0.009634044952690601,0.031394802033901215,-0.0010479539632797241,0.00022177696519065648
0.0012269782600924373,-0.024144243448972702,-0.009672707878053188,0.031040571630001068,-0.0009666650439612567,0.00021302630193531513
0.0012087428476661444,-0.02363167144358158,-0.008962765336036682,0.03141384571790695,-0.0008769782143644989,0.00020494023920036852
0.0012087428476661444,-0.02363167144358158,-0.008962765336036682,0.03141384571790695,-0.0008769782143644989,0.00020494023920036852
0.0011830047005787492,-0.0239031333476305,-0.009163936600089073,0.031609322875738144,-0.0008536824607290328,0.00019744568271562457
0.0014178180135786533,-0.024517415091395378,-0.009676113724708557,0.03137708082795143,-0.0008585565956309438,0.00019047966634389013
0.0014560315757989883,-0.02445639669895172,-0.009601430967450142,0.031172238290309906,-0.0008636708371341228,0.00018398900283500552
0.0014718510210514069,-0.02438684180378914,-0.008712098002433777,0.030686557292938232,-0.0009432157385163009,0.00017792581638786942
0.001505195046775043,-0.023790737614035606,-0.009862419217824936,0.030907243490219116,-0.0009704722906462848,0.00017224968178197742
0.0014274263521656394,-0.022486058995127678,-0.00903579406440258,0.030526848509907722,-0.0009617522009648383,0.0001669247285462916
0.001478487509302795,-0.023066936060786247,-0.009630645625293255,0.029921740293502808,-0.0008494373760186136,0.00016191904433071613
0.001412378391250968,-0.02356651984155178,-0.009375848807394505,0.030352724716067314,-0.0008484505815431476,0.00015720461669843644
0.0016003443161025643,-0.02334354817867279,-0.008641043677926064,0.030175605788826942,-0.0008026262512430549,0.00015275734767783433
0.0016924788942560554,-0.022730177268385887,-0.008412955328822136,0.030393090099096298,-0.0008225827477872372,0.00014855469635222107
0.001583525794558227,-0.02264077588915825,-0.009346029721200466,0.030028408393263817,-0.0008336833561770618,0.00014457694487646222
0.0015539854066446424,-0.023247884586453438,-0.009232387878000736,0.03144330903887749,-0.0008145804749801755,0.0001408068637829274
0.0014553822111338377,-0.024006057530641556,-0.008683142252266407,0.030121468007564545,-0.0007753193494863808,0.0001372283004457131
0.0016504968516528606,-0.021855656057596207,-0.008913787081837654,0.02954276092350483,-0.000808939163107425,0.000130590662593022
0.0018112233374267817,-0.02218029275536537,-0.008921856991946697,0.030265064910054207,-0.000758058566134423,0.00012750699534080923
0.0019214212661609054,-0.02231757901608944,-0.008817272260785103,0.029948413372039795,-0.0007214784272946417,0.00012456551485229284
0.001716957543976605,-0.022867007181048393,-0.009534438140690327,0.029867906123399734,-0.0006900595035403967,0.00012175677693448961
0.0016701818676665425,-0.02252676524221897,-0.00884462334215641,0.03064621053636074,-0.0006899507716298103,0.00011907177395187318
0.0016501155914738774,-0.022369831800460815,-0.008728963322937489,0.03099338337779045,-0.0006480947486124933,0.00011650277156149969
0.0015085266204550862,-0.02319810725748539,-0.009374617598950863,0.029836159199476242,-0.0005957503453828394,0.00011404233373468742
0.001572869485244155,-0.023040348663926125,-0.008888090029358864,0.02916043996810913,-0.0005502679268829525,0.00010252791980747133
0.0016946609830483794,-0.02236785739660263,-0.008926660753786564,0.029872776940464973,-0.0005111753125675023,9.180131746688858e-05
0.0016946609830483794,-0.02236785739660263,-0.008926660753786564,0.029872776940464973,-0.0005111753125675023,9.180131746688858e-05
0.0019905974622815847,-0.022570215165615082,-0.009190096519887447,0.03010561503469944,-0.0004772696702275425,8.94130498636514e-05
0.0020627493504434824,-0.022397926077246666,-0.008349675685167313,0.030886797234416008,-0.00042137561831623316,8.595848339609802e-05
0.0020627493504434824,-0.022397926077246666,-0.008349675685167313,0.030886797234416008,-0.00042137561831623316,8.595848339609802e-05
0.0020145815797150135,-0.02234482578933239,-0.00798297394067049,0.03054477460682392,-0.0003980688052251935,8.434712799498811e-05
0.0017822590889409184,-0.022533468902111053,-0.008672838099300861,0.02956981025636196,-0.0003772062191274017,7.050661224639043e-05
0.0017452361062169075,-0.022051407024264336,-0.00867786630988121,0.028981445357203484,-0.0003584224614314735,6.531827966682613e-05
0.0017992210341617465,-0.021996518597006798,-0.008537214249372482,0.029485056176781654,-0.00034142122603952885,5.00229507451877e-05
0.0021803113631904125,-0.022183094173669815,-0.00914448220282793,0.03056916780769825,-0.00032596016535535455,4.72161773359403e-05
0.002107099397107959,-0.02212010696530342,-0.008200807496905327,0.029719239100813866,-0.0003118390741292387,-2.7928565032198094e-05
0.0020905514247715473,-0.022036250680685043,-0.008034199476242065,0.03020504117012024,-0.00029889075085520744,-5.1784714742098004e-05
0.002022028900682926,-0.022500477731227875,-0.008841147646307945,0.029813870787620544,-0.000286975089693442,-5.589573993347585e-05
0.0019530366407707334,-0.022416284307837486,-0.008565886877477169,0.029798144474625587,-0.0002759736671578139,-6.872316589578986e-05
0.0019179594237357378,-0.02198955789208412,-0.008136152289807796,0.030191978439688683,-0.0002657842996995896,-7.170897879404947e-05
0.0020384148228913546,-0.021821189671754837,-0.00793695542961359,0.029584432020783424,-0.00025632078177295625,-8.706370135769248e-05
0.0017551652854308486,-0.022184690460562706,-0.009129030629992485,0.030323797836899757,-0.0002475082583259791,-0.0005101211718283594
0.0015674405731260777,-0.021974990144371986,-0.00857432372868061,0.028804145753383636,-0.00023928195878397673,-0.0006312350160442293
0.0012622297508642077,-0.021870963275432587,-0.008093801327049732,0.029004627838730812,-0.00023158469412010163,-0.0006173124420456588
0.0011588532943278551,-0.02182868868112564,-0.008615437895059586,0.029297133907675743,-0.00022436719154939055,-0.0005573521484620869
0.0015622894279658794,-0.02209114283323288,-0.008056617341935635,0.0289869774132967,-0.00021120262681506574,-0.0006050908123143017
0.0016277801478281617,-0.02225949428975582,-0.007598137948662043,0.028698857873678207,-0.0002051834890153259,-0.0006245234981179237
0.0018547966610640287,-0.021894339472055435,-0.008172023110091686,0.028660772368311882,-0.0001994976628338918,-0.0006885331822559237
0.0016708926996216178,-0.021827924996614456,-0.008220424875617027,0.029241075739264488,-0.00019411862012930214,-0.0007155038765631616
0.0015233014710247517,-0.02207445353269577,-0.008120156824588776,0.02891455963253975,-0.00018902221927419305,-0.0007476037135347724
0.0012094333069399,-0.02226993627846241,-0.007747764233499765,0.02863696590065956,-0.00018418635590933263,-0.0009753120830282569
0.0012624295195564628,-0.021594347432255745,-0.008145964704453945,0.02808721549808979,-0.00017959182150661945,-0.001047723926603794
0.001269915490411222,-0.02166803739964962,-0.00874002929776907,0.028411246836185455,-0.00017522121197544038,-0.0010288627818226814
0.001733475597575307,-0.021242037415504456,-0.0086494330316782,0.029455363750457764,-0.000171057996340096,-0.0010019851615652442
0.001733475597575307,-0.021242037415504456,-0.0086494330316782,0.029455363750457764,-0.000171057996340096,-0.0010019851615652442
0.0016715405508875847,-0.022443823516368866,-0.008440501987934113,0.028822677209973335,-0.0001670880155870691,-0.0009867449989542365
0.0019690084736794233,-0.022232357412576675,-0.00827016495168209,0.029204774647951126,-0.0001632983039598912,-0.00096572854090482
0.001768676214851439,-0.021390575915575027,-0.00788716971874237,0.029901981353759766,-0.0001596767542650923,-0.0009737351210787892
0.001648625242523849,-0.021793358027935028,-0.008178970776498318,0.02899741195142269,-0.0001562121615279466,-0.0009775148937478662
0.0015397724928334355,-0.022259235382080078,-0.00848523247987032,0.027662189677357674,-0.00015289481962099671,-0.00113049172796309
0.0018018956761807203,-0.021864812821149826,-0.00792072806507349,0.027119480073451996,-0.00014971547352615744,-0.001141035812906921
0.0018721244996413589,-0.021372804418206215,-0.00783798098564148,0.02848944254219532,-0.0001466656249249354,-0.001070384168997407
0.0020902766846120358,-0.021308284252882004,-0.00873649399727583,0.02952166274189949,-0.0001437376340618357,-0.0009887528140097857
0.002110356232151389,-0.021333688870072365,-0.008543207310140133,0.028529053553938866,-0.0001409241376677528,-0.0010628339368849993
0.002042423002421856,-0.021196627989411354,-0.008187560364603996,0.02819703333079815,-0.0001382188347633928,-0.0012226453982293606
0.0019798658322542906,-0.020987901836633682,-0.008275878615677357,0.028552791103720665,-0.00013561526429839432,-0.002230763202533126
0.0018512175884097815,-0.02096080780029297,-0.009305917657911777,0.02866191230714321,-0.00013310815847944468,-0.002550387056544423
0.001890494953840971,-0.021079357713460922,-0.00852909591048956,0.028485003858804703,-0.0001306919293710962,-0.0023642603773623705
0.0019797023851424456,-0.0202777199447155,-0.008075466379523277,0.02797788195312023,-0.00012836196401622146,-0.0017900059465318918
0.002012908225879073,-0.020418142899870872,-0.00871898140758276,0.02771698869764805,-0.00011139697016915306,-0.00164974934887141
0.0022836511489003897,-0.021092107519507408,-0.008688732981681824,0.029541397467255592,-0.00010851809929590672,-0.001539032906293869
0.002102321246638894,-0.02124006673693657,-0.008217443712055683,0.026838043704628944,-0.00010661893611541018,-0.0013977072667330503
0.00204790779389441,-0.020355673506855965,-0.008144879713654518,0.026378219947218895,-0.00010484054655535147,-0.0015208461554720998
0.0022287112660706043,-0.020091544836759567,-0.008888047188520432,0.02673220820724964,-0.00010312413360225037,-0.0025087157264351845
0.0021910869982093573,-0.020289087668061256,-0.008676115423440933,0.026732955127954483,-4.048395931022242e-05,-0.002951050642877817
0.0027153915725648403,-0.01994997262954712,-0.008752929978072643,0.026545099914073944,-3.028606079169549e-05,-0.002628348069265485
0.0025042265187948942,-0.020719341933727264,-0.00887839961796999,0.025828422978520393,-1.5863519365666434e-05,-0.002083224942907691
0.0025663990527391434,-0.02041684091091156,-0.008992313407361507,0.02607779949903488,-1.4696351172460709e-05,-0.0019367060158401728
0.002455739304423332,-0.01959219202399254,-0.008571122772991657,0.026043806225061417,-7.311527042475063e-06,-0.0018021930009126663
0.002633696421980858,-0.020391367375850677,-0.009959494695067406,0.02616175077855587,-4.773904720423161e-07,-0.0019351494265720248
0.0026808360125869513,-0.02131073735654354,-0.009117871522903442,0.02608642540872097,-3.117018820830708e-08,-0.0024591637775301933
0.0027370196767151356,-0.02074556052684784,-0.0088224271312356,0.025797702372074127,-2.0351906826476807e-09,-0.0028257523663342
0.002553375903517008,-0.02003221958875656,-0.009051259607076645,0.02516288496553898,-1.3288341260686565e-10,-0.0034300980623811483
0.0025087641552090645,-0.02052147127687931,-0.008851626887917519,0.0254635252058506,-8.676336558932629e-12,-0.0031404001638293266
0.002647176617756486,-0.0196065790951252,-0.00877251848578453,0.025868095457553864,-5.665027908580145e-13,-0.0025104328524321318
0.0025098214391618967,-0.019887210801243782,-0.009289572946727276,0.025938672944903374,-3.6988587106406845e-14,-0.00217672367580235
0.002657236997038126,-0.0200885571539402,-0.00904872640967369,0.025677546858787537,0.0002596914710011333,-0.002024803077802062
0.002657236997038126,-0.0200885571539402,-0.00904872640967369,0.025677546858787537,0.0002596914710011333,-0.002024803077802062
0.0026665234472602606,-0.01951637677848339,-0.00831037387251854,0.025445913895964622,0.0009908711072057486,-0.0020650068763643503
0.002626940840855241,-0.01942337304353714,-0.009128352627158165,0.0257111843675375,0.0010628694435581565,-0.002845404203981161
0.002783499425277114,-0.0198651310056448,-0.009031703695654869,0.02558576688170433,0.0014286538353189826,-0.0037147593684494495
0.0028461879119277,-0.01996380276978016,-0.009164970368146896,0.02500668540596962,0.0013598536606878042,-0.0034712795168161392
0.0028029833920300007,-0.019435370340943336,-0.008795053698122501,0.024921001866459846,0.001256340416148305,-0.0028621938545256853
0.0026771589182317257,-0.01942967250943184,-0.009156107902526855,0.025152388960123062,0.0011370012070983648,-0.0024305295664817095
0.0029993653297424316,-0.01982187107205391,-0.008936196565628052,0.02555152215063572,0.0010417504236102104,-0.002384898718446493
0.003299666102975607,-0.019112151116132736,-0.008409766480326653,0.02476138435304165,0.0009414801024831831,-0.0029287899378687143
0.0028788920026272535,-0.018984155729413033,-0.010033369064331055,0.02492135763168335,0.0010236190864816308,-0.003699834458529949
0.0026787815149873495,-0.019752137362957,-0.008658701553940773,0.025734907016158104,0.0015301660168915987,-0.003567420644685626
0.0026937711518257856,-0.01870674267411232,-0.008438588120043278,0.02562328800559044,0.0017139858100563288,-0.003233217867091298
0.0031885530333966017,-0.018726631999015808,-0.009220274165272713,0.025132879614830017,0.0018708319403231144,-0.0029085513669997454
0.003262156620621681,-0.020245131105184555,-0.009269940666854382,0.024213403463363647,0.0017484205309301615,-0.002800628077238798
0.0031507962848991156,-0.019819553941488266,-0.00898828823119402,0.024163775146007538,0.0016425908543169498,-0.0031281665433198214
0.00291350856423378,-0.01888304576277733,-0.008202310651540756,0.025228925049304962,0.001661031856201589,-0.0036922558210790157
0.0030025567393749952,-0.01910705678164959,-0.008358272723853588,0.02422485686838627,0.001901833456940949,-0.003576818620786071
0.0030025567393749952,-0.01910705678164959,-0.008358272723853588,0.02422485686838627,0.001901833456940949,-0.003576818620786071
0.0032179171685129404,-0.019185857847332954,-0.00863336306065321,0.024427413940429688,0.0020008764695376158,-0.0035766351502388716
0.003061531577259302,-0.018576376140117645,-0.008739037439227104,0.024192456156015396,0.0020349514670670033,-0.0034547981340438128
0.003074530279263854,-0.01845460571348667,-0.008524207398295403,0.023898564279079437,0.0022323480807244778,-0.0036074796225875616
0.0032072821632027626,-0.01893497072160244,-0.007972798310220242,0.024223007261753082,0.0020565083250403404,-0.003714687190949917
0.003159234533086419,-0.018398914486169815,-0.008608516305685043,0.022617192938923836,0.0019767896737903357,-0.003474760800600052
0.0034409218933433294,-0.01862083002924919,-0.008455809205770493,0.02228192612528801,0.002046942012384534,-0.003409702330827713
0.003314067143946886,-0.019203029572963715,-0.008478781208395958,0.023206790909171104,0.00200762995518744,-0.00352227920666337
0.0033905724994838238,-0.01820351742208004,-0.008744414895772934,0.022986413910984993,0.002044683089479804,-0.00363173708319664
0.003674678271636367,-0.01836048811674118,-0.008413874544203281,0.02272319234907627,0.002300005406141281,-0.00367943849414587
0.003282977268099785,-0.018364017829298973,-0.008091392926871777,0.02289625257253647,0.002634430304169655,-0.0037160739302635193
0.003312671324238181,-0.017811132594943047,-0.008308839984238148,0.022645391523838043,0.002376053249463439,-0.00420196121558547
0.003300426062196493,-0.017874429002404213,-0.00842488557100296,0.022440999746322632,0.002097041578963399,-0.004062879830598831
0.003300426062196493,-0.017874429002404213,-0.00842488557100296,0.022440999746322632,0.002097041578963399,-0.004062879830598831
0.0034983253572136164,-0.017425933852791786,-0.008149664849042892,0.022495297715067863,0.001866137725301087,-0.0038531452883034945
0.003421889618039131,-0.017693262547254562,-0.008039161562919617,0.022406630218029022,0.001756561454385519,-0.003856437746435404
0.0034587825648486614,-0.018415378406643867,-0.008454115130007267,0.022795269265770912,0.0017677816795185208,-0.0034808374475687742
0.0031909625977277756,-0.017555881291627884,-0.008596617728471756,0.022129083052277565,0.0020983093418180943,-0.003944422118365765
0.003432500408962369,-0.017331726849079132,-0.007927090860903263,0.022065531462430954,0.002500884933397174,-0.004149270243942738
0.0036473486106842756,-0.01725977286696434,-0.008101233281195164,0.022657422348856926,0.0026098480448126793,-0.004496066365391016
0.003689353121444583,-0.01733061857521534,-0.008650359697639942,0.022576091811060905,0.002747919410467148,-0.004662869032472372
0.0036701534409075975,-0.01804133877158165,-0.008633685298264027,0.021980851888656616,0.002606024267151952,-0.004298829007893801
0.003523254068568349,-0.017722537741065025,-0.008613533340394497,0.022169124335050583,0.001988082891330123,-0.004390938673168421
0.003523254068568349,-0.017722537741065025,-0.008613533340394497,0.022169124335050583,0.001988082891330123,-0.004390938673168421
0.0036044574808329344,-0.018002167344093323,-0.00878934096544981,0.022478992119431496,0.002335532568395138,-0.00416137557476759
0.003553057089447975,-0.01724054478108883,-0.008496971800923347,0.022435981780290604,0.0027120320592075586,-0.004300159867852926
0.003633742919191718,-0.017478061839938164,-0.008341764099895954,0.021665262058377266,0.0027465035673230886,-0.004156589973717928
0.0036605738569051027,-0.017674677073955536,-0.00839061290025711,0.020759619772434235,0.0024479851126670837,-0.004015473648905754
0.004191237967461348,-0.01744082383811474,-0.008581848815083504,0.020292093977332115,0.0022433423437178135,-0.003933295141905546
0.004094612319022417,-0.01794574223458767,-0.008332725614309311,0.020709747448563576,0.00211819214746356,-0.003918896429240704
0.004088262096047401,-0.01762279123067856,-0.008043596521019936,0.020790765061974525,0.0022331092040985823,-0.003911406733095646
0.0035195527598261833,-0.017456211149692535,-0.00822738092392683,0.020011872053146362,0.0023108110763132572,-0.0039039412513375282
0.0035443115048110485,-0.017768025398254395,-0.008359943516552448,0.02044730633497238,0.0022975378669798374,-0.004156875889748335
0.0041949208825826645,-0.017473377287387848,-0.008017233572900295,0.020914791151881218,0.002366448286920786,-0.004478823859244585
0.0040482464246451855,-0.017365969717502594,-0.008002405054867268,0.02122306078672409,0.0023950296454131603,-0.004508133977651596
0.0035435548052191734,-0.016922591254115105,-0.008563813753426075,0.020519550889730453,0.0024035563692450523,-0.004580041393637657
0.004090589005500078,-0.016691258177161217,-0.008579393848776817,0.020600682124495506,0.0028632283210754395,-0.004479893948882818
0.004183006938546896,-0.017157111316919327,-0.00837335828691721,0.01982288993895054,0.0030268400441855192,-0.004448981024324894
0.004023244138807058,-0.01705760322511196,-0.007900504395365715,0.019569076597690582,0.002607958158478141,-0.004181895405054092
0.00380673143081367,-0.017084015533328056,-0.008829138241708279,0.020025217905640602,0.002334561897441745,-0.004412231035530567
0.00380673143081367,-0.017084015533328056,-0.008829138241708279,0.020025217905640602,0.002334561897441745,-0.004412231035530567
0.0038050885777920485,-0.01674751006066799,-0.008466149680316448,0.020575018599629402,0.0022577911149710417,-0.004646508954465389
0.00425361841917038,-0.016861604526638985,-0.008196957409381866,0.020223598927259445,0.0021539460867643356,-0.005069044418632984
0.004621058236807585,-0.016915498301386833,-0.008497453294694424,0.020046919584274292,0.002458467846736312,-0.0054464698769152164
0.004397816490381956,-0.01670200005173683,-0.008485321886837482,0.019854022189974785,0.0028086493257433176,-0.004746340215206146
0.004021051339805126,-0.016997404396533966,-0.00836587231606245,0.019206460565328598,0.0027199818287044764,-0.004568731412291527
0.003984225448220968,-0.016447503119707108,-0.007840189151465893,0.018836338073015213,0.0026282956823706627,-0.0046227737329900265
0.004162572789937258,-0.01651030033826828,-0.008987590670585632,0.018547585234045982,0.002519301837310195,-0.005128856748342514
0.004422124475240707,-0.016249097883701324,-0.008120532147586346,0.018355274572968483,0.002394623588770628,-0.0050236233510077
0.0041205123998224735,-0.016382651403546333,-0.007565879728645086,0.018581921234726906,0.0024761708918958902,-0.004896923433989286
0.004322506487369537,-0.016540830954909325,-0.008220230229198933,0.018733151257038116,0.0031030066311359406,-0.004592228680849075
0.004234048537909985,-0.016002831980586052,-0.008808447979390621,0.01797913759946823,0.003169894451275468,-0.004160493146628141
0.004633137956261635,-0.016041571274399757,-0.008205931633710861,0.01857239194214344,0.002903715707361698,-0.004992184229195118
0.004560758359730244,-0.016312943771481514,-0.00820949673652649,0.018114494159817696,0.002640213118866086,-0.005015417002141476
0.004586170893162489,-0.01577996090054512,-0.008142754435539246,0.01826830394566059,0.0024117594584822655,-0.005231897812336683
0.004588760435581207,-0.01595430076122284,-0.007907786406576633,0.01822059042751789,0.0023558109533041716,-0.0049985297955572605
0.0044208006002008915,-0.015658801421523094,-0.008327838033437729,0.018138833343982697,0.0022372130770236254,-0.004629229195415974
0.0044791921973228455,-0.01562016922980547,-0.008584089577198029,0.017877815291285515,0.00234170607291162,-0.0048065767623484135
0.004609236493706703,-0.015468800440430641,-0.007826113142073154,0.017322175204753876,0.002533373888581991,-0.004439059644937515
0.0051877787336707115,-0.015148679725825787,-0.007738241460174322,0.017939966171979904,0.00244364095851779,-0.005836376920342445
0.0046372259967029095,-0.015160737559199333,-0.007774966768920422,0.017747147008776665,0.0025608486030250788,-0.005962763912975788
0.004521744791418314,-0.015013973228633404,-0.008018771186470985,0.0172070674598217,0.002755603054538369,-0.005532238632440567
0.004559800494462252,-0.015430734492838383,-0.007662919349968433,0.0174320787191391,0.003228250425308943,-0.005094045307487249
0.004686723928898573,-0.015150223858654499,-0.008088506758213043,0.01708936132490635,0.003154345089569688,-0.005139035638421774
0.0047792475670576096,-0.015950506553053856,-0.008631291799247265,0.017327018082141876,0.0029604127630591393,-0.005304145161062479
0.004758677911013365,-0.015264777466654778,-0.008050510659813881,0.017315464094281197,0.0029298332519829273,-0.005030671134591103
0.004758677911013365,-0.015264777466654778,-0.008050510659813881,0.017315464094281197,0.0029298332519829273,-0.005030671134591103
0.005078134126961231,-0.0148323904722929,-0.007609252817928791,0.016680683940649033,0.0026594954542815685,-0.004938269499689341
0.0049734232015907764,-0.014348463155329227,-0.0074463291093707085,0.01694529876112938,0.002646778477355838,-0.0047528501600027084
0.005103906150907278,-0.014810366556048393,-0.00822952389717102,0.01662033423781395,0.0028204917907714844,-0.004671937320381403
0.005387097131460905,-0.014072054997086525,-0.007826636545360088,0.016815384849905968,0.0030985139310359955,-0.004304198082536459
0.00528104230761528,-0.014507511630654335,-0.0065091620199382305,0.016485942527651787,0.0030204514041543007,-0.004426919389516115
0.0053457776084542274,-0.014254948124289513,-0.008367951959371567,0.01645764522254467,0.00299266679212451,-0.004623074550181627
0.004926946479827166,-0.014321661554276943,-0.008658531121909618,0.016581397503614426,0.0029048360884189606,-0.004712229128926992
0.00511932373046875,-0.013772807084023952,-0.007778584491461515,0.01618727669119835,0.0028944890946149826,-0.004718071315437555
0.005483698099851608,-0.014147141017019749,-0.007234727963805199,0.01622495986521244,0.0027646010275930166,-0.00470869243144989
0.005139485467225313,-0.013935642316937447,-0.007620777003467083,0.015471207909286022,0.00276801991276443,-0.004691730253398418
0.00549943745136261,-0.014429154805839062,-0.008131047710776329,0.01618185266852379,0.0026165894232690334,-0.0046869865618646145
0.005403215531259775,-0.013576663099229336,-0.008135211654007435,0.015000635758042336,0.002690637484192848,-0.0051015387289226055
0.005616345442831516,-0.01312681008130312,-0.008080584928393364,0.014743594452738762,0.0026948924642056227,-0.0051029399037361145
0.00514778308570385,-0.013169446028769016,-0.007909998297691345,0.01525269914418459,0.0028749972116202116,-0.004861289635300636
0.005260132253170013,-0.013153954409062862,-0.007310213055461645,0.01511593721807003,0.0028449338860809803,-0.004800464957952499
0.005411900579929352,-0.013659419491887093,-0.0074693672358989716,0.015299184247851372,0.0028444707859307528,-0.004963558632880449
0.005402497947216034,-0.013393460772931576,-0.008290770463645458,0.015006757341325283,0.0028544662054628134,-0.005308071151375771
0.0055178566835820675,-0.013179135508835316,-0.008188521489501,0.014880833216011524,0.0030859867110848427,-0.005568175110965967
0.005475249607115984,-0.013201047666370869,-0.007685966789722443,0.01498581375926733,0.00315017974935472,-0.005234740674495697
0.005515688098967075,-0.01257132925093174,-0.008187441155314445,0.014651480130851269,0.003029197221621871,-0.004958759527653456
0.0060600102879107,-0.013191859237849712,-0.008169052191078663,0.014280550181865692,0.002958033699542284,-0.005165609996765852
0.00596462981775403,-0.012226926162838936,-0.007965383119881153,0.013738964684307575,0.002834080485627055,-0.005570991896092892
0.005881214048713446,-0.012408871203660965,-0.0079133789986372,0.013767627999186516,0.0030449521727859974,-0.006029568146914244
0.005678371526300907,-0.011981950141489506,-0.008370689116418362,0.013990169391036034,0.0032299174927175045,-0.005665559787303209
0.0056790574453771114,-0.012219610624015331,-0.008437996730208397,0.014083638787269592,0.0031184686813503504,-0.0053382921032607555
0.006103958003222942,-0.012209583073854446,-0.00764303095638752,0.01400792971253395,0.0027566361241042614,-0.005397215951234102
0.006103958003222942,-0.012209583073854446,-0.00764303095638752,0.01400792971253395,0.0027566361241042614,-0.005397215951234102
0.006269894540309906,-0.012068198062479496,-0.007364844437688589,0.013442295603454113,0.002842092653736472,-0.0056621115654706955
0.006273469887673855,-0.012385325506329536,-0.008292386308312416,0.013208171352744102,0.0031002452597022057,-0.005712040700018406
0.006308188661932945,-0.011843766085803509,-0.008221077732741833,0.012399144470691681,0.0033691010903567076,-0.006004874128848314
0.006112363189458847,-0.011801732704043388,-0.008143086917698383,0.012346659786999226,0.003617657348513603,-0.005713721737265587
0.006418292876332998,-0.011283460073173046,-0.007902947254478931,0.011881774291396141,0.0033266283571720123,-0.005328244064003229
0.006680304650217295,-0.01170290820300579,-0.008270678110420704,0.011623845435678959,0.002757964190095663,-0.005435539409518242
0.0061922273598611355,-0.011679818853735924,-0.008058717474341393,0.011767945252358913,0.0027096536941826344,-0.0060761976055800915
0.005895815324038267,-0.011265451088547707,-0.007708088029175997,0.012029326520860195,0.002674747258424759,-0.005841230973601341
0.006164378020912409,-0.011816493235528469,-0.007932799868285656,0.011676325462758541,0.0026824946980923414,-0.005675888154655695
0.006297439802438021,-0.012305892072618008,-0.008336452767252922,0.011543906293809414,0.0026204828172922134,-0.005398956127464771
0.00671280175447464,-0.011616945266723633,-0.008201893419027328,0.011958571150898933,0.002844714792445302,-0.005377906374633312
0.006616340018808842,-0.012078778818249702,-0.007936997339129448,0.012281068600714207,0.0029917526990175247,-0.005500257480889559
0.006362192332744598,-0.011884464882314205,-0.00826320331543684,0.011800449341535568,0.0030503191519528627,-0.0059108068235218525
0.006625839974731207,-0.011368097737431526,-0.007908237166702747,0.0111513277515769,0.0027406017761677504,-0.005948122125118971
0.00681579764932394,-0.011274939402937889,-0.008127565495669842,0.011120876297354698,0.002525035059079528,-0.0061660874634981155
0.00664792163297534,-0.01184463407844305,-0.008806638419628143,0.011392734944820404,0.0023649486247450113,-0.006020037457346916
0.0062461355701088905,-0.011595303192734718,-0.008493124507367611,0.01105209905654192,0.0026300926692783833,-0.005869558546692133
0.006539848167449236,-0.011346941813826561,-0.007907948456704617,0.011031649075448513,0.002867483301088214,-0.0061070965602993965
0.006652951240539551,-0.01175905205309391,-0.008395012468099594,0.010655735619366169,0.0028763117734342813,-0.005630255211144686
0.007152405101805925,-0.011381269432604313,-0.008389904163777828,0.010028448887169361,0.002829486271366477,-0.0057354639284312725
0.006807517260313034,-0.011612901464104652,-0.008189675398170948,0.010306469164788723,0.0029176000971347094,-0.005881027318537235
0.006544204428792,-0.011197760701179504,-0.008153893984854221,0.01043777447193861,0.0028886462096124887,-0.0062623354606330395
0.006856194231659174,-0.011380222626030445,-0.008359446190297604,0.010622160509228706,0.00299147330224514,-0.006438343320041895
0.006856194231659174,-0.011380222626030445,-0.008359446190297604,0.010622160509228706,0.00299147330224514,-0.006438343320041895
0.006745343562215567,-0.011235409416258335,-0.0080708097666502,0.009623204357922077,0.0029862388037145138,-0.0059200311079621315
0.006745343562215567,-0.011235409416258335,-0.0080708097666502,0.009623204357922077,0.0029862388037145138,-0.0059200311079621315
0.007191658020019531,-0.010640736669301987,-0.009187523275613785,0.009138790890574455,0.0030380620155483484,-0.006344313267618418
0.007578538730740547,-0.01038812380284071,-0.008244382217526436,0.008539140224456787,0.0029882185626775026,-0.007263165898621082
0.007490337360650301,-0.0106360437348485,-0.007901152595877647,0.0082308454439044,0.002843311522156,-0.0069476403295993805
0.007016151212155819,-0.01049416046589613,-0.00760878250002861,0.007624838501214981,0.002688302192837,-0.006130013149231672
0.007215195335447788,-0.010233160108327866,-0.008328743278980255,0.007206720300018787,0.0028588080313056707,-0.006104317493736744
0.007564203348010778,-0.010913669131696224,-0.008693698793649673,0.006509825587272644,0.003324683988466859,-0.006092095281928778
0.007974195294082165,-0.011147990822792053,-0.007955075241625309,0.006116335745900869,0.0032776847947388887,-0.006640867330133915
0.007231675088405609,-0.010119848884642124,-0.008214973844587803,0.006023616064339876,0.003115285187959671,-0.006868426688015461
0.0072792042046785355,-0.0099555104970932,-0.008370409719645977,0.006175623275339603,0.0029828152619302273,-0.006853617262095213
0.006910539697855711,-0.010014799423515797,-0.00809270516037941,0.005740175023674965,0.0030292849987745285,-0.0068424963392317295
0.0072187697514891624,-0.010478077456355095,-0.008358201943337917,0.005905555095523596,0.0031526319216936827,-0.006512398831546307
0.0073272958397865295,-0.010045968927443027,-0.008553770370781422,0.006018010899424553,0.00313734682276845,-0.007003223057836294
0.008025883696973324,-0.00995305273681879,-0.00837740208953619,0.005499616730958223,0.0034397607669234276,-0.0071993498131632805
0.008615568280220032,-0.009860710240900517,-0.0075957998633384705,0.005267357919365168,0.0032507136929780245,-0.006876139435917139
0.00804993323981762,-0.00977462437003851,-0.00803596992045641,0.005536823999136686,0.0030094035901129246,-0.00685812346637249
0.007250810973346233,-0.009582586586475372,-0.007988082244992256,0.005636631976813078,0.0026526995934545994,-0.007266093976795673
0.008191673085093498,-0.00873796921223402,-0.007592631038278341,0.0051706405356526375,0.0025089175906032324,-0.007364564575254917
0.007881835103034973,-0.009196567349135876,-0.008108915761113167,0.004961634520441294,0.002788689685985446,-0.007619685493409634
0.007738376967608929,-0.00862453505396843,-0.008367329835891724,0.005087379366159439,0.003479069797322154,-0.0073634302243590355
0.007361384108662605,-0.009053383953869343,-0.008176520466804504,0.005418502259999514,0.0035266675986349583,-0.007082934491336346
0.007934320718050003,-0.009063975885510445,-0.007808316498994827,0.005437819287180901,0.003564241109415889,-0.006820789538323879
0.008457962423563004,-0.008031776174902916,-0.008178210817277431,0.005070412531495094,0.0032953815534710884,-0.007292310241609812
0.008503243327140808,-0.007855155505239964,-0.008488787338137627,0.004377060104161501,0.0030864528380334377,-0.007669869810342789
0.007910534739494324,-0.008936088532209396,-0.0082601523026824,0.004349882248789072,0.002847735770046711,-0.0075854528695344925
0.00799613818526268,-0.008550993166863918,-0.006990228779613972,0.005143612157553434,0.0030100068543106318,-0.0071473512798547745
0.008237256668508053,-0.007737425155937672,-0.007329476997256279,0.005071097519248724,0.0034187063574790955,-0.006875346414744854
0.008237256668508053,-0.007737425155937672,-0.007329476997256279,0.005071097519248724,0.0034187063574790955,-0.006875346414744854
0.007759917993098497,-0.007655066903680563,-0.008110285736620426,0.004547829274088144,0.003277585143223405,-0.007268206682056189
0.00823037326335907,-0.007699613459408283,-0.008282802067697048,0.004051555413752794,0.0034955423325300217,-0.007408790290355682
0.008413479663431644,-0.007510982919484377,-0.007840290665626526,0.003617463633418083,0.0038041442167013884,-0.007510777562856674
0.008560252375900745,-0.007328119594603777,-0.008009525947272778,0.003449080977588892,0.003528004279360175,-0.00806961115449667
0.008546060882508755,-0.0074789030477404594,-0.00697147473692894,0.00361800123937428,0.0035117045044898987,-0.007647363469004631
0.008541595190763474,-0.007555758114904165,-0.006966538727283478,0.004203269258141518,0.003322313306853175,-0.007400463335216045
0.008176694624125957,-0.007021517958492041,-0.007707311771810055,0.004281267523765564,0.0032953619956970215,-0.006701746955513954
0.008496572263538837,-0.006213592831045389,-0.008361713960766792,0.003987537696957588,0.0034772211220115423,-0.007084948010742664
0.009347406215965748,-0.006626094225794077,-0.007677407935261726,0.003711075522005558,0.0036662891507148743,-0.0074354903772473335
0.008660904131829739,-0.006431314162909985,-0.006962373852729797,0.003225837368518114,0.0036457765381783247,-0.007552381604909897
0.008650335483253002,-0.006342671345919371,-0.006835520267486572,0.0029927529394626617,0.0035781515762209892,-0.00733312638476491
0.008864245377480984,-0.005967490840703249,-0.007486001122742891,0.002831145888194442,0.0033904544543474913,-0.00743465730920434
0.009077966213226318,-0.005885682068765163,-0.00789421983063221,0.002613441087305546,0.0034997621551156044,-0.007734212558716536
0.009253887459635735,-0.005878470838069916,-0.007260673213750124,0.002253012266010046,0.0033149849623441696,-0.0076290760189294815
0.008482079021632671,-0.006181622855365276,-0.007077300455421209,0.002263264264911413,0.003524059196934104,-0.00804855115711689
0.008864587172865868,-0.005737946834415197,-0.007637114264070988,0.0021579074673354626,0.0037703909911215305,-0.007738192565739155
0.008831681683659554,-0.005739687010645866,-0.007293818052858114,0.002255069324746728,0.0034409123472869396,-0.008100940845906734
0.00933702290058136,-0.0057051097974181175,-0.0071813748218119144,0.0022417944855988026,0.0032842366490513086,-0.0075955698266625404
0.009117831476032734,-0.005141145084053278,-0.007694492116570473,0.002001750050112605,0.003358049551025033,-0.007895974442362785
0.008690168149769306,-0.005323496181517839,-0.007212582044303417,0.0018411125056445599,0.0035292571410536766,-0.00804810505360365
0.00886079203337431,-0.005253141280263662,-0.006764709483832121,0.0017474822234362364,0.003586391918361187,-0.007660400588065386
0.009204532019793987,-0.005226301494985819,-0.007487289607524872,0.001941472408361733,0.003448505885899067,-0.007464144378900528
0.008821104653179646,-0.0054580518044531345,-0.007703898940235376,0.001983992289751768,0.003596176393330097,-0.0075918640941381454
0.008769096806645393,-0.005249107256531715,-0.007260450627654791,0.0018765914719551802,0.003830590983852744,-0.008206209167838097
0.009132809937000275,-0.005174604244530201,-0.007077337708324194,0.0018747125286608934,0.0035641801077872515,-0.008238397538661957
0.009439422748982906,-0.004919527564197779,-0.007292693015187979,0.0017541386187076569,0.0035013349261134863,-0.008014576509594917
0.008762157522141933,-0.005025634076446295,-0.007326842751353979,0.001652092905715108,0.0036663443315774202,-0.008177617564797401
0.008762157522141933,-0.005025634076446295,-0.007326842751353979,0.001652092905715108,0.0036663443315774202,-0.008177617564797401
0.009685428813099861,-0.004798263777047396,-0.007026940118521452,0.0013729139463976026,0.0038869709242135286,-0.008280008099973202
0.009660236537456512,-0.004933028016239405,-0.007295554969459772,0.0012560703326016665,0.003982447553426027,-0.008475805632770061
0.009478905238211155,-0.004850922152400017,-0.00759391812607646,0.001064287731423974,0.004105974920094013,-0.008534323424100876
0.009406170807778835,-0.004752425476908684,-0.007633098401129246,0.0009730449528433383,0.004063192754983902,-0.00847786944359541
0.009376142174005508,-0.004727151244878769,-0.00688201142475009,0.0009050600929185748,0.003542045596987009,-0.008640259504318237
0.008979682810604572,-0.0042317090556025505,-0.006393267307430506,0.0008070214535109699,0.0035948387812823057,-0.008764849044382572
0.009776473045349121,-0.003965128678828478,-0.007148119620978832,0.0007257703691720963,0.0036861710250377655,-0.008286508731544018
0.009933484718203545,-0.00425628200173378,-0.00780180050060153,0.0006592461140826344,0.004239467903971672,-0.008697541430592537
0.009549666196107864,-0.004224201198667288,-0.00808793120086193,0.0006038915598765016,0.004458762239664793,-0.00853476021438837
0.010086407884955406,-0.004037635866552591,-0.0069676898419857025,0.0005571226356551051,0.004347695503383875,-0.008476871997117996
0.010070768184959888,-0.003933844156563282,-0.006591757759451866,0.0005170779186300933,0.0040189423598349094,-0.008709359914064407
0.01011978555470705,-0.004030050244182348,-0.007624488789588213,0.00048241292824968696,0.0033721171785146,-0.00901967566460371
0.009930996224284172,-0.003688512369990349,-0.007659045979380608,0.00045210315147414804,0.0035001945216208696,-0.0087038679048419
0.009694789536297321,-0.0035485755652189255,-0.007133733481168747,0.00037939409958198667,0.00400749035179615,-0.009052984416484833
0.00955088622868061,-0.0032821111381053925,-0.006786191835999489,0.00035190413473173976,0.004266140051186085,-0.008748366497457027
0.010422123596072197,-0.003471428994089365,-0.007230796385556459,0.00033289246493950486,0.004509659018367529,-0.0089018689468503
0.009620899334549904,-0.0035700290463864803,-0.007180571090430021,0.0003010398067999631,0.003804653650149703,-0.007734658662229776
0.01026457641273737,-0.0036645494401454926,-0.007258657366037369,0.00028730856138281524,0.003583021927624941,-0.009275387972593307
0.011121961288154125,-0.00321666500531137,-0.00754582230001688,0.00027590757235884666,0.003583381185308099,-0.009277711622416973
0.010177469812333584,-0.002961319638416171,-0.007114145904779434,9.523163316771388e-05,0.004213187377899885,-0.009091097861528397
0.0101088248193264,-0.0024979552254080772,-0.006979989353567362,8.004635310498998e-05,0.004116488620638847,-0.008705751039087772
0.01030775811523199,-0.002298610983416438,-0.0068383533507585526,5.73905163037125e-05,0.004211050923913717,-0.008854684419929981
0.009964708238840103,-0.002601695479825139,-0.00808934960514307,3.7682893889723346e-05,0.004284294322133064,-0.009266355074942112
0.011090590618550777,-0.0029722072649747133,-0.007931890897452831,1.7948450476978905e-05,0.004110413603484631,-0.009309415705502033
0.010137505829334259,-0.0026589666958898306,-0.006971103139221668,1.1719056374204229e-06,0.0039858571253716946,-0.008960447274148464
0.009941418655216694,-0.002638282487168908,-0.006429573521018028,7.651706113165346e-08,0.003924674820154905,-0.008913015015423298
0.01020231656730175,-0.0027196616865694523,-0.006910609547048807,4.9960169334895e-09,0.003934353124350309,-0.008853979408740997
0.01009660679847002,-0.002554722595959902,-0.007525390945374966,3.2620423029428025e-10,0.003938239999115467,-0.009241601452231407
0.011156365275382996,-0.00262332521378994,-0.007195761892944574,2.1298806468506015e-11,0.003884142031893134,-0.00932855810970068
0.011156365275382996,-0.00262332521378994,-0.007195761892944574,2.1298806468506015e-11,0.003884142031893134,-0.00932855810970068
0.010436931625008583,-0.0024138251319527626,-0.006810227874666452,-0.0010936069302260876,0.004074936266988516,-0.009327288717031479
0.010122193954885006,-0.002235092455521226,-0.00672640698030591,-0.0018438143888488412,0.004282141104340553,-0.009310864843428135
0.010798581875860691,-0.0022950025741010904,-0.007058458868414164,-0.002999877789989114,0.004138672724366188,-0.00979495607316494
0.010839497670531273,-0.002076354343444109,-0.007068190723657608,-0.00343945506028831,0.004271083511412144,-0.010136573575437069
0.010347998701035976,-0.0022147942800074816,-0.006897507235407829,-0.0033726533874869347,0.003917390946298838,-0.009455121122300625
0.010653973557054996,-0.0021045461762696505,-0.007287826854735613,-0.003282170509919524,0.0037279913667589426,-0.009500594809651375
0.010741888545453548,-0.002078879624605179,-0.007641172502189875,-0.0038625425659120083,0.0037923844065517187,-0.009943211451172829
0.010746359825134277,-0.001876978320069611,-0.0068123601377010345,-0.004903212655335665,0.003962468821555376,-0.01017677877098322
0.01118713989853859,-0.0016197302611544728,-0.006334977690130472,-0.006745088379830122,0.004849666263908148,-0.01022610068321228
0.010935940779745579,-0.0015854035736992955,-0.006883455906063318,-0.007455430459231138,0.0051257372833788395,-0.01062692515552044
0.011021614074707031,-0.0013410307001322508,-0.007624977268278599,-0.006529673468321562,0.004512589890509844,-0.010184052400290966
0.011218230240046978,-0.001556765171699226,-0.007024218328297138,-0.006128956563770771,0.004020590800791979,-0.010082721710205078
0.010656856000423431,-0.0020253993570804596,-0.007215132005512714,-0.007155071012675762,0.003525828942656517,-0.010293672792613506
0.010926012881100178,-0.0023713114205747843,-0.007707272656261921,-0.007140802219510078,0.004197557456791401,-0.009883277118206024
0.011068018153309822,-0.002054989105090499,-0.007778544444590807,-0.0070000747218728065,0.00442599318921566,-0.009771104902029037
0.01146126352250576,-0.0018227072432637215,-0.00669756717979908,-0.008197322487831116,0.0045865802094340324,-0.01000971533358097
0.010771183297038078,-0.0016385922208428383,-0.006737386807799339,-0.008714565075933933,0.004626944661140442,-0.01021791435778141
0.012558337301015854,-0.0016020487528294325,-0.007058882620185614,-0.00894289929419756,0.004230548162013292,-0.009369218721985817
0.01298712007701397,-0.0016196947544813156,-0.007096010260283947,-0.009134222753345966,0.003918251022696495,-0.009744422510266304
0.013061752542853355,-0.0015672314912080765,-0.007042791694402695,-0.010270258411765099,0.004325740039348602,-0.010452714748680592
0.01300151739269495,-0.0016927886754274368,-0.006948350463062525,-0.009941638447344303,0.0044351196847856045,-0.009836401790380478
0.012785742990672588,-0.001505749300122261,-0.0073241740465164185,-0.0100674107670784,0.004305554088205099,-0.009845432825386524
0.013444002717733383,-0.0013735388638451695,-0.007559800986200571,-0.011034785769879818,0.0043393392115831375,-0.009887779131531715
0.01310627069324255,-0.0011686906218528748,-0.006780095398426056,-0.010998518206179142,0.004378638230264187,-0.01041634101420641
0.01310627069324255,-0.0011686906218528748,-0.006780095398426056,-0.010998518206179142,0.004378638230264187,-0.01041634101420641
0.013535764999687672,-0.00093344651395455,-0.006673956289887428,-0.01163237914443016,0.004746681544929743,-0.010197203606367111
0.012991981580853462,-0.0008793110027909279,-0.005948551930487156,-0.010799363255500793,0.004367426969110966,-0.009978832677006721
0.013490216806530952,-0.0008919858955778182,-0.00812181644141674,-0.010743594728410244,0.004214371554553509,-0.009882521815598011
0.013344957493245602,-0.0009131477563641965,-0.008313572034239769,-0.011745842173695564,0.004697797354310751,-0.01000855304300785
0.013652076944708824,-0.001253663212992251,-0.007208242081105709,-0.011860030703246593,0.004991312511265278,-0.01035384926944971
0.013374089263379574,-0.0012046295451000333,-0.006757573690265417,-0.011288232170045376,0.0048985728062689304,-0.00979050062596798
0.01386197004467249,-0.0011597676202654839,-0.00727097550407052,-0.011647434905171394,0.0047471229918301105,-0.009880764409899712
0.013806069269776344,-0.00108128332067281,-0.006926915608346462,-0.012419326230883598,0.004552682861685753,-0.00986894778907299
0.013836528174579144,-0.0008838021312840283,-0.007175026461482048,-0.01300501823425293,0.004576525650918484,-0.009805746376514435
0.013733590953052044,-0.0008840312366373837,-0.007381570991128683,-0.012326471507549286,0.004156362731009722,-0.010336962528526783
0.014011159539222717,-0.0008723067585378885,-0.007711520418524742,-0.01250036247074604,0.00442500039935112,-0.010056596249341965
0.013905661180615425,-0.0007781171589158475,-0.007222886197268963,-0.012273544445633888,0.00454322574660182,-0.009995897300541401
0.013673249632120132,-0.0007795103592798114,-0.006967268418520689,-0.012141034007072449,0.00468929298222065,-0.010349473915994167
0.0140223428606987,-0.000713027489837259,-0.0070758359506726265,-0.012507474049925804,0.004707215819507837,-0.010142365470528603
0.01396265346556902,-0.0006488820072263479,-0.007624531630426645,-0.012056232430040836,0.004861928056925535,-0.010030843317508698
0.014194503426551819,-0.00047592463670298457,-0.007392152678221464,-0.011897069402039051,0.004044339060783386,-0.010624694637954235
0.014165692962706089,-0.00043016456766054034,-0.0071976762264966965,-0.012136036530137062,0.00432453490793705,-0.00996845867484808
0.014025185257196426,-0.0003926137287635356,-0.007734508253633976,-0.0122388806194067,0.004909798037260771,-0.010117261670529842
0.014534388668835163,-0.0004302880261093378,-0.007234294433146715,-0.011975623667240143,0.005140490829944611,-0.01059265062212944
0.014337395317852497,-0.0004010819538962096,-0.006966445129364729,-0.012624953873455524,0.005209417548030615,-0.010866452939808369
0.01437405776232481,-0.00037338060792535543,-0.0073498087003827095,-0.012447534129023552,0.004913720767945051,-0.010965470224618912
0.01408551074564457,-0.0004004646616522223,-0.007744636852294207,-0.013067252933979034,0.004217119887471199,-0.010234972462058067
0.014819499105215073,-0.00038258754648268223,-0.0076151201501488686,-0.013220411725342274,0.004378271754831076,-0.010484235361218452
0.01471689809113741,-0.00036076342803426087,-0.006912682205438614,-0.01372623723000288,0.004694635979831219,-0.01100157666951418
0.014785398729145527,-0.00019714022346306592,-0.0070998831652104855,-0.013444367796182632,0.0051508937031030655,-0.010784987360239029
0.015342354774475098,-0.0001621578267076984,-0.007668223697692156,-0.013913619332015514,0.005165020935237408,-0.010863233357667923
0.01515457034111023,-0.00014853924221824855,-0.007235442288219929,-0.014214581809937954,0.005084849428385496,-0.010921704582870007
0.01515457034111023,-0.00014853924221824855,-0.007235442288219929,-0.014214581809937954,0.005084849428385496,-0.010921704582870007
0.014475836418569088,-0.0001372099359286949,-0.007126389537006617,-0.014716665260493755,0.004671023692935705,-0.010860790498554707
0.014966823160648346,-0.0001274890819331631,-0.0072352085262537,-0.014565755613148212,0.004325241316109896,-0.011248569935560226
0.01466432772576809,-0.00011905476276297122,-0.007708986289799213,-0.014975189231336117,0.00454019894823432,-0.011195855215191841
0.014756103977560997,-7.51347906771116e-05,-0.00733123579993844,-0.0156862735748291,0.0046847821213305,-0.011690299957990646
0.014949397183954716,-5.283089558361098e-05,-0.007089394144713879,-0.01649794541299343,0.005309133790433407,-0.01206959318369627
0.015916693955659866,-4.9673853936837986e-05,-0.007034619338810444,-0.016398580744862556,0.005274549126625061,-0.011548152193427086
0.015202205628156662,-6.664381544396747e-07,-0.007916226051747799,-0.016866782680153847,0.004990083165466785,-0.011129485443234444
0.014661404304206371,-8.94111895632932e-09,-0.007645916659384966,-0.016818003728985786,0.004685271065682173,-0.011031853966414928
0.015053968876600266,-1.1995651694185483e-10,-0.007536879740655422,-0.016948221251368523,0.00462764035910368,-0.011427993886172771
0.014599901624023914,-1.6093696470972918e-12,-0.007102875970304012,-0.01761765219271183,0.004848090000450611,-0.011844255030155182
0.015395107679069042,-2.1591749045711366e-14,-0.007730132434517145,-0.01681811921298504,0.004949670284986496,-0.011507277376949787
0.015345129184424877,-2.8968087397755683e-16,-0.007501253858208656,-0.017277026548981667,0.005139600019901991,-0.011233100667595863
0.015366226434707642,-3.886438624908946e-18,-0.007276673335582018,-0.017198557034134865,0.005406832788139582,-0.010982640087604523
0.015155443921685219,-5.2141543169781773e-20,-0.00682123564183712,-0.017448315396904945,0.005028754007071257,-0.011211421340703964
0.01561161782592535,-6.995453919560667e-22,-0.0073159849271178246,-0.01782875694334507,0.004732717759907246,-0.011739879846572876
0.01511534396559,-9.385293548441503e-24,-0.007265888620167971,-0.01814291998744011,0.0049929264932870865,-0.011973713524639606
0.015598774887621403,-1.259156850643721e-25,-0.0070523712784051895,-0.017763104289770126,0.005519047845155001,-0.012923811562359333
0.015450995415449142,-2.266437969673545e-29,-0.007507482543587685,-0.01862790249288082,0.006091710180044174,-0.012374499812722206
0.015178005211055279,-3.0407158894613063e-31,-0.007189128547906876,-0.01931675337255001,0.005328421946614981,-0.01191039476543665
0.015081776306033134,-4.079508328806624e-33,-0.007225478999316692,-0.01908685453236103,0.0047664032317698,-0.012096181511878967
0.01552500482648611,-5.473181479515858e-35,-0.006929442286491394,-0.019081678241491318,0.004980672616511583,-0.01271604560315609
0.015535828657448292,-7.3429721088777604e-37,-0.007356639485806227,-0.019671697169542313,0.004967487882822752,-0.012333270162343979
0.015599701553583145,-9.851533179459654e-39,-0.007616968359798193,-0.01957397162914276,0.005445532966405153,-0.01242622546851635
0.015560401603579521,0.0001725261245155707,-0.006816255394369364,-0.019419698044657707,0.005313325207680464,-0.012314829044044018
0.0159270241856575,0.0005671113613061607,-0.006920723244547844,-0.019938474521040916,0.005057311151176691,-0.012408076785504818
0.01561798807233572,0.0005458500236272812,-0.007177666760981083,-0.020078791305422783,0.005057021975517273,-0.01219497062265873
0.015667013823986053,0.0004961626837030053,-0.0068841613829135895,-0.019830524921417236,0.004920358769595623,-0.012233304791152477
0.015382216311991215,0.0005038036033511162,-0.00667869346216321,-0.020223518833518028,0.0052234395407140255,-0.01307479664683342
0.015382216311991215,0.0005038036033511162,-0.00667869346216321,-0.020223518833518028,0.0052234395407140255,-0.01307479664683342
0.016438588500022888,0.0004886241513304412,-0.007179439067840576,-0.020899996161460876,0.0056688678450882435,-0.012275109998881817
0.016356106847524643,0.0004960944643244147,-0.007499147206544876,-0.02071525529026985,0.006109774578362703,-0.01226076390594244
0.016303248703479767,0.0005818735808134079,-0.00754396291449666,-0.021283309906721115,0.00586947426199913,-0.012193089351058006
0.01627414859831333,0.0006671397131867707,-0.006830299273133278,-0.021833376958966255,0.0056452457793056965,-0.01240526419132948
0.016186872497200966,0.0007838118472136557,-0.006571802776306868,-0.021918410435318947,0.005331654567271471,-0.012747346423566341
0.016582215204834938,0.001574328518472612,-0.00693058967590332,-0.022167012095451355,0.005733042489737272,-0.012918069027364254
0.01646423153579235,0.001492573181167245,-0.007545241620391607,-0.02241712063550949,0.005801007151603699,-0.013143870048224926
0.016656557098031044,0.0013380041345953941,-0.007182200439274311,-0.021995563060045242,0.0059498948976397514,-0.013123221695423126
0.016698917374014854,0.0011716759763658047,-0.00670604407787323,-0.02272871509194374,0.006010592449456453,-0.013206938281655312
0.01693432591855526,0.0010109349386766553,-0.006798545829951763,-0.023002855479717255,0.005499787162989378,-0.013122891075909138
0.01680666208267212,0.0008994155214168131,-0.007159031927585602,-0.022851401939988136,0.0052825165912508965,-0.013356239534914494
0.016409793868660927,0.0009292970644310117,-0.007584825623780489,-0.022697415202856064,0.005564448889344931,-0.012902545742690563
0.016843168064951897,0.0015078815631568432,-0.0071454341523349285,-0.022693729028105736,0.0054479907266795635,-0.013018072582781315
0.016564572229981422,0.0032441711518913507,-0.006646238267421722,-0.023157227784395218,0.0057509406469762325,-0.013280224055051804
0.016995882615447044,0.005565355997532606,-0.0074537345208227634,-0.023034006357192993,0.005392368417233229,-0.01371264923363924
0.016478316858410835,0.005076984409242868,-0.00711638480424881,-0.02284115180373192,0.005722640547901392,-0.013349754735827446
0.016979888081550598,0.0042702816426754,-0.007140681147575378,-0.02357415109872818,0.006106907967478037,-0.013817769475281239
0.016792409121990204,0.0040147677063941956,-0.007242314983159304,-0.024676401168107986,0.005643539130687714,-0.013578754849731922
0.016902711242437363,0.003996702842414379,-0.007196164224296808,-0.025321757420897484,0.005772694479674101,-0.013771189376711845
0.016910232603549957,0.005024593789130449,-0.006672915071249008,-0.024609334766864777,0.005808393936604261,-0.013626664876937866
0.016860203817486763,0.005707634147256613,-0.007021988742053509,-0.024577820673584938,0.005701074376702309,-0.013829512521624565
0.016872016713023186,0.005338198971003294,-0.007062867283821106,-0.024006694555282593,0.005568087100982666,-0.013778398744761944
0.016438031569123268,0.005670540034770966,-0.007636396214365959,-0.02427101694047451,0.0059898323379457,-0.013712959364056587
0.01727907918393612,0.005798252299427986,-0.007083000149577856,-0.02528456225991249,0.0058775367215275764,-0.013649326749145985
0.017234884202480316,0.0058720349334180355,-0.0060580698773264885,-0.025593508034944534,0.005706480238586664,-0.01387806236743927
0.01712319813668728,0.005706820171326399,-0.006110452581197023,-0.025594864040613174,0.0059744082391262054,-0.013901080004870892
0.017133669927716255,0.005813976284116507,-0.007153292652219534,-0.026098711416125298,0.005854882299900055,-0.013978115282952785
0.016938017681241035,0.00667947344481945,-0.0069863274693489075,-0.027141321450471878,0.0061920457519590855,-0.013818266801536083
0.016938017681241035,0.00667947344481945,-0.0069863274693489075,-0.027141321450471878,0.0061920457519590855,-0.013818266801536083
0.017303943634033203,0.005775865167379379,-0.006090949289500713,-0.025022681802511215,0.00590269360691309,-0.013914819806814194
0.017303943634033203,0.005775865167379379,-0.006090949289500713,-0.025022681802511215,0.00590269360691309,-0.013914819806814194
0.017416106536984444,0.00591343455016613,-0.006744399666786194,-0.025278832763433456,0.006129367742687464,-0.01402235496789217
0.01740202307701111,0.006385727785527706,-0.0073061236180365086,-0.026573747396469116,0.005663702264428139,-0.014000503346323967
0.017256973311305046,0.006828236859291792,-0.006768422666937113,-0.02790822647511959,0.005873031914234161,-0.014485729858279228
0.01649012416601181,0.006913639605045319,-0.006770164240151644,-0.027791280299425125,0.006268599070608616,-0.014392189681529999
0.017594801262021065,0.006672079209238291,-0.006743612699210644,-0.027497833594679832,0.006020698230713606,-0.014483300969004631
0.018061703070998192,0.006937152240425348,-0.007531978189945221,-0.027454843744635582,0.005911306478083134,-0.014304099604487419
0.017640165984630585,0.007564794737845659,-0.006697134114801884,-0.02867499180138111,0.0054716975428164005,-0.01456805132329464
0.017684053629636765,0.007903424091637135,-0.006529530044645071,-0.028472593054175377,0.0057723685167729855,-0.014474508352577686
0.018127338960766792,0.007812577299773693,-0.0068289595656096935,-0.02876950055360794,0.006256643682718277,-0.014404239133000374
0.017857292667031288,0.007191637996584177,-0.007212833501398563,-0.02892189286649227,0.00607287185266614,-0.014349323697388172
0.01858743093907833,0.008987910114228725,-0.006479896139353514,-0.029191477224230766,0.006189099512994289,-0.014566089026629925
0.018390001729130745,0.008105834946036339,-0.006658473052084446,-0.02928769215941429,0.006173259112983942,-0.014844158664345741
0.018743062391877174,0.00785943865776062,-0.007270690053701401,-0.028814759105443954,0.006440727971494198,-0.01465787272900343
0.018955228850245476,0.008082433603703976,-0.00729692867025733,-0.028403764590620995,0.00583913316950202,-0.01466374658048153
0.01893545873463154,0.008504314348101616,-0.006582828238606453,-0.029944585636258125,0.006053844466805458,-0.014665691182017326
0.018387973308563232,0.008579281158745289,-0.006387847475707531,-0.029631871730089188,0.006254693493247032,-0.015049776062369347
0.018600961193442345,0.008629435673356056,-0.007323558907955885,-0.028541158884763718,0.006271379999816418,-0.015307634137570858
0.019168304279446602,0.008836187422275543,-0.007093260996043682,-0.028465261682868004,0.006106264423578978,-0.015086266212165356
0.019847098737955093,0.008799100294709206,-0.006715851370245218,-0.029238006100058556,0.006043359637260437,-0.01578466035425663
0.01906590349972248,0.009388366714119911,-0.00640321709215641,-0.030183207243680954,0.0057158139534294605,-0.015414931811392307
0.01892104372382164,0.009665490128099918,-0.0062842173501849174,-0.030073115602135658,0.005889952648431063,-0.015186990611255169
0.01937500573694706,0.009544958360493183,-0.0071700396947562695,-0.02987254038453102,0.0059686098247766495,-0.014623638242483139
0.019178634509444237,0.009238272905349731,-0.00668442714959383,-0.03136352449655533,0.006373383104801178,-0.014419043436646461
0.019272418692708015,0.009663269855082035,-0.006316006649285555,-0.03138100355863571,0.006529550068080425,-0.015127217397093773
0.01914726197719574,0.010572604835033417,-0.006616683676838875,-0.029675450176000595,0.006032923702150583,-0.015473997220396996
0.01914726197719574,0.010572604835033417,-0.006616683676838875,-0.029675450176000595,0.006032923702150583,-0.015473997220396996
0.01955702342092991,0.010246562771499157,-0.006176838651299477,-0.02962362952530384,0.006122985854744911,-0.01569484733045101
0.019776761531829834,0.010444187559187412,-0.006514074746519327,-0.03135029971599579,0.006575657520443201,-0.015163589268922806
0.01941816881299019,0.00954632367938757,-0.0066522168926894665,-0.03190534934401512,0.006597194354981184,-0.014650696888566017
0.019521677866578102,0.010482901707291603,-0.006354467011988163,-0.03240151330828667,0.006222202442586422,-0.014991900883615017
0.019421173259615898,0.010948613286018372,-0.007044920232146978,-0.03273773565888405,0.006273158825933933,-0.01544868852943182
0.019628508016467094,0.011191724799573421,-0.006737004965543747,-0.032837796956300735,0.005886533297598362,-0.015992704778909683
0.01992010325193405,0.01149110496044159,-0.006612412631511688,-0.032670628279447556,0.00608322536572814,-0.016120044514536858
0.019460229203104973,0.011134641245007515,-0.006464487873017788,-0.03310660645365715,0.006202844902873039,-0.016001548618078232
0.01991572231054306,0.01154674869030714,-0.006527553778141737,-0.033470362424850464,0.0060206628404557705,-0.015272777527570724
0.019761234521865845,0.011500273831188679,-0.007227702531963587,-0.03289651870727539,0.006413551978766918,-0.015214120037853718
0.019490482285618782,0.011369593441486359,-0.00646497355774045,-0.03311217203736305,0.006842313800007105,-0.01557755097746849
0.01983753591775894,0.011010046117007732,-0.006385328248143196,-0.032338086515665054,0.006447062827646732,-0.015600258484482765
0.019984684884548187,0.011216792277991772,-0.006712337955832481,-0.03241335600614548,0.0064476304687559605,-0.01572396233677864
0.019583219662308693,0.012126762419939041,-0.0065649100579321384,-0.03263426199555397,0.007176710292696953,-0.01592334173619747
0.019690679386258125,0.011530319228768349,-0.006984752137213945,-0.032889291644096375,0.007070725318044424,-0.01572708785533905
0.019995788112282753,0.011785313487052917,-0.006641218438744545,-0.03300389647483826,0.006731214467436075,-0.01568054035305977
0.020220676437020302,0.011700259521603584,-0.006386697292327881,-0.03271687403321266,0.006070788949728012,-0.015493279322981834
0.01982908882200718,0.011217240244150162,-0.006026224233210087,-0.032534003257751465,0.006435605697333813,-0.015590181574225426
0.0184189360588789,0.012030613608658314,-0.006756700109690428,-0.032695744186639786,0.006691974122077227,-0.015567404218018055
0.020713532343506813,0.011899551376700401,-0.00694996165111661,-0.034555379301309586,0.007051509339362383,-0.015556979924440384
0.020713532343506813,0.011899551376700401,-0.00694996165111661,-0.034555379301309586,0.007051509339362383,-0.015556979924440384
0.020471518859267235,0.011514483951032162,-0.005948622245341539,-0.03273870050907135,0.00667383661493659,-0.015833508223295212
0.020354144275188446,0.011342284269630909,-0.006269328761845827,-0.03347335383296013,0.006486780010163784,-0.015691732987761497
0.020354144275188446,0.011342284269630909,-0.006269328761845827,-0.03347335383296013,0.006486780010163784,-0.015691732987761497
0.020823873579502106,0.011531994678080082,-0.006880871951580048,-0.033919546753168106,0.006388077046722174,-0.01587127521634102
0.020823873579502106,0.011531994678080082,-0.006880871951580048,-0.033919546753168106,0.006388077046722174,-0.01587127521634102
0.020536107942461967,0.012446872889995575,-0.005590443499386311,-0.03406502306461334,0.0065972632728517056,-0.015911132097244263
0.020438944920897484,0.011284037493169308,-0.00649156654253602,-0.034056659787893295,0.006570438388735056,-0.01585277169942856
0.021101605147123337,0.011329368688166142,-0.0073184664361178875,-0.03355971723794937,0.006783171556890011,-0.015706585720181465
0.02181749977171421,0.011836887337267399,-0.006821583956480026,-0.03447599709033966,0.0066393837332725525,-0.016076447442173958
0.021852346137166023,0.01196526549756527,-0.006842880509793758,-0.03661232814192772,0.00625757547095418,-0.016329364851117134
0.02146599255502224,0.012216773815453053,-0.006978760473430157,-0.036613885313272476,0.006522146984934807,-0.0163588710129261
0.020602453500032425,0.011741424910724163,-0.006797870621085167,-0.035046227276325226,0.006813289597630501,-0.016207467764616013
0.021671447902917862,0.012440345250070095,-0.0070169828832149506,-0.035912562161684036,0.007258986122906208,-0.015984175726771355
0.021677087992429733,0.011791816912591457,-0.006551777943968773,-0.03676963225007057,0.007318002171814442,-0.01591530628502369
0.021236443892121315,0.01265763770788908,-0.00718611991032958,-0.03809844329953194,0.006099957041442394,-0.015925917774438858
0.021236443892121315,0.01265763770788908,-0.00718611991032958,-0.03809844329953194,0.006099957041442394,-0.015925917774438858
0.022395167499780655,0.012601287104189396,-0.00723436800763011,-0.036363113671541214,0.007021223194897175,-0.017228135839104652
0.022601164877414703,0.012474488466978073,-0.007285319268703461,-0.036630067974328995,0.006796580273658037,-0.015990732237696648
0.022037548944354057,0.012513522058725357,-0.00695869280025363,-0.037468165159225464,0.006369526963680983,-0.01542407926172018
0.022279592230916023,0.01238321978598833,-0.008068233728408813,-0.037583161145448685,0.0064960564486682415,-0.016071069985628128
0.021771414205431938,0.011915662325918674,-0.007715207990258932,-0.03708689659833908,0.006876879371702671,-0.016779372468590736
0.022146254777908325,0.012589344754815102,-0.007066695019602776,-0.037440940737724304,0.006827802862972021,-0.01692921295762062
0.022206060588359833,0.012031450867652893,-0.006638882216066122,-0.03740795701742172,0.006428103428333998,-0.01653788611292839
0.022926779463887215,0.01281694509088993,-0.0073888362385332584,-0.037030305713415146,0.0064915940165519714,-0.016834666952490807
0.022809626534581184,0.011948924511671066,-0.007996815256774426,-0.037007417529821396,0.00705928448587656,-0.017007535323500633
0.022809626534581184,0.011948924511671066,-0.007996815256774426,-0.037007417529821396,0.00705928448587656,-0.017007535323500633
0.022683098912239075,0.012669152580201626,-0.00678196270018816,-0.037544284015893936,0.006639184895902872,-0.01679939404129982
0.02269689366221428,0.012523539364337921,-0.007507799658924341,-0.03828465938568115,0.006353022996336222,-0.01689404807984829
0.02269689366221428,0.012523539364337921,-0.007507799658924341,-0.03828465938568115,0.006353022996336222,-0.01689404807984829
0.02301441878080368,0.013336757197976112,-0.007355671841651201,-0.038431596010923386,0.006569584831595421,-0.017016369849443436
0.02327488735318184,0.012861262075603008,-0.007223401218652725,-0.03903018683195114,0.0071126245893538,-0.01677539385855198
0.021678943186998367,0.011864808388054371,-0.007551291026175022,-0.0392458550632,0.00719254557043314,-0.01696811057627201
0.021678943186998367,0.011864808388054371,-0.007551291026175022,-0.0392458550632,0.00719254557043314,-0.01696811057627201
0.024126281961798668,0.013454733416438103,-0.007390229497104883,-0.03776243329048157,0.007254437543451786,-0.016825851052999496
0.0239927526563406,0.013778164982795715,-0.007201086264103651,-0.03930920735001564,0.0071375262923538685,-0.016796307638287544
0.023817893117666245,0.013332000933587551,-0.006982635241001844,-0.039441272616386414,0.007162341848015785,-0.01689804531633854
0.02412555180490017,0.01323182974010706,-0.007786670699715614,-0.041024476289749146,0.007397674024105072,-0.017250126227736473
0.023859670385718346,0.013329253531992435,-0.0076042297296226025,-0.04103479161858559,0.007103817071765661,-0.017142003402113914
0.023890811949968338,0.013240797445178032,-0.007197018712759018,-0.038400039076805115,0.007210919167846441,-0.0171903558075428
0.023822879418730736,0.013524645939469337,-0.007041743490844965,-0.03861841931939125,0.007420416921377182,-0.016636565327644348
0.024312546476721764,0.013844750821590424,-0.007590319961309433,-0.03999261185526848,0.00748033169656992,-0.016927707940340042
0.02501523680984974,0.013460245914757252,-0.007433687336742878,-0.04014933109283447,0.007359157782047987,-0.017259571701288223
0.02493940480053425,0.014015794731676579,-0.00723378686234355,-0.0403936505317688,0.00742787541821599,-0.01742170751094818
0.024184029549360275,0.013362790457904339,-0.006966511253267527,-0.039904892444610596,0.00790468044579029,-0.017491253092885017
0.0249627698212862,0.014099963940680027,-0.00751925352960825,-0.03983207792043686,0.0072414143942296505,-0.016875658184289932
0.024442894384264946,0.01474014949053526,-0.007094542495906353,-0.039992015808820724,0.007374619599431753,-0.017223864793777466
0.025012880563735962,0.014435812830924988,-0.006796315312385559,-0.040283165872097015,0.007307824678719044,-0.017177512869238853
0.025165123865008354,0.014686129055917263,-0.007456470746546984,-0.040441058576107025,0.00792316161096096,-0.016985254362225533
0.024987149983644485,0.014280133880674839,-0.007265673018991947,-0.03989099711179733,0.007867518812417984,-0.016911298036575317
0.02552679181098938,0.015359977260231972,-0.0069874986074864864,-0.04079543799161911,0.007017061114311218,-0.01740928366780281
0.025398803874850273,0.014982831664383411,-0.006853544618934393,-0.04078191891312599,0.007280248682945967,-0.017354844138026237
0.024996701627969742,0.015133380889892578,-0.0075353169813752174,-0.04057847335934639,0.0075744944624602795,-0.017365097999572754
0.025445008650422096,0.01558028906583786,-0.007158552762120962,-0.04095521196722984,0.007520631887018681,-0.017886482179164886
0.025470061227679253,0.015158949419856071,-0.007260970771312714,-0.041795454919338226,0.007091040723025799,-0.017954688519239426
0.025470061227679253,0.015158949419856071,-0.007260970771312714,-0.041795454919338226,0.007091040723025799,-0.017954688519239426
0.025644997134804726,0.015561147592961788,-0.007031900342553854,-0.04281235858798027,0.007233104668557644,-0.017575111240148544
0.025644997134804726,0.015561147592961788,-0.007031900342553854,-0.04281235858798027,0.007233104668557644,-0.017575111240148544
0.025791194289922714,0.015920991078019142,-0.007341851480305195,-0.042566604912281036,0.00731245893985033,-0.016927296295762062
0.02692161127924919,0.015813689678907394,-0.006874477956444025,-0.043388474732637405,0.0073348344303667545,-0.01716340146958828
0.02703353948891163,0.01652665063738823,-0.006879610475152731,-0.04347057268023491,0.007314485497772694,-0.01697983779013157
0.025954490527510643,0.01576542668044567,-0.007111072074621916,-0.04276670143008232,0.007366754114627838,-0.017129139974713326
0.02551105245947838,0.016197754070162773,-0.007620431482791901,-0.045198723673820496,0.008025557734072208,-0.017575997859239578
0.02650126814842224,0.01550224982202053,-0.006976373493671417,-0.0436609610915184,0.00840239692479372,-0.017929837107658386
0.02672673761844635,0.01673278957605362,-0.006833227351307869,-0.042435768991708755,0.008036082610487938,-0.018089786171913147
0.02604280598461628,0.016800768673419952,-0.007351510692387819,-0.043985944241285324,0.00772627629339695,-0.01776139810681343
0.026226187124848366,0.016497762873768806,-0.007626415695995092,-0.044416606426239014,0.00763080595061183,-0.01781712844967842
0.026845784857869148,0.01689879409968853,-0.006801414769142866,-0.04585084319114685,0.007612538058310747,-0.018257195129990578
0.026816554367542267,0.016589023172855377,-0.0063307988457381725,-0.04500206932425499,0.007115727756172419,-0.018123583868145943
0.026596199721097946,0.01708449237048626,-0.006799283437430859,-0.043282173573970795,0.007128881756216288,-0.01833200268447399
0.02630625106394291,0.0172149445861578,-0.007327154278755188,-0.04466608911752701,0.007463254500180483,-0.01846035197377205
0.027231678366661072,0.01725279726088047,-0.006923628505319357,-0.045423395931720734,0.007296624593436718,-0.018380815163254738
0.026685040444135666,0.01736743189394474,-0.006717301905155182,-0.04539348557591438,0.007228116504848003,-0.018627651035785675
0.02721339836716652,0.01730033941566944,-0.006926934700459242,-0.04540229216217995,0.00736980140209198,-0.018561463803052902
0.027143795043230057,0.017649034038186073,-0.00726276682689786,-0.04551350325345993,0.008064858615398407,-0.01850440911948681
0.026629464700818062,0.017990777269005775,-0.006818135268986225,-0.04552379623055458,0.007755264174193144,-0.018227053806185722
0.025882598012685776,0.01853521727025509,-0.006795971188694239,-0.04528312757611275,0.007109534461051226,-0.01831481233239174
0.02638322487473488,0.01785714365541935,-0.007044048048555851,-0.04705047607421875,0.0077047040686011314,-0.01872933655977249
0.026300795376300812,0.018187806010246277,-0.007521343883126974,-0.045174241065979004,0.007902787998318672,-0.01869324967265129
0.02642444334924221,0.018797583878040314,-0.006964907981455326,-0.044679224491119385,0.007795010693371296,-0.01843351684510708
0.026545295491814613,0.01821935921907425,-0.006557032465934753,-0.04659870266914368,0.007624023128300905,-0.018635589629411697
0.026545295491814613,0.01821935921907425,-0.006557032465934753,-0.04659870266914368,0.007624023128300905,-0.018635589629411697
0.02649616077542305,0.018805377185344696,-0.006799193099141121,-0.04761017858982086,0.007763597182929516,-0.018830696120858192
0.02681189775466919,0.019108204171061516,-0.007378150708973408,-0.04532736539840698,0.008265601471066475,-0.01883133128285408
0.026837283745408058,0.018798571079969406,-0.006734859198331833,-0.0454573854804039,0.008034419268369675,-0.018878187984228134
0.026650695130228996,0.01869790256023407,-0.006811194121837616,-0.04512017220258713,0.008094361051917076,-0.01864718645811081
0.0268874354660511,0.018574872985482216,-0.00731272017583251,-0.04655614122748375,0.007896357215940952,-0.018854957073926926
0.026784369722008705,0.018902378156781197,-0.007156865205615759,-0.04639317840337753,0.007944926619529724,-0.01907345838844776
0.027075929567217827,0.019534263759851456,-0.0072973063215613365,-0.04445749148726463,0.0075281234458088875,-0.01901085302233696
0.026180947199463844,0.019571179524064064,-0.006686163600534201,-0.04554285481572151,0.007390122395008802,-0.019148563966155052
0.027405403554439545,0.01922151818871498,-0.0068194507621228695,-0.046474993228912354,0.007721815258264542,-0.019039269536733627
0.027949044480919838,0.019788969308137894,-0.00687432149425149,-0.04662220552563667,0.008100887760519981,-0.018853066489100456
0.027956107631325722,0.01999594271183014,-0.007243170402944088,-0.046440038830041885,0.008265548385679722,-0.019564906135201454
0.027338972315192223,0.01943519525229931,-0.007028405554592609,-0.0464174821972847,0.0077254194766283035,-0.01989797316491604
0.027106761932373047,0.02018141560256481,-0.0068216524086892605,-0.047560110688209534,0.00806386861950159,-0.0189259871840477
0.0281668771058321,0.01990107260644436,-0.007664154749363661,-0.047051750123500824,0.007816209457814693,-0.018351681530475616
0.027646688744425774,0.020304488018155098,-0.006824908312410116,-0.04740693420171738,0.007959873415529728,-0.01788981817662716
0.02743859775364399,0.02026783861219883,-0.00651119789108634,-0.0479046106338501,0.008443959057331085,-0.01890598237514496
0.0284404419362545,0.020365096628665924,-0.006707063876092434,-0.04821844398975372,0.008263633586466312,-0.019793394953012466
0.028049398213624954,0.02062559314072132,-0.0070871696807444096,-0.04818763956427574,0.0078030116856098175,-0.020079249516129494
0.027982421219348907,0.020915227010846138,-0.007350363302975893,-0.04843955487012863,0.007708923425525427,-0.019316552206873894
0.027982421219348907,0.020915227010846138,-0.007350363302975893,-0.04843955487012863,0.007708923425525427,-0.019316552206873894
0.027988901361823082,0.020977817475795746,-0.006827592849731445,-0.048727601766586304,0.0077825877815485,-0.019459659233689308
0.02778676152229309,0.020598288625478745,-0.0062965708784759045,-0.048156511038541794,0.007875087670981884,-0.01976056583225727
0.02839376963675022,0.020808927714824677,-0.0070693339221179485,-0.049103789031505585,0.007669956423342228,-0.020636895671486855
0.028455547988414764,0.02129526250064373,-0.0074224467389285564,-0.048911821097135544,0.007874788716435432,-0.020142465829849243
0.028517775237560272,0.02070651948451996,-0.0065410686656832695,-0.05005693808197975,0.008447854779660702,-0.018949545919895172
0.028698796406388283,0.020287806168198586,-0.006610486656427383,-0.0517197884619236,0.008456619456410408,-0.018667377531528473
0.028360260650515556,0.020645342767238617,-0.006979828234761953,-0.049544770270586014,0.007980718277394772,-0.0192725770175457
0.027896318584680557,0.021044354885816574,-0.006928273476660252,-0.05003786459565163,0.00800636038184166,-0.01953594572842121
0.028709648177027702,0.02062370255589485,-0.0063910335302352905,-0.0520157665014267,0.008013075217604637,-0.021190542727708817
0.028705613687634468,0.02155781351029873,-0.006534176412969828,-0.052916012704372406,0.008212307468056679,-0.019788477569818497
0.028575677424669266,0.021373212337493896,-0.007209650240838528,-0.05016101151704788,0.008924577385187149,-0.019279560074210167
0.028615783900022507,0.021196044981479645,-0.007128848694264889,-0.04997538402676582,0.007680266629904509,-0.019633688032627106
0.028816962614655495,0.020820168778300285,-0.007412480190396309,-0.052052855491638184,0.007238882593810558,-0.02032874897122383
0.029161782935261726,0.021818488836288452,-0.006640221923589706,-0.051566559821367264,0.00815553218126297,-0.02006976492702961
0.028619544580578804,0.021215373650193214,-0.00702045438811183,-0.05109761655330658,0.008380407467484474,-0.020124558359384537
0.02949327602982521,0.021029232069849968,-0.007298048119992018,-0.05121774598956108,0.008067158982157707,-0.019926736131310463
0.02939630299806595,0.021037844941020012,-0.0070960805751383305,-0.0516391359269619,0.008177687413990498,-0.01970532163977623
0.029131369665265083,0.021438974887132645,-0.006949707865715027,-0.051210034638643265,0.008043382316827774,-0.01966976933181286
0.028866814449429512,0.021948250010609627,-0.007522423751652241,-0.050857070833444595,0.007985067553818226,-0.019659727811813354
0.029360225424170494,0.02177201583981514,-0.007672428619116545,-0.050542622804641724,0.00806512963026762,-0.019610144197940826
0.029335912317037582,0.021595964208245277,-0.007458936423063278,-0.05031129717826843,0.007964779622852802,-0.02016415260732174
0.02905953675508499,0.022053977474570274,-0.006535095628350973,-0.051267679780721664,0.008645681664347649,-0.020420055836439133
0.029250191524624825,0.022011803463101387,-0.006504504010081291,-0.0520615428686142,0.008113318122923374,-0.020150823518633842
0.029274746775627136,0.021273646503686905,-0.007318816613405943,-0.049788352102041245,0.00799073651432991,-0.020229844376444817
0.029318492859601974,0.02192714437842369,-0.007063106168061495,-0.05196419730782509,0.008002322167158127,-0.020183473825454712
0.029481029137969017,0.02214828133583069,-0.0067690275609493256,-0.05133542791008949,0.007849113084375858,-0.019996900111436844
0.02932615950703621,0.022290078923106194,-0.006441023666411638,-0.0537981279194355,0.00809619203209877,-0.019952410832047462
0.02932615950703621,0.022290078923106194,-0.006441023666411638,-0.0537981279194355,0.00809619203209877,-0.019952410832047462
0.02960016205906868,0.022455886006355286,-0.006952548399567604,-0.05193419009447098,0.008519191294908524,-0.020030781626701355
0.029390741139650345,0.02222537435591221,-0.006920037791132927,-0.05258339270949364,0.008675013668835163,-0.020100630819797516
0.029655560851097107,0.022363850846886635,-0.0056813363917171955,-0.05417841672897339,0.008440767414867878,-0.020400261506438255
0.029597492888569832,0.02347586862742901,-0.007146043237298727,-0.054281581193208694,0.008319542743265629,-0.020555635914206505
0.03032674454152584,0.022870361804962158,-0.007364125456660986,-0.05401032418012619,0.008610999211668968,-0.020504144951701164
0.030211009085178375,0.022294946014881134,-0.007326281163841486,-0.05340857431292534,0.008765115402638912,-0.020406467840075493
0.029804300516843796,0.021785400807857513,-0.00674339197576046,-0.05369829386472702,0.008257108740508556,-0.020629944279789925
0.028623729944229126,0.022726979106664658,-0.006317158229649067,-0.054488956928253174,0.008336678147315979,-0.020505206659436226
0.02987843193113804,0.023246679455041885,-0.0065803746692836285,-0.054680000990629196,0.008950135670602322,-0.020485157147049904
0.030635276809334755,0.023030243813991547,-0.00718006631359458,-0.05468027666211128,0.008655862882733345,-0.02062840946018696
0.030062254518270493,0.022632941603660583,-0.006846330128610134,-0.05509231239557266,0.00844817329198122,-0.020636409521102905
0.03086416982114315,0.02352418750524521,-0.006531468592584133,-0.0555587001144886,0.008825937286019325,-0.02063128352165222
0.030952213332057,0.023965245112776756,-0.007778753060847521,-0.05612926185131073,0.008317320607602596,-0.02056482434272766
0.030952213332057,0.023965245112776756,-0.007778753060847521,-0.05612926185131073,0.008317320607602596,-0.02056482434272766
0.030448978766798973,0.02412901073694229,-0.007784854155033827,-0.055845558643341064,0.008251509629189968,-0.020288873463869095
0.031039996072649956,0.02283320762217045,-0.006636244244873524,-0.05675278976559639,0.008669521659612656,-0.020337633788585663
0.031251005828380585,0.02330278605222702,-0.007061312906444073,-0.05474546551704407,0.008363254368305206,-0.02035890705883503
0.03007614053785801,0.02394939586520195,-0.007226608693599701,-0.0560576468706131,0.00883194524794817,-0.02031160145998001
0.03147093951702118,0.02425242029130459,-0.00700957840308547,-0.05831974372267723,0.008631981909275055,-0.02004115842282772
0.03097447380423546,0.023855404928326607,-0.006813263054937124,-0.05718992277979851,0.008434431627392769,-0.02015109173953533
0.030588073655962944,0.02368505485355854,-0.007444195915013552,-0.05478345602750778,0.008525213226675987,-0.020352812483906746
0.030697496607899666,0.023616431280970573,-0.007671630010008812,-0.055580008774995804,0.008734147995710373,-0.02096577361226082
0.0312824472784996,0.024120014160871506,-0.007590598426759243,-0.05607004463672638,0.008655160665512085,-0.020654967054724693
0.030966712161898613,0.02453020215034485,-0.006758588831871748,-0.056029703468084335,0.008971992880105972,-0.02123798429965973
0.03141505643725395,0.02470124140381813,-0.006895353086292744,-0.05549868196249008,0.008756262250244617,-0.021221043542027473
0.03175925835967064,0.02396075241267681,-0.007498997263610363,-0.055056989192962646,0.008396226912736893,-0.020884910598397255
0.03175925835967064,0.02396075241267681,-0.007498997263610363,-0.055056989192962646,0.008396226912736893,-0.020884910598397255
0.03179306536912918,0.024746287614107132,-0.006990588735789061,-0.056785546243190765,0.009230378083884716,-0.021119223907589912
0.03179306536912918,0.024746287614107132,-0.006990588735789061,-0.056785546243190765,0.009230378083884716,-0.021119223907589912
0.0318625271320343,0.0236049834638834,-0.00728753162547946,-0.05757981538772583,0.00955855380743742,-0.02206670120358467
0.03203604742884636,0.025020908564329147,-0.0077109974808990955,-0.05765381082892418,0.009483407251536846,-0.02212468720972538
0.03331546485424042,0.025517959147691727,-0.007150550838559866,-0.058244187384843826,0.009210008196532726,-0.021613748744130135
0.0319531112909317,0.025219129398465157,-0.006953464355319738,-0.058202777057886124,0.008662221021950245,-0.021936137229204178
0.031023897230625153,0.025366073474287987,-0.007393766660243273,-0.06109975278377533,0.008492848835885525,-0.02243552729487419
0.032631244510412216,0.02513819932937622,-0.00766858272254467,-0.058233413845300674,0.00866576749831438,-0.022743305191397667
0.0331413559615612,0.025254689157009125,-0.007581950630992651,-0.05810108780860901,0.008970844559371471,-0.021700991317629814
0.03246260806918144,0.02504650503396988,-0.0069818864576518536,-0.06021643802523613,0.00866663921624422,-0.021479861810803413
0.03376972675323486,0.025519603863358498,-0.006851688027381897,-0.060125865042209625,0.00882891844958067,-0.021087266504764557
0.033358242362737656,0.025514302775263786,-0.00813043862581253,-0.05867704004049301,0.009158996865153313,-0.021513482555747032
0.03238074108958244,0.025817785412073135,-0.007938988506793976,-0.06049901247024536,0.008658084087073803,-0.022203417494893074
0.031681619584560394,0.025655420497059822,-0.006986204534769058,-0.0607028529047966,0.00854220986366272,-0.02236827090382576
0.03374987840652466,0.025324804708361626,-0.007788334973156452,-0.06056623160839081,0.008875885047018528,-0.022227901965379715
0.03374987840652466,0.025324804708361626,-0.007788334973156452,-0.06056623160839081,0.008875885047018528,-0.022227901965379715
0.03300759196281433,0.02560478076338768,-0.007283034734427929,-0.06124899536371231,0.008840607479214668,-0.022267693653702736
0.032663505524396896,0.02557220496237278,-0.007415564265102148,-0.06193472445011139,0.009313853457570076,-0.022188903763890266
0.0331479012966156,0.025908738374710083,-0.008299832232296467,-0.06247255951166153,0.009113532491028309,-0.022512391209602356
0.033015936613082886,0.026374241337180138,-0.008049173280596733,-0.06245853751897812,0.008754486218094826,-0.02237509749829769
0.033517416566610336,0.026519425213336945,-0.007610144559293985,-0.06264786422252655,0.009437987580895424,-0.022064553573727608
0.03350115939974785,0.026313243433833122,-0.007487245835363865,-0.06174057349562645,0.008974048309028149,-0.022230491042137146
0.03327044099569321,0.026296447962522507,-0.007652174215763807,-0.06289517134428024,0.008414197713136673,-0.022672785446047783
0.033513911068439484,0.0264909565448761,-0.00746803218498826,-0.06275716423988342,0.008786954917013645,-0.022516407072544098
0.034399524331092834,0.026691852137446404,-0.007570366840809584,-0.06119129806756973,0.009341183118522167,-0.023214859887957573
0.03381110355257988,0.026290563866496086,-0.007590809836983681,-0.06179323419928551,0.009323620237410069,-0.022807713598012924
0.03394106402993202,0.0260364580899477,-0.007646123878657818,-0.06386050581932068,0.008774377405643463,-0.022444404661655426
0.03451327607035637,0.02659662812948227,-0.007519355975091457,-0.061358366161584854,0.008972274139523506,-0.022885387763381004
0.033857475966215134,0.02646641619503498,-0.007880338467657566,-0.06254035234451294,0.008871538564562798,-0.02297890931367874
0.033857475966215134,0.02646641619503498,-0.007880338467657566,-0.06254035234451294,0.008871538564562798,-0.02297890931367874
0.03348594158887863,0.026453988626599312,-0.008370722644031048,-0.06410298496484756,0.00922881718724966,-0.023102061823010445
0.03467201068997383,0.026768358424305916,-0.00864073820412159,-0.06489431113004684,0.008989302441477776,-0.023087086156010628
0.03445925563573837,0.026784714311361313,-0.00769115099683404,-0.0651266947388649,0.008939786814153194,-0.02325286902487278
0.03407742828130722,0.027233118191361427,-0.007210863754153252,-0.06483044475317001,0.008923049084842205,-0.023507552221417427
0.034123726189136505,0.028138644993305206,-0.007494494318962097,-0.0652991235256195,0.009108212776482105,-0.02362629398703575
0.03440731763839722,0.02850446105003357,-0.00852492731064558,-0.06598031520843506,0.00913339201360941,-0.02370462380349636
0.03437109664082527,0.027355553582310677,-0.007758730556815863,-0.06558100879192352,0.009452840313315392,-0.023031188175082207
0.03432975336909294,0.027144521474838257,-0.007227985188364983,-0.0670270249247551,0.009983610361814499,-0.02241976000368595
0.03475634381175041,0.02828034944832325,-0.00891224667429924,-0.06616710126399994,0.009461711160838604,-0.023014182224869728
0.034243155270814896,0.028484046459197998,-0.008232824504375458,-0.06841911375522614,0.008761027827858925,-0.02343597076833248
0.03418971970677376,0.02814040333032608,-0.007667370140552521,-0.06687566637992859,0.008897611871361732,-0.023977581411600113
0.03384806960821152,0.028722815215587616,-0.007527783513069153,-0.0665745958685875,0.009227395989000797,-0.023554380983114243
0.03528283163905144,0.029080381616950035,-0.00842140894383192,-0.06965404748916626,0.008962340652942657,-0.02361511066555977
0.033981963992118835,0.02796069160103798,-0.007527216337621212,-0.06823808699846268,0.008996814489364624,-0.02432173490524292
0.03350789099931717,0.02912553958594799,-0.008028348907828331,-0.06849424540996552,0.008821692317724228,-0.02327486127614975
