davideferrari95/blind_handover_controller/data/Test 140 - [2024-02-07 -- 17-24-16]/joint_states_data.csv
shoulder_pan_joint,shoulder_lift_joint,elbow_joint,wrist_1_joint,wrist_2_joint,wrist_3_joint
-0.002492139581590891,-0.016919462010264397,0.008182065561413765,0.013069124892354012,0.0,-0.004007427487522364
-0.0025806003250181675,-0.01701188273727894,0.008011432364583015,0.013659616932272911,0.0,-0.00422242097556591
-0.0025806003250181675,-0.01701188273727894,0.008011432364583015,0.013659616932272911,0.0,-0.00422242097556591
-0.0025648209266364574,-0.017501477152109146,0.00750786904245615,0.012940019369125366,0.0,-0.004293450620025396
-0.002445215592160821,-0.016773821786046028,0.007314280606806278,0.013093219138681889,0.0,-0.004113704431802034
-0.0024879714474081993,-0.016964353621006012,0.0074023958295583725,0.012797166593372822,0.0,-0.003913437016308308
-0.0025629906449466944,-0.016871128231287003,0.007925295270979404,0.01306184008717537,0.0,-0.0037499063182622194
-0.002524792216718197,-0.016474753618240356,0.006985761225223541,0.013172263279557228,0.0,-0.0036575966514647007
-0.0027370364405214787,-0.016902700066566467,0.007132285740226507,0.013002220541238785,0.0,-0.003600256284698844
-0.0025829763617366552,-0.01662817783653736,0.008143448270857334,0.013076304458081722,0.0,-0.0036185879725962877
-0.0024709266144782305,-0.01716296188533306,0.007718527689576149,0.012107089161872864,0.0,-0.00412739859893918
-0.002657043281942606,-0.016390519216656685,0.006567129399627447,0.012213757261633873,0.0,-0.004038291983306408
-0.002533710328862071,-0.016589544713497162,0.0065331305377185345,0.01222868449985981,0.0,-0.0036090263165533543
-0.002533710328862071,-0.016589544713497162,0.0065331305377185345,0.01222868449985981,0.0,-0.0036090263165533543
-0.0024414099752902985,-0.016693085432052612,0.006747710984200239,0.012002878822386265,0.0,-0.003459170926362276
-0.0026806900277733803,-0.016644636169075966,0.006678279489278793,0.01212520431727171,0.0,-0.0035288045182824135
-0.0028224557172507048,-0.017057711258530617,0.006321950349956751,0.011828181333839893,0.0,-0.0036410619504749775
-0.002522439695894718,-0.016939841210842133,0.006635109428316355,0.011930848471820354,0.0,-0.003588888794183731
-0.0027131750248372555,-0.017288846895098686,0.0068572391755878925,0.011891242116689682,0.0,-0.003382650436833501
-0.00278138043358922,-0.017247524112462997,0.006690871436148882,0.011598117649555206,0.0,-0.003345813602209091
-0.0026576451491564512,-0.017449628561735153,0.0061928280629217625,0.011665242724120617,0.0,-0.0033129099756479263
-0.002802683273330331,-0.017098573967814445,0.006638814695179462,0.012209657579660416,0.0,-0.00332578644156456
-0.0026166506577283144,-0.01720264181494713,0.00699717877432704,0.012151284143328667,0.0,-0.003343657124787569
-0.002625904278829694,-0.017335671931505203,0.007363487035036087,0.011893351562321186,0.0,-0.0032031377777457237
-0.0027866698801517487,-0.017421169206500053,0.0061725289560854435,0.011296381242573261,0.0,-0.003162567038089037
-0.0031359849963337183,-0.01788306050002575,0.0060367644764482975,0.011479448527097702,0.0,-0.0031933465506881475
-0.0030678731855005026,-0.017664862796664238,0.00679203262552619,0.011675437912344933,0.0,-0.0031576016917824745
-0.00285749277099967,-0.017815500497817993,0.007075558882206678,0.01135485153645277,0.0,-0.00347651238553226
-0.0026011154986917973,-0.017844684422016144,0.0063049984164536,0.01176049467176199,0.0,-0.0037422976456582546
-0.0028929475229233503,-0.016756068915128708,0.005976686254143715,0.011220721527934074,0.0,-0.0035576673690229654
-0.003025411395356059,-0.017497239634394646,0.006614427547901869,0.011320510879158974,0.0,-0.0034242384135723114
-0.0030201224144548178,-0.017073068767786026,0.006605078466236591,0.011457889340817928,0.0,-0.0035706618800759315
-0.0027659046463668346,-0.01627827249467373,0.006465079262852669,0.010718761011958122,0.0,-0.003684072522446513
-0.002611652947962284,-0.01650567166507244,0.006124405190348625,0.011133366264402866,0.0,-0.00345533131621778
-0.0025702023413032293,-0.016624949872493744,0.0056924656964838505,0.011163654737174511,0.0,-0.003315170295536518
-0.002486888086423278,-0.017117906361818314,0.006030574906617403,0.011141760274767876,0.0,-0.0032608695328235626
-0.0027781908866018057,-0.016434093937277794,0.006651399657130241,0.012070761993527412,0.0,-0.003409815952181816
-0.002904122229665518,-0.016485825181007385,0.006571314297616482,0.011496156454086304,0.0,-0.0032178768888115883
-0.0025581582449376583,-0.016335953027009964,0.005939627531915903,0.011549745686352253,0.0,-0.003295968286693096
-0.0025806075427681208,-0.016695957630872726,0.0061645349487662315,0.010948766954243183,0.0,-0.0033684272784739733
-0.002651590621098876,-0.01645725592970848,0.006584341637790203,0.010590951889753342,0.0,-0.0035787089727818966
-0.0028049657121300697,-0.016266992315649986,0.006458726245909929,0.011574766598641872,0.0,-0.003334508743137121
-0.0026559859979897738,-0.01694791205227375,0.0063377246260643005,0.011735779233276844,0.0,-0.0031324082519859076
-0.0029536124784499407,-0.016380608081817627,0.006409801542758942,0.01204758696258068,0.0,-0.0032549272291362286
-0.0027118998114019632,-0.017002897337079048,0.006751581560820341,0.011360490694642067,0.0,-0.003103611757978797
-0.0027118998114019632,-0.017002897337079048,0.006751581560820341,0.011360490694642067,0.0,-0.003103611757978797
-0.002682141959667206,-0.016132406890392303,0.006297581363469362,0.011074653826653957,0.0,-0.002904872177168727
-0.0026052233297377825,-0.016152381896972656,0.005903932265937328,0.010966894216835499,0.0,-0.003088519675657153
-0.0026684545446187258,-0.01633630320429802,0.005900343880057335,0.011129166930913925,0.0,-0.0035158998798578978
-0.002706199185922742,-0.01696520484983921,0.006627446506172419,0.011342291720211506,0.0,-0.003372480859979987
-0.0027622694615274668,-0.01631094329059124,0.0062066721729934216,0.01060762070119381,0.0,-0.0031387864146381617
-0.002785395598039031,-0.016926057636737823,0.0065070465207099915,0.011710128746926785,0.0,-0.0029651315417140722
-0.0025868143420666456,-0.016530664637684822,0.0065190764144063,0.01107036229223013,0.0,-0.0029792841523885727
-0.002569586969912052,-0.016919227316975594,0.006326430942863226,0.010145704261958599,0.0,-0.003215867094695568
-0.0027038445696234703,-0.016827872022986412,0.0058217658661305904,0.010880328714847565,0.0,-0.003197350772097707
-0.002559358486905694,-0.016739219427108765,0.006363113410770893,0.011136023327708244,0.0,-0.003102181013673544
-0.0026336724404245615,-0.017046308144927025,0.006725384388118982,0.011733055114746094,0.0,-0.00305559323169291
-0.002663783496245742,-0.016574719920754433,0.005869929678738117,0.011458061635494232,0.0,-0.0030546081252396107
-0.002578042447566986,-0.016909189522266388,0.006438930984586477,0.0105886934325099,0.0,-0.003129372838884592
-0.0028535742312669754,-0.016544634476304054,0.00593611691147089,0.010980922728776932,0.0,-0.0030531901866197586
-0.0026057236827909946,-0.01643887721002102,0.006064239889383316,0.010700339451432228,0.0,-0.0030312601011246443
-0.0024439163971692324,-0.01668510027229786,0.006145185325294733,0.010434816591441631,0.0,-0.0033034717198461294
-0.002616431564092636,-0.01643718034029007,0.0060995789244771,0.010950159281492233,0.0,-0.0033065956085920334
-0.0028871602844446898,-0.016916433349251747,0.006097880192101002,0.010905650444328785,0.0,-0.003242442850023508
-0.0029683797620236874,-0.01620803400874138,0.006153563037514687,0.010748430155217648,0.0,-0.003174637211486697
-0.0027181266341358423,-0.016781577840447426,0.006101392675191164,0.010594953782856464,0.0,-0.003006385173648596
-0.0025768934283405542,-0.016392583027482033,0.006000063382089138,0.010266199707984924,0.0,-0.002652387833222747
-0.002271396340802312,-0.0159599632024765,0.005521747283637524,0.01017013844102621,0.0,-0.0026275026611983776
-0.0022504336666315794,-0.016507690772414207,0.005736170802265406,0.010241538286209106,0.0,-0.002645280212163925
-0.002419626573100686,-0.01607363298535347,0.006224113050848246,0.009866733103990555,0.0,-0.002814477076753974
-0.0023678571451455355,-0.016453493386507034,0.006088610272854567,0.010219128802418709,0.0,-0.003343211952596903
-0.0023678571451455355,-0.016453493386507034,0.006088610272854567,0.010219128802418709,0.0,-0.003343211952596903
-0.0025393315590918064,-0.016180409118533134,0.006240914575755596,0.010448839515447617,0.0,-0.0033632523845881224
-0.002521348185837269,-0.01659744791686535,0.005515220575034618,0.009914969094097614,0.0,-0.0032193195074796677
-0.002323291962966323,-0.016004785895347595,0.005838263314217329,0.010535349138081074,0.0,-0.002826143056154251
-0.00222313916310668,-0.015629930421710014,0.006304299458861351,0.010201475583016872,0.0,-0.00239162496291101
-0.0022156904451549053,-0.015870289877057076,0.005507431458681822,0.010091396979987621,0.0,-0.002196104731410742
-0.00231169443577528,-0.015585081651806831,0.0054234908893704414,0.010157754644751549,0.0,-0.0030011096969246864
-0.00231169443577528,-0.015585081651806831,0.0054234908893704414,0.010157754644751549,0.0,-0.0030011096969246864
-0.002328533446416259,-0.016160089522600174,0.0057052928023040295,0.009936297312378883,0.0,-0.003003416582942009
-0.0022573021706193686,-0.015146366320550442,0.005941049661487341,0.009959656745195389,0.0,-0.0028700209222733974
-0.0025998346973210573,-0.014778702519834042,0.0056772236712276936,0.009958144277334213,0.0,-0.0026972340419888496
-0.0025998346973210573,-0.014778702519834042,0.0056772236712276936,0.009958144277334213,0.0,-0.0026972340419888496
-0.002411768538877368,-0.015552067197859287,0.005288179963827133,0.009856954216957092,0.0,-0.0026979243848472834
-0.0024986201897263527,-0.015834715217351913,0.005858903285115957,0.010216246359050274,0.0,-0.002728060819208622
-0.0023770658299326897,-0.015550653450191021,0.00582024734467268,0.010425140149891376,0.0,-0.0024999878369271755
-0.0023008815478533506,-0.014968227595090866,0.006034663412719965,0.009849878028035164,0.0,-0.002387087093666196
-0.002336283912882209,-0.014770155772566795,0.005535933189094067,0.010003721341490746,0.0,-0.0024733496829867363
-0.0024413312785327435,-0.015339898876845837,0.0053735217079520226,0.010604577139019966,0.0,-0.002430326072499156
-0.002331805881112814,-0.014552859589457512,0.005648453254252672,0.009816069155931473,0.0,-0.002630512695759535
-0.0024843658320605755,-0.014799313619732857,0.006241317838430405,0.010076289065182209,0.0,-0.0027827753219753504
-0.0026591774076223373,-0.014067165553569794,0.005705514922738075,0.010141539387404919,0.0,-0.0026888293214142323
-0.0024501404259353876,-0.0149283641949296,0.005605250131338835,0.00972506869584322,0.0,-0.002774677937850356
-0.002520544920116663,-0.015113823115825653,0.005387275014072657,0.009513787925243378,0.0,-0.0025284248404204845
-0.002247810596600175,-0.014800915494561195,0.00569898821413517,0.00979182031005621,0.0,-0.0023707873187959194
-0.0025025231298059225,-0.01405495498329401,0.005651973653584719,0.010427321307361126,0.0,-0.002261188579723239
-0.0024111769162118435,-0.014412863180041313,0.0056863161735236645,0.010428658686578274,0.0,-0.002159816212952137
-0.0023161452263593674,-0.014268157072365284,0.0061269537545740604,0.010525878518819809,0.0,-0.0021390444599092007
-0.0023539934772998095,-0.014245161786675453,0.005499272141605616,0.009853474795818329,0.0,-0.00200193771161139
-0.0022195361088961363,-0.014054772444069386,0.005490139126777649,0.009996751323342323,0.0,-0.002150834072381258
-0.0023526116274297237,-0.014553079381585121,0.005818102043122053,0.009647930972278118,0.0,-0.002133585512638092
-0.0024376562796533108,-0.013894226402044296,0.006253313273191452,0.009379497729241848,0.0,-0.0021722433157265186
-0.0024376562796533108,-0.013894226402044296,0.006253313273191452,0.009379497729241848,0.0,-0.0021722433157265186
-0.0022833056282252073,-0.013816622085869312,0.0060883923433721066,0.009520074352622032,0.0,-0.0023517960216850042
-0.0023430222645401955,-0.013622280210256577,0.005695499014109373,0.009310959838330746,0.0,-0.002241753973066807
-0.0022203801199793816,-0.013790805824100971,0.0056587397120893,0.008899473585188389,0.0,-0.0023123796563595533
-0.0023581914138048887,-0.013690978288650513,0.0059163253754377365,0.008605712093412876,0.0,-0.0022501132916659117
-0.0021856408566236496,-0.014328638091683388,0.005867591593414545,0.008774854242801666,0.0,-0.0026469130534678698
-0.0020958054810762405,-0.014133328571915627,0.005836620926856995,0.00949767418205738,0.0,-0.002632141811773181
-0.0020859194919466972,-0.014001449570059776,0.0056039271876215935,0.010152018629014492,0.0,-0.0024249411653727293
-0.0023019504733383656,-0.013644593767821789,0.005686200689524412,0.01050648558884859,0.0,-0.002127652522176504
-0.0024229218252003193,-0.01376256626099348,0.005888760555535555,0.010904720053076744,0.0,-0.002026291796937585
-0.0022869198583066463,-0.0136718126013875,0.006171967834234238,0.010377827100455761,0.0,-0.0020749825052917004
-0.002228136407211423,-0.013994023203849792,0.006086569745093584,0.009758654050529003,0.0,-0.002419142285361886
-0.0021084940526634455,-0.013639625161886215,0.005456354469060898,0.009556380100548267,0.0,-0.0025245535653084517
-0.0022414005361497402,-0.014253765344619751,0.006435129325836897,0.009452375583350658,0.0,-0.0026215671095997095
-0.0020231478847563267,-0.013505877926945686,0.006269591394811869,0.009278918616473675,0.0,-0.002380258869379759
-0.002153599401935935,-0.014002994634211063,0.005997415632009506,0.010224117897450924,0.0,-0.0022132759913802147
-0.0024298394564539194,-0.013645281083881855,0.005919222719967365,0.010066360235214233,0.0,-0.0019849815871566534
-0.0022658684756606817,-0.013778972439467907,0.00540888449177146,0.00967858824878931,0.0,-0.0018501993035897613
-0.0021269861608743668,-0.01313338428735733,0.005890894215553999,0.010307750664651394,0.0,-0.0018934932304546237
-0.0020293728448450565,-0.014227213338017464,0.005852948874235153,0.01008161436766386,0.0,-0.001984440255910158
-0.001916981302201748,-0.014196000061929226,0.006086199544370174,0.009593209251761436,0.0,-0.0022419129963964224
-0.0018884997116401792,-0.014588121324777603,0.005617289803922176,0.00952998362481594,0.0,-0.0021843279246240854
-0.002036122605204582,-0.014075832441449165,0.0052240509539842606,0.009249430149793625,0.0,-0.002067763125523925
-0.0020087934099137783,-0.014630381017923355,0.005537909921258688,0.009686633944511414,0.0,-0.001880975323729217
-0.0023141505662351847,-0.014353004284203053,0.005922035314142704,0.0092998668551445,0.0,-0.001746955094859004
-0.0020143541041761637,-0.014743746258318424,0.005812883377075195,0.009629294276237488,0.0,-0.0016934589948505163
-0.0018232212169095874,-0.01432866882532835,0.0058054327964782715,0.009382374584674835,0.0,-0.001626121811568737
-0.001815872616134584,-0.014449789188802242,0.0054546985775232315,0.009131249971687794,0.0,-0.0016542038647457957
-0.0018658492481335998,-0.014033466577529907,0.005706826690584421,0.009491512551903725,0.0,-0.0016881945775821805
-0.0018582040211185813,-0.014474205672740936,0.005664147436618805,0.009443744085729122,0.0,-0.0017956005176529288
-0.0018582040211185813,-0.014474205672740936,0.005664147436618805,0.009443744085729122,0.0,-0.0017956005176529288
-0.0021583749912679195,-0.014210443943738937,0.005575882736593485,0.009651551023125648,0.0,-0.001816300442442298
-0.0018381783738732338,-0.014183040708303452,0.005302920006215572,0.009258056059479713,0.0,-0.0016755306860432029
-0.0018282444216310978,-0.014571327716112137,0.004982166923582554,0.009379422292113304,0.0,-0.0015512097161263227
-0.0017498459201306105,-0.01376181747764349,0.005187268368899822,0.010409333743155003,0.0,-0.0013934908201918006
-0.0016017345478758216,-0.014336694963276386,0.005484177730977535,0.00979569274932146,0.0,-0.0012884751195088029
-0.00147312565241009,-0.01417598407715559,0.005122427362948656,0.009080498479306698,0.0,-0.0012406790629029274
-0.0014812611043453217,-0.014788697473704815,0.005281807854771614,0.009626030921936035,0.0,-0.0012984839268028736
-0.001499262871220708,-0.01437979843467474,0.005038281437009573,0.009860649704933167,0.0,-0.0014034988125786185
-0.0017406052211299539,-0.014619397930800915,0.00491378316655755,0.009463788010179996,0.0,-0.002046378329396248
-0.0016362814931198955,-0.01412774994969368,0.005732430145144463,0.009348820894956589,0.0,-0.001928682322613895
-0.0015337351942434907,-0.014748724177479744,0.005439034663140774,0.009400200098752975,0.0,-0.0018554333364591002
-0.0014986773021519184,-0.014474064111709595,0.005294415168464184,0.009105373173952103,0.0,-0.0016492143040522933
-0.0013843437191098928,-0.01453713420778513,0.005044520366936922,0.009455958381295204,0.0,-0.0014924427960067987
-0.0013061038916930556,-0.01408474426716566,0.005199664272367954,0.00948746595531702,0.0,-0.0011768988333642483
-0.0012944777263328433,-0.014490433037281036,0.0053868601098656654,0.009583450853824615,0.0,-0.001238985569216311
-0.001232527894899249,-0.013904736377298832,0.005268684588372707,0.010731970891356468,0.0,-0.0012090734671801329
-0.0013986611738801003,-0.0138425063341856,0.005337507929652929,0.010250154882669449,0.0,-0.0014202704187482595
-0.0013752240920439363,-0.0137404203414917,0.005203837063163519,0.010252777487039566,0.0,-0.0014744182117283344
-0.0014026834396645427,-0.014209270477294922,0.005723699927330017,0.009088215418159962,0.0,-0.0014384224778041244
-0.0012459170538932085,-0.014069088734686375,0.0052747479639947414,0.009115959517657757,0.0,-0.0014056683285161853
-0.00127422995865345,-0.014061538502573967,0.005471681244671345,0.008488424122333527,0.0,-0.0014075852232053876
-0.0012173234717920423,-0.013757361099123955,0.005600326228886843,0.009334202855825424,0.0,-0.0013221316039562225
-0.0011656974675133824,-0.014168855734169483,0.005462870933115482,0.009762183763086796,0.0,-0.001269410946406424
-0.0011032327311113477,-0.013750354759395123,0.0057570138014853,0.009471587836742401,0.0,-0.0012001156574115157
-0.0011812777956947684,-0.014111263677477837,0.0052501000463962555,0.00885541457682848,0.0,-0.001151052420027554
-0.0011812777956947684,-0.014111263677477837,0.0052501000463962555,0.00885541457682848,0.0,-0.001151052420027554
-0.0011705949436873198,-0.013787495903670788,0.005344375502318144,0.009601898491382599,0.0,-0.0011567763285711408
-0.0012082498287782073,-0.013300838880240917,0.005233594682067633,0.009628315456211567,0.0,-0.0011600872967392206
-0.0012242392404004931,-0.013713751919567585,0.005740320309996605,0.009536389261484146,0.0,-0.001291020424105227
-0.001087471842765808,-0.014302933588624,0.005407390184700489,0.009358051232993603,0.0,-0.0012842068681493402
-0.0009865050669759512,-0.014142080210149288,0.005207340233027935,0.009738724678754807,0.0,-0.0012423275038599968
-0.0009214565507136285,-0.014157411642372608,0.004971831105649471,0.009951162151992321,0.0,-0.001270685694180429
-0.0009176332969218493,-0.013252033852040768,0.004977780859917402,0.00923148449510336,0.0,-0.0012725848937407136
-0.0009153838036581874,-0.013658855110406876,0.005413713399320841,0.00869356282055378,0.0,-0.0012403622968122363
-0.0008564389427192509,-0.013344095088541508,0.005479102488607168,0.009490507654845715,0.0,-0.0014672954566776752
-0.0009241207153536379,-0.013801796361804008,0.005578374490141869,0.0096266595646739,0.0,-0.0013880974147468805
-0.0009213918820023537,-0.013084040023386478,0.005066983867436647,0.009035672061145306,0.0,-0.001300768693909049
-0.0008407842251472175,-0.013590379618108273,0.0049643367528915405,0.009191416203975677,0.0,-0.0011455431813374162
-0.0008466560975648463,-0.013381239958107471,0.0054413448087871075,0.009416099637746811,0.0,-0.0010727981571108103
-0.000758791109547019,-0.013711457140743732,0.005119463428854942,0.009794283658266068,0.0,-0.0010027580428868532
-0.0006042734603397548,-0.01390236709266901,0.005302780773490667,0.009903893806040287,0.0,-0.0009849978378042579
-0.000548382056877017,-0.013517063111066818,0.005375078413635492,0.009425842203199863,0.0,-0.0009726821444928646
-0.0005044157151132822,-0.013184207491576672,0.005010814871639013,0.009010749869048595,0.0,-0.0009807255119085312
-0.0005257021985016763,-0.013514122925698757,0.004951130133122206,0.009066500701010227,0.0,-0.0009882630547508597
-0.0004967809654772282,-0.013693061657249928,0.005112473852932453,0.009370015002787113,0.0,-0.000985870254226029
-0.0004648024041671306,-0.013282991014420986,0.004942319821566343,0.008985995315015316,0.0,-0.0011819216888397932
-0.000382815400371328,-0.013438892550766468,0.005425340961664915,0.009090777486562729,0.0,-0.0010724846506491303
-0.00036020108382217586,-0.013300527818500996,0.00509515730664134,0.009330379776656628,0.0,-0.0010396523866802454
-0.0003407103067729622,-0.013909208588302135,0.004705093335360289,0.009019221179187298,0.0,-0.0009002657607197762
-0.00032322751940228045,-0.013461842201650143,0.004803123883903027,0.009010843932628632,0.0,-0.00089215551270172
-0.0003074516134802252,-0.013655773364007473,0.004807977471500635,0.009381282143294811,0.0,-0.000799735018517822
-0.00029314542189240456,-0.013041266240179539,0.00486408406868577,0.009302349761128426,0.0,-0.0007200748659670353
-0.00029314542189240456,-0.013041266240179539,0.00486408406868577,0.009302349761128426,0.0,-0.0007200748659670353
-0.00028011060203425586,-0.013080567121505737,0.005101089831441641,0.009203947149217129,0.0,-0.0005912414053454995
-0.00025723502039909363,-0.013779954053461552,0.004694057162851095,0.009524271823465824,0.0,-0.0005429359734989703
-0.00024714303435757756,-0.013396471738815308,0.004752807319164276,0.008788632228970528,0.0,-0.0005030828178860247
-0.00023781368508934975,-0.013560798950493336,0.0052202483639121056,0.008943084627389908,0.0,-0.0005171196535229683
-0.0002291632554261014,-0.01335680577903986,0.004927194211632013,0.009136508218944073,0.0,-0.0004940209910273552
-0.0002211195242125541,-0.013721372000873089,0.00444470439106226,0.008758838288486004,0.0,-0.0004591371980495751
-0.00021362189727369696,-0.013590754009783268,0.004430386237800121,0.009307442232966423,0.0,-0.0004279984859749675
-0.00020661561575252563,-0.013534697704017162,0.004650515038520098,0.009166636504232883,0.0,-0.00040076053119264543
-0.0002000547683564946,-0.01349965762346983,0.004673788323998451,0.009459051303565502,0.0,-0.00042686855886131525
-0.00019389748922549188,-0.01371555496007204,0.0046682641841471195,0.00918728020042181,0.0,-0.0004060526262037456
-0.00018810790788847953,-0.014115378260612488,0.004521283321082592,0.00959070585668087,0.0,-0.00038456969195976853
-0.00018265427206642926,-0.013249309733510017,0.004606191068887711,0.008653059601783752,0.0,-0.00036507818731479347
-0.0001775078708305955,-0.013875342905521393,0.0047281766310334206,0.00861118920147419,0.0,-0.0003474549448583275
-6.984049832681194e-05,-0.013981420546770096,0.0046695382334291935,0.009085643105208874,0.0,-0.00031097992905415595
-5.465532012749463e-05,-0.014466792345046997,0.004413068760186434,0.009276996366679668,0.0,-0.0002889480965677649
-5.287437670631334e-05,-0.0134977912530303,0.004295223858207464,0.008865820243954659,0.0,-0.0002713793364819139
-5.136321851750836e-05,-0.013967813923954964,0.00489024817943573,0.009099840186536312,0.0,-0.0002559288695920259
-4.993813854525797e-05,-0.013603122904896736,0.004835227504372597,0.00914983730763197,0.0,-0.00024215158191509545
-4.859040927840397e-05,-0.014167936518788338,0.0043793898075819016,0.00916988868266344,0.0,-0.00022978195920586586
-4.73129257443361e-05,-0.0137489577755332,0.004072860814630985,0.009362992830574512,0.0,-0.00025647570146247745
-4.610117684933357e-05,-0.014084843918681145,0.004365948028862476,0.00926514994353056,0.0,-0.00024979800218716264
-4.3855015974259004e-05,-0.013696636073291302,0.004460284952074289,0.009074294939637184,0.0,-0.00022895846632309258
-4.3855015974259004e-05,-0.013696636073291302,0.004460284952074289,0.009074294939637184,0.0,-0.00022895846632309258
-4.281195651856251e-05,-0.013271204195916653,0.004408592823892832,0.009125703945755959,0.0,-0.00021964537154417485
-4.181733675068244e-05,-0.013349823653697968,0.0043978001922369,0.009089243598282337,0.0,-0.0002110586065100506
-4.181733675068244e-05,-0.013349823653697968,0.0043978001922369,0.009089243598282337,0.0,-0.0002110586065100506
-2.1253425074974075e-05,-0.013387533836066723,0.0042827194556593895,0.009212009608745575,0.0,-0.00020311835396569222
-1.9546580006135628e-05,-0.01353699341416359,0.004394681192934513,0.008983269333839417,0.0,-0.00018890512001235038
-1.913093183247838e-05,-0.012890839017927647,0.0042165787890553474,0.00877546425908804,0.0,-0.0001825193758122623
-2.1926032331975875e-06,-0.013528184965252876,0.004074825905263424,0.008940599858760834,0.0,-0.00017655090778134763
-2.9416568736451154e-08,-0.012727141380310059,0.004242871887981892,0.008898147381842136,0.0,-0.00017096106603275985
-3.9466083179284794e-10,-0.013099387288093567,0.004480275325477123,0.008774211630225182,0.0,-0.00016571415471844375
-5.2948782511275105e-12,-0.012772887013852596,0.00415746821090579,0.009214174933731556,0.0,-0.00016077960026450455
-7.103754975749943e-14,-0.013212708756327629,0.00444656889885664,0.009491149336099625,0.0,-0.00015613052528351545
-9.530593435147917e-16,-0.013153336010873318,0.004158832598477602,0.00946778804063797,0.0,-0.00015174302097875625
-1.2786506623646724e-17,-0.013440930284559727,0.003980568610131741,0.010219109244644642,0.0,-0.00014759492478333414
-1.715472941020561e-19,-0.013100571930408478,0.003977998625487089,0.009989872574806213,0.0,-0.0001436679158359766
-2.301526051007055e-21,-0.012985141016542912,0.004435281734913588,0.009340867400169373,0.0,-0.0001226582971867174
-3.087790909652293e-23,-0.012935450300574303,0.0044951289892196655,0.009331890381872654,0.0,-0.0001140684325946495
-4.1426655728751455e-25,-0.012820876203477383,0.004136955831199884,0.009162620641291142,0.0,-0.00011089909094152972
-5.5579141151307944e-27,-0.01338989194482565,0.0037584754172712564,0.009101685136556625,0.0,-0.00010820889292517677
-7.456650650927012e-29,-0.012955652549862862,0.003579927608370781,0.009147320874035358,0.0,-0.00010566633136477321
-1.0004048434255e-30,-0.013317668810486794,0.0034498826134949923,0.00894886627793312,0.0,-0.00010324179311282933
-1.3421707804980506e-32,-0.012896026484668255,0.003875680500641465,0.00968140922486782,0.0,-0.00010092615411849692
-1.8006934190991024e-34,-0.01296069473028183,0.004008531104773283,0.008937251754105091,0.0,-9.871216752799228e-05
-2.4158600764403967e-36,-0.012553838081657887,0.0038560274988412857,0.009065553545951843,0.0,-9.659329225542024e-05
-3.24118457058388e-38,-0.012529855594038963,0.00423522898927331,0.00884665921330452,0.0,-9.45633219089359e-05
-4.3484673555388426e-40,-0.012978200800716877,0.004158057272434235,0.008519438095390797,0.0,-7.887592073529959e-05
0.0004188916354905814,-0.012705455534160137,0.0035774046555161476,0.008963785134255886,0.0,-7.291165093192831e-05
0.0004188916354905814,-0.012705455534160137,0.0035774046555161476,0.008963785134255886,0.0,-7.291165093192831e-05
0.00044522585812956095,-0.013702113181352615,0.0034576633479446173,0.008916386403143406,0.0,-7.118460052879527e-05
0.0004023392393719405,-0.013269908726215363,0.0035411661956459284,0.009344055317342281,0.0,-5.248238448984921e-05
0.0003744385903701186,-0.012535099871456623,0.003615399356931448,0.009524086490273476,0.0,-5.0459471822250634e-05
0.00035015298635698855,-0.012885672971606255,0.00359084689989686,0.009399588219821453,0.0,-4.9466907512396574e-05
0.0003828491026069969,-0.012903512455523014,0.003420653287321329,0.009162687696516514,0.0,-3.4070430956489872e-06
0.0003954181738663465,-0.012790098786354065,0.0035566375590860844,0.00937485322356224,0.0,3.9259553886950016e-05
0.0003905927878804505,-0.01244228146970272,0.0037890418898314238,0.009054873138666153,0.0,4.114010516786948e-05
0.00046240442316047847,-0.012300240807235241,0.0034583297092467546,0.008732536807656288,0.0,5.925419463892467e-05
0.0005041075637564063,-0.012893232516944408,0.00312851183116436,0.009966107085347176,0.0,6.891346129123122e-05
0.0005381421651691198,-0.012048612348735332,0.002982286037877202,0.009333753027021885,0.0,7.668745092814788e-05
0.0005450331955216825,-0.012431810609996319,0.0030532933305948973,0.008683018386363983,0.0,9.334684000350535e-05
0.000530384830199182,-0.01208194438368082,0.00332333380356431,0.00886054802685976,0.0,0.00034709813189692795
0.0008697587181814015,-0.01204694528132677,0.0033680035267025232,0.009164324961602688,0.0,0.0006146165542304516
0.0008781717624515295,-0.012015951797366142,0.0035103471018373966,0.009113273583352566,0.0,0.0006591673009097576
0.0008811310399323702,-0.01196733582764864,0.0033020528499037027,0.009260829538106918,0.0,0.0006838471745140851
0.0008314828155562282,-0.012140380218625069,0.0031038301531225443,0.00963647197932005,0.0,0.0008454277995042503
0.0010597349610179663,-0.011671631596982479,0.0035122018307447433,0.00975638348609209,0.0,0.0010216392111033201
0.0010482824873179197,-0.012057093903422356,0.003238208591938019,0.009723568335175514,0.0,0.0011299002217128873
0.001027141697704792,-0.011817059479653835,0.003204306121915579,0.009680356830358505,0.0,0.0011935638030990958
0.001018960028886795,-0.011610327288508415,0.0032473327592015266,0.009721523150801659,0.0,0.0012665076646953821
0.0010354090481996536,-0.012351037003099918,0.003142592031508684,0.009235196746885777,0.0,0.0012165155494585633
0.0010137964272871614,-0.011516878381371498,0.003037216840311885,0.009598024189472198,0.0,0.0012514275731518865
0.0010080229258164763,-0.011860729195177555,0.0029135269578546286,0.009134972468018532,0.0,0.0013490307610481977
0.0012089121155440807,-0.011433579958975315,0.0030242593493312597,0.009369619190692902,0.0,0.0013775686966255307
0.0011983256554231048,-0.011319245211780071,0.0028262801934033632,0.009823352098464966,0.0,0.002083053346723318
0.001162422588095069,-0.011949591338634491,0.002910527866333723,0.00958927534520626,0.0,0.0024302401579916477
0.0011472399346530437,-0.012322310358285904,0.0032218112610280514,0.009407234378159046,0.0,0.0024371349718421698
0.0010739905992522836,-0.011251247487962246,0.0027170327957719564,0.009529069997370243,0.0,0.0021861037239432335
0.0011908173328265548,-0.011559398844838142,0.0026826162356883287,0.009330863133072853,0.0,0.002225187374278903
0.0011908173328265548,-0.011559398844838142,0.0026826162356883287,0.009330863133072853,0.0,0.002225187374278903
0.0014991406351327896,-0.012078055180609226,0.002499036258086562,0.009693952277302742,0.0,0.002309588249772787
0.0022598060313612223,-0.011062723584473133,0.0026565080042928457,0.00992987398058176,0.0,0.002329524140805006
0.0023271297104656696,-0.011745519936084747,0.002650439739227295,0.009041130542755127,0.0,0.002672177040949464
0.0024034699890762568,-0.0113012520596385,0.0024793173652142286,0.00953730195760727,0.0,0.0028264035936444998
0.002075301017612219,-0.011293632909655571,0.002390430076047778,0.009579869918525219,0.0,0.0025258315727114677
0.0017361239297315478,-0.011700387112796307,0.002539718523621559,0.009205981157720089,0.0,0.002310727257281542
0.0017630939837545156,-0.010975955985486507,0.002441317541524768,0.009360024705529213,0.0,0.0022560476791113615
0.002028736984357238,-0.011633423157036304,0.002583073452115059,0.009167599491775036,0.0,0.001967563759535551
0.0025216848589479923,-0.011753796599805355,0.0026548828464001417,0.008681600913405418,0.0,0.0020558417309075594
0.0025836569257080555,-0.01143233384937048,0.002425662474706769,0.008942428044974804,2.544400331316865e-06,0.0031371968798339367
0.0029509568121284246,-0.011690139770507812,0.002186258789151907,0.00930054858326912,1.6613118702935026e-07,0.004151597619056702
0.0031907386146485806,-0.011220013722777367,0.0021380253601819277,0.008956731297075748,1.0847178266715218e-08,0.004567744676023722
0.0035097156651318073,-0.011468927375972271,0.0022989755962044,0.008872279897332191,7.082432418314966e-10,0.004109627101570368
0.0032584979198873043,-0.011577938683331013,0.002095016185194254,0.009875087067484856,4.624322452739804e-11,0.003800054080784321
0.0030903704464435577,-0.011142787523567677,0.002244823146611452,0.00898008979856968,3.0193523462701544e-12,0.003657585009932518
0.0029671338852494955,-0.012029876932501793,0.0020787252578884363,0.00826078001409769,1.9714212087882516e-13,0.0037852406967431307
0.0032350285910069942,-0.011306196451187134,0.0020307074300944805,0.008844382129609585,1.2871970064267865e-14,0.0038423980586230755
0.00339148030616343,-0.011638565920293331,0.001894614310003817,0.008836348541080952,8.40447742545431e-16,0.0038284084293991327
0.0034536540042608976,-0.011889922432601452,0.001891900203190744,0.008929342031478882,5.487523462866176e-17,0.003929786384105682
0.0035417694598436356,-0.011414040811359882,0.001848275656811893,0.009081303142011166,3.58296053382396e-18,0.004115458112210035
0.003864174708724022,-0.011425054632127285,0.0018225103849545121,0.00937479455024004,2.3394172157738703e-19,0.004431373439729214
0.00415026443079114,-0.011145900934934616,0.001924708834849298,0.008797651156783104,1.527472203816561e-20,0.004256018903106451
0.004402016755193472,-0.011580645106732845,0.001975752878934145,0.008959265425801277,9.97330210526765e-22,0.003983168862760067
0.004188103135675192,-0.011918866075575352,0.0019350057700648904,0.009506556205451488,6.511853659449854e-23,0.003840147750452161
0.004188103135675192,-0.011918866075575352,0.0019350057700648904,0.009506556205451488,6.511853659449854e-23,0.003840147750452161
0.0039086248725652695,-0.011534025892615318,0.0018692382145673037,0.009200631640851498,2.7761055565046166e-25,0.004257817752659321
0.0039086248725652695,-0.011534025892615318,0.0018692382145673037,0.009200631640851498,2.7761055565046166e-25,0.004257817752659321
0.0042611174285411835,-0.010944929905235767,0.0018927924102172256,0.009446683339774609,1.8125986738469667e-26,0.004106695763766766
0.004918314516544342,-0.011169416829943657,0.001926787430420518,0.00920091662555933,7.727390660271678e-29,0.004392689093947411
0.0052048261277377605,-0.01186797022819519,0.0017372685251757503,0.009495324455201626,5.0454339069496944e-30,0.004403633065521717
0.0051135048270225525,-0.011559120379388332,0.0018725958652794361,0.009296980686485767,3.2943076367529e-31,0.004270278848707676
0.004839557223021984,-0.011031171306967735,0.0017011293675750494,0.008968698792159557,2.1509473341886599e-32,0.004406352993100882
0.005367140751332045,-0.010995201766490936,0.001483445754274726,0.009808092378079891,1.4044149879827162e-33,0.004581689368933439
0.0053297835402190685,-0.011341121047735214,0.0014954545767977834,0.009528785943984985,9.169826522813862e-35,0.0046870955266058445
0.0059954156167805195,-0.011028116568922997,0.001419818145222962,0.009395429864525795,5.9872406420211246e-36,0.0047583687119185925
0.005941052921116352,-0.01121582742780447,0.0014366143150255084,0.009897432290017605,3.9092402170374175e-37,0.0047358619049191475
0.006152065470814705,-0.011256208643317223,0.0013866876251995564,0.009499853476881981,2.5524545028993254e-38,0.0046018497087061405
0.005612082779407501,-0.010587865486741066,0.0015239262720569968,0.009384801611304283,1.6665698688153622e-39,0.004740673583000898
0.0060513997450470924,-0.010781675577163696,0.0014607065822929144,0.00985188689082861,1.0881502965021502e-40,0.004906985908746719
0.006283970084041357,-0.010295383632183075,0.0014706314541399479,0.009382576681673527,7.104583214126823e-42,0.005014427937567234
0.006223053205758333,-0.010545628145337105,0.0013569060247391462,0.008791805244982243,4.6382979169151445e-43,0.004838746506720781
0.006107804365456104,-0.010800493881106377,0.0012855824315920472,0.010022133588790894,3.0828566215145976e-44,0.004746362566947937
0.006194920279085636,-0.010694756172597408,0.0012111352989450097,0.00984117016196251,1.401298464324817e-45,0.0046604592353105545
0.006247146986424923,-0.011312090791761875,0.001183760236017406,0.009308211505413055,-6.763463170500472e-05,0.004954538308084011
0.00634932704269886,-0.010583258233964443,0.0012383112916722894,0.01021873950958252,-0.00012499687727540731,0.005107552278786898
0.006702600046992302,-0.010390796698629856,0.001189679023809731,0.009583348408341408,-0.00012538168812170625,0.00497819297015667
0.006349844392389059,-0.010532093234360218,0.0011670880485326052,0.009406021796166897,-0.0001222285209223628,0.005109114106744528
0.0064071062952280045,-0.010627848096191883,0.0013121959054842591,0.009836987592279911,-0.00011901226389454678,0.005119695328176022
0.006776352878659964,-0.010496986098587513,0.0013681756099686027,0.009867417626082897,-0.00011594661918934435,0.005380036775022745
0.006932474672794342,-0.01071880478411913,0.0011958901304751635,0.009467015042901039,-0.00013266481983009726,0.005662094336003065
0.00675916438922286,-0.010003614239394665,0.0010260139824822545,0.00966170709580183,-0.00013212267367634922,0.0054707881063222885
0.006963588297367096,-0.010743496008217335,0.0007905747625045478,0.009826580062508583,-0.00012913966202177107,0.0054097906686365604
0.007596185896545649,-0.01026034913957119,0.0006985805812291801,0.009813233278691769,-0.00012613460421562195,0.005190374795347452
0.007596185896545649,-0.01026034913957119,0.0006985805812291801,0.009813233278691769,-0.00012613460421562195,0.005190374795347452
0.007469599600881338,-0.00956858228892088,0.0006287615979090333,0.010032009333372116,-0.0001232562499353662,0.005311482585966587
0.007169011980295181,-0.009762363508343697,0.000571679905988276,0.01012515090405941,-0.00012050571240251884,0.0054396940395236015
0.007870463654398918,-0.01101056020706892,0.00048383744433522224,0.009626912884414196,-0.00012481190788093954,0.005257185082882643
0.0077441115863621235,-0.009363864548504353,0.0004493211454246193,0.009258427657186985,-0.00013113010209053755,0.0057490733452141285
0.007733178790658712,-0.009511047974228859,0.0004194045322947204,0.00906678382307291,-0.0001290267100557685,0.005578579381108284
0.00755855068564415,-0.009413004852831364,0.0003932206309400499,0.009157834574580193,-0.00012647440598811954,0.0065765902400016785
0.008350472897291183,-0.009731581434607506,0.0003701162349898368,0.0098193921148777,-0.00012398784747347236,0.0059547387063503265
0.008391116745769978,-0.009858154691755772,0.0003495760902296752,0.00918229017406702,-0.00012159485777374357,0.005574072245508432
0.008068394847214222,-0.009078297764062881,0.00033119626459665596,0.009419005364179611,-0.00011929244647035375,0.005633939523249865
0.008221144787967205,-0.00894156750291586,0.00031465268693864346,0.009140529669821262,-0.00011707545490935445,0.0063813794404268265
0.009032870642840862,-0.00940414797514677,0.0002996837138198316,0.009402631781995296,-0.00012302100367378443,0.006464099045842886
0.008320242166519165,-0.00924915261566639,0.00010245468729408458,0.00865660235285759,-0.00012846130994148552,0.006334231235086918
0.008514060638844967,-0.008567961864173412,8.996904944069684e-05,0.009313611313700676,-0.0001266993785975501,0.006222886499017477
0.00905799400061369,-0.009028763510286808,8.559164416510612e-05,0.009807838127017021,-0.00012454050011001527,0.006064589601010084
0.008713897317647934,-0.009126689285039902,8.170474757207558e-05,0.010018053464591503,-0.00012242495722603053,0.0061040916480124
0.008908016607165337,-0.008566283620893955,7.815679418854415e-05,0.010155637748539448,-0.00015870518109295517,0.006248014979064465
0.008977445773780346,-0.009054812602698803,4.188220191281289e-05,0.00950656458735466,-0.0001653193321544677,0.006947652902454138
0.009464673697948456,-0.008866370655596256,3.6015244404552504e-05,0.009768007323145866,-0.00016024515207391232,0.0069555058144032955
0.008685726672410965,-0.008122699335217476,3.457526690908708e-05,0.010297785513103008,-0.00015478576824534684,0.006305132992565632
0.00870027206838131,-0.009616254828870296,3.329526953166351e-05,0.010459634475409985,-0.00014964111323934048,0.00599262397736311
0.009501042775809765,-0.008920030668377876,3.210745126125403e-05,0.010122514329850674,-0.00014482515689451247,0.006427289452403784
0.008846067823469639,-0.008296024985611439,3.100144022027962e-05,0.009806844405829906,-0.00014030899910721928,0.006322442088276148
0.009597406722605228,-0.008404872380197048,1.0285973985446617e-05,0.009850275702774525,-0.00015968266234267503,0.006489516701549292
0.009502517990767956,-0.008589401841163635,1.3799946430026466e-07,0.009804845787584782,-0.00015825197624508291,0.006745962891727686
0.009291201829910278,-0.008465368300676346,1.8514387800649956e-09,0.00977257825434208,-0.00015395191439893097,0.0066786580719053745
0.009399951435625553,-0.00802629068493843,2.4839411777444198e-11,0.009503930807113647,-0.00014969769108574837,0.0071182698011398315
0.009836792014539242,-0.007684049196541309,3.3325241437925923e-13,0.01009506918489933,-0.0001456605677958578,0.006869457196444273
0.009344477206468582,-0.008387251757085323,4.471006237357885e-15,0.010402503423392773,-0.00014183437451720238,0.007023370359092951
0.009344679303467274,-0.008520171977579594,5.998425943381388e-17,0.010309183970093727,-0.00013820407912135124,0.007518126163631678
0.009344679303467274,-0.008520171977579594,5.998425943381388e-17,0.010309183970093727,-0.00013820407912135124,0.007518126163631678
0.010166230611503124,-0.007736849132925272,8.047653104225477e-19,0.010296613909304142,-0.00013475520245265216,0.006984741892665625
0.010281050577759743,-0.007701639086008072,1.0796954275520256e-20,0.010544977150857449,-0.00015050344518385828,0.0068510607816278934
0.007334074936807156,-0.007662273943424225,1.9434136658448754e-24,0.009910198859870434,-0.0001462517975596711,0.006945771165192127
0.007649966981261969,-0.007262716069817543,2.6073375172582484e-26,0.010123055428266525,-0.00014294436550699174,0.0072352527640759945
0.008254196494817734,-0.007618292700499296,3.4980757061577723e-28,0.00978913251310587,-0.00014959104009903967,0.007504432462155819
0.008049961179494858,-0.008328310213983059,4.6931151162794306e-30,0.010098641738295555,-0.00015561131294816732,0.007366458419710398
0.008429748006165028,-0.0076583316549658775,6.296412651019922e-32,0.010114559903740883,-0.00015291095769498497,0.007353306282311678
0.00864417478442192,-0.007355450186878443,8.447441277989781e-34,0.009370237588882446,-0.0001497694756835699,0.007701535243541002
0.007902728393673897,-0.008014649152755737,1.1333321005643028e-35,0.009261415340006351,-0.00014671991812065244,0.008365207351744175
0.007714275270700455,-0.0077936467714607716,1.520509727281858e-37,0.009703198447823524,-0.00014379019557964057,0.007930689491331577
0.008263542316854,-0.007560437079519033,2.0399584563208887e-39,0.009894347749650478,-0.0001672612561378628,0.007443297654390335
0.00893398467451334,-0.0075187659822404385,-0.00037828515633009374,0.010400040075182915,-0.0001696113176876679,0.00803497713059187
0.008604479022324085,-0.007674966938793659,-0.00044885321403853595,0.01003722008317709,-0.00016399502055719495,0.008392196148633957
0.009522514417767525,-0.0076225679367780685,-0.00036022282438352704,0.010049798525869846,-0.00016648555174469948,0.008121589198708534
0.009522514417767525,-0.0076225679367780685,-0.00036022282438352704,0.010049798525869846,-0.00016648555174469948,0.008121589198708534
0.009505681693553925,-0.007344587240368128,-0.00039812648901715875,0.009923867881298065,-0.00015239678032230586,0.00861055962741375
0.010483323596417904,-0.008017062209546566,-0.0003792818752117455,0.009930742904543877,-0.0001482136285630986,0.00814067292958498
0.008757934905588627,-0.006878018379211426,-0.00039756641490384936,0.009614687412977219,-0.00016668328316882253,0.008408750407397747
0.009267020039260387,-0.007100021466612816,-0.00036592630203813314,0.010184625163674355,-0.00016381184104830027,0.007580805569887161
0.010036282241344452,-0.007480267435312271,-0.00040326325688511133,0.01028668973594904,-0.00015975316637195647,0.007280096411705017
0.009238255210220814,-0.008108481764793396,-0.00037764417356811464,0.00994265079498291,-0.00015580863691866398,0.0071904342621564865
0.009498020634055138,-0.007837099954485893,-0.00041097457869909704,0.010733856819570065,-0.00015204834926407784,0.007081557996571064
0.009722316637635231,-0.0071328021585941315,-0.00038653615047223866,0.010294714011251926,-0.00014846502745058388,0.0070913187228143215
0.00958605483174324,-0.0071156821213662624,-0.0004100186924915761,0.010081026703119278,-0.00014504675345961004,0.007405886426568031
0.009573917835950851,-0.008152272552251816,-0.00039339257637038827,0.010129157453775406,-0.00015937586431391537,0.00737606780603528
0.009402359835803509,-0.0077340565621852875,-0.0005004362319596112,0.009410647675395012,-0.00015829650510568172,0.007810628041625023
0.009402359835803509,-0.0077340565621852875,-0.0005004362319596112,0.009410647675395012,-0.00015829650510568172,0.007810628041625023
0.009294736199080944,-0.007765891496092081,-0.0005451752222143114,0.009118997491896152,-0.0001550461893202737,0.007855759933590889
0.01002346258610487,-0.007586915977299213,-0.0005796759505756199,0.009791083633899689,-0.00014865452249068767,0.008374661207199097
0.009548733942210674,-0.0074864160269498825,-0.0005586498300544918,0.009821278974413872,-0.0001456472818972543,0.008569943718612194
0.010349544696509838,-0.007545506581664085,-0.0007379109738394618,0.010618094354867935,-0.0001427593524567783,0.008559898473322392
0.010349544696509838,-0.007545506581664085,-0.0007379109738394618,0.010618094354867935,-0.0001427593524567783,0.008559898473322392
0.011214806698262691,-0.008024298585951328,-0.0008545559830963612,0.009989476762712002,-0.00013464997755363584,0.008910104632377625
0.011214806698262691,-0.008024298585951328,-0.0008545559830963612,0.009989476762712002,-0.00013464997755363584,0.008910104632377625
0.010327920317649841,-0.008137555792927742,-0.0009791492484509945,0.010684727691113949,-0.0001307378988713026,0.009283486753702164
0.010586024262011051,-0.007997678592801094,-0.0009915526024997234,0.010174482129514217,-0.00012704660184681416,0.009444835595786572
0.010550177656114101,-0.008554661646485329,-0.0009775145445019007,0.010786226019263268,-0.00012355795479379594,0.009476935490965843
0.01100532989948988,-0.008581917732954025,-0.0009773599449545145,0.010793814435601234,-0.00012025589239783585,0.009043494239449501
0.010638095438480377,-0.008313276804983616,-0.0011574646923691034,0.01054334919899702,-0.00012863184383604676,0.008913563564419746
0.010790804401040077,-0.00813977885991335,-0.0011270984541624784,0.010726413689553738,-0.00013620687241200358,0.009735269472002983
0.010925049893558025,-0.007911760360002518,-0.0011048178421333432,0.010533412918448448,-0.00013354505063034594,0.01031901128590107
0.010766788385808468,-0.008197811432182789,-0.0013218295061960816,0.010764531791210175,-0.00013036697055213153,0.008817278780043125
0.010977688245475292,-0.008222960866987705,-0.0013715982204303145,0.010591056197881699,-0.00013772447709925473,0.008760431781411171
0.011088678613305092,-0.007827827706933022,-0.0016684188740327954,0.01032301690429449,-0.00014438833750318736,0.009726188145577908
0.010704314336180687,-0.007698590401560068,-0.001588422222994268,0.010711326263844967,-0.00014178025594446808,0.009791428223252296
0.011529142037034035,-0.008142370730638504,-0.0016629166202619672,0.011055448092520237,-0.00013870060502085835,0.010373187251389027
0.010886367410421371,-0.007937251590192318,-0.001707342336885631,0.009623908437788486,-0.0001525578263681382,0.01014228630810976
0.01188555359840393,-0.008399936370551586,-0.001605357974767685,0.009598406963050365,-0.00015166637604124844,0.009218497201800346
0.011401504278182983,-0.008678622543811798,-0.0018454072996973991,0.009609025903046131,-0.00014868586731608957,0.009111558087170124
0.011143306270241737,-0.007986286655068398,-0.0017095821676775813,0.00948614813387394,-0.00014568722690455616,0.009586903266608715
0.011143306270241737,-0.007986286655068398,-0.0017095821676775813,0.00948614813387394,-0.00014568722690455616,0.009586903266608715
0.011427666060626507,-0.007528864312916994,-0.002049738308414817,0.010218744166195393,-0.000142798395245336,0.01023848820477724
0.011048158630728722,-0.008044646121561527,-0.0019082276849076152,0.01020009908825159,-0.00016686947492416948,0.009835953824222088
0.011161225847899914,-0.008317599073052406,-0.0020460840314626694,0.009839842095971107,-0.0001694309466984123,0.00990403164178133
0.010979718528687954,-0.007727503776550293,-0.0022190578747540712,0.010583886876702309,-0.00015811953926458955,0.009987506084144115
0.011370417661964893,-0.00822130125015974,-0.002313074190169573,0.010566720739006996,-0.00017536309314891696,0.010600720532238483
0.011370417661964893,-0.00822130125015974,-0.002313074190169573,0.010566720739006996,-0.00017536309314891696,0.010600720532238483
0.011161938309669495,-0.007688822690397501,-0.002573984209448099,0.010688104666769505,-0.00017161652795039117,0.010032677091658115
0.011835765093564987,-0.007586007472127676,-0.00276734190993011,0.011014681309461594,-0.00016635940119158477,0.010508211329579353
0.011102283373475075,-0.007931877858936787,-0.002566098002716899,0.01109946146607399,-0.00018647656543180346,0.010685037821531296
0.011195985600352287,-0.008170867338776588,-0.0026904121041297913,0.011065470986068249,-0.00020204986503813416,0.010157262906432152
0.011261900886893272,-0.00772407790645957,-0.0026476923376321793,0.011418215930461884,-0.00020259762823116034,0.009997968561947346
0.011281104758381844,-0.008282497525215149,-0.0027029886841773987,0.010725307278335094,-0.00036676012678071856,0.01027680654078722
0.011496681720018387,-0.008052816614508629,-0.0025786992628127337,0.010652308352291584,-0.00042420500540174544,0.010160250589251518
0.011361462064087391,-0.007793212775141001,-0.003010667860507965,0.010860223323106766,-0.00040268569136969745,0.01058000884950161
0.012043055146932602,-0.007419995963573456,-0.0031977915205061436,0.010523916222155094,-0.0004335152043495327,0.0109833599999547
0.011416240595281124,-0.007363511715084314,-0.0033278274349868298,0.010688471607863903,-0.0004522295785136521,0.01147365476936102
0.01153647806495428,-0.007319231983274221,-0.0031987635884433985,0.010673659853637218,-0.0004392579139675945,0.010661406442523003
0.01177988387644291,-0.00703213457018137,-0.003600622061640024,0.010630224831402302,-0.0006519877933897078,0.010608779266476631
0.011341745033860207,-0.007367604412138462,-0.0038283118046820164,0.01071150228381157,-0.0006859186105430126,0.011066753417253494
0.011638554744422436,-0.007689871359616518,-0.0033898206893354654,0.010765401646494865,-0.0006972735282033682,0.011022301390767097
0.011561932973563671,-0.007671124301850796,-0.0033102654851973057,0.010235278867185116,-0.0006494514527730644,0.010998872108757496
0.011381767690181732,-0.007474508602172136,-0.0034098317846655846,0.010734707117080688,-0.000662727456074208,0.010720686987042427
0.011615904979407787,-0.007257549557834864,-0.0034470835234969854,0.010870007798075676,-0.000684702186845243,0.010586866177618504
0.011337576434016228,-0.007700263988226652,-0.003882730845361948,0.01107026543468237,-0.0006565002840943635,0.011225872673094273
0.011719253845512867,-0.007594764232635498,-0.004126756452023983,0.011202799156308174,-0.0006758490344509482,0.011516040191054344
0.011896798387169838,-0.007183295674622059,-0.00435801362618804,0.010555184446275234,-0.0006617900799028575,0.01101677492260933
0.01183491200208664,-0.0069879200309515,-0.004531992133706808,0.010824840515851974,-0.0006393728544935584,0.011694160290062428
0.01183491200208664,-0.0069879200309515,-0.004531992133706808,0.010824840515851974,-0.0006393728544935584,0.011694160290062428
0.01218086201697588,-0.007254362106323242,-0.004170645494014025,0.010835833847522736,-0.0006440756260417402,0.010740403085947037
0.011882861144840717,-0.007572049740701914,-0.003993285354226828,0.010526730678975582,-0.0006086149951443076,0.010650340467691422
0.011956785805523396,-0.007591530214995146,-0.004412718117237091,0.010807724669575691,-0.000616514531429857,0.011142192408442497
0.011805719695985317,-0.007343398407101631,-0.004950456786900759,0.01042274571955204,-0.0005861225654371083,0.011126669123768806
0.012575957924127579,-0.006868465803563595,-0.005322302225977182,0.010772379115223885,-0.0005392555613070726,0.011657233349978924
0.012240511365234852,-0.0068009523674845695,-0.0050238012336194515,0.010614996775984764,-0.0005614280235022306,0.011483332142233849
0.01218735333532095,-0.006392000243067741,-0.005173784680664539,0.010792149230837822,-0.0005242974148131907,0.011339444667100906
0.011839461512863636,-0.006968696601688862,-0.005105527117848396,0.01062430813908577,-0.0005353998858481646,0.011328449472784996
0.012374873273074627,-0.006976405158638954,-0.005276273936033249,0.01054553221911192,-0.0005130543722771108,0.011300697922706604
0.01231878250837326,-0.007234834600239992,-0.005699925124645233,0.011103483848273754,-0.0004798764130100608,0.012204826809465885
0.012456556782126427,-0.006615957245230675,-0.006184531841427088,0.011285729706287384,-0.0004500581999309361,0.012370293959975243
0.012798044830560684,-0.006224773824214935,-0.006262984126806259,0.01055127289146185,-0.000434042711276561,0.01203952170908451
0.0124547453597188,-0.006736389361321926,-0.005690437741577625,0.011507890187203884,-0.00039746842230670154,0.011100634932518005
0.01230037771165371,-0.006918598432093859,-0.005794991739094257,0.011139067821204662,-0.00036529096541926265,0.011320305056869984
0.012122654356062412,-0.007260466925799847,-0.00712200440466404,0.011005367152392864,-0.00039616809226572514,0.011904962360858917
0.012781023047864437,-0.006570647470653057,-0.006580447778105736,0.010809478349983692,-0.00037648374564014375,0.011814502067863941
0.012849210761487484,-0.006355850957334042,-0.006188065279275179,0.010564745403826237,-0.0004031845601275563,0.011711033061146736
0.012994497083127499,-0.006849916186183691,-0.005955762229859829,0.011118865571916103,-0.0003854733076877892,0.011556703597307205
0.013633953407406807,-0.007075159344822168,-0.006421064492315054,0.011420871131122112,-0.00036366714630275965,0.01216709241271019
0.013236314989626408,-0.006699113175272942,-0.0069345044903457165,0.010459354147315025,-0.00034384880564175546,0.012055004946887493
0.013074719347059727,-0.00638735294342041,-0.006803418509662151,0.010823352262377739,-0.0003260674711782485,0.011997062712907791
0.012712993659079075,-0.006395057309418917,-0.006375226657837629,0.01066487655043602,-0.0003316145739518106,0.012220527976751328
0.013647870160639286,-0.006958950776606798,-0.006138946861028671,0.010828230530023575,-0.0003361796261742711,0.01194952055811882
0.013253440149128437,-0.0069738756865262985,-0.006847747601568699,0.011407422833144665,-0.00032243868918158114,0.012195837683975697
0.013253440149128437,-0.0069738756865262985,-0.006847747601568699,0.011407422833144665,-0.00032243868918158114,0.012195837683975697
0.013142144307494164,-0.006040219217538834,-0.007224570494145155,0.01094454899430275,-0.0003086920187342912,0.011934679001569748
0.012927038595080376,-0.006031527183949947,-0.007059172727167606,0.010572997853159904,-0.00029600318521261215,0.012455997057259083
0.013569355010986328,-0.006548801437020302,-0.006915883161127567,0.01048935204744339,-0.00027353057521395385,0.012366962619125843
0.01389598473906517,-0.006015626713633537,-0.00800955668091774,0.01124296523630619,-0.00025804986944422126,0.012817456386983395
0.013779865577816963,-0.006175818387418985,-0.007574088405817747,0.010976523160934448,-0.00024034643138293177,0.012431973591446877
0.013530440628528595,-0.006059017963707447,-0.007238712161779404,0.010752102360129356,-0.0002279125910717994,0.01278902031481266
0.013617966324090958,-0.0059836553409695625,-0.007462746929377317,0.011124929413199425,-0.0002169216750189662,0.012730605900287628
0.013486085459589958,-0.006562258116900921,-0.007929862476885319,0.010662076063454151,-0.00020693306578323245,0.012666414491832256
0.014276115223765373,-0.006149638909846544,-0.007352765183895826,0.010614139027893543,-0.00019783276366069913,0.012928705662488937
0.014236685819923878,-0.005953171290457249,-0.007242165040224791,0.010973342694342136,-0.00018950807861983776,0.013104170560836792
0.01458938978612423,-0.006096088793128729,-0.007802025880664587,0.010146629996597767,-0.00020872402819804847,0.012993579730391502
0.014438625425100327,-0.005932767875492573,-0.00835349876433611,0.011510572396218777,-0.00020912167383357882,0.012702817097306252
0.014441746287047863,-0.00631385762244463,-0.008237272500991821,0.01071944646537304,-0.00020184677850920707,0.01305412221699953
0.014433610253036022,-0.006258745212107897,-0.007616864517331123,0.009783673100173473,-0.00019461770716588944,0.013296445831656456
0.014735421165823936,-0.005656660068780184,-0.008283713832497597,0.010763231664896011,-0.0001878397451946512,0.013797643594443798
0.014688912779092789,-0.006393600720912218,-0.008360017091035843,0.011091982014477253,-0.00018152399570681155,0.013485414907336235
0.015064770355820656,-0.005974122788757086,-0.00832284614443779,0.011758370324969292,-0.00020292408589739352,0.013516796752810478
0.014851628802716732,-0.005982376169413328,-0.0078094773925840855,0.012053714133799076,-0.00019830970268230885,0.013465341180562973
0.015134219080209732,-0.006191836670041084,-0.008290152065455914,0.011576642282307148,-0.00021272027515806258,0.013912751339375973
0.015221855603158474,-0.005890189204365015,-0.008580807596445084,0.011880150064826012,-0.00021288834977895021,0.013972228392958641
0.014934861101210117,-0.005741536151617765,-0.007954789325594902,0.011466250754892826,-0.00020718146697618067,0.013823877088725567
0.015209750272333622,-0.005865313578397036,-0.008865940384566784,0.011745569296181202,-0.00023660458100493997,0.013375308364629745
0.015485499985516071,-0.0060403477400541306,-0.0082128020003438,0.011353597044944763,-0.00023590253840666264,0.013171713799238205
0.015328136272728443,-0.005597531795501709,-0.007964267395436764,0.010995429009199142,-0.0002667462104000151,0.013382474891841412
0.015328136272728443,-0.005597531795501709,-0.007964267395436764,0.010995429009199142,-0.0002667462104000151,0.013382474891841412
0.01551333162933588,-0.005584584549069405,-0.009118984453380108,0.011287922970950603,-0.00028483435744419694,0.015089484862983227
0.01527943555265665,-0.005668389145284891,-0.008529966697096825,0.011424467898905277,-0.0002737389295361936,0.013729886151850224
0.015577242709696293,-0.005411092191934586,-0.008138610981404781,0.011133844032883644,-0.0002519275003578514,0.013327145017683506
0.016267875209450722,-0.005233819130808115,-0.006392022594809532,0.011659824289381504,-0.0002591799129731953,0.014045793563127518
0.016267875209450722,-0.005233819130808115,-0.006392022594809532,0.011659824289381504,-0.0002591799129731953,0.014045793563127518
0.015570403076708317,-0.005561864003539085,-0.005748774856328964,0.011233978904783726,-0.00026542472187429667,0.013744762167334557
0.01606818288564682,-0.006032033357769251,-0.007134170737117529,0.010956919752061367,-0.0002569968346506357,0.013882668688893318
0.015862135216593742,-0.00548790255561471,-0.007025078870356083,0.011235020123422146,-0.0002482046256773174,0.013681812211871147
0.015390334650874138,-0.005877369549125433,-0.00703593622893095,0.010488132014870644,-0.0002399367222096771,0.013810649514198303
0.01592150330543518,-0.005477273836731911,-0.00662011094391346,0.010362592525780201,-0.00023219789727590978,0.013882892206311226
0.016221875324845314,-0.0058642905205488205,-0.006697637494653463,0.011676657013595104,-0.0002657134609762579,0.013852671720087528
0.016349133104085922,-0.005370930768549442,-0.006978497840464115,0.011752428486943245,-0.00028798513812944293,0.01388358324766159
0.015947941690683365,-0.005810509901493788,-0.0076483143493533134,0.012063314206898212,-0.0002730752166826278,0.014089414849877357
0.016447748988866806,-0.00540686771273613,-0.007093559484928846,0.011796570383012295,-0.0002576046099420637,0.014491262845695019
0.016155404970049858,-0.0049605341628193855,-0.007475459948182106,0.011430343613028526,-0.0002674180141184479,0.014878026209771633
0.016498234122991562,-0.005254163406789303,-0.0068658567033708096,0.011976039037108421,-0.0002757395268417895,0.014732299372553825
0.016752220690250397,-0.005230053793638945,-0.008200841955840588,0.011944008059799671,-0.0002637084398884326,0.015307842753827572
0.016117066144943237,-0.005070332437753677,-0.007854413241147995,0.012053732760250568,-0.00029056082712486386,0.014720090664923191
0.016267098486423492,-0.005738446023315191,-0.006871477235108614,0.011912035755813122,-0.00029976869700476527,0.014423738233745098
0.016597604379057884,-0.0052207112312316895,-0.006844866555184126,0.011604269035160542,-0.0003054298576898873,0.014522964134812355
0.01723656617105007,-0.0049300240352749825,-0.007623707409948111,0.011513669043779373,-0.0003670338192023337,0.014531959779560566
0.017280252650380135,-0.004739769734442234,-0.008126400411128998,0.011015206575393677,-0.000402977253543213,0.01453401055186987
0.017383022233843803,-0.004856996238231659,-0.008235868066549301,0.011517391540110111,-0.00043853276292793453,0.015081834979355335
0.017081407830119133,-0.0053066229447722435,-0.007819744758307934,0.01201150193810463,-0.000447462109150365,0.014944200403988361
0.01699117198586464,-0.005100823473185301,-0.007804160006344318,0.01220430713146925,-0.00044688876369036734,0.015192573890089989
0.017564736306667328,-0.004769461695104837,-0.007944905199110508,0.011762432754039764,-0.00047094086767174304,0.015048746950924397
0.018165679648518562,-0.004105876199901104,-0.007776489481329918,0.011334197595715523,-0.0006451267399825156,0.015033738687634468
0.017770977690815926,-0.00422855606302619,-0.007512289565056562,0.011923548765480518,-0.0007129565929062665,0.01474968995898962
0.017722437158226967,-0.0051007647998631,-0.007814797572791576,0.011793948709964752,-0.0006580958142876625,0.015196379274129868
0.017660023644566536,-0.004702434875071049,-0.007829277776181698,0.012079544365406036,-0.0006185788661241531,0.0155680812895298
0.01750645600259304,-0.0048723467625677586,-0.008153827860951424,0.011587223038077354,-0.0006382962455973029,0.015448671765625477
0.017432350665330887,-0.004515687003731728,-0.008438539691269398,0.012317260727286339,-0.0005907990271225572,0.015008579008281231
0.018337950110435486,-0.004510912112891674,-0.008079287596046925,0.012302528135478497,-0.0005743821966461837,0.015004108659923077
0.018223639577627182,-0.004310710821300745,-0.008195056580007076,0.01241893321275711,-0.0005374358152039349,0.01531986240297556
0.017560308799147606,-0.004507620818912983,-0.008617068640887737,0.011583467945456505,-0.0005282015190459788,0.014168530702590942
0.01778959482908249,-0.004898222163319588,-0.008459924720227718,0.011147149838507175,-0.0005191277014091611,0.01459710206836462
0.01778959482908249,-0.004898222163319588,-0.008459924720227718,0.011147149838507175,-0.0005191277014091611,0.01459710206836462
0.017902756109833717,-0.0049339658580720425,-0.008124155923724174,0.011408270336687565,-0.0005143973976373672,0.015272358432412148
0.019015030935406685,-0.004323696717619896,-0.007672883570194244,0.011055124923586845,-0.000507882796227932,0.015382582321763039
0.01861017756164074,-0.003901741234585643,-0.00879181083291769,0.011318320408463478,-0.0005347799160517752,0.015981966629624367
0.019120778888463974,-0.003734082216396928,-0.008382352069020271,0.011479346081614494,-0.000617175130173564,0.015684807673096657
0.018494706600904465,-0.004137383308261633,-0.008162373676896095,0.011426708661019802,-0.0007173854392021894,0.015679676085710526
0.017814474180340767,-0.004522785544395447,-0.009112471714615822,0.011941525153815746,-0.0006941471365280449,0.015454906038939953
0.018466658890247345,-0.004067915957421064,-0.00887287687510252,0.01183202862739563,-0.0007117645582184196,0.015733499079942703
0.018760092556476593,-0.004352513700723648,-0.008697512559592724,0.012519588693976402,-0.0009242589585483074,0.015239423140883446
0.01861676760017872,-0.004190881736576557,-0.008663798682391644,0.012591203674674034,-0.0008802322554402053,0.01536676287651062
0.019206896424293518,-0.003963939379900694,-0.0094375004991889,0.012326476164162159,-0.000815778796095401,0.015310924500226974
0.019512854516506195,-0.004321492742747068,-0.009057686664164066,0.012466502375900745,-0.0007691052742302418,0.015645965933799744
0.018937693908810616,-0.00417236378416419,-0.01003267988562584,0.01212556753307581,-0.0007303479360416532,0.01550373900681734
0.019267607480287552,-0.004237863700836897,-0.010076338425278664,0.01257527805864811,-0.0007025227532722056,0.01556375902146101
0.019123462960124016,-0.004475094843655825,-0.00923251360654831,0.013019569218158722,-0.0006772357155568898,0.015713423490524292
0.019123462960124016,-0.004475094843655825,-0.00923251360654831,0.013019569218158722,-0.0006772357155568898,0.015713423490524292
0.01942228339612484,-0.00436622928828001,-0.010051103308796883,0.012120948173105717,-0.0005721559864468873,0.015811940655112267
0.019249629229307175,-0.004245428834110498,-0.009451203048229218,0.011922359466552734,-0.00047911936417222023,0.01573765277862549
0.01923193596303463,-0.003943015355616808,-0.009198768064379692,0.01238278392702341,-0.0004279377462808043,0.01594593934714794
0.01983575150370598,-0.003833593800663948,-0.010287841781973839,0.012030932120978832,-0.0003903997130692005,0.015572961419820786
0.020023860037326813,-0.0038008748088032007,-0.010117443278431892,0.012144730426371098,-0.00041189746116288006,0.015839414671063423
0.019633380696177483,-0.004091540351510048,-0.010859401896595955,0.012382171116769314,-0.0004016355669591576,0.016234105452895164
0.019825147464871407,-0.0038451156578958035,-0.010098504833877087,0.012743399478495121,-0.0004035629390273243,0.016372086480259895
0.019825147464871407,-0.0038451156578958035,-0.010098504833877087,0.012743399478495121,-0.0004035629390273243,0.016372086480259895
0.019952764734625816,-0.003774509532377124,-0.010063688270747662,0.012467893771827221,-0.0004210557381156832,0.016347860917448997
0.019858812913298607,-0.0033971788361668587,-0.010809280909597874,0.013009088113904,-0.0004097393830306828,0.01641830988228321
0.020190797746181488,-0.0035220428835600615,-0.010439105331897736,0.012412246316671371,-0.00038845400558784604,0.016222087666392326
0.020168937742710114,-0.0037418392021209,-0.010491217486560345,0.012825404293835163,-0.0003927862853743136,0.01676618680357933
0.019820787012577057,-0.0037654258776456118,-0.010386841371655464,0.012468211352825165,-0.00038421337376348674,0.018184391781687737
0.020314395427703857,-0.003787984838709235,-0.01045873574912548,0.012575550936162472,-0.0003554780560079962,0.016596509143710136
0.020489636808633804,-0.003345524426549673,-0.011115964502096176,0.0123089998960495,-0.00036149591323919594,0.016646483913064003
0.020197998732328415,-0.002411908470094204,-0.011018209159374237,0.012696497142314911,-0.0003662299714051187,0.017057031393051147
0.01985739730298519,-0.0018113353289663792,-0.010122077539563179,0.012909545563161373,-0.00034475617576390505,0.01737029477953911
0.02041049301624298,-0.0015350712928920984,-0.010964266024529934,0.012380371801555157,-0.00037445282214321196,0.017229503020644188
0.020368065685033798,-0.0011200624285265803,-0.010844697244465351,0.012993763200938702,-0.00035654049133881927,0.01728057861328125
0.02028547413647175,-0.001098753185942769,-0.010940060950815678,0.012528599239885807,-0.00033764002728275955,0.016884488984942436
0.020752888172864914,-0.0011378100607544184,-0.011504676192998886,0.012105376459658146,-0.0003204736567568034,0.017584890127182007
0.021002043038606644,-0.001971212914213538,-0.011115683242678642,0.012198386713862419,-0.0003426807525102049,0.017671220004558563
0.020800581201910973,-0.002000275766476989,-0.011514673940837383,0.012603865005075932,-0.00033204432111233473,0.017605287954211235
0.02039855532348156,-0.0017550393240526319,-0.011190415360033512,0.013011432252824306,-0.0003177268663421273,0.017559077590703964
0.02084830217063427,-0.001544264261610806,-0.011193876154720783,0.01298079825937748,-0.0003043169854208827,0.01726348325610161
0.02090572379529476,-0.0013606927823275328,-0.01131041906774044,0.01339706126600504,-0.0002919744292739779,0.017338847741484642
0.02123352885246277,-0.001188078080303967,-0.010882623493671417,0.012678644619882107,-0.0002810527803376317,0.017680218443274498
0.021361133083701134,-0.000970932305790484,-0.011716445907950401,0.012580265291035175,-0.0002791860606521368,0.017561718821525574
0.021361133083701134,-0.000970932305790484,-0.011716445907950401,0.012580265291035175,-0.0002791860606521368,0.017561718821525574
0.021318573504686356,-0.0009864993626251817,-0.011963107623159885,0.012155023403465748,-0.0002638314908836037,0.017651420086622238
0.020351504907011986,-0.0015708825085312128,-0.011366073042154312,0.01306428387761116,-0.0002361922524869442,0.017362525686621666
0.021166792139410973,-0.0015033666277304292,-0.010917752049863338,0.01282348483800888,-0.00022441064356826246,0.01784180849790573
0.021166792139410973,-0.0015033666277304292,-0.010917752049863338,0.01282348483800888,-0.00022441064356826246,0.01784180849790573
0.02083270065486431,-0.001308800303377211,-0.010682097636163235,0.012845784425735474,-0.00020405325631145388,0.017756043002009392
0.020429139956831932,-0.0013470412231981754,-0.01084814127534628,0.013124095275998116,-0.00022404170886147767,0.01780717633664608
0.020770777016878128,-0.0012289629084989429,-0.01170420553535223,0.012122463434934616,-0.00022383284522220492,0.017611118033528328
0.02127808891236782,-0.0013051735004410148,-0.01136137917637825,0.012687435373663902,-0.00021549277880694717,0.017841530963778496
0.021422527730464935,-0.0012763980776071548,-0.011327971704304218,0.012031552381813526,-0.00020725917420350015,0.01812722161412239
0.02110251784324646,-0.0015544566558673978,-0.01175487320870161,0.01224528905004263,-0.0001995997881749645,0.018230177462100983
0.021191217005252838,-0.0014643623726442456,-0.010805749334394932,0.012977220118045807,-0.00020820031932089478,0.01916527934372425
0.0205534715205431,-0.0013717424590140581,-0.011887696571648121,0.012890581041574478,-0.00021576604922302067,0.01833164133131504
0.020413339138031006,-0.0014555960660800338,-0.011248812079429626,0.012678127735853195,-0.00020954894716851413,0.0178447887301445
0.020951908081769943,-0.0013543227687478065,-0.01134344469755888,0.01261309813708067,-0.0002028637391049415,0.01809791289269924
0.021556250751018524,-0.0014432589523494244,-0.011877802200615406,0.013617255724966526,-0.0002209014492109418,0.018565643578767776
0.02129763923585415,-0.0013857107842341065,-0.011245404370129108,0.012916930951178074,-0.00021757735521532595,0.018998844549059868
0.021890323609113693,-0.001410660333931446,-0.011817690916359425,0.013246079906821251,-0.00021140716853551567,0.01960356906056404
0.02159438282251358,-0.001350058475509286,-0.011780396103858948,0.012743694707751274,-0.0002237299777334556,0.019415266811847687
0.02123861014842987,-0.001294936635531485,-0.011315622366964817,0.013516312465071678,-0.00021590193500742316,0.01933370716869831
0.02109013870358467,-0.0012184502556920052,-0.011302687227725983,0.013631917536258698,-0.00023665284970775247,0.01861388422548771
0.021600544452667236,-0.0011936697410419583,-0.010984181426465511,0.013240724802017212,-0.00023590275668539107,0.017944294959306717
0.021947162225842476,-0.0012343544512987137,-0.011641801334917545,0.012902455404400826,-0.00022662788978777826,0.018336104229092598
0.021676570177078247,-0.001301115844398737,-0.011776641011238098,0.012785076163709164,-0.0002443386474624276,0.019053058698773384
0.02169460989534855,-0.0014194889226928353,-0.010940863750874996,0.013270912691950798,-0.00024334927729796618,0.01961813122034073
0.02178129367530346,-0.001472789910621941,-0.011453608050942421,0.01287709642201662,-0.0002639235754031688,0.019202670082449913
0.02223881334066391,-0.0014028418809175491,-0.011399129405617714,0.013443351723253727,-0.0002584804897196591,0.018967268988490105
0.02227666974067688,-0.001277066534385085,-0.011904006823897362,0.013106115162372589,-0.0002498668327461928,0.01908688247203827
0.021898847073316574,-0.0012276570778340101,-0.011181173846125603,0.01350933127105236,-0.0004072628216817975,0.01978752203285694
0.021898847073316574,-0.0012276570778340101,-0.011181173846125603,0.01350933127105236,-0.0004072628216817975,0.01978752203285694
0.02200287953019142,-0.0011667629005387425,-0.010799678973853588,0.01303244847804308,-0.0003842799924314022,0.019943905994296074
0.02215403877198696,-0.0013912864960730076,-0.010835361666977406,0.0140277910977602,-0.00039428655873052776,0.019356027245521545
0.021927205845713615,-0.0013453834690153599,-0.010610400699079037,0.012830023653805256,-0.00042064717854373157,0.01839044876396656
0.022015100345015526,-0.0016566287958994508,-0.01209668442606926,0.012885124422609806,-0.0004011010460089892,0.01857389137148857
0.022553861141204834,-0.0016461395425722003,-0.011022713966667652,0.013019710779190063,-0.0004277190600987524,0.019466981291770935
0.022487923502922058,-0.0015320559032261372,-0.010667826049029827,0.013330608606338501,-0.00048704358050599694,0.020255032926797867
0.02227095142006874,-0.0014323433861136436,-0.011110901832580566,0.013401221483945847,-0.0005832683527842164,0.019875694066286087
0.022573649883270264,-0.0014477077638730407,-0.011218158528208733,0.013633274473249912,-0.0006310293101705611,0.02058880217373371
0.02237321436405182,-0.001358702895231545,-0.01158739160746336,0.01315463986247778,-0.0006626742542721331,0.019455699250102043
0.022768646478652954,-0.0014315489679574966,-0.010896206833422184,0.01351533830165863,-0.0010975475888699293,0.018991226330399513
0.02312268130481243,-0.001390782417729497,-0.010845642536878586,0.013353907503187656,-0.0011148852063342929,0.01963822916150093
0.023485027253627777,-0.0015963608166202903,-0.011456945911049843,0.013695905916392803,-0.001014825887978077,0.020502982661128044
0.02338152751326561,-0.0014625407056882977,-0.011522825807332993,0.012991274707019329,-0.000994227477349341,0.020288608968257904
0.022954214364290237,-0.0013559825019910932,-0.011895282194018364,0.013183956034481525,-0.0009405726450495422,0.020076973363757133
0.02316545881330967,-0.001175795099698007,-0.01158666331321001,0.013241146691143513,-0.0009267608402296901,0.020245641469955444
0.023052139207720757,-0.0012391492491587996,-0.011213744059205055,0.013034128583967686,-0.0009222450898960233,0.01982148550450802
0.023722965270280838,-0.0012180582853034139,-0.011371850967407227,0.013450594618916512,-0.0009040201548486948,0.019736940041184425
0.023728517815470695,-0.0011853703763335943,-0.011269127950072289,0.013183553703129292,-0.0008270475082099438,0.020355286076664925
0.023722222074866295,-0.0013084538513794541,-0.012287692166864872,0.013451541773974895,-0.0007921460783109069,0.020266134291887283
0.024127395823597908,-0.001239527016878128,-0.011506526730954647,0.012907315976917744,-0.0006919114966876805,0.019600950181484222
0.023434868082404137,-0.0012313140323385596,-0.011675682850182056,0.01363638136535883,-0.0007118206704035401,0.019850848242640495
0.02388671785593033,-0.0013520622160285711,-0.011926389299333096,0.013213288970291615,-0.0006352869677357376,0.0203354861587286
0.02421085722744465,-0.0012867035111412406,-0.0112757021561265,0.014236560091376305,-0.0006502351025119424,0.02046765759587288
0.02421085722744465,-0.0012867035111412406,-0.0112757021561265,0.014236560091376305,-0.0006502351025119424,0.02046765759587288
0.024418743327260017,-0.0014201364247128367,-0.011804824694991112,0.013771295547485352,-0.0005993875674903393,0.020383737981319427
0.023546133190393448,-0.0013604145497083664,-0.011572823859751225,0.014044389128684998,-0.0005479248357005417,0.020288929343223572
0.025139126926660538,-0.0013192378683015704,-0.01232655718922615,0.013633969239890575,-0.0005309639382176101,0.02057603746652603
0.025160234421491623,-0.0012801159173250198,-0.011722834780812263,0.01382098812609911,-0.0004964164108969271,0.02150566317141056
0.024803591892123222,-0.0012281049275770783,-0.012296006083488464,0.013992855325341225,-0.0004676950047723949,0.021787865087389946
0.024212026968598366,-0.0013169265585020185,-0.011671830900013447,0.014142487198114395,-0.00039645368815399706,0.020655903965234756
0.02404920570552349,-0.001280420459806919,-0.01148920226842165,0.01421367283910513,-0.0003625072131399065,0.019799690693616867
0.025022340938448906,-0.0012315278872847557,-0.012109342962503433,0.013669087551534176,-0.0003932282270397991,0.021176427602767944
0.025632305070757866,-0.0013990451116114855,-0.011774037033319473,0.01381298340857029,-0.0003738727536983788,0.020509928464889526
0.025233417749404907,-0.0012977775186300278,-0.012731789611279964,0.013927374966442585,-0.00037850247463211417,0.021037762984633446
0.025908002629876137,-0.0012287775753065944,-0.012087935581803322,0.014063653536140919,-0.0003816834359895438,0.02101450227200985
0.025783125311136246,-0.0011144333984702826,-0.013008056208491325,0.014695200137794018,-0.0003866456390824169,0.021274548023939133
0.02581780031323433,-0.0010813939152285457,-0.012221801094710827,0.01417958177626133,-0.0003890917869284749,0.02161797136068344
0.025654377415776253,-0.0010507372207939625,-0.011637672781944275,0.014311728999018669,-0.00037058661109767854,0.02235427312552929
0.0255693681538105,-0.001028877915814519,-0.01214556209743023,0.014016975648701191,-0.0004364955238997936,0.021705469116568565
0.025423208251595497,-0.0010210154578089714,-0.012010653503239155,0.014068357646465302,-0.0004496229230426252,0.02178638055920601
0.02594679407775402,-0.0010429980466142297,-0.012854359112679958,0.013895669020712376,-0.0004490315041039139,0.021674146875739098
0.026161279529333115,-0.0010202103294432163,-0.012321710586547852,0.014124920591711998,-0.00041676589171402156,0.021151674911379814
0.025793161243200302,-0.0010033088037744164,-0.01250053383409977,0.014088925905525684,-0.0004183290875516832,0.02142949588596821
0.02604118175804615,-0.0010171106550842524,-0.012469789944589138,0.014646624214947224,-0.00041916294139809906,0.022385120391845703
0.026463966816663742,-0.0009941343450918794,-0.012306051328778267,0.014916626736521721,-0.0003947646473534405,0.02301083691418171
0.026521727442741394,-0.0009466722258366644,-0.01279229111969471,0.014356689527630806,-0.0004209944745525718,0.02269715815782547
0.026275066658854485,-0.0008603190071880817,-0.012487693689763546,0.014610198326408863,-0.0004007814568467438,0.022115925326943398
0.026275066658854485,-0.0008603190071880817,-0.012487693689763546,0.014610198326408863,-0.0004007814568467438,0.022115925326943398
0.02611262910068035,-0.0008608927018940449,-0.013026065193116665,0.014376571401953697,-0.00037984189111739397,0.02188192680478096
0.02630855143070221,-0.0008005693671293557,-0.01263496559113264,0.014166804030537605,-0.0004073577874805778,0.022374380379915237
0.02637387067079544,-0.000838611158542335,-0.013011474162340164,0.014280715025961399,-0.00035854140878655016,0.02226342260837555
0.02615763619542122,-0.00084739486919716,-0.013629863038659096,0.014481465332210064,-0.00038946789572946727,0.022219058126211166
0.026728209108114243,-0.0008502891287207603,-0.014240804128348827,0.014643196947872639,-0.0003705533454194665,0.022514840587973595
0.027022579684853554,-0.0007727629854343832,-0.014297989197075367,0.014548499137163162,-0.0003753606870304793,0.022670941427350044
0.0267393309623003,-0.0007054836023598909,-0.014218087308108807,0.014552914537489414,-0.0003787043388001621,0.023657945916056633
0.027275588363409042,-0.0006489436491392553,-0.014635230414569378,0.014886745251715183,-0.00035882386146113276,0.022808942943811417
0.028318317607045174,-0.0006007944466546178,-0.014437033794820309,0.014965083450078964,-0.000381567602744326,0.02226352132856846
0.027894401922822,-0.0005592999514192343,-0.015090548433363438,0.014365245588123798,-0.0004171886539552361,0.022495651617646217
0.026686640456318855,-0.0005231717368587852,-0.014176621101796627,0.014249298721551895,-0.0004677679971791804,0.022440185770392418
0.026949679479002953,-0.0004914236487820745,-0.014501076191663742,0.01419631764292717,-0.00050583784468472,0.022684017196297646
0.02871617302298546,-0.0004633115604519844,-0.014916984364390373,0.014329362660646439,-0.0005025857826694846,0.022826431319117546
0.027982329949736595,-0.00043824277236126363,-0.014760349877178669,0.014423022978007793,-0.0005298123578540981,0.023164469748735428
0.02800174243748188,-0.00041574565693736076,-0.014712778851389885,0.01436406560242176,-0.0006744530983269215,0.023350855335593224
0.028352878987789154,-0.00039544785977341235,-0.015180514194071293,0.013371975161135197,-0.0007990045705810189,0.023678665980696678
0.028175557032227516,-0.0003488329821266234,-0.015024688094854355,0.013602335005998611,-0.0008193519897758961,0.02313535287976265
0.02817474491894245,-0.00031401918386109173,-0.015361188910901546,0.014572990126907825,-0.0008576944819651544,0.02340526320040226
0.027176780626177788,-0.0002965747262351215,-0.014710478484630585,0.014528836123645306,-0.0009093204862438142,0.023627610877156258
0.027135100215673447,-0.00028113098233006895,-0.015039082616567612,0.014874019660055637,-0.0008564479066990316,0.02353679947555065
0.028498578816652298,-0.00026721772155724466,-0.01466093398630619,0.014483007602393627,-0.0008597980486229062,0.02382870949804783
0.02863524854183197,-0.0002546168107073754,-0.015305993147194386,0.014686721377074718,-0.0007494658348150551,0.023896414786577225
0.027989307418465614,-0.00024315198243129998,-0.014909204095602036,0.014800064265727997,-0.0007600365206599236,0.023708177730441093
0.027825558558106422,-0.0002326744724996388,-0.016280561685562134,0.01454511471092701,-0.0007554256008006632,0.02387624979019165
0.027825558558106422,-0.0002326744724996388,-0.016280561685562134,0.01454511471092701,-0.0007554256008006632,0.02387624979019165
0.028197962790727615,-0.00022306280152406543,-0.015165899880230427,0.014735412783920765,-0.0007038358598947525,0.023991042748093605
0.028458023443818092,-0.00021421359269879758,-0.014872091822326183,0.01472887210547924,-0.0006355551886372268,0.02409902960062027
0.02804514206945896,-0.00020603943266905844,-0.015223667956888676,0.014525591395795345,-0.000655046256724745,0.02370702661573887
0.028140366077423096,-0.0001984667032957077,-0.016220539808273315,0.014598635956645012,-0.0005958088440820575,0.023649347946047783
0.028553124517202377,-0.00018487665511202067,-0.015492572449147701,0.014431617222726345,-0.0006289442535489798,0.024007093161344528
0.028964519500732422,-0.0001787572109606117,-0.016042761504650116,0.014639177359640598,-0.0005959643749520183,0.024532558396458626
0.028941720724105835,-0.00017302918422501534,-0.015691254287958145,0.014742874540388584,-0.0006127817905507982,0.02366679348051548
0.028793441131711006,-0.00016765668988227844,-0.01601109653711319,0.014908072538673878,-0.0005939977709203959,0.024091772735118866
0.029227718710899353,-0.00016260816482827067,-0.015567842870950699,0.015177370049059391,-0.0006052610115148127,0.0245806984603405
0.028973253443837166,-0.0001578546070959419,-0.016022035852074623,0.015200530178844929,-0.0006346820737235248,0.025142591446638107
0.0290122888982296,-0.00015337133663706481,-0.015351380221545696,0.015240298584103584,-0.0006385055603459477,0.02509847655892372
0.02967025712132454,-0.00014913544873706996,-0.01622782088816166,0.01575327478349209,-0.0006220961804501712,0.025235695764422417
0.029507890343666077,-0.00014512785128317773,-0.015737419947981834,0.01504272036254406,-0.0006911364616826177,0.02432379312813282
0.029682783409953117,-0.00014132936485111713,-0.015981614589691162,0.015409610234200954,-0.0006962681072764099,0.024102991446852684
0.030154556035995483,-0.00011508670286275446,-0.01585671491920948,0.015212426893413067,-0.0006666166009381413,0.024489421397447586
0.029721306636929512,-0.00011192068632226437,-0.015612425282597542,0.015735473483800888,-0.0006887440104037523,0.02498580887913704
0.029953842982649803,-6.0776699683628976e-05,-0.016241934150457382,0.015158459544181824,-0.0007034987211227417,0.02482239156961441
0.03052591159939766,-3.447664130362682e-05,-0.01618700474500656,0.015417314134538174,-0.0007801823667250574,0.02518998086452484
0.03038998879492283,-1.3375976095630904e-06,-0.016549568623304367,0.015358369797468185,-0.0008087845635600388,0.025667697191238403
0.02898840606212616,-1.7945579244837973e-08,-0.015811461955308914,0.01580077037215233,-0.0007914179586805403,0.026061659678816795
0.030136702582240105,-2.40762854097909e-10,-0.0162758007645607,0.01534554734826088,-0.0007508996059186757,0.02511104755103588
0.031146639958024025,-3.230140764240441e-12,-0.016053466126322746,0.015551700256764889,-0.0007202758570201695,0.024602819234132767
0.03092942386865616,-4.333646207730149e-14,-0.01635361835360527,0.01557369064539671,-0.0006927135400474072,0.02479567378759384
0.030817056074738503,-5.814140029071924e-16,-0.016250435262918472,0.01555226556956768,-0.0006343625136651099,0.02518792264163494
0.02955881878733635,-7.800411610867945e-18,-0.016297027468681335,0.015395667403936386,-0.0005831160233356059,0.025780094787478447
0.029535485431551933,-1.0465247418185676e-19,-0.016702085733413696,0.015193372964859009,-0.0005382142844609916,0.025840528309345245
0.03073587454855442,-1.4040463954969574e-21,-0.0159591156989336,0.015755072236061096,-0.0004836595035158098,0.025965970009565353
0.03041737899184227,-1.8837075449418653e-23,-0.016535108909010887,0.01534751895815134,-0.00043685489799827337,0.026105264201760292
0.03041737899184227,-1.8837075449418653e-23,-0.016535108909010887,0.01534751895815134,-0.00043685489799827337,0.026105264201760292
0.031062494963407516,-2.5272342390112945e-25,-0.016032379120588303,0.0156913623213768,-0.00039816685603000224,0.02747788093984127
0.03189313784241676,-3.3906069856275174e-27,-0.01633673906326294,0.015542545355856419,-0.00043372478103265166,0.02561190538108349
0.030874263495206833,-6.1029734181980416e-31,-0.016508255153894424,0.015224102884531021,-0.0004381242615636438,0.02555333822965622
0.030770717188715935,0.0021741059608757496,-0.0170618686825037,0.015505162999033928,-0.0004622960987035185,0.025792669504880905
0.031442005187273026,0.001578293857164681,-0.016479061916470528,0.01587657630443573,-0.0004410356923472136,0.026139557361602783
0.03186219930648804,0.000999117735773325,-0.016707826405763626,0.015891466289758682,-0.0004646530724130571,0.026123063638806343
0.03173203766345978,0.000660241930745542,-0.016370084136724472,0.01637251302599907,-0.00043739142711274326,0.026082823053002357
0.031499385833740234,0.0006729383603669703,-0.016404343768954277,0.016285128891468048,-0.00047390488907694817,0.0263383686542511
0.031621892005205154,0.00021174557332415134,-0.01663387380540371,0.016623394563794136,-0.0004940300132147968,0.026292774826288223
0.03174537792801857,0.0003532365954015404,-0.016745295375585556,0.015950197353959084,-0.0004738714487757534,0.026540100574493408
0.031645238399505615,0.00034919826430268586,-0.017280107364058495,0.016078529879450798,-0.00048814050387591124,0.02644442766904831
0.031730860471725464,0.0004084619286004454,-0.01611323095858097,0.015770552679896355,-0.00047073495807126164,0.02639707736670971
0.031653791666030884,0.0003703533730003983,-0.01652674190700054,0.016204671934247017,-0.0004427270032465458,0.026427121832966805
0.031843505799770355,0.0003358395188115537,-0.01626199297606945,0.016688723117113113,-0.0005208976217545569,0.027637382969260216
0.03191712498664856,0.0003071736718993634,-0.01647256128489971,0.01659209094941616,-0.0005279939505271614,0.02764040231704712
0.03235236927866936,0.0005563590675592422,-0.01661735586822033,0.016675403341650963,-0.0005198937724344432,0.026986027136445045
0.03172497823834419,0.0005257430020719767,-0.01641213335096836,0.01602795161306858,-0.0005505592562258244,0.026199277490377426
0.03312752768397331,0.00047113318578340113,-0.017549438402056694,0.016551261767745018,-0.0005805056425742805,0.026233984157443047
0.0327787920832634,0.0005013859481550753,-0.016956094652414322,0.016298366710543633,-0.0008832995081320405,0.027333056554198265
0.03191278874874115,0.00046730367466807365,-0.017142416909337044,0.017035411670804024,-0.000920201709959656,0.0271916501224041
0.03193976730108261,0.0005008420557714999,-0.016683802008628845,0.016714438796043396,-0.0009198323241434991,0.02709399163722992
0.032591745257377625,0.000508217082824558,-0.016904745250940323,0.016384141519665718,-0.0011149015044793487,0.02766096219420433
0.034156978130340576,0.0004944322863593698,-0.017375972121953964,0.01652204431593418,-0.0011072211200371385,0.027880834415555
0.03377646207809448,0.0005232617841102183,-0.0170233603566885,0.015508380718529224,-0.0010627055307850242,0.027309125289320946
0.03176654502749443,0.0005601680022664368,-0.017224902287125587,0.016509540379047394,-0.0009877936681732535,0.02711326815187931
0.03212041035294533,0.0005731299752369523,-0.017062321305274963,0.015040791593492031,-0.0009181025670841336,0.026563961058855057
0.03344166651368141,0.0005501953419297934,-0.01764337345957756,0.015421626158058643,-0.0008174076210707426,0.026967456564307213
0.03344166651368141,0.0005501953419297934,-0.01764337345957756,0.015421626158058643,-0.0008174076210707426,0.026967456564307213
0.03327680006623268,0.0005776080652140081,-0.018080545589327812,0.015959588810801506,-0.0006999311735853553,0.027888065204024315
0.03353990241885185,0.0008015510975383222,-0.01706709712743759,0.016433028504252434,-0.000601251726038754,0.027910644188523293
0.03406296297907829,0.0008329294505529106,-0.018288100138306618,0.016008635982871056,-0.0005618735449388623,0.027530988678336143
0.032610952854156494,0.0008082464919425547,-0.017865490168333054,0.01669016294181347,-0.0005140600260347128,0.027651051059365273
0.033291660249233246,0.0007614577189087868,-0.01806674897670746,0.016328969970345497,-0.0005423611146397889,0.027865339070558548
0.03431112691760063,0.0008712294511497021,-0.017589451745152473,0.016727475449442863,-0.0005037309601902962,0.027973869815468788
0.03446128964424133,0.000906944100279361,-0.0179373100399971,0.01649474911391735,-0.0004666976456064731,0.028178691864013672
0.034484222531318665,0.0009157466702163219,-0.018324678763747215,0.01696646958589554,-0.0004646434390451759,0.02816380187869072
0.034180011600255966,0.0012604141375049949,-0.017996421083807945,0.01689758151769638,-0.000462439376860857,0.02836090885102749
0.034027099609375,0.001243923557922244,-0.018032612279057503,0.016565553843975067,-0.00043527589878067374,0.028100447729229927
0.03231605514883995,0.0011993206571787596,-0.018170036375522614,0.016553007066249847,-0.0004671008209697902,0.028661463409662247
0.035294026136398315,0.0013399390736594796,-0.017169499769806862,0.016650013625621796,-0.000474018685054034,0.02837350033223629
0.034883853048086166,0.0012562813935801387,-0.017709767445921898,0.016752760857343674,-0.0004714342940133065,0.028308985754847527
0.03497084602713585,0.0012304293923079967,-0.017924489453434944,0.016277598217129707,-0.0004949801950715482,0.028599467128515244
0.034679558128118515,0.0013267718022689223,-0.01777535118162632,0.01659855991601944,-0.0006351555930450559,0.02896685153245926
0.03504547104239464,0.001434624195098877,-0.018710579723119736,0.01735641062259674,-0.0007591135217808187,0.02913799323141575
0.03554896265268326,0.0018596959998831153,-0.01789231412112713,0.0170004740357399,-0.0007838887395337224,0.028819842264056206
0.035418801009655,0.0019490215927362442,-0.018417343497276306,0.017278026789426804,-0.0007468312978744507,0.028795717284083366
0.035104647278785706,0.0021234711166471243,-0.01862027868628502,0.017059465870261192,-0.0007532823365181684,0.028709853067994118
0.03579999506473541,0.001982937566936016,-0.018251774832606316,0.017428342252969742,-0.0006958174635656178,0.029161222279071808
0.03562312573194504,0.001892106025479734,-0.018713604658842087,0.01692170836031437,-0.0007317612180486321,0.02927262708544731
0.0354718342423439,0.0018713693134486675,-0.018237344920635223,0.016392197459936142,-0.0007469527190551162,0.029198965057730675
0.03530159965157509,0.001927700825035572,-0.018217889592051506,0.01721082627773285,-0.0006695408374071121,0.028806427493691444
0.03570300713181496,0.0019703670404851437,-0.018783576786518097,0.01763935759663582,-0.0006441837176680565,0.029315736144781113
0.03570300713181496,0.0019703670404851437,-0.018783576786518097,0.01763935759663582,-0.0006441837176680565,0.029315736144781113
0.03657019883394241,0.0026223347522318363,-0.018672045320272446,0.017355138435959816,-0.0005696442676708102,0.02973121963441372
0.036166079342365265,0.0025120419450104237,-0.019143570214509964,0.016472583636641502,-0.000558635510969907,0.030613316223025322
0.03634997084736824,0.002552509307861328,-0.018768299371004105,0.016233639791607857,-0.000548898009583354,0.02940874919295311
0.03634997084736824,0.002552509307861328,-0.018768299371004105,0.016233639791607857,-0.000548898009583354,0.02940874919295311
0.037480924278497696,0.002657561795786023,-0.01896306872367859,0.015662288293242455,-0.0005164140602573752,0.029842931777238846
0.03414195775985718,0.0029380994383245707,-0.019211813807487488,0.016818854957818985,-0.00049202999798581,0.030373040586709976
0.03666425496339798,0.0035550640895962715,-0.019784491509199142,0.017448926344513893,-0.0005209933733567595,0.028758825734257698
0.037590984255075455,0.0033710587304085493,-0.019948918372392654,0.017650168389081955,-0.0005501547711901367,0.02958282083272934
0.036957114934921265,0.0035663102753460407,-0.019456475973129272,0.016856323927640915,-0.0005192960961721838,0.03037932887673378
0.03808221593499184,0.0033078943379223347,-0.019566241651773453,0.01760474219918251,-0.0006724650738760829,0.03033382073044777
0.03893366456031799,0.0035167501773685217,-0.02033369429409504,0.017226392403244972,-0.0006401383434422314,0.031617723405361176
0.03661046549677849,0.0037857505958527327,-0.01990961842238903,0.01772250048816204,-0.0006683742976747453,0.0322427973151207
0.03731442615389824,0.003908955492079258,-0.01936235837638378,0.01775999553501606,-0.0006740944227203727,0.03064638562500477
0.03799862414598465,0.0035021514631807804,-0.01984051987528801,0.016589423641562462,-0.000629546819254756,0.02907593362033367
0.038092441856861115,0.003449751064181328,-0.019824830815196037,0.016999976709485054,-0.0006497356225736439,0.03006647154688835
0.038137901574373245,0.0035927395801991224,-0.019732113927602768,0.016504257917404175,-0.0006005579489283264,0.031235067173838615
0.038085948675870895,0.004711668007075787,-0.020426563918590546,0.016693998128175735,-0.0005921363481320441,0.03148091956973076
0.03803914785385132,0.004939391277730465,-0.020623384043574333,0.016909344121813774,-0.0006290042074397206,0.03133068233728409
0.03775579482316971,0.00450121471658349,-0.019709434360265732,0.016718067228794098,-0.000664444756694138,0.031022416427731514
0.03811207786202431,0.004048327449709177,-0.020071936771273613,0.017986681312322617,-0.0006914928089827299,0.03134259581565857
0.038411568850278854,0.003936286084353924,-0.020633915439248085,0.017603645101189613,-0.0011241374304518104,0.031769879162311554
0.038187552243471146,0.004338173195719719,-0.02017918974161148,0.01756821945309639,-0.0011093182256445289,0.03156318515539169
0.03841381147503853,0.005083572585135698,-0.020156024023890495,0.017660999670624733,-0.000977242598310113,0.031220313161611557
0.038495954126119614,0.005046280100941658,-0.02077621966600418,0.017252642661333084,-0.0009517304715700448,0.031546976417303085
0.03713593631982803,0.004904417786747217,-0.02149960771203041,0.01784612610936165,-0.0008785583777353168,0.03141435980796814
0.038723308593034744,0.005033909808844328,-0.02078048698604107,0.017492417246103287,-0.0007671708008274436,0.03132219985127449
0.040429435670375824,0.004911353345960379,-0.02088310196995735,0.017562009394168854,-0.0007787324138917029,0.03154771029949188
0.040429435670375824,0.004911353345960379,-0.02088310196995735,0.017562009394168854,-0.0007787324138917029,0.03154771029949188
0.037782859057188034,0.005405002739280462,-0.0206597913056612,0.017089590430259705,-0.0007849501562304795,0.03166503086686134
0.037782859057188034,0.005405002739280462,-0.0206597913056612,0.017089590430259705,-0.0007849501562304795,0.03166503086686134
0.03898296877741814,0.005229430738836527,-0.02049921080470085,0.017330484464764595,-0.0008042132249101996,0.031543657183647156
0.040096912533044815,0.005345823708921671,-0.021470407024025917,0.017655907198786736,-0.0008284026407636702,0.03180903568863869
0.040019091218709946,0.0051771183498203754,-0.020574461668729782,0.018324054777622223,-0.000783618597779423,0.032467182725667953
0.03940121456980705,0.005290213041007519,-0.02126515656709671,0.01764640212059021,-0.0007956844056025147,0.03263092041015625
0.039085183292627335,0.005659374408423901,-0.02226646989583969,0.01791011169552803,-0.0009715662454254925,0.03138085827231407
0.039584606885910034,0.0061190128326416016,-0.021546166390180588,0.01805214211344719,-0.0009706815471872687,0.03033563680946827
0.04021809995174408,0.006215232890099287,-0.02004942111670971,0.01774287410080433,-0.0009616444003768265,0.03153248503804207
0.04039207845926285,0.005967785604298115,-0.020795557647943497,0.017968768253922462,-0.0008744450169615448,0.031950727105140686
0.039811380207538605,0.006248812656849623,-0.02204650454223156,0.017863614484667778,-0.0009084807243198156,0.03245346248149872
0.04035439342260361,0.006761816330254078,-0.02126978151500225,0.01800527051091194,-0.000908589456230402,0.033030103892087936
0.0404895544052124,0.0065307109616696835,-0.021077118813991547,0.018057402223348618,-0.0009073981200344861,0.03267182409763336
0.04069522023200989,0.006319587118923664,-0.02188442088663578,0.017954694107174873,-0.0009064202313311398,0.03137020394206047
0.04067816585302353,0.006813951767981052,-0.022061258554458618,0.018397020176053047,-0.000913990312255919,0.031161867082118988
0.041048258543014526,0.0062980251386761665,-0.021710045635700226,0.01848364993929863,-0.0008695138385519385,0.03273261338472366
0.03928803279995918,0.006672712974250317,-0.020965011790394783,0.018143923953175545,-0.0008071457268670201,0.03326242417097092
0.04146530106663704,0.006724582985043526,-0.021693438291549683,0.018631160259246826,-0.0008066996815614402,0.033091504126787186
0.04179302230477333,0.0065330383367836475,-0.022481592372059822,0.018454933539032936,-0.0008031540201045573,0.032665327191352844
0.041144296526908875,0.006578776985406876,-0.022290796041488647,0.018510809168219566,-0.0007509202696382999,0.032912787050008774
0.0414264090359211,0.006317476276308298,-0.021481242030858994,0.01852455362677574,-0.0007829801761545241,0.033235978335142136
0.041642963886260986,0.006973206996917725,-0.021841399371623993,0.01861461065709591,-0.0007998616783879697,0.03301118686795235
0.04214456304907799,0.007059981115162373,-0.022058434784412384,0.018652698025107384,-0.0008121634600684047,0.033316027373075485
0.04209272935986519,0.006742402911186218,-0.022476648911833763,0.01912066340446472,-0.0007749840151518583,0.033562663942575455
0.04204574599862099,0.006895756348967552,-0.02217695489525795,0.018627844750881195,-0.0008777322946116328,0.033253904432058334
0.04254261031746864,0.007383971009403467,-0.022200653329491615,0.0185498408973217,-0.0008698641322553158,0.03398391604423523
0.04226364567875862,0.00747866602614522,-0.022678514942526817,0.01973857916891575,-0.0008410830632783473,0.03297485038638115
0.04303482919931412,0.007610017899423838,-0.02260460890829563,0.018728336319327354,-0.0007935313042253256,0.033494386821985245
0.04458513855934143,0.007837743498384953,-0.022771969437599182,0.01882212422788143,-0.0007535009062848985,0.03374434635043144
0.04458513855934143,0.007837743498384953,-0.022771969437599182,0.01882212422788143,-0.0007535009062848985,0.03374434635043144
0.041618771851062775,0.007786180824041367,-0.022800832986831665,0.018628176301717758,-0.0007681015995331109,0.03377570956945419
0.04252490773797035,0.007838440127670765,-0.022766001522541046,0.018915601074695587,-0.0008001211099326611,0.03395135700702667
0.04279874265193939,0.007836086675524712,-0.022664841264486313,0.018732832744717598,-0.0008251485414803028,0.03410172089934349
0.04455340653657913,0.007935765199363232,-0.0224626362323761,0.018904168158769608,-0.0011847730493173003,0.03377552330493927
