davideferrari95/blind_handover_controller/data/Test 84 - [2024-02-07 -- 16-07-25]/joint_states_data.csv
shoulder_pan_joint,shoulder_lift_joint,elbow_joint,wrist_1_joint,wrist_2_joint,wrist_3_joint
0.006669234484434128,0.006528095807880163,-0.007761319167912006,0.0019027236849069595,0.0,0.00734725221991539
0.006669234484434128,0.006528095807880163,-0.007761319167912006,0.0019027236849069595,0.0,0.00734725221991539
0.00669816741719842,0.006178445648401976,-0.0074042221531271935,0.001839341246522963,0.0,0.006783653981983662
0.00669816741719842,0.006178445648401976,-0.0074042221531271935,0.001839341246522963,0.0,0.006783653981983662
0.00651328032836318,0.005959749221801758,-0.007427815347909927,0.0017313299467787147,0.0,0.0068336897529661655
0.006106608547270298,0.006137783173471689,-0.00932652410119772,0.0017375288298353553,0.0,0.007308204658329487
0.006437223870307207,0.006856983061879873,-0.008530630730092525,0.0018350835889577866,0.0,0.007663646712899208
0.007036595139652491,0.006927503272891045,-0.008223685435950756,0.0018683350645005703,0.0,0.007051717024296522
0.007025473285466433,0.006653291173279285,-0.008726677857339382,0.0021017405670136213,0.0,0.007350487168878317
0.0067688780836761,0.006698124576359987,-0.008590681478381157,0.002117342548444867,0.0,0.006961870938539505
0.006475275848060846,0.006759596988558769,-0.008272911421954632,0.0022493554279208183,0.0,0.007150364574044943
0.006894438527524471,0.007129952311515808,-0.008285041898488998,0.002019193721935153,0.0,0.00711835129186511
0.006754760630428791,0.006940055638551712,-0.009048315696418285,0.001731759519316256,0.0,0.00681200809776783
0.0066547091118991375,0.006865564733743668,-0.008460823446512222,0.0016115367179736495,0.0,0.006957851350307465
0.006568229291588068,0.006455278489738703,-0.008231492713093758,0.0015677405754104257,0.0,0.0070594679564237595
0.007321180310100317,0.006715328432619572,-0.009170230478048325,0.0016558020142838359,0.0,0.007244303822517395
0.0070342072285711765,0.006882452871650457,-0.008329382166266441,0.0017626725602895021,0.0,0.006931426469236612
0.006835509091615677,0.00685270456597209,-0.008434410206973553,0.0019054017029702663,0.0,0.00719075882807374
0.0065572308376431465,0.006762159988284111,-0.00848287995904684,0.0019409608794376254,0.0,0.006897487211972475
0.006845439318567514,0.006352817639708519,-0.008714341558516026,0.0019127074629068375,0.0,0.0069681983441114426
0.00760706327855587,0.007161633111536503,-0.008333932608366013,0.0017141947755590081,0.0,0.0067090862430632114
0.007099974434822798,0.006661413703113794,-0.007825113832950592,0.001578942988999188,0.0,0.0067921900190413
0.00738947931677103,0.006442159879952669,-0.009045623242855072,0.0016061501810327172,0.0,0.007275104988366365
0.006495645735412836,0.0062218327075243,-0.008382277563214302,0.002025252440944314,0.0,0.007156553212553263
0.006729753687977791,0.006653798744082451,-0.00797705352306366,0.0019928645342588425,0.0,0.007087483070790768
0.007113202475011349,0.006793990731239319,-0.009103445336222649,0.002332501346245408,0.0,0.006551977246999741
0.007001330144703388,0.006696754135191441,-0.00767629686743021,0.0022868183441460133,0.0,0.00669783866032958
0.0064505101181566715,0.00635386211797595,-0.007934721186757088,0.0022007497027516365,0.0,0.007022097706794739
0.0070968675427138805,0.0071946121752262115,-0.008837942965328693,0.0021003088913857937,0.0,0.0069455043412745
0.0070968675427138805,0.0071946121752262115,-0.008837942965328693,0.0021003088913857937,0.0,0.0069455043412745
0.0073517984710633755,0.006881108507514,-0.008357289247214794,0.0019690149929374456,0.0,0.006461462005972862
0.007198183797299862,0.006787494756281376,-0.007844983600080013,0.0019287719624117017,0.0,0.0065927100367844105
0.007540385704487562,0.00648596603423357,-0.0077208103612065315,0.001957349246367812,0.0,0.006845125928521156
0.006967787630856037,0.007345627527683973,-0.00835364032536745,0.001933505292981863,0.0,0.007061370648443699
0.006978362333029509,0.00670706806704402,-0.008952132426202297,0.0018388511380180717,0.0,0.0068717533722519875
0.007167423143982887,0.00625848351046443,-0.008036279119551182,0.0018212065333500504,0.0,0.006635953206568956
0.007055104244500399,0.006269399542361498,-0.008176224306225777,0.0016479453770443797,0.0,0.0068899840116500854
0.007183616049587727,0.006094885524362326,-0.008419899269938469,0.001849503256380558,0.0,0.0067499056458473206
0.006957220379263163,0.006512077059596777,-0.008127551525831223,0.002132145222276449,0.0,0.006732757203280926
0.0071457489393651485,0.006650630384683609,-0.00826978124678135,0.0021283277310431004,0.0,0.006516319699585438
0.007259272038936615,0.0065221479162573814,-0.008607265539467335,0.002073874231427908,0.0,0.0073262653313577175
0.007523377425968647,0.006300587672740221,-0.008308838121592999,0.0019273939542472363,0.0,0.006891895551234484
0.007419649511575699,0.006615284830331802,-0.008053126744925976,0.0018398611573502421,0.0,0.006867414806038141
0.007252303883433342,0.006896267645061016,-0.008314890787005424,0.0018359886016696692,0.0,0.006664940156042576
0.007186251692473888,0.006899646483361721,-0.008677138015627861,0.0019607616122812033,0.0,0.006936708465218544
0.00741488765925169,0.00680644903331995,-0.008256102912127972,0.0019669446628540754,0.0,0.006968033034354448
0.0072241732850670815,0.006193633656948805,-0.008188758976757526,0.002038713777437806,0.0,0.006722660269588232
0.007501697633415461,0.006562413647770882,-0.008671645075082779,0.002002492779865861,0.0,0.006727887783199549
0.006999123841524124,0.006430023815482855,-0.008053677156567574,0.0022158874198794365,0.0,0.006451053079217672
0.0069588529877364635,0.006190797314047813,-0.007944578304886818,0.0020168120972812176,0.0,0.007057856768369675
0.007477487437427044,0.0061246482655406,-0.007828986272215843,0.002044157823547721,0.0,0.006945971865206957
0.007088987156748772,0.0066970293410122395,-0.008725208230316639,0.0018934909021481872,-7.001995982136577e-05,0.006607572548091412
0.006216402631253004,0.006893592420965433,-0.008395437151193619,0.002090498572215438,-7.527096749981865e-05,0.006209792103618383
0.006763901561498642,0.00643921596929431,-0.008019284345209599,0.0023114867508411407,-7.444696530001238e-05,0.006579372566193342
0.007359516341239214,0.006421563681215048,-0.008087227120995522,0.002321129199117422,-7.32624321244657e-05,0.006792925298213959
0.007483652327209711,0.006609782110899687,-0.008344480767846107,0.0021608106326311827,-7.208930037450045e-05,0.00638640858232975
0.006915365345776081,0.006403267849236727,-0.008282359689474106,0.001969750504940748,-6.985246727708727e-05,0.006295561790466309
0.007477438077330589,0.006384904496371746,-0.008799383416771889,0.0019406343344599009,-6.878526619402692e-05,0.00614142045378685
0.007477438077330589,0.006384904496371746,-0.008799383416771889,0.0019406343344599009,-6.878526619402692e-05,0.00614142045378685
0.007081674411892891,0.006333874072879553,-0.00848214142024517,0.0020274692215025425,-6.774782377760857e-05,0.006280809175223112
0.006586565636098385,0.006267569027841091,-0.008195333182811737,0.0021028798073530197,-6.674429459962994e-05,0.006300128530710936
0.006772313266992569,0.006518196314573288,-0.008821602910757065,0.0023195233661681414,-6.576788291567937e-05,0.006392467301338911
0.007373090833425522,0.006438498385250568,-0.008651746436953545,0.002116834744811058,-6.482147728092968e-05,0.006106245797127485
0.0073244902305305,0.006562326103448868,-0.008387926034629345,0.0019312035292387009,-6.390135968104005e-05,0.006018872372806072
0.006718875374644995,0.006337180733680725,-0.008379300124943256,0.0018554253038018942,-6.300672248471528e-05,0.005747295916080475
0.006752996239811182,0.006444978062063456,-0.009178144857287407,0.00177266844548285,-6.213638698682189e-05,0.005544330924749374
0.0072725326754152775,0.006667275447398424,-0.008607679046690464,0.0017240827437490225,-6.129008397692814e-05,0.005714425351470709
0.007737583015114069,0.006197019945830107,-0.008180363103747368,0.0018875874811783433,-6.0465637943707407e-05,0.0058650183491408825
0.007175370119512081,0.006149711553007364,-0.008404996246099472,0.0019213687628507614,-5.966507887933403e-05,0.0064003076404333115
0.007056743837893009,0.006461337674409151,-0.008536855690181255,0.002231398830190301,-5.888435771339573e-05,0.00595430564135313
0.0077521177008748055,0.007194974459707737,-0.008769410662353039,0.0020817758049815893,-5.812381277792156e-05,0.005842501763254404
0.007176566869020462,0.006898198276758194,-0.009373875334858894,0.0020679053850471973,-5.738269828725606e-05,0.005971968639642
0.007268635556101799,0.00629657506942749,-0.009129280224442482,0.0020338469184935093,-5.666014476446435e-05,0.005959276109933853
0.00792843196541071,0.0064847576431930065,-0.0090636620298028,0.0020173201337456703,-5.595561378868297e-05,0.00584101676940918
0.007984064519405365,0.006906171794980764,-0.008618006482720375,0.0019555315375328064,-5.526840686798096e-05,0.005732472520321608
0.007674151100218296,0.00678001344203949,-0.00873019453138113,0.0018960104789584875,-5.4597840062342584e-05,0.005532126408070326
0.007539466954767704,0.006133335642516613,-0.00853943545371294,0.0019448765087872744,-5.3943356761010364e-05,0.005524857901036739
0.007584907580167055,0.006124846637248993,-0.008770815096795559,0.0019935835152864456,-5.330438943929039e-05,0.005187219940125942
0.0078667551279068,0.0063182576559484005,-0.008842810057103634,0.001917012850753963,-5.268035238259472e-05,0.005622373893857002
0.00787814985960722,0.006375816650688648,-0.009573860093951225,0.0021049699280411005,-5.207079084357247e-05,0.006396724376827478
0.007242928724735975,0.006189784966409206,-0.00823892466723919,0.002290741540491581,-5.1475177315296605e-05,0.0059407372027635574
0.007240083999931812,0.005972235929220915,-0.008030070923268795,0.0022539030760526657,-5.089304249850102e-05,0.005843374878168106
0.008202914148569107,0.006198407616466284,-0.008711511269211769,0.0021779180970042944,-5.967737888568081e-05,0.005639340728521347
0.007942002266645432,0.0067923907190561295,-0.008664977736771107,0.002255398314446211,-3.896506768796826e-06,0.005700563080608845
0.007415692321956158,0.0064429729245603085,-0.009261088445782661,0.0021897058468312025,-2.5441403295189957e-07,0.005928695667535067
0.007415692321956158,0.0064429729245603085,-0.009261088445782661,0.0021897058468312025,-2.5441403295189957e-07,0.005928695667535067
0.007748495787382126,0.006167774088680744,-0.008661635220050812,0.0021949061192572117,-1.6611418018896984e-08,0.005678961984813213
0.008813298307359219,0.006293537560850382,-0.008293391205370426,0.0023603474255651236,-1.0846068487779803e-09,0.006133261136710644
0.008083689026534557,0.006686209235340357,-0.008790062740445137,0.0021723289974033833,-7.081708136569276e-11,0.006138577125966549
0.007690806407481432,0.006688212510198355,-0.009160157293081284,0.002229690318927169,-4.623849914064948e-12,0.005572883412241936
0.007937580347061157,0.00626167468726635,-0.008780572563409805,0.0020467222202569246,-3.019043619701539e-13,0.005060629453510046
0.007810038048774004,0.006163972895592451,-0.008506451733410358,0.002017898950725794,-1.9712198182347124e-14,0.00531984306871891
0.0075837718322873116,0.006219980772584677,-0.009068821556866169,0.0021541048772633076,-1.2870656104408437e-15,0.005382018629461527
0.007528942544013262,0.0071242135018110275,-0.00882064551115036,0.0022427982185035944,-8.403619010501827e-17,0.005856058560311794
0.0074761249125003815,0.006546384654939175,-0.008228659629821777,0.002525548916310072,-5.486962386256681e-18,0.006023220717906952
0.0075717284344136715,0.006235973443835974,-0.008439176715910435,0.0024031715001910925,-3.582594454704117e-19,0.005993676837533712
0.00824716966599226,0.006278811022639275,-0.008846358396112919,0.002470845589414239,-2.3391783996837383e-20,0.005468584597110748
0.007960218004882336,0.0070869652554392815,-0.008861210197210312,0.0022398927249014378,-1.5273162996581404e-21,0.005330424290150404
0.008130059577524662,0.006888488307595253,-0.009189613163471222,0.0022045751102268696,-9.972284159155552e-23,0.005732571240514517
0.007711035665124655,0.0063772061839699745,-0.009455958381295204,0.0023133866488933563,-6.5111888863650246e-24,0.006266669370234013
0.007457013241946697,0.006579271052032709,-0.009302965365350246,0.0022600467782467604,-4.251341516368721e-25,0.006149642635136843
0.008065399713814259,0.007146947551518679,-0.008239082992076874,0.0024361053947359324,-2.775822182876319e-26,0.005505768582224846
0.008161372505128384,0.007098856382071972,-0.008826497942209244,0.002297215163707733,-1.8124135149421133e-27,0.005569630302488804
0.007681034505367279,0.007413959130644798,-0.008859776891767979,0.0022659723181277514,-1.1833764598609353e-28,0.005363298114389181
0.007514256052672863,0.00670633977279067,-0.008681238628923893,0.0023322650231420994,-7.726602232700694e-30,0.0058429124765098095
0.008824225515127182,0.00658600265160203,-0.009601721540093422,0.0021217865869402885,-5.0449194165822265e-31,0.0056435237638652325
0.008092858828604221,0.006825208198279142,-0.009336728602647781,0.0021691746078431606,-3.2939717392421526e-32,0.005655961576849222
0.007849308662116528,0.007091816049069166,-0.00848432071506977,0.002299923449754715,-2.1507281779606284e-33,0.005314469337463379
0.008719201199710369,0.006465607322752476,-0.009254359640181065,0.002625053282827139,-9.168890374724902e-36,0.005194894038140774
0.008719201199710369,0.006465607322752476,-0.009254359640181065,0.002625053282827139,-9.168890374724902e-36,0.005194894038140774
0.008614943362772465,0.006568002048879862,-0.009375782683491707,0.002542557893320918,-5.9866304381970436e-37,0.005425749346613884
0.00809059664607048,0.006865651346743107,-0.008739776909351349,0.002466394565999508,-3.908841631702225e-38,0.005598127841949463
0.00868273340165615,0.006876060739159584,-0.009308703243732452,0.0024989121593534946,-2.5521947021640396e-39,0.004990844987332821
0.008373263292014599,0.006846569012850523,-0.008820446208119392,0.002508168574422598,-1.666396107805786e-40,0.004554790444672108
0.00831699836999178,0.006705414969474077,-0.008862972259521484,0.0024451527278870344,-1.0881082575482205e-41,0.0049260989762842655
0.008517689071595669,0.006912412587553263,-0.009085373021662235,0.002523847622796893,-7.1045832141268225e-43,0.005330725573003292
0.008820525370538235,0.006947438698261976,-0.009558572433888912,0.0025473646819591522,-4.624284932271896e-44,0.005744097288697958
0.008500812575221062,0.006385754328221083,-0.008475636132061481,0.0024362625554203987,-2.802596928649634e-45,0.00580192543566227
0.007900494150817394,0.006536142434924841,-0.009424044750630856,0.002247455297037959,-0.0,0.005132324527949095
0.00878349132835865,0.00664882455021143,-0.009377527050673962,0.002239987952634692,-0.0,0.0052063846960663795
0.008781472221016884,0.006841418333351612,-0.008940724655985832,0.0026272383984178305,-0.0,0.0052627031691372395
0.008454767055809498,0.0065641566179692745,-0.00860644318163395,0.0030980624724179506,-0.0,0.0051036071963608265
0.009072120301425457,0.006630823947489262,-0.009068344719707966,0.002895931713283062,-0.0,0.005222384352236986
0.008677500300109386,0.007207721006125212,-0.008554701693356037,0.002686046762391925,-0.0,0.00505866389721632
0.008241296745836735,0.007108885329216719,-0.008640853688120842,0.0026394648011773825,-0.0,0.005166803486645222
0.008104435168206692,0.007328529376536608,-0.009486592374742031,0.002556774066761136,-0.0,0.004970747511833906
0.008771151304244995,0.006548638921231031,-0.008776414208114147,0.002503882860764861,-0.0,0.004806576296687126
0.008457669056952,0.006469564978033304,-0.008507436141371727,0.002724915975704789,-0.0,0.004690346773713827
0.008792008273303509,0.006789172999560833,-0.009126821532845497,0.0027978222351521254,-0.0,0.0050334022380411625
0.008811197243630886,0.006619501858949661,-0.009157910011708736,0.0025203130207955837,-0.0,0.004983469843864441
0.008862573653459549,0.007054711692035198,-0.008492703549563885,0.002509824698790908,-0.0,0.0048054978251457214
0.008568950928747654,0.0065940972417593,-0.00892301369458437,0.0025541805662214756,-0.0,0.0047424896620213985
0.008473220281302929,0.006887014489620924,-0.00977314542979002,0.002337707206606865,-0.0,0.004663197789341211
0.00847075879573822,0.007032017223536968,-0.009193004108965397,0.002498693997040391,-0.0,0.004615933634340763
0.008740668185055256,0.006892522796988487,-0.008553770370781422,0.0026879003271460533,-0.0,0.004734291695058346
0.008949738927185535,0.006953630596399307,-0.009159843437373638,0.002776539186015725,-0.0,0.005093580577522516
0.008949738927185535,0.006953630596399307,-0.009159843437373638,0.002776539186015725,-0.0,0.005093580577522516
0.008857217617332935,0.0076885283924639225,-0.008624565787613392,0.0029424093663692474,-0.0,0.004689968656748533
0.008200759068131447,0.006815617438405752,-0.009372154250741005,0.002762553049251437,-0.0,0.004756695590913296
0.009258819743990898,0.006543830037117004,-0.009364740923047066,0.0026166774332523346,-0.0,0.004763253964483738
0.009115546010434628,0.006740388460457325,-0.008852061815559864,0.002655158517882228,-0.0,0.005014479625970125
0.008778992109000683,0.007002724800258875,-0.009069779887795448,0.0028188093565404415,-0.0,0.005833778064697981
0.00890334788709879,0.007493539247661829,-0.00918522197753191,0.0029878332279622555,-0.0,0.005459254141896963
0.008779006078839302,0.00702002365142107,-0.009085766039788723,0.0028371349908411503,-0.0,0.004518980626016855
0.009501309134066105,0.006306356750428677,-0.008558493107557297,0.0027623239438980818,-0.0,0.004224277567118406
0.008264126256108284,0.006275163032114506,-0.010071144439280033,0.0024831623304635286,-0.0,0.003932948689907789
0.008764490485191345,0.005972687155008316,-0.009145795367658138,0.002404961036518216,-0.0,0.003970695193856955
0.009173259139060974,0.005963258910924196,-0.008799929171800613,0.0026769042015075684,-0.0,0.004937445744872093
0.008506616577506065,0.005883083678781986,-0.00892192218452692,0.003108281409367919,-0.0,0.005269668996334076
0.009035794995725155,0.005922252777963877,-0.008791955187916756,0.003124234499409795,-0.0,0.004794575273990631
0.00886022299528122,0.006027021445333958,-0.00858002994209528,0.0030182753689587116,-0.0,0.004483349621295929
0.008746558800339699,0.006876199971884489,-0.008945083245635033,0.003238546894863248,-0.0,0.004424707032740116
0.008958281017839909,0.006314258556813002,-0.009485444985330105,0.0030393446795642376,-0.0,0.004546127747744322
0.008803489618003368,0.005863850470632315,-0.009386983700096607,0.0031032138504087925,-0.0,0.004688602406531572
0.009634094312787056,0.006162839476019144,-0.00960599910467863,0.002919600810855627,-0.0,0.004430779721587896
0.008795066736638546,0.005910384003072977,-0.008988169953227043,0.0028991657309234142,-5.615415375359589e-06,0.004426568280905485
0.009114215150475502,0.006364516913890839,-0.008863773196935654,0.0028395706322044134,-3.666465033802524e-07,0.004480839241296053
0.009138396941125393,0.0065038264729082584,-0.00916706770658493,0.003233865136280656,-2.3939396243122246e-08,0.004566568415611982
0.009078207425773144,0.005777886603027582,-0.009275729767978191,0.00348364794626832,-1.5630714500503018e-09,0.004682088270783424
0.009073390625417233,0.005784901790320873,-0.008887958712875843,0.0031696888618171215,-1.020573972554395e-10,0.00477307103574276
0.009433381259441376,0.005922739394009113,-0.00917925126850605,0.0028077783063054085,-6.66361887544098e-12,0.004804002586752176
0.008790025487542152,0.006306316703557968,-0.009226241149008274,0.002643766114488244,-4.350867268462094e-13,0.004341695457696915
0.009306950494647026,0.005718202795833349,-0.008249158039689064,0.0030747081618756056,-1.854842912292834e-15,0.004228347446769476
0.009371594525873661,0.005613146815448999,-0.008904029615223408,0.0029257505666464567,-1.211079767050318e-16,0.004036065191030502
0.009101618081331253,0.005572546739131212,-0.009226441383361816,0.0030525396578013897,-7.907485178079259e-18,0.004118855576962233
0.009531188756227493,0.006224881391972303,-0.007902994751930237,0.002905351109802723,-5.163023052142007e-19,0.004204251803457737
0.009397710673511028,0.006490212399512529,-0.008921615779399872,0.00322706182487309,-3.3710850829326466e-20,0.004116566386073828
0.009736793115735054,0.005713701713830233,-0.009208539500832558,0.0033650663681328297,-2.201077526802456e-21,0.004390455782413483
0.009736793115735054,0.005713701713830233,-0.009208539500832558,0.0033650663681328297,-2.201077526802456e-21,0.004390455782413483
0.009484338574111462,0.005785064306110144,-0.008401594124734402,0.0035130027681589127,-1.43714629226066e-22,0.004408183507621288
0.009332939982414246,0.005469478201121092,-0.008267746306955814,0.0037834090180695057,-9.383539910649196e-24,0.004051108844578266
0.00921989418566227,0.0058242036029696465,-0.008666747249662876,0.0035109627060592175,-6.126781404593417e-25,0.003880764590576291
0.009837013669312,0.005832800175994635,-0.00879187323153019,0.003501526778563857,-4.000350628230683e-26,0.003919226583093405
0.008663837797939777,0.005917542614042759,-0.008522546850144863,0.0036526452749967575,-2.6119429164970638e-27,0.003992659505456686
0.008687699213624,0.005423505324870348,-0.00880131870508194,0.003394036553800106,-1.7054121694611126e-28,0.004086347296833992
0.009663284756243229,0.005327461753040552,-0.008737233467400074,0.0035813162103295326,-1.1135121323757454e-29,0.003976940643042326
0.009663956239819527,0.005654193460941315,-0.008967502042651176,0.003995789680629969,-7.2704386724064725e-31,0.004292260389775038
0.009686194360256195,0.006163130514323711,-0.008623465895652771,0.0037249268498271704,-4.7470770072999733e-32,0.004182365257292986
0.009824789129197598,0.005626689177006483,-0.009970968589186668,0.003584506455808878,-3.099501994603944e-33,0.004020852502435446
0.009614132344722748,0.005788468290120363,-0.009770489297807217,0.0036592064425349236,-2.023753114894728e-34,0.003490626811981201
0.00927339494228363,0.005486506503075361,-0.009292945265769958,0.0037684564013034105,-1.321366283398529e-35,0.003525719279423356
0.00959140993654728,0.005978167522698641,-0.009990278631448746,0.003906061640009284,-8.627578060157253e-37,0.003716101637110114
0.009992590174078941,0.006297380197793245,-0.008889698423445225,0.003914492670446634,-5.633191800616478e-38,0.003880611388012767
0.009433547034859657,0.005532464943826199,-0.008981975726783276,0.00385719770565629,-3.678072157221207e-39,0.003912633750587702
0.009370840154588223,0.005815357901155949,-0.010266195051372051,0.003519479651004076,-2.401517282190585e-40,0.003822125494480133
0.009442116133868694,0.005468717310577631,-0.009597270749509335,0.0033133903052657843,-1.5680529815794703e-41,0.0033612982369959354
0.009321087971329689,0.005781329702585936,-0.009340510703623295,0.0032085790298879147,-1.0243491774214413e-42,0.0031557362526655197
0.010042217560112476,0.006020297296345234,-0.010160282254219055,0.0034934093710035086,-6.726232628759122e-44,0.0030820390675216913
0.009843931533396244,0.005934909451752901,-0.009343945421278477,0.0037285699509084225,-4.203895392974451e-45,0.003193435724824667
0.00987873412668705,0.005493879318237305,-0.009726784192025661,0.003919254522770643,-0.0,0.0031472232658416033
0.00987873412668705,0.005493879318237305,-0.009726784192025661,0.003919254522770643,-0.0,0.0031472232658416033
0.009324939921498299,0.006205976475030184,-0.009759840555489063,0.0033396605867892504,-0.0,0.00331879616715014
0.010086058638989925,0.005899970885366201,-0.010598260909318924,0.0033517666161060333,-0.0,0.0033438128884881735
0.009751183912158012,0.005709425080567598,-0.009639511816203594,0.0036466990131884813,-9.101285104406998e-05,0.0035624727606773376
0.009751183912158012,0.005709425080567598,-0.009639511816203594,0.0036466990131884813,-9.101285104406998e-05,0.0035624727606773376
0.009376268833875656,0.005486306734383106,-0.008949399925768375,0.003913366701453924,-0.00010987011773977429,0.0033758925274014473
0.010499434545636177,0.005637298803776503,-0.009661724790930748,0.004127247724682093,-0.00010859542089747265,0.003165198490023613
0.009904110804200172,0.006260894704610109,-0.010076148435473442,0.00405055470764637,-0.00010612428013700992,0.0028929170221090317
0.009270451962947845,0.005810885224491358,-0.01029431726783514,0.0038646794855594635,-0.00010368484072387218,0.002894887002184987
0.009569825604557991,0.005840595345944166,-0.010119953192770481,0.003841802943497896,-0.00010135002958122641,0.0031151806470006704
0.009882776066660881,0.005679102148860693,-0.009636389091610909,0.003907974809408188,-9.911754750646651e-05,0.003193075070157647
0.009613924659788609,0.006049086339771748,-0.009559239260852337,0.003917618189007044,-9.698134090285748e-05,0.0031650029122829437
0.010817155241966248,0.00585023732855916,-0.00976317748427391,0.004228721838444471,-0.00011265591456322,0.003212494309991598
0.010172185488045216,0.005932260304689407,-0.009560354053974152,0.004151965491473675,-0.00011148583143949509,0.0029090160969644785
0.00958291720598936,0.006179423071444035,-0.009763047099113464,0.0042390585877001286,-0.00010930466669378802,0.002675988245755434
0.010267835110425949,0.00602105725556612,-0.010888611897826195,0.004073981661349535,-0.00010714081872720271,0.0026293296832591295
0.010024001821875572,0.006356590893119574,-0.009870885871350765,0.003891702275723219,-0.00010505676618777215,0.002514452673494816
0.009693573229014874,0.005975564941763878,-0.009317734278738499,0.003800787730142474,-0.00010305187606718391,0.002863563597202301
0.009998315945267677,0.00588191207498312,-0.009887892752885818,0.0038649982307106256,-0.00010112206655321643,0.003456318750977516
0.01052608247846365,0.005951370112597942,-0.009674545377492905,0.004231700673699379,-9.9263183074072e-05,0.003390811150893569
0.009739324450492859,0.0058218189515173435,-0.009666075929999352,0.0040177153423428535,-9.747140575200319e-05,0.003529667854309082
0.00994982197880745,0.006018075626343489,-0.010628190822899342,0.004299778025597334,-9.57433003350161e-05,0.0032179951667785645
0.009729644283652306,0.006518704351037741,-0.009671921841800213,0.004161334130913019,-9.407516336068511e-05,0.002856284147128463
0.009568523615598679,0.0060110497288405895,-0.009315251372754574,0.003973476588726044,-0.00010685132292564958,0.0026406734250485897
0.009568523615598679,0.0060110497288405895,-0.009315251372754574,0.003973476588726044,-0.00010685132292564958,0.0026406734250485897
0.010030129924416542,0.006221491377800703,-0.009926954284310341,0.004313269630074501,-0.00010260406270390376,0.002679667202755809
0.01002400740981102,0.006666567176580429,-0.010044757276773453,0.004169102758169174,-0.00010096006735693663,0.0030274700839072466
0.010435083881020546,0.006153009366244078,-0.009628928266465664,0.0040876977145671844,-9.936765854945406e-05,0.0030314724426716566
0.010435083881020546,0.006153009366244078,-0.009628928266465664,0.0040876977145671844,-9.936765854945406e-05,0.0030314724426716566
0.00959633570164442,0.006127967499196529,-0.009760978631675243,0.004311113152652979,-9.632886940380558e-05,0.0026809265837073326
0.00959633570164442,0.006127967499196529,-0.009760978631675243,0.004311113152652979,-9.632886940380558e-05,0.0026809265837073326
0.009455832652747631,0.006622326094657183,-0.009152618236839771,0.004129747394472361,-9.3470596766565e-05,0.002574132289737463
0.010484288446605206,0.006537714973092079,-0.009896027855575085,0.003940158057957888,-9.210407733917236e-05,0.002710584085434675
0.010484288446605206,0.006537714973092079,-0.009896027855575085,0.003940158057957888,-9.210407733917236e-05,0.002710584085434675
0.009871024638414383,0.005972749087959528,-0.010147393681108952,0.004383857361972332,-9.077691356651485e-05,0.002804795978590846
0.0093569066375494,0.006327254232019186,-0.009109619073569775,0.0044943299144506454,-8.948750473791733e-05,0.00266113574616611
0.009692632593214512,0.006680678576231003,-0.009722931310534477,0.004653288517147303,-8.823418465908617e-05,0.0025275915395468473
0.009774495847523212,0.006352623458951712,-0.009365090169012547,0.004849298391491175,-8.701553451828659e-05,0.0022010901011526585
0.00950638111680746,0.00624376256018877,-0.009351610206067562,0.004776361398398876,-8.583011367591098e-05,0.0020560305565595627
0.010601591318845749,0.006025620736181736,-0.01000206544995308,0.0044393171556293964,-8.467646694043651e-05,0.0021225891541689634
0.010115951299667358,0.005978161934763193,-0.01029491052031517,0.004420590121299028,-8.355340833077207e-05,0.002132741268724203
0.009432452730834484,0.006562129128724337,-0.00918432418256998,0.004209878388792276,-9.120978938881308e-05,0.002406106796115637
0.01010663527995348,0.00679741520434618,-0.00957462564110756,0.004032903350889683,-9.282444079872221e-05,0.0023468865547329187
0.01014010701328516,0.006135337520390749,-0.009466097690165043,0.004403907805681229,-9.182285430142656e-05,0.002451969077810645
0.0097357127815485,0.0062673077918589115,-0.009116916917264462,0.004574323073029518,-9.067835344467312e-05,0.0025442384649068117
0.009970263577997684,0.005906080827116966,-0.009813227690756321,0.004528839606791735,-8.955127850640565e-05,0.002430681837722659
0.010083052329719067,0.006280959118157625,-0.010053100995719433,0.004373651463538408,-8.84512483025901e-05,0.0025299545377492905
0.00959236640483141,0.006780247204005718,-0.010015515610575676,0.004050303250551224,-8.737785537960008e-05,0.002414777409285307
0.009615723043680191,0.006467038299888372,-0.009842326864600182,0.004102380480617285,-8.63301902427338e-05,0.0022576989140361547
0.009615723043680191,0.006467038299888372,-0.009842326864600182,0.004102380480617285,-8.63301902427338e-05,0.0022576989140361547
0.01025353092700243,0.006042462307959795,-0.009396081790328026,0.004244518931955099,-8.530730701750144e-05,0.002050720853731036
0.010084708221256733,0.007235368713736534,-0.009494657628238201,0.005009885877370834,-8.333264850080013e-05,0.0019039635080844164
0.009905590675771236,0.007020550314337015,-0.009562072344124317,0.004350907634943724,-8.237924339482561e-05,0.0018832293571904302
0.009589925408363342,0.005949950311332941,-0.009389333426952362,0.0043141841888427734,-8.144734601955861e-05,0.0018282951787114143
0.010460643097758293,0.00646186713129282,-0.009705979377031326,0.004470000974833965,-8.05363233666867e-05,0.0017005287809297442
0.009691919200122356,0.006867675110697746,-0.009668862447142601,0.0048204329796135426,-8.531672938261181e-05,0.00159814627841115
0.010103875771164894,0.006597415078431368,-0.00904835481196642,0.0048236907459795475,-8.558991248719394e-05,0.0015766831347718835
0.009940315037965775,0.00648185471072793,-0.010395113378763199,0.005021883640438318,-8.41139190015383e-05,0.001547023537568748
0.010071007534861565,0.006596050690859556,-0.00999540276825428,0.0050901505164802074,-8.257848094217479e-05,0.001839688397012651
0.009850282222032547,0.006203146185725927,-0.009221646003425121,0.0044583408161997795,-8.10908677522093e-05,0.001969501143321395
0.01036288682371378,0.006618362385779619,-0.00944492220878601,0.0044420016929507256,-7.96554668340832e-05,0.002086407970637083
0.009824197739362717,0.006671037524938583,-0.009706107899546623,0.004198913928121328,-7.826999353710562e-05,0.0022652936168015003
0.009902081452310085,0.0066868020221591,-0.009148884564638138,0.0043966812081635,-7.693190855206922e-05,0.002050626790151
0.010310065932571888,0.006097455509006977,-0.0088441027328372,0.004568245727568865,-8.686820365255699e-05,0.0018456187099218369
0.009924355894327164,0.006012272089719772,-0.010319983586668968,0.004517576657235622,-8.901151159079745e-05,0.001744596054777503
0.009843367151916027,0.006817162036895752,-0.009305786341428757,0.004442499950528145,-8.779780910117552e-05,0.001625466626137495
0.010118171572685242,0.006416563875973225,-0.009760490618646145,0.00450197234749794,-8.640825399197638e-05,0.001565895858220756
0.01106488611549139,0.006066085305064917,-0.009697183035314083,0.0041635287925601006,-8.504828292643651e-05,0.001508090179413557
0.012485495768487453,0.006048873066902161,-0.009223595261573792,0.004366911482065916,-8.372958836844191e-05,0.0015530220698565245
0.011843412183225155,0.0062611582688987255,-0.008627353236079216,0.004511185921728611,-8.245116623584181e-05,0.0016979968640953302
0.011537940241396427,0.006471055559813976,-0.009686899371445179,0.004935755394399166,-8.121118298731744e-05,0.0020832486916333437
0.012371358461678028,0.006153174676001072,-0.009659339673817158,0.004856201820075512,-8.000792877282947e-05,0.0019231365295127034
0.01164452824741602,0.006428283639252186,-0.009105927310883999,0.004696338437497616,-7.883986836532131e-05,0.00171563564799726
0.011521820910274982,0.006068450398743153,-0.00952448695898056,0.004578362684696913,-8.408573921769857e-05,0.0014395414618775249
0.011732653714716434,0.006526040378957987,-0.009162694215774536,0.0050535243935883045,-8.894123311620206e-05,0.001061679096892476
0.011602251790463924,0.006550801917910576,-0.009109904989600182,0.005151650868356228,-8.809218707028776e-05,0.0010008999379351735
0.011513559147715569,0.006336022634059191,-0.00971901137381792,0.005247553810477257,-8.572208025725558e-05,0.0009710495360195637
0.012067297473549843,0.006524508353322744,-0.007813158445060253,0.004870803095400333,-8.457143121631816e-05,0.0009776921942830086
0.012067297473549843,0.006524508353322744,-0.007813158445060253,0.004870803095400333,-8.457143121631816e-05,0.0009776921942830086
0.011689323000609875,0.006678891833871603,-0.009831815958023071,0.0048842523247003555,-8.345118840225041e-05,0.0010978631908074021
0.012020783498883247,0.006096493452787399,-0.010517735034227371,0.004933370742946863,-8.236023131757975e-05,0.0013048939872533083
0.011958388611674309,0.005529402289539576,-0.00891771912574768,0.005173508543521166,-8.129743218887597e-05,0.001618248294107616
0.01200665719807148,0.005443913396447897,-0.009957632049918175,0.005486589856445789,-8.026171417441219e-05,0.0015177145833149552
0.012186906300485134,0.0055936905555427074,-0.00938308984041214,0.005270774010568857,-8.483248529955745e-05,0.0013737209374085069
0.011702369898557663,0.006357161328196526,-0.009450304321944714,0.005635596811771393,-8.907369920052588e-05,0.0012587750097736716
0.012067887000739574,0.0063172318041324615,-0.009674611501395702,0.005399717949330807,-8.83264874573797e-05,0.0010411186376586556
0.012196987867355347,0.005568580236285925,-0.00973964761942625,0.005093162413686514,-8.727835665922612e-05,0.0010078393388539553
0.01210061740130186,0.0057780081406235695,-0.009255163371562958,0.005496055819094181,-8.623454777989537e-05,0.0009358050301671028
0.012280848808586597,0.005679313093423843,-0.00901440903544426,0.005355037748813629,-8.521402196493e-05,0.0008751131827011704
0.01175796426832676,0.00623369449749589,-0.01011801976710558,0.005420757923275232,-8.4217383118812e-05,0.0007166071445681155
0.012655442580580711,0.005767925176769495,-0.009163939394056797,0.005394249688833952,-8.324361988343298e-05,0.0007058671326376498
0.011350301094353199,0.005948355887085199,-0.009508257731795311,0.005540183279663324,-8.229220111388713e-05,0.0007126621203497052
0.012751945294439793,0.006328883580863476,-0.009765258990228176,0.005232574883848429,-8.136234828270972e-05,0.0007436983869411051
0.012662485241889954,0.0058087557554244995,-0.009630639106035233,0.005136041436344385,-8.045317372307181e-05,0.0009467183263041079
0.012249439023435116,0.006378247402608395,-0.010677440091967583,0.005349284503608942,-7.956416811794043e-05,0.0010476817842572927
0.012568539939820766,0.006066040135920048,-0.011337780393660069,0.00525189284235239,-5.194971436139895e-06,0.0010669706389307976
0.01252435240894556,0.005817126482725143,-0.010183475911617279,0.0054854038171470165,-7.33185515855439e-05,0.0010867451783269644
0.01243309024721384,0.00555812194943428,-0.010425950400531292,0.005371824372559786,-0.00010396470315754414,0.0011242416221648455
0.012605295516550541,0.005512805189937353,-0.010838141664862633,0.004765260498970747,-0.00010368100629420951,0.0010485693346709013
0.012459049001336098,0.0061387852765619755,-0.0107571454718709,0.005753799807280302,-0.00010148074943572283,0.0009582197526469827
0.012466621585190296,0.005871112924069166,-0.01110193133354187,0.0056562586687505245,-9.711024176795036e-05,0.0008419310906901956
0.012466621585190296,0.005871112924069166,-0.01110193133354187,0.0056562586687505245,-9.711024176795036e-05,0.0008419310906901956
0.012323044240474701,0.005423609632998705,-0.010884502902626991,0.00487699406221509,-9.505877096671611e-05,0.0007544758263975382
0.012344087474048138,0.005781202111393213,-0.011345823295414448,0.005020426120609045,-9.309230517828837e-05,0.0006417061085812747
0.012470214627683163,0.0055801644921302795,-0.010820319876074791,0.00528951920568943,-9.120539471041411e-05,0.0005588621133938432
0.012725846841931343,0.006323109846562147,-0.011145136319100857,0.005873178597539663,-8.939352119341493e-05,0.000496830849442631
0.01285484991967678,0.005794995464384556,-0.011127720586955547,0.005378247704356909,-0.00010065914830192924,0.0005243265186436474
0.013044360093772411,0.0057656955905258656,-0.01098965760320425,0.005150711163878441,-0.0001028776605380699,0.00048740149941295385
0.012935373932123184,0.006426118779927492,-0.012398061342537403,0.005047917366027832,-0.00010121938248630613,0.0004476430476643145
0.013041316531598568,0.006180174183100462,-0.011360331438481808,0.00588819058611989,-9.937438881024718e-05,0.00041339031304232776
0.01282778475433588,0.005780856590718031,-0.01139182411134243,0.006009095348417759,-9.757973748492077e-05,0.0003839744604192674
0.013301089406013489,0.005474102217704058,-0.011334463953971863,0.005747887771576643,-9.584788494976237e-05,0.00035847080289386213
0.012757495976984501,0.005550868809223175,-0.011019802652299404,0.005200123880058527,-9.417624096386135e-05,0.00033614342100918293
0.01296937558799982,0.005607232451438904,-0.011291498318314552,0.0052529615350067616,-9.256196790374815e-05,0.0003164359659422189
0.01278236135840416,0.006221369840204716,-0.010847806930541992,0.005498797632753849,-9.100202441914007e-05,0.00029891193844377995
0.01314794085919857,0.005744681693613529,-0.010990222916007042,0.006121332291513681,-8.949382026912645e-05,0.0002832282043527812
0.0131990322843194,0.0057089743204414845,-0.011355942115187645,0.005824588239192963,-8.803491800790653e-05,0.00026910973247140646
0.013408089987933636,0.005489001050591469,-0.010438366793096066,0.005845322273671627,-8.662264735903591e-05,0.0002563314628787339
0.013354795053601265,0.005876083392649889,-0.011051218025386333,0.005426130257546902,-9.852164657786489e-05,0.0002447119913995266
0.012821139767765999,0.006238679401576519,-0.011141441762447357,0.005361464805901051,-9.785681322682649e-05,0.0002341011568205431
0.013428229838609695,0.006061978172510862,-0.010666441172361374,0.005701323505491018,-9.641565702622756e-05,0.00022437154257204384
0.013163117691874504,0.005778543651103973,-0.010992375202476978,0.006085588131099939,-9.496597340330482e-05,0.00021541972819250077
0.013352330774068832,0.006062724627554417,-0.01059697661548853,0.005746322218328714,-9.21869941521436e-05,0.0001994997583096847
0.013717969879508018,0.0065352278761565685,-0.011040051467716694,0.005691033322364092,-9.085752390092239e-05,0.0001923911477206275
0.013244024477899075,0.006148254964500666,-0.010605769231915474,0.0060643902979791164,-8.956588862929493e-05,0.0001857717288658023
0.013291074894368649,0.005751832388341427,-0.010818729177117348,0.006038638763129711,-8.831040759105235e-05,0.00017959259275812656
0.013291074894368649,0.005751832388341427,-0.010818729177117348,0.006038638763129711,-8.831040759105235e-05,0.00017959259275812656
0.013226417824625969,0.005287206266075373,-0.010777633637189865,0.005985746160149574,-8.70895673870109e-05,0.00017381123325321823
0.013908685185015202,0.005779806524515152,-0.010539999231696129,0.006476102862507105,-9.19490194064565e-05,0.00016839051386341453
0.01363256387412548,0.006081311032176018,-0.011226115748286247,0.006016964558511972,-9.644677629694343e-05,0.00016329818754456937
0.013840441592037678,0.006251611281186342,-0.010480201803147793,0.006248860154300928,-9.554117423249409e-05,0.0001585046120453626
0.01394956186413765,0.005999990738928318,-0.01070482935756445,0.006695831194519997,-9.431406215298921e-05,0.00015398419054690748
0.013895689509809017,0.0053796772845089436,-0.011846890673041344,0.006060160230845213,-9.309624147135764e-05,0.00014971481868997216
0.01362440176308155,0.005865713115781546,-0.011531141586601734,0.0058312322944402695,-9.19079830055125e-05,0.00014567557082045823
0.013480684719979763,0.005857061129063368,-0.010596313513815403,0.006014501675963402,-9.078154107555747e-05,0.000141848751809448
0.013860693201422691,0.006348696071654558,-0.01191216055303812,0.007160568609833717,-0.00011322888894937932,0.0001382278132950887
0.013965566642582417,0.005790491122752428,-0.0104804253205657,0.006853147875517607,-0.00011202506721019745,0.00013476873573381454
0.014318844303488731,0.005600955802947283,-0.0118252569809556,0.0063073826022446156,-0.00010940700303763151,0.0001152504701167345
0.01403411291539669,0.006014206446707249,-0.010630227625370026,0.005648837424814701,-0.00010681679850677028,0.0001073452367563732
0.014375690370798111,0.00557534396648407,-0.010518262162804604,0.005730621982365847,-0.00010434022988192737,0.00010451687558088452
0.014250081032514572,0.005881965160369873,-0.012035643681883812,0.0065994723699986935,-0.0001210084737977013,0.00010211645712843165
0.014150633476674557,0.005800171289592981,-0.010482694953680038,0.007139211054891348,-0.00011957029346376657,9.985330689232796e-05
0.014133970253169537,0.00535370921716094,-0.010687698610126972,0.006909412797540426,-0.00011705925862770528,9.768753807293251e-05
0.014711849391460419,0.005417846143245697,-0.011015030555427074,0.00603912677615881,-0.00011458072549430653,9.561191836837679e-05
0.01460106112062931,0.00555263040587306,-0.01030041929334402,0.0063161542639136314,-0.00011220025771763176,7.735389954177663e-05
0.015488102100789547,0.00577697204425931,-0.010890845209360123,0.006711442954838276,-0.00012701464584097266,7.353188266279176e-05
0.014560898765921593,0.005837701726704836,-0.010749509558081627,0.007068685255944729,-0.00012559795868583024,7.191651820903644e-05
0.014541630633175373,0.005434445105493069,-0.010496695525944233,0.006429350469261408,-0.000123214180348441,6.182401557452977e-05
0.014446565881371498,0.005711227189749479,-0.01110210083425045,0.0058344947174191475,-0.00012085531488992274,5.2442337619140744e-05
0.015279333107173443,0.005765363108366728,-0.010625632479786873,0.006757823750376701,-0.00013115096953697503,6.979519184824312e-06
0.014375915750861168,0.005854913964867592,-0.010612518526613712,0.00672551803290844,-0.00013273177319206297,-3.476880374364555e-05
0.014710130169987679,0.006028479430824518,-0.011063872836530209,0.0065621426329016685,-0.00013058577314950526,-5.40234032087028e-05
0.014909336343407631,0.004935929086059332,-0.011037996038794518,0.006600268185138702,-0.00012603183859027922,-8.387670095544308e-05
0.014909336343407631,0.004935929086059332,-0.011037996038794518,0.006600268185138702,-0.00012603183859027922,-8.387670095544308e-05
0.014889849349856377,0.0057547506876289845,-0.011537100188434124,0.007280556485056877,-0.00017391702567692846,-0.0006419776473194361
0.014823750592768192,0.0060162595473229885,-0.01149343978613615,0.006512587424367666,-0.00020626175682991743,-0.000861947366502136
0.014823750592768192,0.0060162595473229885,-0.01149343978613615,0.006512587424367666,-0.00020626175682991743,-0.000861947366502136
0.01472953986376524,0.005580646451562643,-0.011879448778927326,0.00614739628508687,-0.00019741305732168257,-0.0008182418532669544
0.0152489198371768,0.005081895738840103,-0.011798041872680187,0.0061605884693562984,-0.0001891275605885312,-0.0007770886877551675
0.015514208935201168,0.005201378837227821,-0.010101255029439926,0.006806804332882166,-0.00018149879178963602,-0.0007642211858183146
0.015233422629535198,0.005583195015788078,-0.011309580877423286,0.006845895666629076,-0.00017446115089114755,-0.0008126407046802342
0.014868197962641716,0.005403874907642603,-0.012194663286209106,0.006787249352782965,-0.00019279216940049082,-0.0009013772942125797
0.015208839438855648,0.005791844800114632,-0.011345100589096546,0.006994031835347414,-0.00019371505186427385,-0.0011358577758073807
0.014998510479927063,0.005304496269673109,-0.010644249618053436,0.006913918070495129,-0.0001875005691545084,-0.0014788714470341802
0.01527717337012291,0.0051532164216041565,-0.011492252349853516,0.006755254231393337,-0.00018124027701560408,-0.0016554482281208038
0.015135576017200947,0.005254027899354696,-0.010990195907652378,0.00625082990154624,-0.00017535616643726826,-0.001779790734872222
0.01593698374927044,0.004977389704436064,-0.012111011892557144,0.006320785731077194,-0.00019623890693765134,-0.0015933882677927613
0.015422636643052101,0.005418399814516306,-0.011367740109562874,0.006218062713742256,-0.0001919799979077652,-0.001379389432258904
0.01609792187809944,0.005429466255009174,-0.01118363719433546,0.006196844857186079,-0.00018641150381881744,-0.001109143253415823
0.015882043167948723,0.005526167340576649,-0.011480177752673626,0.006710487883538008,-0.0001810613612178713,-0.0011821647640317678
0.015779046341776848,0.005171919707208872,-0.0108043747022748,0.0069241030141711235,-0.00019945706299040467,-0.0011831738520413637
0.01590801030397415,0.004948503337800503,-0.011446342803537846,0.006842498667538166,-0.0001955688203452155,-0.0017362558282911777
0.0159369558095932,0.005174445454031229,-0.012037599459290504,0.006565694697201252,-0.00019049414549954236,-0.0023253122344613075
0.01595877856016159,0.0055323815904557705,-0.011171884834766388,0.006577021908015013,-0.00018558997544459999,-0.0024125236086547375
0.015782037749886513,0.005423957947641611,-0.011722833849489689,0.006817978341132402,-0.0002011413307627663,-0.0023495135828852654
0.01641010120511055,0.005127720534801483,-0.011511021293699741,0.006847536191344261,-0.0002113947266479954,-0.0020766835659742355
0.01601414754986763,0.005636243615299463,-0.012077892199158669,0.0072881318628787994,-0.00020313882851041853,-0.0017878374783322215
0.01654120720922947,0.005322915036231279,-0.011345992796123028,0.007529444061219692,-0.00019444330246187747,-0.001772802323102951
0.016446616500616074,0.005063032265752554,-0.011089294217526913,0.007548098918050528,-0.00020462865359149873,-0.0018507551867514849
0.01645587757229805,0.005282056983560324,-0.011415707878768444,0.007581986952573061,-0.00020647657220251858,-0.0026586512103676796
0.016486098989844322,0.004893752746284008,-0.011835567653179169,0.0076230778358876705,-0.0001989412703551352,-0.003145263297483325
0.016486098989844322,0.004893752746284008,-0.011835567653179169,0.0076230778358876705,-0.0001989412703551352,-0.003145263297483325
0.016610942780971527,0.005187019240111113,-0.011752483434975147,0.007622504141181707,-0.00020754343131557107,-0.0030395572539418936
0.01615353673696518,0.0050199502147734165,-0.011968759819865227,0.007157840300351381,-0.0002151084045181051,-0.0028441648464649916
0.017085814848542213,0.005436097737401724,-0.011940402910113335,0.007742154877632856,-0.00020893152395728976,-0.0025871065445244312
0.016737956553697586,0.0051177190616726875,-0.011686963960528374,0.007891274988651276,-0.00021645525703206658,-0.0027964357286691666
0.016605624929070473,0.005136658437550068,-0.01220450084656477,0.008012590929865837,-0.0002230331301689148,-0.0030250714626163244
0.016728835180401802,0.00535446684807539,-0.012195556424558163,0.007813595235347748,-0.0002171727392124012,-0.003491581417620182
0.016620812937617302,0.0049847825430333614,-0.011924886144697666,0.008191335014998913,-0.00021086868946440518,-0.0033122191671282053
0.01703862100839615,0.005042848642915487,-0.012396137230098248,0.008220698684453964,-0.00028580069192685187,-0.0031935200095176697
0.016788462176918983,0.005425620824098587,-0.01178065501153469,0.008190847001969814,-0.00027982311439700425,-0.0031331642530858517
0.01704024150967598,0.005054688546806574,-0.012442623265087605,0.008287211880087852,-0.00031334132654592395,-0.0031899448949843645
0.0170750692486763,0.005099911708384752,-0.012219289317727089,0.007963841781020164,-0.0002992310037370771,-0.003039438044652343
0.017027636989951134,0.005144894123077393,-0.01261722669005394,0.0074854386039078236,-0.0003067798970732838,-0.0029742002952843904
0.0175658967345953,0.004895096179097891,-0.012886956334114075,0.007242356427013874,-0.00031290878541767597,-0.0032906329724937677
0.017335478216409683,0.004844282753765583,-0.012363062240183353,0.0069913617335259914,-0.00029943231493234634,-0.003256646217778325
0.017308145761489868,0.005360857117921114,-0.012776941061019897,0.007608871441334486,-0.0002859293599613011,-0.0033055797684937716
0.017540032044053078,0.005045767407864332,-0.01246034074574709,0.007714876439422369,-0.00030992511892691255,-0.00329129328019917
0.017393533140420914,0.005190045572817326,-0.013087542727589607,0.007445090916007757,-0.00029940999229438603,-0.0033827493898570538
0.017753245308995247,0.0051521663554012775,-0.01217062771320343,0.008141295984387398,-0.00040181289659813046,-0.0031890308018773794
0.018368767574429512,0.004944887012243271,-0.013194318860769272,0.008445502258837223,-0.00038447839324362576,-0.003864043392241001
0.018031587824225426,0.0053024692460894585,-0.01262915600091219,0.007980146445333958,-0.0003896304115187377,-0.004477955400943756
0.018231989815831184,0.005177927669137716,-0.012791215442121029,0.007891389541327953,-0.0003927451034542173,-0.004846916068345308
0.017711730673909187,0.005322905257344246,-0.012860748916864395,0.007993445731699467,-0.0003680258523672819,-0.00474660936743021
0.01818782463669777,0.005421571899205446,-0.01277303695678711,0.008427368476986885,-0.000398097065044567,-0.004318360239267349
0.01763780787587166,0.005423675756901503,-0.012410133145749569,0.008729907684028149,-0.0004056856851093471,-0.0038635984528809786
0.018660597503185272,0.005311031825840473,-0.01326550729572773,0.008452740497887135,-0.0003862156008835882,-0.004181255586445332
0.01834404282271862,0.005977593827992678,-0.013026357628405094,0.008415848016738892,-0.0004561870009638369,-0.004194425884634256
0.01786074973642826,0.005407551769167185,-0.013503976166248322,0.008104718290269375,-0.0004932228475809097,-0.004493139684200287
0.018497634679079056,0.004895902704447508,-0.013078429736196995,0.008677667938172817,-0.0004986090934835374,-0.004876821301877499
0.018497634679079056,0.004895902704447508,-0.013078429736196995,0.008677667938172817,-0.0004986090934835374,-0.004876821301877499
0.01834246888756752,0.005290010944008827,-0.012964579276740551,0.008398139849305153,-0.0004940084763802588,-0.004494021646678448
0.01911940425634384,0.005257938057184219,-0.013123232871294022,0.007784847170114517,-0.0004920598585158587,-0.004623914137482643
0.018415365368127823,0.0055304523557424545,-0.01284483540803194,0.00799492932856083,-0.00048803345998749137,-0.004554600454866886
0.01961408369243145,0.005564974155277014,-0.012946102768182755,0.008407693356275558,-0.0006016202969476581,-0.004267081618309021
0.01891442760825157,0.005353342276066542,-0.01238767895847559,0.008388669230043888,-0.0006288072909228504,-0.004316157195717096
0.017963768914341927,0.004990522284060717,-0.012853180058300495,0.008646056987345219,-0.0006099510937929153,-0.0045568631030619144
0.01813856139779091,0.005107293836772442,-0.012452485971152782,0.008619531989097595,-0.0006182042416185141,-0.004660138860344887
0.01891409233212471,0.005583496298640966,-0.013124753721058369,0.00850082840770483,-0.0005819254438392818,-0.004607221111655235
0.019343668594956398,0.005381804425269365,-0.012835834175348282,0.008259980008006096,-0.0005898620001971722,-0.004988846369087696
0.01915215514600277,0.005294323433190584,-0.013087460771203041,0.008495326153934002,-0.0005612558452412486,-0.005015150178223848
0.019325928762555122,0.005446135997772217,-0.012699265033006668,0.00922364555299282,-0.0005816954071633518,-0.00452473433688283
0.018656855449080467,0.0051647028885781765,-0.012771934270858765,0.00919191911816597,-0.0005357990739867091,-0.0048762294463813305
0.018682856112718582,0.005199821665883064,-0.013702071271836758,0.008485561236739159,-0.0005691025871783495,-0.004912300501018763
0.01934928260743618,0.00555458152666688,-0.01327645406126976,0.0086189154535532,-0.0005836075870320201,-0.0049084248021245
0.019106483086943626,0.006014781538397074,-0.013366899453103542,0.00879230909049511,-0.0005523571744561195,-0.005587683990597725
0.019148332998156548,0.005497104488313198,-0.012756655924022198,0.00837318692356348,-0.0005765577079728246,-0.005452119279652834
0.019262980669736862,0.005279464181512594,-0.01243665162473917,0.00906126294285059,-0.0005379507783800364,-0.005001508165150881
0.018810618668794632,0.0049937875010073185,-0.013448980636894703,0.008817512542009354,-0.0006009440403431654,-0.00519778486341238
0.018862221390008926,0.005673353094607592,-0.014231241308152676,0.008320044726133347,-0.0006387468311004341,-0.004977100528776646
0.01939059980213642,0.005569745786488056,-0.012939409352838993,0.008162448182702065,-0.0006302319816313684,-0.004859528969973326
0.01907223090529442,0.005882011726498604,-0.013669618405401707,0.008847514167428017,-0.0006118820165283978,-0.005011548288166523
0.019122831523418427,0.0054841856472194195,-0.01356223039329052,0.008725176565349102,-0.0005602373857982457,-0.0053497315384447575
0.01941550336778164,0.005693561397492886,-0.01395402941852808,0.00872250460088253,-0.000582900654990226,-0.005073390901088715
0.019280411303043365,0.005782692693173885,-0.013506025075912476,0.008688682690262794,-0.0005770184216089547,-0.005172946490347385
0.0196844469755888,0.00572134368121624,-0.013786837458610535,0.008813570253551006,-0.0005987575277686119,-0.005338726099580526
0.0196844469755888,0.00572134368121624,-0.013786837458610535,0.008813570253551006,-0.0005987575277686119,-0.005338726099580526
0.019092414528131485,0.005516046192497015,-0.013822992332279682,0.008555760607123375,-0.0005606961785815656,-0.005599374882876873
0.019092323258519173,0.005065233912318945,-0.013489991426467896,0.008928646333515644,-0.0005824354011565447,-0.005415002815425396
0.019691085442900658,0.005236308090388775,-0.0134876798838377,0.009137386456131935,-0.0005797808989882469,-0.0055903103202581406
0.019437724724411964,0.005533838178962469,-0.0139911575242877,0.008564851246774197,-0.000568685180041939,-0.006073911674320698
0.019367219880223274,0.005426850635558367,-0.0133951585739851,0.009875048883259296,-0.0005291393026709557,-0.005601702257990837
0.019709289073944092,0.005379290785640478,-0.013947068713605404,0.009231937117874622,-0.0005345795070752501,-0.005743055604398251
0.01940867304801941,0.005001887213438749,-0.01327956560999155,0.008462111465632915,-0.0005150479264557362,-0.005344625562429428
0.01945624314248562,0.005143796559423208,-0.013789317570626736,0.009077544324100018,-0.000544481910765171,-0.00576746417209506
0.01999405026435852,0.005300493445247412,-0.013267381116747856,0.009162628091871738,-0.0005045780562795699,-0.006026950199157
0.019854838028550148,0.005274024326354265,-0.013808348216116428,0.00914031732827425,-0.0004620789550244808,-0.006204479839652777
0.019219819456338882,0.005716586485505104,-0.013358531519770622,0.009017795324325562,-0.0004777376598212868,-0.006273780949413776
0.019895821809768677,0.005402465350925922,-0.013850517570972443,0.00933979544788599,-0.00045906781451776624,-0.00571894645690918
0.01986185647547245,0.005286182276904583,-0.013812823221087456,0.00917779840528965,-0.0004858435713686049,-0.0058394744992256165
0.019703634083271027,0.005009543616324663,-0.014285017736256123,0.009064709767699242,-0.0005241369944997132,-0.00625565042719245
0.019634757190942764,0.005209659691900015,-0.01348622515797615,0.009753124788403511,-0.0005385136464610696,-0.006142874713987112
0.019992554560303688,0.005495778284966946,-0.014245775528252125,0.009559135884046555,-0.0005297329626046121,-0.006513907108455896
0.020572785288095474,0.005230465903878212,-0.013925040140748024,0.009337254799902439,-0.0005546705797314644,-0.005919094197452068
0.020268768072128296,0.005354300141334534,-0.01418564934283495,0.009468515403568745,-0.0005730547127313912,-0.006036327686160803
0.020350316539406776,0.005128846969455481,-0.013932806439697742,0.009344724006950855,-0.0007575794006697834,-0.00684016291052103
0.01946255937218666,0.005284585058689117,-0.013943570666015148,0.00917777232825756,-0.0009472047095187008,-0.0068793934769928455
0.01933613419532776,0.005092020612210035,-0.014047729782760143,0.009381573647260666,-0.0013884607469663024,-0.0064139580354094505
0.02018306590616703,0.005196084268391132,-0.014440222643315792,0.009905761107802391,-0.0017358384793624282,-0.005745236761868
0.019931916147470474,0.005495072808116674,-0.014038091525435448,0.009217186830937862,-0.0016534087480977178,-0.006191558204591274
0.019863087683916092,0.00529187498614192,-0.01416869554668665,0.009631022810935974,-0.0015699919313192368,-0.006784586701542139
0.019925547763705254,0.00551349762827158,-0.01413525640964508,0.009105703793466091,-0.0014239803422242403,-0.007185186259448528
0.02010919526219368,0.005585297476500273,-0.014356030151247978,0.009316127747297287,-0.0013653739588335156,-0.007167251780629158
0.02034175582230091,0.005365995690226555,-0.01451060175895691,0.009919043630361557,-0.0013447253732010722,-0.006640445441007614
0.020497677847743034,0.005261607002466917,-0.014239951968193054,0.010231456719338894,-0.0014667558716610074,-0.00667426036670804
0.020205624401569366,0.00559204863384366,-0.014446385204792023,0.010424076579511166,-0.0016552959568798542,-0.0071733444929122925
0.020205624401569366,0.00559204863384366,-0.014446385204792023,0.010424076579511166,-0.0016552959568798542,-0.0071733444929122925
0.02008313685655594,0.0053243753500282764,-0.014824473299086094,0.010626266710460186,-0.0015906658954918385,-0.00665340106934309
0.020251430571079254,0.005854204762727022,-0.01471965853124857,0.010194902308285236,-0.0015122188488021493,-0.00680222362279892
0.020505545660853386,0.005443095695227385,-0.014371633529663086,0.009585058316588402,-0.0012757324147969484,-0.007010841276496649
0.020649688318371773,0.004958507604897022,-0.014986301772296429,0.009724408388137817,-0.0010372534161433578,-0.007107377052307129
0.018789662048220634,0.005081153940409422,-0.014853283762931824,0.009882000274956226,-0.0008698235615156591,-0.006920075509697199
0.02140803635120392,0.005145455710589886,-0.015031233429908752,0.010318735614418983,-0.000748785852920264,-0.006922109983861446
0.02089257724583149,0.0050326986238360405,-0.014795992523431778,0.00988932978361845,-0.0007097986526787281,-0.007145102601498365
0.020322808995842934,0.005301157012581825,-0.015064633451402187,0.010045717470347881,-0.0006798221147619188,-0.0074589867144823074
0.02065555937588215,0.005275696981698275,-0.014563534408807755,0.010176538489758968,-0.0006163106299936771,-0.006900555919855833
0.02087743766605854,0.004956367425620556,-0.01474766992032528,0.009873468428850174,-0.0005615085829049349,-0.006983940955251455
0.02071559987962246,0.004798014648258686,-0.01489993091672659,0.009766939096152782,-0.0005155293620191514,-0.007381786126643419
0.020988285541534424,0.005130545701831579,-0.015260333195328712,0.009917710907757282,-0.00047650255146436393,-0.007579458877444267
0.021315379068255424,0.005545807536691427,-0.014803675934672356,0.00981152430176735,-0.00044297153363004327,-0.007368294522166252
0.02129201777279377,0.005258480552583933,-0.015735140070319176,0.010364847257733345,-0.0004138552467338741,-0.007354117929935455
0.02119077555835247,0.005038126837462187,-0.015119071118533611,0.010356493294239044,-0.00038833089638501406,-0.007324841804802418
0.021067902445793152,0.005003730766475201,-0.015523098409175873,0.009904946200549603,-0.0003657735651358962,-0.007443730719387531
0.02167784422636032,0.004922923166304827,-0.015161625109612942,0.010012120008468628,-0.00034569439594633877,-0.00812361016869545
0.021372705698013306,0.005255615338683128,-0.015269997529685497,0.01029850821942091,-0.00032770566758699715,-0.008388292975723743
0.020949361845850945,0.005304263439029455,-0.014609967358410358,0.009714567102491856,-0.0003114978317171335,-0.007963582873344421
0.021490933373570442,0.005124930292367935,-0.01555369608104229,0.009609655477106571,-0.00029681678279303014,-0.007882478646934032
0.021487314254045486,0.005352110601961613,-0.015391253866255283,0.010232004337012768,-0.00028345914324745536,-0.00764918327331543
0.021172285079956055,0.004582487512379885,-0.01399242039769888,0.009847047738730907,-0.0002712515415623784,-0.007899499498307705
0.020951224491000175,0.004558563232421875,-0.01596382074058056,0.010159308090806007,-0.0002600525913294405,-0.00819876417517662
0.02207203209400177,0.005473210010677576,-0.015249023213982582,0.010225392878055573,-0.00024021700664889067,-0.008057891391217709
0.02207203209400177,0.005473210010677576,-0.015249023213982582,0.010225392878055573,-0.00024021700664889067,-0.008057891391217709
0.021945327520370483,0.004917014855891466,-0.016226280480623245,0.010551412589848042,-0.00022319408890325576,-0.007725947070866823
0.021984999999403954,0.004695601761341095,-0.01593620702624321,0.010455308482050896,-0.0002155563997803256,-0.007745696231722832
0.021984999999403954,0.004695601761341095,-0.01593620702624321,0.010455308482050896,-0.0002155563997803256,-0.007745696231722832
0.02254784293472767,0.004632446449249983,-0.015424360521137714,0.010361451655626297,-0.00020842453523073345,-0.008258195593953133
0.02266702987253666,0.004698620177805424,-0.015225037932395935,0.010687672533094883,-0.0002017489168792963,-0.007026332896202803
0.02252976782619953,0.005272333975881338,-0.016098637133836746,0.010496021248400211,-0.0002091863425448537,-0.006680863443762064
0.022427381947636604,0.005146627314388752,-0.015337755903601646,0.0109133031219244,-0.0002157613489544019,-0.007368286140263081
0.02257874421775341,0.005231221206486225,-0.015594905242323875,0.010912668891251087,-0.00021029854542575777,-0.0074786292389035225
0.02284364402294159,0.004908036440610886,-0.01534622348845005,0.011706998571753502,-0.00020438345381990075,-0.0076027377508580685
0.02259109914302826,0.004833778366446495,-0.015581638552248478,0.011957543902099133,-0.00019874465942848474,-0.007576695643365383
0.023103203624486923,0.005641232244670391,-0.01582813449203968,0.010663071647286415,-0.00019340601284056902,-0.008113249205052853
0.02333538606762886,0.005398157984018326,-0.015608331188559532,0.011713874526321888,-0.0001883463264675811,-0.007799462415277958
0.023729508742690086,0.0054320995695889,-0.01557010505348444,0.011295136995613575,-0.000183544383617118,-0.008064459078013897
0.02391768991947174,0.005456738173961639,-0.015417332760989666,0.011148620396852493,-0.00017898145597428083,-0.00833992101252079
0.023035049438476562,0.004713411908596754,-0.016041122376918793,0.011421160772442818,-0.00017463987751398236,-0.008338481187820435
0.022651687264442444,0.004993791226297617,-0.015401198528707027,0.010865896008908749,-0.0001705043250694871,-0.008293865248560905
0.023277439177036285,0.005424656439572573,-0.015723899006843567,0.011275812983512878,-0.00016655982472002506,-0.00831264816224575
0.0240232702344656,0.005373866762965918,-0.015014414675533772,0.01146792434155941,-0.00016279371629934758,-0.00819369126111269
0.023612437769770622,0.0053314040414988995,-0.015651749446988106,0.011612458154559135,-0.00015919419820420444,-0.008625353686511517
0.023852339014410973,0.004990181885659695,-0.01551446970552206,0.011709903366863728,-0.00015575034194625914,-0.00872343685477972
0.024227840825915337,0.004771366715431213,-0.015600905753672123,0.011166069656610489,-0.000152452354086563,-0.009127662517130375
0.02458403818309307,0.004922749940305948,-0.015444380231201649,0.01136015448719263,-0.00014929132885299623,-0.00875408947467804
0.02420307695865631,0.005010700318962336,-0.015817631036043167,0.011259526014328003,-0.00014625850599259138,-0.008539372123777866
0.02417580969631672,0.005009333603084087,-0.01598905213177204,0.01120853517204523,-0.00014334639126900584,-0.008878149092197418
0.023761795833706856,0.0052062575705349445,-0.015509308315813541,0.011366156861186028,-0.00013785714691039175,-0.009170299395918846
0.023761795833706856,0.0052062575705349445,-0.015509308315813541,0.011366156861186028,-0.00013785714691039175,-0.009170299395918846
0.024743804708123207,0.004670156631618738,-0.015682747587561607,0.012103311717510223,-0.0001327726786257699,-0.009750074706971645
0.024682413786649704,0.004783934447914362,-0.015514696948230267,0.01179562509059906,-0.00013036865857429802,-0.009747978299856186
0.02467029169201851,0.004844374489039183,-0.0159456729888916,0.011734586209058762,-0.0001280502328881994,-0.009402371942996979
0.02467029169201851,0.004844374489039183,-0.0159456729888916,0.011734586209058762,-0.0001280502328881994,-0.009402371942996979
0.025267701596021652,0.00520725641399622,-0.01541209314018488,0.012022487819194794,-0.00012365190195851028,-0.009219128638505936
0.025222070515155792,0.004917818587273359,-0.015369037166237831,0.01187492161989212,-0.00012156397133367136,-0.010277154855430126
0.025222070515155792,0.004917818587273359,-0.015369037166237831,0.01187492161989212,-0.00012156397133367136,-0.010277154855430126
0.02492455765604973,0.004966252949088812,-0.015855317935347557,0.01175606157630682,-7.701147114858031e-05,-0.009686124511063099
0.02492455765604973,0.004966252949088812,-0.015855317935347557,0.01175606157630682,-7.701147114858031e-05,-0.009686124511063099
0.02525855042040348,0.004773525986820459,-0.015843313187360764,0.011307683773338795,-7.507819827878848e-05,-0.010112635791301727
0.025158716365695,0.0054144905880093575,-0.016043465584516525,0.01195986196398735,-7.380454189842567e-05,-0.009790938347578049
0.025583390146493912,0.00516162347048521,-0.015744106844067574,0.011901375837624073,-7.261089922394603e-05,-0.009795289486646652
0.025535035878419876,0.004408827051520348,-0.01599675975739956,0.012073187157511711,-7.145768904592842e-05,-0.010092170909047127
0.025391368195414543,0.004399643745273352,-0.015476422384381294,0.012417701072990894,-7.034067675704136e-05,-0.010749872773885727
0.025916628539562225,0.004566078539937735,-0.016162855550646782,0.0119545953348279,-6.925805791979656e-05,-0.010456481948494911
0.02594137191772461,0.005005672574043274,-0.015742380172014236,0.012357070110738277,-6.82082973071374e-05,-0.010628961957991123
0.025712473317980766,0.0049896640703082085,-0.01659591868519783,0.01223067007958889,-6.718987424392253e-05,-0.010782985016703606
0.02588256448507309,0.004954309668391943,-0.016087904572486877,0.012777671217918396,-6.620150088565424e-05,-0.010396470315754414
0.026042727753520012,0.004715916700661182,-0.015845051035284996,0.012834482826292515,-6.524162017740309e-05,-0.010493415407836437
0.02592070773243904,0.004586427938193083,-0.016442138701677322,0.012813943438231945,-7.064596866257489e-05,-0.010450663976371288
0.025775164365768433,0.0045457035303115845,-0.0164248775690794,0.013049832545220852,-7.565777923446149e-05,-0.010455688461661339
0.026198862120509148,0.004590068943798542,-0.017158161848783493,0.012654418125748634,-7.49989558244124e-05,-0.010655516758561134
0.026223722845315933,0.00468984292820096,-0.01625964418053627,0.012864201329648495,-7.399678725050762e-05,-0.010190119035542011
0.025979656726121902,0.004878953564912081,-0.016317274421453476,0.012382221408188343,-7.299816206796095e-05,-0.010482932440936565
0.026234520599246025,0.005054049659520388,-0.01631600596010685,0.012799844145774841,-8.24625458335504e-05,-0.01093361433595419
0.02723161317408085,0.00492183119058609,-0.0165997501462698,0.012557107955217361,-8.282050839625299e-05,-0.010810349136590958
0.02602459117770195,0.004532323218882084,-0.016320377588272095,0.0123716089874506,-8.648412040201947e-05,-0.010946233756840229
0.02344479411840439,0.004406421910971403,-0.01658017747104168,0.011923599988222122,-9.078677248908207e-05,-0.010786528699100018
0.026987982913851738,0.004902847111225128,-0.016708901152014732,0.01273375190794468,-9.009869245346636e-05,-0.010966560803353786
0.027277883142232895,0.004952761344611645,-0.01641976460814476,0.012207196094095707,-0.00018530030502006412,-0.010305331088602543
0.027277883142232895,0.004952761344611645,-0.01641976460814476,0.012207196094095707,-0.00018530030502006412,-0.010305331088602543
0.026740236207842827,0.004626923706382513,-0.016586313024163246,0.012466012500226498,-0.0001773387921275571,-0.010720002464950085
0.026740236207842827,0.004626923706382513,-0.016586313024163246,0.012466012500226498,-0.0001773387921275571,-0.010720002464950085
0.026972202584147453,0.0045662811025977135,-0.016733696684241295,0.012510979548096657,-0.00020245256018824875,-0.010821550153195858
0.026808202266693115,0.004293455276638269,-0.01644274778664112,0.012556458823382854,-0.00021324284898582846,-0.011034460738301277
0.026678211987018585,0.004497856833040714,-0.017072325572371483,0.012409070506691933,-0.00022095073654782027,-0.011207831092178822
0.026071740314364433,0.004661652725189924,-0.016519397497177124,0.012813235633075237,-0.00022944113879930228,-0.011146633885800838
0.02621849998831749,0.004679450765252113,-0.01672675646841526,0.012414463795721531,-0.0002360398502787575,-0.011141758412122726
0.02752135507762432,0.004621220286935568,-0.01698017679154873,0.01292354241013527,-0.0004647151508834213,-0.011215276084840298
0.02768099121749401,0.004704771563410759,-0.01669212430715561,0.012715179473161697,-0.0005362174124456942,-0.011549883522093296
0.02715757116675377,0.004567236639559269,-0.017112599685788155,0.012931892648339272,-0.0006112483097240329,-0.011977946385741234
0.02687069959938526,0.0048770904541015625,-0.01673506759107113,0.012976608239114285,-0.0006057206774130464,-0.011591129936277866
0.026359256356954575,0.0048386636190116405,-0.017074773088097572,0.012820502743124962,-0.0010524657554924488,-0.011173498816788197
0.026962053030729294,0.004732740577310324,-0.017312651500105858,0.013599270954728127,-0.0009739587549120188,-0.010755217634141445
0.026963824406266212,0.004586705006659031,-0.016758810728788376,0.013466046191751957,-0.0008309801341965795,-0.010871711187064648
0.026776837185025215,0.004591129720211029,-0.017222441732883453,0.013764399103820324,-0.0008312776335515082,-0.011229916475713253
0.027455821633338928,0.0046866899356245995,-0.01677282527089119,0.013828746974468231,-0.0007406505756080151,-0.011536018922924995
0.027465226128697395,0.004733842331916094,-0.01734861731529236,0.013941772282123566,-0.0006630379357375205,-0.01127411238849163
0.02784535475075245,0.0052348896861076355,-0.017011653631925583,0.013691883534193039,-0.0006625400274060667,-0.011321221478283405
0.02795357257127762,0.00494893454015255,-0.017158573493361473,0.01384991966187954,-0.0006243734969757497,-0.011149290017783642
0.027908703312277794,0.004913493990898132,-0.0175902359187603,0.0135243721306324,-0.0005756759201176465,-0.011900323443114758
0.028005331754684448,0.004701309371739626,-0.01663782075047493,0.014093698933720589,-0.0005330991698428988,-0.011505872942507267
0.028005331754684448,0.004701309371739626,-0.01663782075047493,0.014093698933720589,-0.0005330991698428988,-0.011505872942507267
0.027776330709457397,0.004772423300892115,-0.017268743366003036,0.014206118881702423,-0.00037970225093886256,-0.011105331592261791
0.028195343911647797,0.004843329545110464,-0.017380064353346825,0.01400458812713623,-0.00034906057408079505,-0.011299381032586098
0.028636015951633453,0.005123965907841921,-0.017580833286046982,0.014163754880428314,-0.0003714422055054456,-0.011315585114061832
0.02851022593677044,0.0053542256355285645,-0.016652144491672516,0.013449480757117271,-0.0003613795561250299,-0.011126628145575523
0.028626862913370132,0.004700782708823681,-0.01705463044345379,0.01366329938173294,-0.00036714409361593425,-0.01104819681495428
0.028959600254893303,0.004624347668141127,-0.017329683527350426,0.013725528493523598,-0.0003709317243192345,-0.011705998331308365
0.02824798971414566,0.004918704740703106,-0.017543310299515724,0.013779345899820328,-0.00035186894820071757,-0.011173604987561703
0.028685828670859337,0.005037044174969196,-0.01764789968729019,0.013518817722797394,-0.0003745701687876135,-0.011105949059128761
0.028881700709462166,0.004678310360759497,-0.016842953860759735,0.014083829708397388,-0.0004184427671134472,-0.011622210964560509
0.028377268463373184,0.004405653104186058,-0.01752013899385929,0.013899493031203747,-0.000434067944297567,-0.012028981931507587
0.027058910578489304,0.004961598198860884,-0.017494456842541695,0.013838076032698154,-0.0004733819223474711,-0.011497637256979942
0.028817197307944298,0.004943068139255047,-0.017289498820900917,0.013983774930238724,-0.0004937039338983595,-0.011438881978392601
0.029333289712667465,0.0047258310951292515,-0.017744800075888634,0.01381576620042324,-0.0004735917318612337,-0.01183780562132597
0.029202187433838844,0.004526480101048946,-0.017444856464862823,0.013557984493672848,-0.0004959799698553979,-0.011953980661928654
0.029482780024409294,0.004878952633589506,-0.018214374780654907,0.01337209902703762,-0.00047102413373067975,-0.01157423760741949
0.028550563380122185,0.00492353830486536,-0.018517086282372475,0.013789939694106579,-0.0005812743911519647,-0.011806348338723183
0.02834186889231205,0.004587267991155386,-0.017642278224229813,0.01369507983326912,-0.0005568760680034757,-0.011846164241433144
0.029710037633776665,0.004925169050693512,-0.018040761351585388,0.01436549611389637,-0.0004982543177902699,-0.011870442889630795
0.029194066300988197,0.004861375782638788,-0.018056433647871017,0.013884779997169971,-0.0005319316405802965,-0.011352173052728176
0.029138073325157166,0.0048882020637393,-0.01818261109292507,0.01404510997235775,-0.0004891488933935761,-0.011646861210465431
0.030649425461888313,0.004695347975939512,-0.01893477328121662,0.01385279931128025,-0.00048499039257876575,-0.012267647311091423
0.029508566483855247,0.0049045393243432045,-0.01815379224717617,0.014073596335947514,-0.0004809011588804424,-0.012264671735465527
0.029263406991958618,0.00485617108643055,-0.018234210088849068,0.013619762845337391,-0.0005041668191552162,-0.012675845064222813
0.029080931097269058,0.0048063346184790134,-0.018704615533351898,0.014526978135108948,-0.0005318092880770564,-0.012520215474069118
0.029590286314487457,0.004947056993842125,-0.01886928826570511,0.014673016965389252,-0.0006067118956707418,-0.012290632352232933
0.029590286314487457,0.004947056993842125,-0.01886928826570511,0.014673016965389252,-0.0006067118956707418,-0.012290632352232933
0.02979442849755287,0.004975216928869486,-0.01903880201280117,0.013678149320185184,-0.0006274218903854489,-0.012098574079573154
0.029788723215460777,0.004877408966422081,-0.018976490944623947,0.014637259766459465,-0.0007647811435163021,-0.0124048525467515
0.029752476140856743,0.005054110195487738,-0.019097989425063133,0.014369730837643147,-0.0008751909481361508,-0.012583396397531033
0.02960224822163582,0.004885390400886536,-0.018878938630223274,0.01406528428196907,-0.0008196806302294135,-0.012821509502828121
0.029793038964271545,0.004983555991202593,-0.018824182450771332,0.013652008026838303,-0.0008025767747312784,-0.012467634864151478
0.029798418283462524,0.004986335523426533,-0.019640877842903137,0.014321655035018921,-0.000735442852601409,-0.012757593765854836
0.029993107542395592,0.005259403493255377,-0.020373813807964325,0.014263906516134739,-0.0006600231863558292,-0.012384952045977116
0.029957039281725883,0.005227064248174429,-0.019046572968363762,0.014904103241860867,-0.000659910321701318,-0.012280073948204517
0.030441250652074814,0.005015920847654343,-0.019373169168829918,0.014607730321586132,-0.0006221113144420087,-0.013012784533202648
0.03044784627854824,0.004799948073923588,-0.019439416006207466,0.014675527811050415,-0.0005737543106079102,-0.012688045389950275
0.030958078801631927,0.0048837908543646336,-0.018786879256367683,0.013811340555548668,-0.0005133014637976885,-0.012571408413350582
0.029087284579873085,0.0050876447930932045,-0.019577478989958763,0.014371762983500957,-0.0004496367764659226,-0.012408500537276268
0.03123878315091133,0.005408732686191797,-0.019903596490621567,0.013829795643687248,-0.0004473797744140029,-0.012985172681510448
0.03103652410209179,0.005360113922506571,-0.019636742770671844,0.014558876864612103,-0.0004460464115254581,-0.013161293230950832
0.03068905510008335,0.005226955749094486,-0.018955672159790993,0.014433044008910656,-0.00047373934648931026,-0.013324622064828873
0.030850311741232872,0.005024751182645559,-0.018854469060897827,0.015024461783468723,-0.0005036619259044528,-0.01315942034125328
0.030442653223872185,0.004909977316856384,-0.02050480991601944,0.014475737698376179,-0.000600829953327775,-0.013099594041705132
0.031198877841234207,0.005120938178151846,-0.020454538986086845,0.015228578820824623,-0.0007254159427247941,-0.013002697378396988
0.03149394318461418,0.005453352816402912,-0.019666370004415512,0.014056991785764694,-0.0007527805282734334,-0.013123552314937115
0.03159742429852486,0.005609017331153154,-0.01916572079062462,0.014844002202153206,-0.0006967327208258212,-0.01312569621950388
0.029355347156524658,0.005091399420052767,-0.01924257166683674,0.014672794379293919,-0.0007122161332517862,-0.013022973202168941
0.03027123585343361,0.00473438948392868,-0.019350554794073105,0.015147130936384201,-0.0007496883627027273,-0.013093002140522003
0.031581662595272064,0.004810969810932875,-0.019446905702352524,0.014708752743899822,-0.0007947543635964394,-0.012943960726261139
0.031533241271972656,0.005150602664798498,-0.020609166473150253,0.015028908848762512,-0.0007435019942931831,-0.013438229449093342
0.032429419457912445,0.005465167108923197,-0.02012324519455433,0.015866201370954514,-0.0007344164769165218,-0.013469511643052101
0.03236153721809387,0.0049533299170434475,-0.01942504569888115,0.015749607235193253,-0.0007063482189550996,-0.013402946293354034
0.03090718761086464,0.004493616055697203,-0.02037987671792507,0.015173908323049545,-0.0007116360939107835,-0.0134307025000453
0.03090718761086464,0.004493616055697203,-0.02037987671792507,0.015173908323049545,-0.0007116360939107835,-0.0134307025000453
0.031223228201270103,0.005010821856558323,-0.02055763080716133,0.014750747010111809,-0.0007288942579180002,-0.013635064475238323
0.03215179592370987,0.004986531101167202,-0.020157158374786377,0.014817900955677032,-0.0007496232865378261,-0.01336521003395319
0.032104458659887314,0.00493953563272953,-0.019913749769330025,0.01551834400743246,-0.0007662730058655143,-0.01366005465388298
0.03190815448760986,0.0051260353066027164,-0.020144859328866005,0.015218814834952354,-0.0007141839014366269,-0.0136042395606637
0.03189806640148163,0.00487901084125042,-0.02026452124118805,0.015466159209609032,-0.0007901207427494228,-0.014071098528802395
0.03189311549067497,0.004869052674621344,-0.020212797448039055,0.01481124572455883,-0.0008872671169228852,-0.01372120063751936
0.03227489814162254,0.004835002589970827,-0.020778866484761238,0.015563039109110832,-0.0008944534347392619,-0.013801081106066704
0.031933367252349854,0.005157480016350746,-0.020320052281022072,0.015552847646176815,-0.0010232576169073582,-0.013716441579163074
0.03267336264252663,0.005126102827489376,-0.019703596830368042,0.01602676324546337,-0.0011413147440180182,-0.01475061010569334
0.03259996324777603,0.0049740225076675415,-0.02055548131465912,0.01565108634531498,-0.0011188046773895621,-0.013049179688096046
0.03255279362201691,0.004680616781115532,-0.02100464329123497,0.015895187854766846,-0.001086527481675148,-0.01286906749010086
0.032402507960796356,0.005044589750468731,-0.02049499750137329,0.015808915719389915,-0.0010468994732946157,-0.013374053873121738
0.03245912119746208,0.004966142121702433,-0.02007457986474037,0.015913326293230057,-0.0010273006046190858,-0.013924497179687023
0.03287757560610771,0.005005417391657829,-0.020024927332997322,0.01594652235507965,-0.0010069564450532198,-0.013706962577998638
0.03348345309495926,0.0052855839021503925,-0.020190376788377762,0.015884997323155403,-0.0009833208750933409,-0.013501719571650028
0.033014439046382904,0.004978996701538563,-0.020216207951307297,0.016561359167099,-0.0009124781936407089,-0.013527845032513142
0.03307105600833893,0.0049280100502073765,-0.02060065232217312,0.016342831775546074,-0.0007971560698933899,-0.013622051104903221
0.032673466950654984,0.004945205524563789,-0.021217064931988716,0.016706379130482674,-0.0007777907303534448,-0.013901885598897934
0.03324885293841362,0.004827652592211962,-0.020506806671619415,0.01621750183403492,-0.0007621651748195291,-0.013487131334841251
0.03351043164730072,0.0052299294620752335,-0.02002638205885887,0.016479292884469032,-0.0007261424325406551,-0.014033723622560501
0.033608317375183105,0.005174939054995775,-0.020594099536538124,0.01622438244521618,-0.000676891126204282,-0.01416168361902237
0.033608317375183105,0.005174939054995775,-0.020594099536538124,0.01622438244521618,-0.000676891126204282,-0.01416168361902237
0.03431323170661926,0.005004724022001028,-0.020386124029755592,0.016339264810085297,-0.0006246085977181792,-0.014040368609130383
0.03427283838391304,0.005348841659724712,-0.020933683961629868,0.01576034352183342,-0.0005604851176030934,-0.014277992770075798
0.033609457314014435,0.00506128603592515,-0.02091880515217781,0.016130143776535988,-0.0005916065420024097,-0.014010428451001644
0.03426883742213249,0.005188874900341034,-0.020326457917690277,0.01609312742948532,-0.0006219635251909494,-0.014011139050126076
0.035468872636556625,0.005139060318470001,-0.020950620993971825,0.01675097458064556,-0.0006417017430067062,-0.013802965171635151
0.035407654941082,0.005351284518837929,-0.02205379121005535,0.017125191166996956,-0.0005982854636386037,-0.013784069567918777
0.03144949674606323,0.005287326406687498,-0.021651048213243484,0.01713508367538452,-0.000722080993000418,-0.013789717108011246
0.034440457820892334,0.005031868815422058,-0.021187227219343185,0.017778387293219566,-0.0007400466711260378,-0.014247873798012733
0.03548987954854965,0.005366003140807152,-0.021140174940228462,0.017251254990696907,-0.0006773839122615755,-0.01423562876880169
0.03482651337981224,0.0052164215594530106,-0.021174341440200806,0.01687656342983246,-0.0006035303231328726,-0.015019728802144527
0.0357879139482975,0.005131034646183252,-0.021428650245070457,0.016248488798737526,-0.0006090207025408745,-0.015106607228517532
0.0354965515434742,0.005631296895444393,-0.021810317412018776,0.015971755608916283,-0.0006135256844572723,-0.014815149828791618
0.03417675197124481,0.005136792082339525,-0.021605359390378,0.016523141413927078,-0.0005996729014441371,-0.014628693461418152
0.034064654260873795,0.004929214250296354,-0.02150736004114151,0.016473714262247086,-0.0005694178980775177,-0.014772793278098106
0.03579007834196091,0.005222015548497438,-0.021504243835806847,0.01719442382454872,-0.0005211827228777111,-0.014568407088518143
0.03522241860628128,0.005084302742034197,-0.021241098642349243,0.016924433410167694,-0.0005548630142584443,-0.014945406466722488
0.0350925475358963,0.005393927451223135,-0.021418485790491104,0.016539812088012695,-0.0005813268944621086,-0.01503473799675703
0.035489194095134735,0.005104892421513796,-0.021727439016103745,0.016263240948319435,-0.0006135540315881371,-0.014926159754395485
0.03552183881402016,0.005195078440010548,-0.021823978051543236,0.01629132591187954,-0.0007145344279706478,-0.014309453777968884
0.03539182245731354,0.004968076478689909,-0.021170668303966522,0.016831161454319954,-0.0008035382488742471,-0.014683161862194538
0.03540267050266266,0.0050913807936012745,-0.021277429535984993,0.016550472006201744,-0.0008213302353397012,-0.014603763818740845
0.035619381815195084,0.0055784378200769424,-0.021662119776010513,0.016824189573526382,-0.0007780191954225302,-0.014792125672101974
0.035601530224084854,0.005329403094947338,-0.021563438698649406,0.016511013731360435,-0.0007812206167727709,-0.014503584243357182
0.035635318607091904,0.005260406527668238,-0.021161634474992752,0.016881197690963745,-0.000814644736237824,-0.014546852558851242
0.035867493599653244,0.004981637466698885,-0.021556859835982323,0.01634925603866577,-0.0008466494618915021,-0.014781113713979721
0.03580354154109955,0.005171218886971474,-0.0211138017475605,0.01732231304049492,-0.0008613631944172084,-0.014646979048848152
0.03549445420503616,0.005538098979741335,-0.020957307890057564,0.017389150336384773,-0.000791120866779238,-0.01554060447961092
0.03549445420503616,0.005538098979741335,-0.020957307890057564,0.017389150336384773,-0.000791120866779238,-0.01554060447961092
0.03693690896034241,0.005505191162228584,-0.021973680704832077,0.017601173371076584,-0.0009025448234751821,-0.01468441728502512
0.03752875700592995,0.004503031261265278,-0.02198423258960247,0.017640406265854836,-0.0008415256161242723,-0.01416472066193819
0.03589123487472534,0.003796850098297,-0.021517211571335793,0.017469730228185654,-0.000845290080178529,-0.014707640744745731
0.03558771684765816,0.004210464656352997,-0.021254489198327065,0.018041931092739105,-0.0008302193018607795,-0.015050305053591728
0.036963798105716705,0.004177513532340527,-0.021707721054553986,0.01796554960310459,-0.0008557336986996233,-0.014926773495972157
0.03680361434817314,0.004480032715946436,-0.021916678175330162,0.018048325553536415,-0.0008797096088528633,-0.015142468735575676
0.037686191499233246,0.004527908284217119,-0.02142597734928131,0.018590787425637245,-0.0008668542723171413,-0.015359490178525448
0.03765266388654709,0.00470779137685895,-0.021155018359422684,0.01855078712105751,-0.0007879072800278664,-0.015210635960102081
0.036739036440849304,0.004213923122733831,-0.02172401174902916,0.018250245600938797,-0.0007880653720349073,-0.015418347902595997
0.03635337948799133,0.004393583629280329,-0.021325403824448586,0.017890462651848793,-0.0007723799208179116,-0.015224331989884377
0.03699014335870743,0.004743879195302725,-0.02159217558801174,0.01754092425107956,-0.0007096253102645278,-0.015551002696156502
0.03734419494867325,0.0045151980593800545,-0.021362068131566048,0.017942136153578758,-0.0007216518861241639,-0.015211716294288635
0.03762837499380112,0.004259460140019655,-0.021415775641798973,0.017197761684656143,-0.0007422249182127416,-0.015496690757572651
0.037272628396749496,0.00428623566403985,-0.021686507388949394,0.017519375309348106,-0.0007591362809762359,-0.015498409047722816
0.036775484681129456,0.00437769154086709,-0.0214140135794878,0.01785009540617466,-0.0007848754175938666,-0.015849018469452858
0.03728986158967018,0.003958739340305328,-0.02115606516599655,0.017106367275118828,-0.0008541083079762757,-0.015510838478803635
0.03784792125225067,0.004275176674127579,-0.021225837990641594,0.017539380118250847,-0.000864159781485796,-0.015548352152109146
0.037422582507133484,0.004184131044894457,-0.022060126066207886,0.017371194437146187,-0.0008836148772388697,-0.01565159112215042
0.037435341626405716,0.004501528572291136,-0.021962085738778114,0.01761724054813385,-0.0009377182577736676,-0.015741016715765
0.03841155022382736,0.0041614859364926815,-0.021315259858965874,0.01798960380256176,-0.0008890606113709509,-0.01600644178688526
0.037622950971126556,0.004383752588182688,-0.02209310233592987,0.017667461186647415,-0.0008774190791882575,-0.01571447215974331
0.03817064315080643,0.004491928033530712,-0.02272728644311428,0.017943672835826874,-0.000769779842812568,-0.015880651772022247
0.03829662874341011,0.004528719000518322,-0.022147437557578087,0.018333930522203445,-0.0007563247927464545,-0.015958422794938087
0.037923380732536316,0.004379501566290855,-0.022719107568264008,0.0180157832801342,-0.000706719933077693,-0.015841053798794746
0.038456451147794724,0.0043260036036372185,-0.022799810394644737,0.01802982948720455,-0.0006531504332087934,-0.01609477587044239
0.038400646299123764,0.00434306962415576,-0.023277882486581802,0.018401293084025383,-0.0005608847714029253,-0.01613369956612587
0.03856828063726425,0.004921661224216223,-0.022668970748782158,0.019012510776519775,-0.000568491464946419,-0.016188550740480423
0.03890668600797653,0.004933604039251804,-0.022099239751696587,0.018815219402313232,-0.0005995055544190109,-0.016305239871144295
0.0388619489967823,0.004354485310614109,-0.0220022015273571,0.018466854467988014,-0.0006265604752115905,-0.016264459118247032
0.0388619489967823,0.004354485310614109,-0.0220022015273571,0.018466854467988014,-0.0006265604752115905,-0.016264459118247032
0.038517046719789505,0.004247513134032488,-0.022172527387738228,0.01835237443447113,-0.0005987737094983459,-0.016547061502933502
0.03891242295503616,0.00470588356256485,-0.02312079258263111,0.017628252506256104,-0.000902234110981226,-0.016290005296468735
0.03869848698377609,0.004852007608860731,-0.022756511345505714,0.017885973677039146,-0.0009188561816699803,-0.016556769609451294
0.039397746324539185,0.004905113019049168,-0.02246890589594841,0.018574243411421776,-0.0009175477316603065,-0.016493825241923332
0.04073913022875786,0.005136379040777683,-0.023083379492163658,0.018925612792372704,-0.0008390072034671903,-0.017157234251499176
0.03778840973973274,0.004961283411830664,-0.023284142836928368,0.019598782062530518,-0.00082471186760813,-0.01573650911450386
0.038101691752672195,0.0047833481803536415,-0.023719852790236473,0.01958988979458809,-0.0008672875701449811,-0.01541109848767519
0.03907417878508568,0.004681803286075592,-0.022887149825692177,0.019014714285731316,-0.0008741499041207135,-0.016257470473647118
0.03933512419462204,0.005073371343314648,-0.0223573986440897,0.019252978265285492,-0.0008492241031490266,-0.01655598357319832
0.04008224233984947,0.005188684444874525,-0.022707683965563774,0.019108224660158157,-0.0008046348229981959,-0.01672004908323288
0.03903503715991974,0.004975855816155672,-0.023069508373737335,0.018845153972506523,-0.000786983291618526,-0.016609923914074898
0.038311801850795746,0.004702100530266762,-0.0235691349953413,0.01907961256802082,-0.000792639097198844,-0.016869140788912773
0.03942611441016197,0.004622741136699915,-0.02339348942041397,0.019254785031080246,-0.0007472151191905141,-0.01670319214463234
0.040095530450344086,0.004636445082724094,-0.02297879382967949,0.01945631019771099,-0.0007543415413238108,-0.01648504100739956
0.039366211742162704,0.004686878528445959,-0.023149093613028526,0.02018687315285206,-0.0006852219812572002,-0.016804827377200127
0.04043135792016983,0.00521589582785964,-0.02312813699245453,0.020039862021803856,-0.000661256315652281,-0.01692519709467888
0.039797231554985046,0.005131070967763662,-0.023723140358924866,0.018991617485880852,-0.0006408358458429575,-0.017382832244038582
0.04008208587765694,0.0048461128026247025,-0.023082274943590164,0.01837080717086792,-0.0006069711525924504,-0.017127221450209618
0.039933327585458755,0.005036651622503996,-0.02291429229080677,0.01815957762300968,-0.0006073098629713058,-0.016771100461483
0.03940299525856972,0.004991610534489155,-0.023171178996562958,0.018552102148532867,-0.0005897331284359097,-0.01681123673915863
0.0401141420006752,0.0059620230458676815,-0.023575978353619576,0.02012251317501068,-0.0005660129245370626,-0.01710321567952633
0.03999412804841995,0.006307375151664019,-0.023480674251914024,0.019517172127962112,-0.0005846632411703467,-0.017485059797763824
0.040105290710926056,0.004540181253105402,-0.02299174666404724,0.01985984295606613,-0.0006877200212329626,-0.01766885817050934
0.041772935539484024,0.004995725117623806,-0.02362293377518654,0.020458219572901726,-0.0007327597122639418,-0.018041206523776054
0.040622513741254807,0.005469050724059343,-0.023667151108384132,0.020656399428844452,-0.0007547672721557319,-0.017548292875289917
0.040622513741254807,0.005469050724059343,-0.023667151108384132,0.020656399428844452,-0.0007547672721557319,-0.017548292875289917
0.03947121277451515,0.0054603382013738155,-0.02375202812254429,0.020155269652605057,-0.0007460917695425451,-0.017405696213245392
0.04132167994976044,0.005132393445819616,-0.023856675252318382,0.020159700885415077,-0.0007165817078202963,-0.01736278086900711
0.04089604690670967,0.005193659570068121,-0.023403353989124298,0.019523896276950836,-0.00081279018195346,-0.016598708927631378
0.04151048883795738,0.005195844918489456,-0.023255037143826485,0.01949550211429596,-0.000833547324873507,-0.017027804628014565
0.04239419847726822,0.005704681854695082,-0.02327101118862629,0.019870148971676826,-0.0008431058377027512,-0.016959726810455322
0.03942958265542984,0.005254257004708052,-0.024195440113544464,0.02036561630666256,-0.0008499828400090337,-0.017610114067792892
0.04142746701836586,0.004915793891996145,-0.02467678301036358,0.020335450768470764,-0.0009317165240645409,-0.017584847286343575
0.04207722842693329,0.005802998319268227,-0.023913610726594925,0.020405873656272888,-0.000944527389947325,-0.01723923720419407
0.0408804677426815,0.0054063331335783005,-0.023574456572532654,0.02034948766231537,-0.0009388407343067229,-0.018547240644693375
0.041167911142110825,0.004841560963541269,-0.023576896637678146,0.019845062866806984,-0.000824638525955379,-0.0167220626026392
0.04146922007203102,0.0050386711955070496,-0.024035373702645302,0.02002100832760334,-0.0008260449976660311,-0.016982456669211388
0.04142582789063454,0.004931253381073475,-0.024821404367685318,0.020026598125696182,-0.0007901897188276052,-0.01742704026401043
0.041238781064748764,0.005431025754660368,-0.02488672360777855,0.019879519939422607,-0.0008080296101979911,-0.01733897253870964
0.04150604084134102,0.005323268473148346,-0.024534622207283974,0.020085249096155167,-0.0008856794447638094,-0.01728835143148899
0.04154403507709503,0.005014176480472088,-0.02472878247499466,0.020733680576086044,-0.0008411385351791978,-0.017261410132050514
0.04233972728252411,0.005086057353764772,-0.024872800335288048,0.020838817581534386,-0.0009825482266023755,-0.01751859299838543
0.042085736989974976,0.005086216609925032,-0.02520866133272648,0.020169975236058235,-0.0009821157436817884,-0.01777924783527851
0.04212632402777672,0.0057500675320625305,-0.02456800453364849,0.020055443048477173,-0.0009162140777334571,-0.017875617370009422
0.04174891114234924,0.005407889373600483,-0.024441124871373177,0.020111730322241783,-0.0008522049174644053,-0.017985854297876358
0.042975351214408875,0.005214653443545103,-0.02559397928416729,0.019465280696749687,-0.0007660231203772128,-0.017866019159555435
0.04193530231714249,0.005389627069234848,-0.025663236156105995,0.01940087229013443,-0.000685171689838171,-0.017440754920244217
0.042269833385944366,0.00547049380838871,-0.024932630360126495,0.019230345264077187,-0.0005929588223807514,-0.017291363328695297
0.042627543210983276,0.005130679812282324,-0.024911897256970406,0.0197355505079031,-0.0006206698017194867,-0.01779954507946968
0.042821887880563736,0.005659515969455242,-0.025058554485440254,0.02002360112965107,-0.0006492405664175749,-0.017900552600622177
0.04254067689180374,0.005264061037451029,-0.025352954864501953,0.01985793001949787,-0.0006737289950251579,-0.017574846744537354
0.04228872060775757,0.005226294044405222,-0.02547297440469265,0.01971011608839035,-0.0008648409857414663,-0.017354337498545647
0.04226360097527504,0.0048778727650642395,-0.025571061298251152,0.01996508054435253,-0.0008803907549008727,-0.017626622691750526
0.042341865599155426,0.004765389021486044,-0.025783400982618332,0.019874949008226395,-0.0008749299449846148,-0.0179754551500082
0.042341865599155426,0.004765389021486044,-0.025783400982618332,0.019874949008226395,-0.0008749299449846148,-0.0179754551500082
0.04382356256246567,0.004750561434775591,-0.02577880769968033,0.01999320648610592,-0.0007815863937139511,-0.0176586601883173
0.042621999979019165,0.004939048085361719,-0.025876866653561592,0.02037661150097847,-0.0007882214267738163,-0.018108047544956207
0.04129813611507416,0.004730433691293001,-0.025711441412568092,0.020605336874723434,-0.0007415604195557535,-0.01819022372364998
0.042721256613731384,0.004598525818437338,-0.02549988031387329,0.020154623314738274,-0.0007272815564647317,-0.017743902280926704
0.043208781629800797,0.004460579250007868,-0.025840703397989273,0.020414229482412338,-0.0007471911376342177,-0.017938071861863136
0.04470384120941162,0.004861752036958933,-0.02613077312707901,0.020896155387163162,-0.0007902284851297736,-0.01833207532763481
0.04310920462012291,0.004825706593692303,-0.026014091446995735,0.021682659164071083,-0.0009848031913861632,-0.018233096227049828
0.041768673807382584,0.005042018834501505,-0.02616802230477333,0.02112000808119774,-0.0010334288235753775,-0.01939103566110134
0.04363596439361572,0.004941973369568586,-0.026385119184851646,0.020983092486858368,-0.0010259815026074648,-0.01764495298266411
0.043734483420848846,0.004308608360588551,-0.02641311287879944,0.020115481689572334,-0.0010089077986776829,-0.017401104792952538
0.04356967657804489,0.004428472835570574,-0.026028748601675034,0.019471969455480576,-0.0011267128866165876,-0.017804449424147606
0.04373195394873619,0.004629571456462145,-0.025900833308696747,0.020973479375243187,-0.0010239239782094955,-0.018277417868375778
0.043184228241443634,0.004735429305583239,-0.025892486795783043,0.02161930315196514,-0.001068038516677916,-0.018632084131240845
0.04363178089261055,0.005055184941738844,-0.02559835836291313,0.0212602186948061,-0.0009954407578334212,-0.01907435804605484
0.04316987469792366,0.004483019933104515,-0.026050066575407982,0.02044106461107731,-0.0010350263910368085,-0.018447302281856537
0.043550897389650345,0.004525838885456324,-0.026103194802999496,0.021505488082766533,-0.0009410475613549352,-0.01814476028084755
0.04312296584248543,0.0045046377927064896,-0.025845088064670563,0.02227749675512314,-0.0009299674420617521,-0.017985086888074875
0.04479876160621643,0.004701998550444841,-0.026059187948703766,0.02220606617629528,-0.0008732924470677972,-0.018009895458817482
0.044284772127866745,0.004810808692127466,-0.026520686224102974,0.02105868235230446,-0.0008233498083427548,-0.0187629833817482
0.04322502389550209,0.0051328702829778194,-0.02656049281358719,0.021421300247311592,-0.0007729009375907481,-0.01892983540892601
0.04322502389550209,0.0051328702829778194,-0.02656049281358719,0.021421300247311592,-0.0007729009375907481,-0.01892983540892601
0.043094560503959656,0.004851761274039745,-0.025957141071558,0.02147974818944931,-0.0007965554250404239,-0.01887277327477932
0.04454360157251358,0.0047833300195634365,-0.026105279102921486,0.021654920652508736,-0.0008148776832967997,-0.018502062186598778
0.04402513802051544,0.00436478340998292,-0.02622479759156704,0.022054992616176605,-0.0011514167999848723,-0.018746038898825645
0.04186059907078743,0.004539227578788996,-0.0265062116086483,0.021952392533421516,-0.0011483202688395977,-0.019439440220594406
0.044248346239328384,0.004934458993375301,-0.026632212102413177,0.02148813009262085,-0.0011284645879641175,-0.019789403304457664
0.044258542358875275,0.004953394643962383,-0.026613201946020126,0.021230796352028847,-0.0011417532805353403,-0.01915854401886463
0.043805141001939774,0.004707907326519489,-0.026403628289699554,0.022002549842000008,-0.001096026855520904,-0.018671730533242226
0.043599601835012436,0.0042392960749566555,-0.02612103335559368,0.021870849654078484,-0.0009932930115610361,-0.018196741119027138
0.04397743567824364,0.004336604382842779,-0.02698206715285778,0.02114730142056942,-0.0009127911180257797,-0.01856064796447754
0.04443511366844177,0.0046875253319740295,-0.027104713022708893,0.020525753498077393,-0.000906580884475261,-0.019076013937592506
0.04373421147465706,0.004774623084813356,-0.026598136872053146,0.02089536562561989,-0.0007791174575686455,-0.019168391823768616
0.043993882834911346,0.00471680611371994,-0.027271924540400505,0.021239275112748146,-0.0007245081942528486,-0.01919357292354107
0.044073350727558136,0.004983858205378056,-0.027029184624552727,0.02080969326198101,-0.000742301985155791,-0.019693272188305855
0.04488435015082359,0.004738976247608662,-0.026412349194288254,0.020687811076641083,-0.0007854807772673666,-0.01837938278913498
0.04458129033446312,0.00438031367957592,-0.025967922061681747,0.021137714385986328,-0.0009446439216844738,-0.018518874421715736
