davideferrari95/blind_handover_controller/data/Test 156 - [2024-02-08 -- 11-00-06]/joint_states_data.csv
shoulder_pan_joint,shoulder_lift_joint,elbow_joint,wrist_1_joint,wrist_2_joint,wrist_3_joint
-0.005216715857386589,-0.011805374175310135,-2.078302909272727e-15,0.01212591677904129,0.0,-0.00410618307068944
-0.004739441908895969,-0.011929783038794994,-3.7408721044949002e-19,0.012270535342395306,0.0,-0.003803528845310211
-0.004739441908895969,-0.011929783038794994,-3.7408721044949002e-19,0.012270535342395306,0.0,-0.003803528845310211
-0.005054873879998922,-0.012258460745215416,-5.0188569743544075e-21,0.01212856825441122,0.0,-0.0039873854257166386
-0.004855806939303875,-0.012473578564822674,-6.733437114661746e-23,0.012723061256110668,0.0,-0.0043272641487419605
-0.004925585817545652,-0.011999528855085373,-9.033764901730989e-25,0.012445714324712753,0.0,-0.004463386256247759
-0.004795660264790058,-0.012211181223392487,-1.2119948014250829e-26,0.012129809707403183,0.0,-0.0048486473970115185
-0.004706622567027807,-0.011475134640932083,-1.6260456797885083e-28,0.012415876612067223,0.0,-0.004450617358088493
-0.00467270240187645,-0.011821730062365532,-2.181547867781455e-30,0.011932386085391045,0.0,-0.004019124899059534
-0.0049925297498703,-0.011547711677849293,-2.926824886672424e-32,0.012264278717339039,0.0,-0.004056716803461313
-0.004532711114734411,-0.011844653636217117,-3.9267090323856e-34,0.011988427489995956,0.0,-0.004041241481900215
-0.00453829625621438,-0.01268862932920456,-5.268180904005887e-36,0.012055248022079468,0.0,-0.003902123076841235
-0.004653644282370806,-0.011409994214773178,-7.067937017207186e-38,0.012337082996964455,0.0,-0.0038344133645296097
-0.004653644282370806,-0.011409994214773178,-7.067937017207186e-38,0.012337082996964455,0.0,-0.0038344133645296097
-0.005090466234833002,-0.01157324481755495,-9.482544669132107e-40,0.011997169815003872,0.0,-0.0041681076399981976
-0.004929864779114723,-0.011377456597983837,-1.2722388757605014e-41,0.011689986102283001,0.0,-0.0041368030942976475
-0.004453228320926428,-0.011617546901106834,-1.7095841264762768e-43,0.011302674189209938,0.0,-0.004033105913549662
-0.00423810537904501,-0.012361894361674786,-2.802596928649634e-45,0.011633939109742641,0.0,-0.004211151506751776
-0.0038750269450247288,-0.011344322003424168,-0.0,0.011167295277118683,0.0,-0.004286774899810553
-0.0034691356122493744,-0.011529539711773396,-0.0,0.011999687179923058,0.0,-0.004430724773555994
-0.003305826336145401,-0.011302650906145573,-0.0,0.01170208677649498,0.0,-0.004260620102286339
-0.0035142283886671066,-0.011532864533364773,-0.0,0.011698061600327492,0.0,-0.004056823905557394
-0.0037994023878127337,-0.01251350436359644,-0.0,0.011600098572671413,0.0,-0.003912663087248802
-0.003442424116656184,-0.011468864046037197,-0.0,0.011748269200325012,0.0,-0.0038070809096097946
-0.003546864725649357,-0.011683681048452854,-0.0,0.011407323181629181,0.0,-0.004151478875428438
-0.0037812371738255024,-0.011949917301535606,-0.0,0.011819534935057163,0.0,-0.004533125553280115
-0.0033599575981497765,-0.011865413747727871,-0.0,0.0115754883736372,0.0,-0.004547069780528545
-0.002937853569164872,-0.012109901756048203,-0.0,0.011362321674823761,0.0,-0.004297749139368534
-0.0028994029853492975,-0.011992039158940315,-0.0,0.011397420428693295,0.0,-0.004082546569406986
-0.0035098176449537277,-0.012644958682358265,6.77479911246337e-05,0.011106140911579132,0.0,-0.003982680384069681
-0.003767512273043394,-0.011803184635937214,5.8273737522540614e-05,0.011479862034320831,0.0,-0.0043547023087739944
-0.0032909067813307047,-0.011953389272093773,5.4639731388306245e-05,0.011423543095588684,0.0,-0.0043617538176476955
-0.0030362182296812534,-0.01203889399766922,5.302987483446486e-05,0.011349073611199856,0.0,-0.004230868071317673
-0.0030541124287992716,-0.01229857187718153,5.151243385626003e-05,0.011457049287855625,0.0,-0.00431935116648674
-0.003337317146360874,-0.011659117415547371,5.0079095672117546e-05,0.011414657346904278,0.0,-0.004188575316220522
-0.003417986212298274,-0.011974488385021687,4.872361751040444e-05,0.011372893117368221,0.0,-0.0040062121115624905
-0.0035025281831622124,-0.011598799377679825,4.7439421905437484e-05,0.01106355432420969,0.0,-0.004313414450734854
-0.0032869181595742702,-0.011669279076159,4.622122651198879e-05,0.011484759859740734,0.0,-0.004182570148259401
-0.0035490593872964382,-0.012569141574203968,4.506411642068997e-05,0.011192080564796925,0.0,-0.004388528876006603
-0.0035490593872964382,-0.012569141574203968,4.506411642068997e-05,0.011192080564796925,0.0,-0.004388528876006603
-0.003805643180385232,-0.01177466381341219,4.396348958835006e-05,0.011568418703973293,0.0,-0.004296775907278061
-0.0038507035933434963,-0.012060066685080528,4.291532241040841e-05,0.0119853550568223,0.0,-0.0043539260514080524
-0.003393688937649131,-0.011781102046370506,4.1915944166248664e-05,0.011499996297061443,0.0,-0.004200587514787912
-0.0031166207045316696,-0.011844621039927006,4.0962080674944445e-05,0.011566841043531895,0.0,-0.004715193063020706
-0.0031382276210933924,-0.011980577372014523,5.3222087444737554e-05,0.011325270868837833,0.0,-0.00450360169634223
-0.0033085905015468597,-0.011541097424924374,5.8676552725955844e-05,0.011655705980956554,0.0,-0.004056047182530165
-0.0033570725936442614,-0.012410161085426807,5.751530989073217e-05,0.011667477898299694,0.0,-0.004209150094538927
-0.0035300806630402803,-0.01151618268340826,5.631691965390928e-05,0.01165943406522274,0.0,-0.004201387520879507
-0.0036997830029577017,-0.011526955291628838,5.516620149137452e-05,0.011480641551315784,0.0,-0.0043451664969325066
-0.0037835657130926847,-0.011692357249557972,5.406164927990176e-05,0.01097002625465393,0.0,-0.004590078257024288
-0.0038514770567417145,-0.011653881520032883,5.3000461775809526e-05,0.011084575206041336,0.0,-0.004761535208672285
-0.003949081990867853,-0.011710180900990963,5.198012513574213e-05,0.011070647276937962,0.0,-0.0047545284032821655
-0.004082480911165476,-0.011425964534282684,6.731802568538114e-05,0.011020117439329624,0.0,-0.004287370014935732
-0.003546756925061345,-0.011528447270393372,6.672820018138736e-05,0.0113971633836627,0.0,-0.0043448759242892265
-0.0035496733617037535,-0.011329877190291882,6.55224866932258e-05,0.011565754190087318,0.0,-0.004543715622276068
-0.004192792344838381,-0.011481169611215591,6.322131957858801e-05,0.011259863153100014,0.0,-0.004712427034974098
-0.004172987770289183,-0.011699149385094643,6.213024607859552e-05,0.010876369662582874,0.0,-0.0043166205286979675
-0.004028689581900835,-0.011548440903425217,6.107617809902877e-05,0.011547036468982697,0.0,-0.004256097134202719
-0.003509225556626916,-0.011229918338358402,6.005728573654778e-05,0.0112538430839777,0.0,-0.003972407430410385
-0.003522735321894288,-0.01118110865354538,7.21151300240308e-05,0.011143878102302551,0.0,-0.003766587469726801
-0.0036621710751205683,-0.011660231277346611,7.262471626745537e-05,0.011564657092094421,0.0,-0.00385233573615551
-0.0037520232144743204,-0.01094302348792553,7.149331941036507e-05,0.011095059104263783,0.0,-0.004363561049103737
-0.0038694285321980715,-0.010756467469036579,7.037556497380137e-05,0.010687526315450668,0.0,-0.004668681416660547
-0.003941565752029419,-0.01118252519518137,0.00012194123701192439,0.010826759971678257,0.0,-0.0049529289826750755
-0.00346882245503366,-0.010413143783807755,0.0001253165100933984,0.01060185581445694,0.0,-0.004499976523220539
-0.003520467085763812,-0.010744870640337467,0.00012200989294797182,0.011250980198383331,0.0,-0.004332781303673983
-0.0036723611410707235,-0.010979371145367622,0.0001187903544632718,0.01127452403306961,0.0,-0.004036368802189827
-0.0037756841629743576,-0.010575530119240284,0.0001157350416178815,0.01097213663160801,0.0,-0.0043755872175097466
-0.003827046137303114,-0.01110846921801567,0.00011283318599453196,0.010870924219489098,0.0,-0.004462724085897207
-0.003827046137303114,-0.01110846921801567,0.00011283318599453196,0.010870924219489098,0.0,-0.004462724085897207
-0.0031400606967508793,-0.010878938250243664,0.00012892234371975064,0.01081604789942503,0.0,-0.00453937565907836
-0.0031400606967508793,-0.010878938250243664,0.00012892234371975064,0.01081604789942503,0.0,-0.00453937565907836
-0.0033794897608458996,-0.011127221398055553,0.00012592716666404158,0.010782863013446331,0.0,-0.004149689804762602
-0.00362319964915514,-0.010231808759272099,0.00012305767450015992,0.01071300357580185,0.0,-0.003825443796813488
-0.0037687334697693586,-0.010507194325327873,0.00013956449402030557,0.010665704496204853,0.0,-0.0038850747514516115
-0.0037555736489593983,-0.010785002261400223,0.0001372986298520118,0.010876314714550972,0.0,-0.004095373209565878
-0.003597656963393092,-0.010820825584232807,0.00013438024325296283,0.010624143294990063,0.0,-0.004461078438907862
-0.003384154522791505,-0.011149573139846325,0.00013157413923181593,0.010939770378172398,0.0,-0.004758812487125397
-0.0034405519254505634,-0.011063597165048122,0.00014655699487775564,0.010590261779725552,0.0,-0.0047758505679667
-0.003685836447402835,-0.010339406318962574,0.00014433148317039013,0.010961589403450489,0.0,-0.004687590058892965
-0.003577360650524497,-0.010825686156749725,0.00014150465722195804,0.010930856689810753,0.0,-0.004674811847507954
-0.003491229610517621,-0.010095394216477871,0.0001387772208545357,0.010613895021378994,0.0,-0.004554846324026585
-0.0037426564376801252,-0.010831231251358986,0.0001336260756943375,0.010733410716056824,0.0,-0.0040892730467021465
-0.003734791884198785,-0.010313279926776886,0.00020937905355822295,0.010270248167216778,0.0,-0.004351587500423193
-0.003368282923474908,-0.010924967005848885,0.0002097339165629819,0.01080131996423006,0.0,-0.004602189641445875
-0.0033169800881296396,-0.01133855152875185,0.0002005247224587947,0.010069907642900944,0.0,-0.004694824106991291
-0.003350507467985153,-0.010287778452038765,0.00019197123765479773,0.009782116860151291,0.0,-0.00428429152816534
-0.0033630908001214266,-0.010483518242835999,0.00018411624478176236,0.010225961916148663,0.0,-0.004468122497200966
-0.0035690930671989918,-0.01057292241603136,0.00014199737051967531,0.009959079325199127,0.0,-0.004186679143458605
-0.0033863261342048645,-0.010058014653623104,0.00013615816715173423,0.009861450642347336,0.0,-0.004405203741043806
-0.0034915641881525517,-0.01024909969419241,0.0001311896339757368,0.010392325930297375,0.0,-0.004584452137351036
-0.0032413366716355085,-0.010695107281208038,0.00012657690967898816,0.009680530056357384,0.0,-0.0046652392484247684
-0.0029902812093496323,-0.009939388372004032,9.512331598671153e-05,0.009577342309057713,0.0,-0.004610516130924225
-0.0029967441223561764,-0.010081280954182148,8.528159378329292e-05,0.009654887020587921,0.0,-0.0044458224438130856
-0.0032570043113082647,-0.009652536362409592,2.709879117901437e-05,0.009385011158883572,0.0,-0.00402400828897953
-0.003216765122488141,-0.009873959235846996,3.6356487953526084e-07,0.00935366377234459,0.0,-0.003852599998936057
-0.003396691055968404,-0.010337362997233868,4.877686698989692e-09,0.009557243436574936,1.8653734059626004e-06,-0.004744021221995354
-0.003219719510525465,-0.009799779392778873,6.544038921862949e-11,0.009259983897209167,1.217955514221103e-07,-0.005169164855033159
-0.0029474736656993628,-0.009878869168460369,8.779662652273756e-13,0.00898705329746008,7.952379199593906e-09,-0.005287514999508858
-0.0031525599770247936,-0.00997607409954071,1.1779038370227958e-14,0.009036729112267494,5.192335450487917e-10,-0.004898828454315662
-0.0031525599770247936,-0.00997607409954071,1.1779038370227958e-14,0.009036729112267494,5.192335450487917e-10,-0.004898828454315662
-0.0033374971244484186,-0.009887049905955791,1.580308178552266e-16,0.009135669097304344,3.3902238655292294e-11,-0.004414924420416355
-0.0031432153191417456,-0.01024338323622942,2.120185091933149e-18,0.008999834768474102,2.213573942200231e-12,-0.004418278578668833
-0.002974366769194603,-0.01012218277901411,2.844498996924548e-20,0.009080425836145878,1.4453055993766256e-13,-0.00414311746135354
-0.0029526620637625456,-0.009679892100393772,3.816258391018012e-22,0.009283979423344135,9.436811853052052e-15,-0.0043868026696145535
-0.0030395290814340115,-0.01022260170429945,5.119997575697488e-24,0.00905224122107029,6.161563297882484e-16,-0.004700049292296171
-0.00319648371078074,-0.010066770948469639,6.869129591728401e-26,0.009448328986763954,4.0230600762173894e-17,-0.004694772884249687
-0.003395272418856621,-0.009769820608198643,9.215813599206028e-28,0.009371870197355747,2.6267707649856306e-18,-0.004765482619404793
-0.0032438517082482576,-0.00967602152377367,1.2364189628954626e-29,0.00907228048890829,1.7150934719145522e-19,-0.004663513507694006
-0.003227083943784237,-0.009822915308177471,1.6588140170399966e-31,0.009234440512955189,1.1198335589825943e-20,-0.004452053923159838
-0.003175606019794941,-0.010617057792842388,2.985806734583348e-35,0.008851968683302402,0.00023082987172529101,-0.004703938495367765
-0.0031232351902872324,-0.009988171979784966,4.005840576389622e-37,0.00842931866645813,0.00031042227055877447,-0.004699658136814833
-0.002822855720296502,-0.009694050997495651,5.3743467508833266e-39,0.009289614856243134,0.0003219662175979465,-0.004545276053249836
-0.0027567921206355095,-0.010484391823410988,7.210381248183346e-41,0.008323688060045242,0.0003497965808492154,-0.004649629816412926
-0.0032515418715775013,-0.010054826736450195,9.668959403841238e-43,0.007828963920474052,0.0003789770998992026,-0.005084256641566753
-0.002980986377224326,-0.009853025898337364,1.2611686178923354e-44,0.008252875879406929,0.0007032795692794025,-0.004644189961254597
-0.003082830226048827,-0.010417059995234013,0.0,0.008033102378249168,0.000805505143944174,-0.00457769213244319
-0.002990236273035407,-0.010034842416644096,-0.0,0.008027000352740288,0.0007926688995212317,-0.004437914118170738
-0.0029419248457998037,-0.009868577122688293,-0.0,0.008001458831131458,0.0007522082305513322,-0.004529164172708988
-0.0027693654410541058,-0.010502716526389122,-0.0,0.008642948232591152,0.0007580071687698364,-0.004649922251701355
-0.002918928163126111,-0.00993346143513918,-0.0,0.008527386002242565,0.0007671179482713342,-0.004785920027643442
-0.002878051484003663,-0.00991136021912098,-0.0,0.008206511847674847,0.0008213449036702514,-0.004784420132637024
-0.002878051484003663,-0.00991136021912098,-0.0,0.008206511847674847,0.0008213449036702514,-0.004784420132637024
-0.00263043912127614,-0.009940129704773426,-0.0,0.00834617204964161,0.0008580315625295043,-0.004355055280029774
-0.00263043912127614,-0.009940129704773426,-0.0,0.00834617204964161,0.0008580315625295043,-0.004355055280029774
-0.0026512721087783575,-0.010507781989872456,-0.0,0.00840515922755003,0.0010302977170795202,-0.004561714828014374
-0.0025215367786586285,-0.009819017723202705,-0.0,0.008521588519215584,0.0010160041274502873,-0.004995672032237053
-0.0025215367786586285,-0.009819017723202705,-0.0,0.008521588519215584,0.0010160041274502873,-0.004995672032237053
-0.00251295929774642,-0.010029740631580353,-0.0,0.009024100378155708,0.0009909893851727247,-0.005050674080848694
-0.0026044645346701145,-0.010293115861713886,-0.0,0.008454165421426296,0.0009268989670090377,-0.004692601505666971
-0.0024648329708725214,-0.009560813196003437,-0.0,0.008710701949894428,0.0008900890243239701,-0.004482216201722622
-0.0026335075963288546,-0.009688968770205975,0.00013046663661953062,0.008913657627999783,0.000889608811121434,-0.004779552109539509
-0.0026512034237384796,-0.010161074809730053,0.00012950690870638937,0.008522598072886467,0.0008338381303474307,-0.004807266406714916
-0.002423741389065981,-0.010351700708270073,0.0001259204000234604,0.007841096259653568,0.000837743456941098,-0.004814152605831623
-0.00225363252684474,-0.009400317445397377,0.00012249314750079066,0.007855621166527271,0.0007620070828124881,-0.005401482805609703
-0.0021227956749498844,-0.0096468236297369,0.00014213749091140926,0.008092804811894894,0.0007387874647974968,-0.005292107351124287
-0.002242031041532755,-0.009491567499935627,0.00013589451555162668,0.00792782474309206,0.0006704808329232037,-0.0051225158385932446
-0.002424886217340827,-0.009945573285222054,0.0001325587509199977,0.008159619756042957,0.0006836130633018911,-0.0050494796596467495
-0.0023863823153078556,-0.008751480840146542,0.00014841821393929422,0.007835119031369686,0.0006272015161812305,-0.0049506486393511295
-0.0022823233157396317,-0.00888479221612215,0.00014738082245457917,0.007788801100105047,0.0006467722123488784,-0.005199539940804243
-0.0021918152924627066,-0.009233146905899048,0.0001440434280084446,0.007594577036798,0.0005980057758279145,-0.0050929831340909
-0.001981426030397415,-0.00962128583341837,0.00014082444249652326,0.00809752382338047,0.000566043599974364,-0.00521471630781889
-0.0019991169683635235,-0.008965819142758846,0.00013774535909760743,0.007890503853559494,0.0005551213980652392,-0.005288770888000727
-0.00233085872605443,-0.00970659963786602,0.00015328342851717025,0.007583827245980501,0.0005430951132439077,-0.004855439066886902
-0.0023396529722958803,-0.008939583785831928,0.0001508174027549103,0.008078247308731079,0.0005565896281041205,-0.005070430226624012
-0.0025741911958903074,-0.008786695078015327,0.00014773278962820768,0.007816729135811329,0.0005287357489578426,-0.005275976378470659
-0.002250968711450696,-0.009430663660168648,0.00014476275828201324,0.007727552205324173,0.0005401928210631013,-0.005105080548673868
-0.002193066058680415,-0.009561628103256226,0.00024146185023710132,0.00705630611628294,0.0005173569079488516,-0.00542303966358304
-0.0019808909855782986,-0.009188714437186718,0.00024140103778336197,0.007289285771548748,0.0005685290088877082,-0.0050114840269088745
-0.0019808909855782986,-0.009188714437186718,0.00024140103778336197,0.007289285771548748,0.0005685290088877082,-0.0050114840269088745
-0.0020357270259410143,-0.008768140338361263,0.0002181597810704261,0.006799160037189722,0.0006248104036785662,-0.005053008906543255
-0.002054584212601185,-0.008234307169914246,0.00020807234977837652,0.007209064904600382,0.0005881717661395669,-0.005076633766293526
-0.002054584212601185,-0.008234307169914246,0.00020807234977837652,0.007209064904600382,0.0005881717661395669,-0.005076633766293526
-0.002295395825058222,-0.00844726525247097,0.0001988756557693705,0.00712480628862977,0.0006107492372393608,-0.004906828515231609
-0.0021752153988927603,-0.00871677789837122,0.00022699830878991634,0.00711054727435112,0.0007233512587845325,-0.005114538129419088
-0.0021957370918244123,-0.008592273108661175,0.00021924739121459424,0.007087696809321642,0.0007679617265239358,-0.005327611230313778
-0.002099869307130575,-0.009023652411997318,0.0002107122854795307,0.007328885607421398,0.000701254524756223,-0.00483168987557292
-0.0020248049404472113,-0.008781840093433857,0.00020279873569961637,0.007329544052481651,0.00071154092438519,-0.004989258944988251
-0.0019673567730933428,-0.008909136056900024,0.00019545805116649717,0.007066907361149788,0.0006949460366740823,-0.005311241839081049
-0.0019417693838477135,-0.008535883389413357,0.00018863035074900836,0.00683528371155262,0.0006711810710839927,-0.0051947240717709064
-0.0019084442174062133,-0.008760590106248856,0.00021141146135050803,0.00659224996343255,0.0006196885369718075,-0.004866354633122683
-0.0018886425532400608,-0.008358457125723362,8.454696398985106e-06,0.0074835228733718395,0.000629409565590322,-0.004593362100422382
-0.0019171586027368903,-0.008400333113968372,1.1343053074597265e-07,0.006885593291372061,0.0006451611989177763,-0.004761560820043087
-0.00183634995482862,-0.008706162683665752,1.5218152293883236e-09,0.006755148060619831,0.0006689122528769076,-0.0055536930449306965
-0.001836160896345973,-0.008474303409457207,2.0417093363200856e-11,0.00666499137878418,0.0006312545156106353,-0.005467933602631092
-0.0018367680022493005,-0.008023041300475597,2.7392137494884616e-13,0.007299487944692373,0.000735837034881115,-0.005370857659727335
-0.0019314632518216968,-0.008018899708986282,3.675004484076814e-15,0.0066624474711716175,0.0007495728204958141,-0.005090213846415281
-0.001916389330290258,-0.00835525430738926,4.9304874652276564e-17,0.006193287204951048,0.0007395842694677413,-0.00495850620791316
-0.0017401794902980328,-0.008163156919181347,6.614878572573776e-19,0.006313535384833813,0.0007071219733916223,-0.005567103158682585
-0.0017529117176309228,-0.008244218304753304,8.874704469807794e-21,0.006160463206470013,0.0007171867182478309,-0.005215073470026255
-0.0017529117176309228,-0.008244218304753304,8.874704469807794e-21,0.006160463206470013,0.0007171867182478309,-0.005215073470026255
-0.001644791685976088,-0.008664119057357311,1.190654774847468e-22,0.006514950655400753,0.0007193703204393387,-0.005006261169910431
-0.0017547744791954756,-0.008718574419617653,1.5974152299028004e-24,0.006320165004581213,0.0007670519407838583,-0.005201947409659624
-0.0016685838345438242,-0.008294273167848587,2.1431363235152283e-26,0.0059601916000247,0.0007858583121560514,-0.005007779225707054
-0.0019087614491581917,-0.00849174428731203,2.8752908696774315e-28,0.006177781615406275,0.0007733187521807849,-0.00536959758028388
-0.0017454716144129634,-0.008905167691409588,3.857569970133026e-30,0.006686881184577942,0.0007400579052045941,-0.005415955558419228
-0.0017514425562694669,-0.008207927457988262,5.175422446762212e-32,0.006514576263725758,0.0007592564797960222,-0.005813098978251219
-0.0017150305211544037,-0.008261706680059433,6.943490387496226e-34,0.006325751077383757,0.0007887858082540333,-0.005505730397999287
-0.001767914742231369,-0.009080086834728718,9.315578925752136e-36,0.006284903269261122,0.0007453039870597422,-0.0053005763329565525
-0.0016217740485444665,-0.00850996095687151,1.2498038631389068e-37,0.005722813308238983,0.0007384742493741214,-0.0053936573676764965
-0.0015234437305480242,-0.00794515386223793,1.676771321635647e-39,0.0059275696985423565,0.0006829941412433982,-0.005217615980654955
-0.0015604678774252534,-0.008070319890975952,2.2496445546270613e-41,0.005958587862551212,0.0006994240684434772,-0.005653461441397667
-0.001596473273821175,-0.008691155351698399,3.0127916982983567e-43,0.0056907739490270615,0.000676305266097188,-0.006244210992008448
-0.0016529019922018051,-0.00790382269769907,4.203895392974451e-45,0.005506407935172319,0.0006803523283451796,-0.005850651301443577
-0.0015407358296215534,-0.007647908758372068,0.0,0.005095930770039558,0.0007054412853904068,-0.005709332879632711
-0.0014284770004451275,-0.007998792454600334,-0.0,0.00504735903814435,0.0007265319582074881,-0.005331004504114389
-0.0014727175002917647,-0.008100397884845734,-0.0,0.0050577521324157715,0.000877602316904813,-0.005101265851408243
-0.0013225534930825233,-0.007313551381230354,-0.0,0.005213520489633083,0.0012485914630815387,-0.0053938026539981365
-0.0013696997193619609,-0.008151310496032238,-0.0,0.00529292318969965,0.0011404718970879912,-0.005601458251476288
-0.0012902611633762717,-0.00831444188952446,-0.0,0.005340308416634798,0.0011950962943956256,-0.005331582389771938
-0.0012530941748991609,-0.008000345900654793,-0.0,0.005236491095274687,0.0011168370256200433,-0.005099498201161623
-0.0012926773633807898,-0.007657410576939583,-0.0,0.005368113983422518,0.001011598389595747,-0.0053072283044457436
-0.0012316564098000526,-0.007770783733576536,-0.0,0.005047595128417015,0.000982597004622221,-0.005353276152163744
-0.0012098212027922273,-0.007656625006347895,-0.0,0.005551018286496401,0.0009299127268604934,-0.005480413790792227
-0.0013033048016950488,-0.007490440271794796,-0.0,0.005413006991147995,0.0008768950356170535,-0.005230091977864504
-0.0012403711443766952,-0.007396962959319353,-0.0,0.004576676059514284,0.000741442374419421,-0.00518436124548316
-0.0011841300874948502,-0.007480031810700893,-0.0,0.004367034416645765,0.0006048546638339758,-0.0054816268384456635
-0.0010865023359656334,-0.008010506629943848,-0.0,0.004629309289157391,0.0006291503086686134,-0.005460428539663553
-0.001059164060279727,-0.007886478677392006,-0.0,0.004739792551845312,0.0007026286330074072,-0.005710054188966751
-0.001059164060279727,-0.007886478677392006,-0.0,0.004739792551845312,0.0007026286330074072,-0.005710054188966751
-0.0011282894993200898,-0.00701639661565423,-0.0,0.0044546606950461864,0.0008716480224393308,-0.006025162059813738
-0.001030042883940041,-0.008091550320386887,-0.0,0.0042756604962050915,0.0010130591690540314,-0.0056305332109332085
-0.0011210907250642776,-0.007868865504860878,-0.0,0.0036069927737116814,0.0009661935037001967,-0.005473161581903696
-0.0011202875757589936,-0.007040997967123985,-0.0,0.003566765459254384,0.0009549470851197839,-0.005506184883415699
-0.0010555180488154292,-0.006741679739207029,-0.0,0.0037076554726809263,0.000905611552298069,-0.005353856831789017
-0.0009569316753186285,-0.00704940315335989,-0.0,0.003908518701791763,0.001019094604998827,-0.005821720696985722
-0.0008743306389078498,-0.006998016033321619,-0.0,0.004044121131300926,0.0010267762700095773,-0.005655130371451378
-0.0007471637218259275,-0.0071182227693498135,-0.0,0.004436830524355173,0.0010192198678851128,-0.005744479596614838
-0.0007633955683559179,-0.007372313644737005,-0.0,0.004154665861278772,0.001257876050658524,-0.006087596528232098
-0.0007713363156653941,-0.007281717844307423,-4.204791912343353e-05,0.003946545068174601,0.0012438022531569004,-0.005615397356450558
-0.0007629257161170244,-0.007076383102685213,-4.0258888475364074e-05,0.0038186381570994854,0.0012000028509646654,-0.005740945693105459
-0.0007178182131610811,-0.007249158341437578,-3.936710345442407e-05,0.0033855591900646687,0.0011750521371141076,-0.005671806633472443
-0.0007189054740592837,-0.007683800999075174,-3.852434747386724e-05,0.003500513033941388,0.0011194244725629687,-0.005910663399845362
-0.000623056257609278,-0.007130293175578117,-3.77171381842345e-05,0.003711534198373556,0.0010600433452054858,-0.005863764323294163
-0.0006520741735585034,-0.007475292310118675,-3.694304541568272e-05,0.0038357307203114033,0.0010347376810386777,-0.006008246913552284
-0.0006054805126041174,-0.0071191550232470036,-3.548639506334439e-05,0.0034599588252604008,0.0008906294242478907,-0.005720803048461676
-0.0005612020613625646,-0.007005696650594473,-3.480038503766991e-05,0.0031500570476055145,0.0008891843026503921,-0.005233908072113991
-0.0005634416593238711,-0.006739802658557892,-3.414033562876284e-05,0.0032032420858740807,0.0008334062877111137,-0.0056562055833637714
-0.0005441387183964252,-0.006833725143224001,-3.3504860766697675e-05,0.0033197884913533926,0.0008302005007863045,-0.00588739849627018
-0.0005061881383880973,-0.006901772692799568,-3.2892618037294596e-05,0.003102665999904275,0.0007601132383570075,-0.006259506102651358
-0.00047293645911850035,-0.0073739890940487385,-3.23023232340347e-05,0.002956514246761799,0.0007507165428251028,-0.006109814625233412
-0.00042231721454299986,-0.006651985924690962,-4.6965418732725084e-05,0.0027540072333067656,0.0007699840352870524,-0.005528887268155813
-0.0003843882877845317,-0.006297606509178877,-4.676627941080369e-05,0.0028211704920977354,0.0008404715335927904,-0.006017640233039856
-0.00035410572309046984,-0.006748981308192015,-4.597812221618369e-05,0.0028876299038529396,0.0009573991410434246,-0.006301550660282373
-0.00032826949609443545,-0.007503001485019922,-4.520836955634877e-05,0.002645705593749881,0.0010744878090918064,-0.006292267702519894
-0.0003059441805817187,-0.007076486479490995,-4.446385719347745e-05,0.002666439861059189,0.001136590028181672,-0.006077830214053392
-0.0002360063954256475,-0.006544028874486685,-4.374356285552494e-05,0.0027691537979990244,0.0010543835815042257,-0.005683431401848793
-0.0002360063954256475,-0.006544028874486685,-4.374356285552494e-05,0.0027691537979990244,0.0010543835815042257,-0.005683431401848793
-0.00016390587552450597,-0.006143942475318909,-4.304615504224785e-05,0.002762523014098406,0.0011830535950139165,-0.006155548617243767
-0.00015249605348799378,-0.00645094271749258,-4.2370644223410636e-05,0.0026768662501126528,0.001055681612342596,-0.005994884297251701
-0.0001369925303151831,-0.006823259871453047,-5.4767671826994047e-05,0.0025296369567513466,0.001006601145491004,-0.006002076901495457
-0.0001369925303151831,-0.006823259871453047,-5.4767671826994047e-05,0.0025296369567513466,0.001006601145491004,-0.006002076901495457
-0.00013037616736255586,-0.006293782964348793,-5.3954114264342934e-05,0.0023072161711752415,0.0009110585669986904,-0.006002847105264664
-0.0001243705628439784,-0.0062083168886601925,-5.3157549700699747e-05,0.002167986473068595,0.0009115245193243027,-0.006294378079473972
-0.00011889350571436808,-0.006844089832156897,-5.238407175056636e-05,0.002076321979984641,0.0009723015245981514,-0.006233663763850927
-0.00011387864651624113,-0.007040082011371851,-5.163277091924101e-05,0.002268332988023758,0.0011693168198689818,-0.006358153186738491
-0.0001092697202693671,-0.006905157584697008,-5.090273407404311e-05,0.0022113171871751547,0.0012869781348854303,-0.0061052595265209675
-0.0001050195496645756,-0.006262150127440691,-5.0193029892398044e-05,0.0023902475368231535,0.0012690636795014143,-0.005981672089546919
-0.00010108733840752393,-0.006324848160147667,-5.765190508100204e-05,0.002428502542898059,0.0012094081612303853,-0.0062893228605389595
3.413198282942176e-05,-0.006564146839082241,-6.0982576542301103e-05,0.0022946239914745092,0.001184436958283186,-0.006255735643208027
9.690569277154282e-05,-0.006451372057199478,-6.02216568950098e-05,0.001964506460353732,0.0011562621220946312,-0.007179743610322475
9.277904609916732e-05,-0.006094568409025669,-5.94271368754562e-05,0.0017406773986294866,0.0011171747464686632,-0.0064032478258013725
8.824196265777573e-05,-0.00607598852366209,-5.8652585721574724e-05,0.0016038058092817664,0.001065216027200222,-0.005587147083133459
8.411840099142864e-05,-0.00709224259480834,-5.792267620563507e-05,0.0016186496941372752,0.0011235529091209173,-0.005955000873655081
7.692778308410197e-05,-0.006677238270640373,-0.00012348666496109217,0.0021945477928966284,0.001020148629322648,-0.006458323914557695
7.377492875093594e-05,-0.006389210000634193,-0.00012020100984955207,0.0020897213835269213,0.0011415343033149838,-0.006304765585809946
7.087002450134605e-05,-0.0058134314604103565,-0.00011707386875059456,0.0019371414091438055,0.0011954345973208547,-0.006269617937505245
6.818527617724612e-05,-0.00620375107973814,-0.00013424872304312885,0.0016891531413421035,0.001273915870115161,-0.006321158725768328
9.721337119117379e-05,-0.006701755803078413,-0.00013350431981962174,0.0014012063620612025,0.0013267191825434566,-0.006777362432330847
9.505695197731256e-05,-0.00592731311917305,-0.0001303170865867287,0.0011670059757307172,0.001249495311640203,-0.006468229927122593
9.184033842757344e-05,-0.005724173970520496,-0.00012724667612928897,0.001107759540900588,0.0011907683219760656,-0.006080453749746084
8.8819520897232e-05,-0.0065525793470442295,-0.00013794373080600053,0.0010738526470959187,0.001049971440806985,-0.006156360264867544
0.00011349642591085285,-0.006284672301262617,-0.00014167781046126038,0.0010378762381151319,0.0010141280945390463,-0.006448595318943262
0.00011109982733614743,-0.006202476564794779,-0.0001386517396895215,0.0009818796534091234,0.0010739235440269113,-0.00669899070635438
0.00010778828436741605,-0.0058616637252271175,-0.0001356670691166073,0.0008954003569670022,0.0011552025098353624,-0.006640198174864054
0.00010778828436741605,-0.0058616637252271175,-0.0001356670691166073,0.0008954003569670022,0.0011552025098353624,-0.006640198174864054
0.00010465493687661365,-0.005712577141821384,-0.00013280715211294591,0.0008910053293220699,0.0012299991212785244,-0.006344579625874758
0.00011840772640425712,-0.005968601442873478,-0.0001479021884733811,0.0008693968993611634,0.0012684623943641782,-0.006554847117513418
0.00012351362966001034,-0.005853154230862856,-0.00014562932483386248,0.0007983630639500916,0.001275152899324894,-0.007127215154469013
0.00012032335507683456,-0.0061898985877633095,-0.00014275175635702908,0.0007200771942734718,0.0012832620413973927,-0.0076239281333982944
0.00020009638683404773,-0.0056798518635332584,-0.0002506716118659824,0.000646265922114253,0.0012263781391084194,-0.006401775870472193
0.00020177039550617337,-0.005707738921046257,-0.00025095409364439547,0.0005635162233375013,0.001173878787085414,-0.006300861481577158
0.000193247789866291,-0.0055321441031992435,-0.0002797934866975993,0.000500585651025176,0.0011632797541096807,-0.0066086407750844955
0.00021796785586047918,-0.005913304630666971,-0.00027104810578748584,0.0005162334418855608,0.0011822889791801572,-0.006542164366692305
0.00021349824965000153,-0.006238679867237806,-0.0002581592125352472,0.0004896522150374949,0.0013406204525381327,-0.006662909872829914
0.00020543175924103707,-0.005605518352240324,-0.0002463811542838812,0.000450128223747015,0.0015080904122442007,-0.006543423980474472
0.00023042802058625966,-0.005267255939543247,-0.0002702508063521236,0.0004155462374910712,0.0014851087471470237,-0.006500427611172199
0.00024360846146009862,-0.005478297360241413,-0.0002633443218655884,0.0003858377458527684,0.0016640303656458855,-0.0063636088743805885
0.0002457041700836271,-0.006039586383849382,-0.0002528342301957309,0.00036009156610816717,0.0016656258376315236,-0.006901185028254986
0.00039296754403039813,-0.005529662128537893,-0.00027639532345347106,0.00033756816992536187,0.001454438315704465,-0.006717862095683813
0.00048743115621618927,-0.005766254384070635,-0.00026746487128548324,0.00031769805354997516,0.0013316560070961714,-0.00688719330355525
0.0004728378262370825,-0.005309597123414278,-0.00025790216750465333,0.0003000381984747946,0.0012404706794768572,-0.006729451939463615
0.0004697545082308352,-0.005140543449670076,-0.0003317671944387257,0.00027002120623365045,0.00110718235373497,-0.006321074906736612
0.0004970158915966749,-0.005390675738453865,-0.00036827533040195704,0.00025715818628668785,0.0010861537884920835,-0.006445432547479868
0.00046715448843315244,-0.005634506233036518,-0.00034697639057412744,0.0002454653731547296,0.0011390139115974307,-0.007147130556404591
0.0005901004187762737,-0.005195509642362595,-0.0003260542871430516,0.0002347901463508606,0.0012159908656030893,-0.006967096123844385
0.0006344805005937815,-0.004943938460201025,-0.0003580040065571666,0.00022500517661683261,0.0014470343012362719,-0.0072402977384626865
0.0006411243230104446,-0.005134197883307934,-0.00033939466811716557,0.0002160028088837862,0.0014126081950962543,-0.00741552235558629
0.0006092332769185305,-0.005226446781307459,-0.0003674092295113951,0.00020769357797689736,0.0018126264913007617,-0.006654997821897268
0.0006341072730720043,-0.0054834079928696156,-0.00048806812264956534,0.0001999999221879989,0.0019098437624052167,-0.006551033351570368
0.000814044673461467,-0.005331679712980986,-0.0005369003629311919,0.000192855775821954,0.0019351554801687598,-0.006944905500859022
0.000814044673461467,-0.005331679712980986,-0.0005369003629311919,0.000192855775821954,0.0019351554801687598,-0.006944905500859022
0.0008320471970364451,-0.004855556413531303,-0.0004976107738912106,0.00017099478282034397,0.0017826197436079383,-0.007126355078071356
0.0008412090828642249,-0.004413149319589138,-0.0005284931394271553,0.00015103093755897135,0.0015712439781054854,-0.007435902487486601
0.0008396340999752283,-0.004856184124946594,-0.0005359784699976444,0.00014522604760713875,0.0014689635718241334,-0.007518382277339697
0.0009408802725374699,-0.004947193898260593,-0.0005195499979890883,0.0001406265510013327,0.0014261152828112245,-0.007508956361562014
0.0009572182898409665,-0.004824203439056873,-0.0006545410142280161,0.00013636064250022173,0.0015856851823627949,-0.007477487437427044
0.001036513946019113,-0.0050666676834225655,-0.0006948838126845658,0.00013234952348284423,0.001811706810258329,-0.006989011541008949
0.000950924470089376,-0.004960916470736265,-0.0006950643728487194,0.00010951984586426988,0.0020015756599605083,-0.007313406094908714
0.0011392165906727314,-0.004496236331760883,-0.0006552107515744865,0.00010043226211564615,0.001922578550875187,-0.006844514049589634
0.0011362384539097548,-0.004449278581887484,-0.0006491136155091226,9.73226924543269e-05,0.0019488570978865027,-0.006960224360227585
0.001142029999755323,-0.004567637108266354,-0.0006198203191161156,7.417305459966883e-05,0.0017680812161415815,-0.0068257455714046955
0.0014961948618292809,-0.004500200971961021,-0.0006683703977614641,6.943241896806285e-05,0.0017158410046249628,-0.007228552829474211
0.001444140449166298,-0.004241276998072863,-0.0007079949136823416,-2.2824975530966185e-05,0.0016460622427985072,-0.007479363586753607
0.001690030680038035,-0.004459801129996777,-0.0007305134204216301,-6.372726784320548e-05,0.0014765465166419744,-0.007509245537221432
0.001669323188252747,-0.004273678176105022,-0.0007508286507800221,-7.596964132972062e-05,0.0014705497305840254,-0.0071317958645522594
0.001652583945542574,-0.003928540274500847,-0.0010990509763360023,-9.688652789918706e-05,0.0015715862391516566,-0.007917478680610657
0.0016993817407637835,-0.004405258689075708,-0.0010684363078325987,-0.00011659433948807418,0.0016442994819954038,-0.0077178338542580605
0.001791536808013916,-0.004107949323952198,-0.0010885753436014056,-0.0005518250400200486,0.0019056627061218023,-0.0071642594411969185
0.001791536808013916,-0.004107949323952198,-0.0010885753436014056,-0.0005518250400200486,0.0019056627061218023,-0.0071642594411969185
0.0020803692750632763,-0.004332221578806639,-0.0010732931550592184,-0.00085367017891258,0.0021999171003699303,-0.007222084794193506
0.002162753138691187,-0.004122066777199507,-0.0010734746465459466,-0.0015458816196769476,0.0020069770980626345,-0.007482682354748249
0.0018876829417422414,-0.0034879057202488184,-0.0012949969386681914,-0.0022511081770062447,0.0018835813971236348,-0.007590563036501408
0.001789818867109716,-0.00352077791467309,-0.0013795568374916911,-0.0025504252407699823,0.0018236108589917421,-0.00751235568895936
0.0017554471269249916,-0.0036755080800503492,-0.0014144207816570997,-0.0029731043614447117,0.0018059414578601718,-0.007828125730156898
0.0016725566238164902,-0.0036971953231841326,-0.0015137366717681289,-0.003533612936735153,0.0018134001875296235,-0.007689099293202162
0.0016725566238164902,-0.0036971953231841326,-0.0015137366717681289,-0.003533612936735153,0.0018134001875296235,-0.007689099293202162
0.0019304315792396665,-0.0036362113896757364,-0.001421489054337144,-0.003972275648266077,0.002105591120198369,-0.007383741904050112
0.0025114216841757298,-0.00361970579251647,-0.0015176640590652823,-0.0044647506438195705,0.001958975801244378,-0.007307497784495354
0.0031810037326067686,-0.003167976625263691,-0.001580569427460432,-0.005065376870334148,0.0020743010099977255,-0.007862756960093975
0.003557280171662569,-0.003087965538725257,-0.0017897277139127254,-0.004631654359400272,0.002090977970510721,-0.007632507011294365
0.0030772245954722166,-0.003340829396620393,-0.0018020152347162366,-0.004564167931675911,0.00212947023101151,-0.007194969337433577
0.0030413884669542313,-0.003287591738626361,-0.001895879046060145,-0.005117489490658045,0.0020442178938537836,-0.007235956843942404
0.0030122995376586914,-0.0030947646591812372,-0.0018796490039676428,-0.005601708311587572,0.0019678971730172634,-0.007076524198055267
0.0030948722269386053,-0.002963670063763857,-0.002089478773996234,-0.005910822656005621,0.0017503954004496336,-0.0070323944091796875
0.003572820918634534,-0.0032065105624496937,-0.0019092099973931909,-0.005533214658498764,0.0015864528249949217,-0.007318998221307993
0.0032802275381982327,-0.003247449640184641,-0.002064465545117855,-0.00619176821783185,0.0015553003177046776,-0.007527612615376711
0.00343860755674541,-0.003107259748503566,-0.002071552677080035,-0.00622356403619051,0.0017023467225953937,-0.007808694615960121
0.003574082162231207,-0.0029050582088530064,-0.002062070881947875,-0.0065321908332407475,0.001835496979765594,-0.008462842553853989
0.003694634884595871,-0.0031285875011235476,-0.002217743080109358,-0.006752694491297007,0.0023607355542480946,-0.008052383549511433
0.004259532783180475,-0.003041813848540187,-0.002260994864627719,-0.007082776632159948,0.0022754964884370565,-0.008008706383407116
0.0045649041421711445,-0.002780693117529154,-0.0022443628404289484,-0.00740636745467782,0.001997175393626094,-0.007922268472611904
0.004195787478238344,-0.00252228113822639,-0.002345831599086523,-0.0077776131220161915,0.001831641886383295,-0.008052253164350986
0.004423558246344328,-0.0026634398382157087,-0.0024018376134335995,-0.00712508475407958,0.0017267907969653606,-0.008129988797008991
0.004299316089600325,-0.0029445283580571413,-0.0023247809149324894,-0.007189458701759577,0.0018710361327975988,-0.007878635078668594
0.004923520144075155,-0.0029705828055739403,-0.002482636831700802,-0.0076102688908576965,0.0017854421166703105,-0.008028627373278141
0.005042965058237314,-0.0027050250209867954,-0.0025935242883861065,-0.007621729746460915,0.0020056948997080326,-0.007879955694079399
0.004839829169213772,-0.002573656616732478,-0.0024899535346776247,-0.007389270234853029,0.0018953196704387665,-0.008035716600716114
0.004675020929425955,-0.0022165044210851192,-0.0025449655950069427,-0.00800221599638462,0.0019653160125017166,-0.008370872586965561
0.0045938496477901936,-0.0020618210546672344,-0.0025376842822879553,-0.007926855236291885,0.0017909478629007936,-0.008186036720871925
0.00507307006046176,-0.002469340106472373,-0.0024296564515680075,-0.007217424921691418,0.0017442555399611592,-0.007754834368824959
0.005122324451804161,-0.002489028498530388,-0.0025161856319755316,-0.007016048766672611,0.001819692668505013,-0.008030571974813938
0.005122324451804161,-0.002489028498530388,-0.0025161856319755316,-0.007016048766672611,0.001819692668505013,-0.008030571974813938
0.005466898437589407,-0.0025888513773679733,-0.002677922137081623,-0.007630050648003817,0.0023625418543815613,-0.007780295796692371
0.00515738083049655,-0.0024574764538556337,-0.002714971313253045,-0.00826206337660551,0.002775454195216298,-0.008036189712584019
0.005021284334361553,-0.0022561433725059032,-0.0028358970303088427,-0.008688168600201607,0.0026271152310073376,-0.008022764697670937
0.005188320763409138,-0.002078230492770672,-0.003085435600951314,-0.007938244380056858,0.0024377983063459396,-0.007685888092964888
0.005433374550193548,-0.0020076963119208813,-0.003049601335078478,-0.008032778277993202,0.002072984119877219,-0.008111255243420601
0.005978186149150133,-0.0024433948565274477,-0.002980812918394804,-0.008664781227707863,0.0017070018220692873,-0.008425096049904823
0.005589193664491177,-0.002179101575165987,-0.0028430826496332884,-0.008635724894702435,0.0017649735091254115,-0.008122419007122517
0.005786492023617029,-0.002206555102020502,-0.0030897697433829308,-0.00930115394294262,0.002076069824397564,-0.008322264067828655
0.005444164853543043,-0.0019772686064243317,-0.003253585658967495,-0.009167533367872238,0.0023880740627646446,-0.008081860840320587
0.005948279052972794,-0.0017637914279475808,-0.003105751471593976,-0.008894872851669788,0.0023940198589116335,-0.008177612908184528
0.006466814782470465,-0.0017701383912935853,-0.002987377345561981,-0.00874414388090372,0.0024528037756681442,-0.008342417888343334
0.006267675198614597,-0.0017015535850077868,-0.0028378942515701056,-0.009062975645065308,0.002175798872485757,-0.008535925298929214
0.006242691073566675,-0.001775976037606597,-0.0029461211524903774,-0.009397669695317745,0.0018899429123848677,-0.00858236663043499
0.006365920417010784,-0.0018776645883917809,-0.003211427479982376,-0.009746639989316463,0.001998212421312928,-0.008486807346343994
0.006473743822425604,-0.0018732575699687004,-0.0030685937963426113,-0.00975722260773182,0.0023575550876557827,-0.008410945534706116
0.006779768504202366,-0.001864967867732048,-0.0028559258207678795,-0.008752310648560524,0.002537158550694585,-0.008799713104963303
0.006616994738578796,-0.0019612654577940702,-0.003037149552255869,-0.008818812668323517,0.002889068331569433,-0.009132382459938526
0.006384126842021942,-0.001775457407347858,-0.003281976096332073,-0.009330853819847107,0.002559447893872857,-0.008618579246103764
0.006610501557588577,-0.0016768750501796603,-0.003606051206588745,-0.009107736870646477,0.0023976697120815516,-0.008436225354671478
0.006822205614298582,-0.0016663274727761745,-0.00339617975987494,-0.009232303127646446,0.0021392919588834047,-0.0084202466532588
0.007011168170720339,-0.0015527387149631977,-0.0032063217367976904,-0.009934664703905582,0.0020620329305529594,-0.008612370118498802
0.006930551957339048,-0.001579016330651939,-0.003276506671682,-0.009717093780636787,0.002302267123013735,-0.008805972523987293
0.006766826380044222,-0.001492967363446951,-0.003075199667364359,-0.009610351175069809,0.002622548956423998,-0.008294097147881985
0.007077283225953579,-0.0015435231616720557,-0.0031625039409846067,-0.010162731632590294,0.0025667131412774324,-0.008715811185538769
0.007059171795845032,-0.0014523777645081282,-0.0032321878243237734,-0.009417793713510036,0.002473430708050728,-0.009008698165416718
0.007059171795845032,-0.0014523777645081282,-0.0032321878243237734,-0.009417793713510036,0.002473430708050728,-0.009008698165416718
0.00675634341314435,-0.001370770507492125,-0.002376978052780032,-0.009739224798977375,0.0017735946457833052,-0.00883471965789795
0.00675634341314435,-0.001370770507492125,-0.002376978052780032,-0.009739224798977375,0.0017735946457833052,-0.00883471965789795
0.0071379803121089935,-0.0013017492601647973,-0.0018933505052700639,-0.009797878563404083,0.0017628173809498549,-0.008837005123496056
0.007341649383306503,-0.0013820055173709989,-0.0014178770361468196,-0.010574470274150372,0.00207473523914814,-0.009127452038228512
0.007444302085787058,-0.0013371342793107033,-0.0015412988141179085,-0.011189302429556847,0.0028895647265017033,-0.008794567547738552
0.0070846895687282085,-0.0012529593659564853,-0.0022341988515108824,-0.01089787483215332,0.0032899766229093075,-0.008852037601172924
0.007432281970977783,-0.0013006295775994658,-0.0028495972510427237,-0.010460839606821537,0.003037373535335064,-0.009148395620286465
0.007578358054161072,-0.0012517959112301469,-0.002370682777836919,-0.009576908312737942,0.0026098850648850203,-0.00861919391900301
0.006921686697751284,-0.0012691342271864414,-0.0016391549725085497,-0.009573151357471943,0.0021486603654921055,-0.00866958498954773
0.006921686697751284,-0.0012691342271864414,-0.0016391549725085497,-0.009573151357471943,0.0021486603654921055,-0.00866958498954773
0.007526521570980549,-0.0012401837157085538,-0.0014388281852006912,-0.009467383846640587,0.002199735725298524,-0.009223702363669872
0.007526521570980549,-0.0012401837157085538,-0.0014388281852006912,-0.009467383846640587,0.002199735725298524,-0.009223702363669872
0.008135788142681122,-0.0011768235126510262,-0.0015417803078889847,-0.010091516189277172,0.002639755140990019,-0.008838142268359661
0.00826894398778677,-0.0009832953801378608,-0.001830030232667923,-0.010469373315572739,0.002550144214183092,-0.008790388703346252
0.008137837052345276,-0.0008603172609582543,-0.0017286910442635417,-0.011063044890761375,0.0026980519760400057,-0.008431797847151756
0.007710875943303108,-0.0007244509179145098,-0.0015774817438796163,-0.010735956951975822,0.0028393161483108997,-0.008446813561022282
0.008148837834596634,-0.0007432108977809548,-0.0015098904259502888,-0.010957554914057255,0.0027824153658002615,-0.008617295883595943
0.009111516177654266,-0.0006573889404535294,-0.0016065509989857674,-0.01174009870737791,0.002599408384412527,-0.008712982758879662
0.008076045662164688,-0.0006717664655297995,-0.001865653321146965,-0.011568511836230755,0.0025525775272399187,-0.00873526930809021
0.007915775291621685,-0.0006166009115986526,-0.0021638439502567053,-0.01176613662391901,0.0022731684148311615,-0.008813219144940376
0.009537137113511562,-0.0006140493205748498,-0.0022603431716561317,-0.01157215517014265,0.0022099060006439686,-0.009210750460624695
0.008156886324286461,-0.000589045463129878,-0.002149570733308792,-0.01140306331217289,0.0022928528487682343,-0.008867103606462479
0.008208808489143848,-0.0005362223018892109,-0.0017977720126509666,-0.011014813557267189,0.002325738314539194,-0.008876148611307144
0.008467528037726879,-0.0004771025851368904,-0.0017832405865192413,-0.010283227078616619,0.0028169278521090746,-0.009116430766880512
0.008485444821417332,-0.0005139167187735438,-0.002012507524341345,-0.009997256100177765,0.002758676651865244,-0.008991321548819542
0.008824631571769714,-0.0005235622520558536,-0.0020246305502951145,-0.010692203417420387,0.0026488564908504486,-0.008466673083603382
0.008036074228584766,-0.000506310723721981,-0.0025270283222198486,-0.010595515370368958,0.002695614704862237,-0.008700469508767128
0.00832980964332819,-0.00046895068953745067,-0.0022855023853480816,-0.01099850982427597,0.002724967896938324,-0.009206054732203484
0.00832980964332819,-0.00046895068953745067,-0.0022855023853480816,-0.01099850982427597,0.002724967896938324,-0.009206054732203484
0.008738633245229721,-0.0004962163511663675,-0.00229404354467988,-0.010257862508296967,0.0027867567259818316,-0.008826210163533688
0.008475787937641144,-0.00046645227121189237,-0.002040792489424348,-0.009971288032829762,0.002809325698763132,-0.00884933304041624
0.008142986334860325,-0.0005087586469016969,-0.0019877515733242035,-0.011018243618309498,0.0030280936043709517,-0.009233220480382442
0.008561373688280582,-0.000489038706291467,-0.001926147728227079,-0.010341226123273373,0.0028623926918953657,-0.008856596425175667
0.008872724138200283,-0.00044151529436931014,-0.002139349700883031,-0.010764946229755878,0.0027691861614584923,-0.009108592756092548
0.007877788506448269,-0.00024883364676497877,-0.002539306879043579,-0.011230280622839928,0.0027192565612494946,-0.00936372485011816
0.006365515291690826,0.0009594752918928862,-0.0024250743445008993,-0.010182548314332962,0.0027895793318748474,-0.00933249481022358
0.005761631764471531,0.0019666075240820646,-0.002509462647140026,-0.010650483891367912,0.002571885474026203,-0.008944166824221611
0.006661520339548588,0.0012804429279640317,-0.002434720750898123,-0.010709035210311413,0.0024320383090525866,-0.00910204742103815
0.0064931404776871204,-0.0006807902245782316,-0.0023446478880941868,-0.010940787382423878,0.0032870923168957233,-0.009686857461929321
0.0064299143850803375,-0.0004681832215283066,-0.002231015358120203,-0.011008985340595245,0.0033942966256290674,-0.009224861860275269
0.006628100294619799,-6.640106585109606e-05,-0.002167565282434225,-0.011134353466331959,0.0034671660978347063,-0.009443256072700024
0.006744369864463806,-8.90855062607443e-07,-0.002008499577641487,-0.012115848250687122,0.0031875502318143845,-0.00943498220294714
0.0067620123736560345,-1.1951957645806033e-08,-0.001978799467906356,-0.011977741494774818,0.002844056347385049,-0.009483455680310726
0.007316507399082184,-1.6035078820308968e-10,-0.002192844171077013,-0.012149224989116192,0.0026290901005268097,-0.009529316797852516
0.007069554645568132,-2.151310162998299e-12,-0.002175009110942483,-0.012232244946062565,0.0023770304396748543,-0.008949888870120049
0.007336938288062811,-2.8862573138790926e-14,-0.002424823585897684,-0.012277412228286266,0.002399171469733119,-0.009346277453005314
0.006714974530041218,-3.8722828514757546e-16,-0.002128638792783022,-0.01243930496275425,0.002194965723901987,-0.009567332454025745
0.007170095108449459,-5.1951611902888e-18,-0.0021127196960151196,-0.012515257112681866,0.0021597675513476133,-0.009496604092419147
0.0072011277079582214,0.0005740711349062622,-0.0019577646162360907,-0.012782170437276363,0.0023236651904881,-0.009776490740478039
0.00727828498929739,0.0005200339364819229,-0.0020798423793166876,-0.012621469795703888,0.0026338156312704086,-0.010062763467431068
0.0070575084537267685,0.00046628425479866564,-0.0023420134093612432,-0.013208773918449879,0.002984092105180025,-0.010049810633063316
0.007746652700006962,0.0004224912845529616,-0.0022746180184185505,-0.012543635442852974,0.0031223492696881294,-0.010076784528791904
0.0077513703145086765,0.00038621382554993033,-0.0021894865203648806,-0.012740066275000572,0.0031379361171275377,-0.009720933623611927
0.007418976165354252,0.00042383078834973276,-0.002162018558010459,-0.013324780389666557,0.0030491012148559093,-0.009575707837939262
0.007295427843928337,0.00039550356450490654,-0.002254441613331437,-0.013265635818243027,0.0026170238852500916,-0.009412659332156181
0.007295427843928337,0.00039550356450490654,-0.002254441613331437,-0.013265635818243027,0.0026170238852500916,-0.009412659332156181
0.008054747246205807,0.00042741099605336785,-0.002449936466291547,-0.013605348765850067,0.002530683996155858,-0.00939661730080843
0.008377054706215858,0.00040245678974315524,-0.002388729713857174,-0.01334551814943552,0.0023516041692346334,-0.009632899425923824
0.00788133405148983,0.00043159042252227664,-0.0025585428811609745,-0.01362225878983736,0.002237051958218217,-0.00962097942829132
0.008099581114947796,0.0003852988011203706,-0.002443494740873575,-0.014089310541749,0.0028542433865368366,-0.008791972883045673
0.008099581114947796,0.0003852988011203706,-0.002443494740873575,-0.014089310541749,0.0028542433865368366,-0.008791972883045673
0.008083527907729149,0.0004249166522640735,-0.002500767121091485,-0.013329404406249523,0.002659361343830824,-0.009565507993102074
0.008449730463325977,0.00045784571557305753,-0.002564332913607359,-0.013536276295781136,0.0026668424252420664,-0.009899625554680824
0.00795102957636118,0.00048794515896588564,-0.0027741193771362305,-0.01332844141870737,0.002648913534358144,-0.009866349399089813
0.008169599808752537,0.0007965221884660423,-0.0028793150559067726,-0.013901474885642529,0.002760701347142458,-0.010164604522287846
0.008038369007408619,0.0007395111606456339,-0.0027095589321106672,-0.014016271568834782,0.0029645939357578754,-0.009699071757495403
0.008038369007408619,0.0007395111606456339,-0.0027095589321106672,-0.014016271568834782,0.0029645939357578754,-0.009699071757495403
0.008572139777243137,0.0006761928671039641,-0.0025321668945252895,-0.014004922471940517,0.0028002166654914618,-0.00953907985240221
0.008430578745901585,0.0006885409238748252,-0.002678812714293599,-0.013859650120139122,0.002659959252923727,-0.009392723441123962
0.008267465978860855,0.0006756123038940132,-0.0025961583014577627,-0.013818234205245972,0.002814339241012931,-0.009640551172196865
0.009023057296872139,0.0007132192840799689,-0.0025652677286416292,-0.013787397183477879,0.0029709015507251024,-0.01066077034920454
0.008771182037889957,0.0007355682901106775,-0.0024950180668383837,-0.013867063447833061,0.003079378278926015,-0.010113049298524857
0.008835588581860065,0.0007606727303937078,-0.00237944140098989,-0.014358135871589184,0.003174438839778304,-0.009809077717363834
0.008926529437303543,0.0010623731650412083,-0.0025222967378795147,-0.01431568805128336,0.0030456536915153265,-0.0102021973580122
0.008917163126170635,0.0010452967835590243,-0.002719877753406763,-0.01439977902919054,0.0032203032169491053,-0.010011699981987476
0.008838072419166565,0.0010216737864539027,-0.0025797539856284857,-0.014358296059072018,0.0032456745393574238,-0.009892180562019348
0.009203702211380005,0.0010009629186242819,-0.0026898859068751335,-0.014467895962297916,0.003442391287535429,-0.010233962908387184
0.009152027778327465,0.0009390540071763098,-0.002424346748739481,-0.014242781326174736,0.0030269615817815065,-0.009942751377820969
0.009152027778327465,0.0009390540071763098,-0.002424346748739481,-0.014242781326174736,0.0030269615817815065,-0.009942751377820969
0.008852222934365273,0.0009299860685132444,-0.0023988429456949234,-0.014519837684929371,0.0026424007955938578,-0.009643226861953735
0.009345916099846363,0.0009293544571846724,-0.0026347406674176455,-0.015074687078595161,0.0026990713085979223,-0.00973834004253149
0.009350433945655823,0.000983175472356379,-0.002527961740270257,-0.015194592997431755,0.002860535867512226,-0.009671586565673351
0.008953558281064034,0.0009694029577076435,-0.0025866185314953327,-0.014821451157331467,0.002868453972041607,-0.01010593120008707
0.008953558281064034,0.0009694029577076435,-0.0025866185314953327,-0.014821451157331467,0.002868453972041607,-0.01010593120008707
0.009454360231757164,0.000958701188210398,-0.002306236419826746,-0.01502901129424572,0.003023080062121153,-0.01014222763478756
0.009747552685439587,0.0011156484251841903,-0.0023761421907693148,-0.014797380194067955,0.0029618251137435436,-0.009816080331802368
0.009011872112751007,0.0013159903464838862,-0.0026452571619302034,-0.014853747561573982,0.003230180824175477,-0.009949657134711742
0.009410224854946136,0.0022445926442742348,-0.0029273717664182186,-0.014738181605935097,0.0032337752636522055,-0.011021644808351994
0.009822779335081577,0.0023090180475264788,-0.0027382962871342897,-0.015152362175285816,0.003402678295969963,-0.009801399894058704
0.008915286511182785,0.0024788707960397005,-0.002606059657409787,-0.01452664379030466,0.003278195858001709,-0.009386280551552773
0.01041419804096222,0.0020921756513416767,-0.0022620379459112883,-0.015222806483507156,0.003158293664455414,-0.009685591794550419
0.00935576856136322,0.0015403572469949722,-0.0021416833624243736,-0.014821133576333523,0.003146448405459523,-0.010441378690302372
0.00939872208982706,0.0015632592840120196,-0.0024006441235542297,-0.01558617688715458,0.0033054098021239042,-0.010208751074969769
0.00959748961031437,0.001955785322934389,-0.0029180734418332577,-0.01557340007275343,0.003609790001064539,-0.010420753620564938
0.009461569599807262,0.002577903913334012,-0.0026834681630134583,-0.015050928108394146,0.0038238451816141605,-0.010207616724073887
0.009303510189056396,0.002774510532617569,-0.002553486032411456,-0.01546209305524826,0.0034412348177284002,-0.009919906966388226
0.009984233416616917,0.0025602676905691624,-0.002598421648144722,-0.015736645087599754,0.0031825434416532516,-0.010097239166498184
0.009578811004757881,0.0024465490132570267,-0.002760443137958646,-0.0158387478441,0.002990631153807044,-0.010442092083394527
0.009717139415442944,0.0021563514601439238,-0.0031867034267634153,-0.0158575139939785,0.0031967859249562025,-0.009919961914420128
0.010033270344138145,0.00233535491861403,-0.0029661166481673717,-0.01567080244421959,0.0031777897384017706,-0.010009943507611752
0.009649003855884075,0.002809784607961774,-0.002836475847288966,-0.01603061519563198,0.003144343849271536,-0.01019129529595375
0.009814300574362278,0.0030323031824082136,-0.0026535079814493656,-0.01634700410068035,0.00333112059161067,-0.009938797913491726
0.009795120917260647,0.0028399890288710594,-0.002744947327300906,-0.015593389049172401,0.0030545571353286505,-0.010669815354049206
0.009743358939886093,0.0029555612709373236,-0.0026373527944087982,-0.015530796721577644,0.0030995537526905537,-0.010149268433451653
0.010483314283192158,0.0029901075176894665,-0.0031605863478034735,-0.01664828695356846,0.003400183282792568,-0.00965896900743246
0.010200142860412598,0.0030582300387322903,-0.0034221766982227564,-0.0162651464343071,0.0033533447422087193,-0.009686680510640144
0.010147775523364544,0.0029776813462376595,-0.0032211134675890207,-0.01622197963297367,0.00346078141592443,-0.010139700025320053
0.010819356888532639,0.0032286092173308134,-0.0030986666679382324,-0.016225596889853477,0.003266474697738886,-0.00988685805350542
0.010819356888532639,0.0032286092173308134,-0.0030986666679382324,-0.016225596889853477,0.003266474697738886,-0.00988685805350542
0.010917478241026402,0.0034046494401991367,-0.003267870284616947,-0.016009055078029633,0.003434157697483897,-0.010314635932445526
0.010235030204057693,0.003360589500516653,-0.003104085335507989,-0.016562802717089653,0.003230435773730278,-0.009954923763871193
0.010632419027388096,0.0035502654500305653,-0.0032119136303663254,-0.01657152734696865,0.003275061259046197,-0.009722146205604076
0.011083701625466347,0.0037328111939132214,-0.0032252115197479725,-0.017391307279467583,0.0032295130658894777,-0.01033632829785347
0.010351374745368958,0.003837263910099864,-0.003045292804017663,-0.01698577031493187,0.0035087796859443188,-0.00997978262603283
0.011105116456747055,0.003752628806978464,-0.0029879992362111807,-0.016813820227980614,0.003572134068235755,-0.009699552319943905
0.010479645803570747,0.003836744697764516,-0.0031945095397531986,-0.016904203221201897,0.0034775056410580873,-0.010205875150859356
0.010390092618763447,0.00388454576022923,-0.0029144124127924442,-0.01647120900452137,0.0031655896455049515,-0.010704443790018559
0.010681129060685635,0.00390672218054533,-0.0031017784494906664,-0.017055464908480644,0.0030336149502545595,-0.010403463616967201
0.010202026925981045,0.0044409302063286304,-0.0034236423671245575,-0.016969827935099602,0.003114852588623762,-0.010566075332462788
0.010789433494210243,0.004629072733223438,-0.0034027383662760258,-0.017967570573091507,0.003619118593633175,-0.01032727025449276
0.010764660313725471,0.004542564507573843,-0.0032470361329615116,-0.017732074484229088,0.00356740178540349,-0.010440453886985779
0.011173751205205917,0.005171968135982752,-0.0034703232813626528,-0.018297499045729637,0.0033909466583281755,-0.010366943664848804
0.010760373435914516,0.0050180028192698956,-0.0032908660359680653,-0.01806514523923397,0.0031130018178373575,-0.01068284921348095
0.010771337896585464,0.004549539182335138,-0.0032184093724936247,-0.017395449802279472,0.0034416932612657547,-0.010996504686772823
0.010923117399215698,0.005731015931814909,-0.0031473198905587196,-0.01790791004896164,0.0038461191579699516,-0.011216285638511181
0.010806241072714329,0.005456935614347458,-0.0034209899604320526,-0.017415853217244148,0.003956097178161144,-0.011477439664304256
0.010973012074828148,0.004886433482170105,-0.0033126692287623882,-0.01781800389289856,0.003909997642040253,-0.010607030242681503
0.010911339893937111,0.004734670277684927,-0.0035328033845871687,-0.018274512141942978,0.003486666362732649,-0.010618329979479313
0.010911339893937111,0.004734670277684927,-0.0035328033845871687,-0.018274512141942978,0.003486666362732649,-0.010618329979479313
0.010931272059679031,0.005440552718937397,-0.0036723820958286524,-0.018617115914821625,0.0034922442864626646,-0.010579819791018963
0.010895485058426857,0.00578055065125227,-0.0032770002726465464,-0.01863672211766243,0.004184599965810776,-0.010794183239340782
0.010895485058426857,0.00578055065125227,-0.0032770002726465464,-0.01863672211766243,0.004184599965810776,-0.010794183239340782
0.011104109697043896,0.005391700658947229,-0.003419246757403016,-0.01853281818330288,0.004309969954192638,-0.011018186807632446
0.011451327241957188,0.0052233291789889336,-0.0037262646947056055,-0.01943180523812771,0.004036739468574524,-0.010471828281879425
0.010878202505409718,0.005044486373662949,-0.003926475998014212,-0.019300552085042,0.0034029760863631964,-0.010115070268511772
0.011210047639906406,0.005900554824620485,-0.0034590086434036493,-0.018641790375113487,0.003088173223659396,-0.010451802983880043
0.011068136431276798,0.005704408977180719,-0.004153307992964983,-0.019152361899614334,0.0031135159078985453,-0.010808220133185387
0.011241462081670761,0.006396982353180647,-0.004160028882324696,-0.01853146217763424,0.0034521687775850296,-0.010405821725726128
0.011645100079476833,0.005771321710199118,-0.0035683177411556244,-0.018210966140031815,0.0036846501752734184,-0.010577671229839325
0.011250880546867847,0.006002165377140045,-0.0033701779320836067,-0.018871881067752838,0.003816351993009448,-0.010951729491353035
0.011493196710944176,0.006637399550527334,-0.003732107114046812,-0.019515644758939743,0.0034683062694966793,-0.010509262792766094
0.011493196710944176,0.006637399550527334,-0.003732107114046812,-0.019515644758939743,0.0034683062694966793,-0.010509262792766094
0.011807517148554325,0.0066732559353113174,-0.0036751835141330957,-0.01975494623184204,0.00336342491209507,-0.010445165447890759
0.012115506455302238,0.00640834541991353,-0.003503907937556505,-0.019347110763192177,0.0034159980714321136,-0.010785146616399288
0.01138839591294527,0.006981732323765755,-0.003366624005138874,-0.019369525834918022,0.0036559549625962973,-0.010421189479529858
0.011805917136371136,0.007666022051125765,-0.0035337498411536217,-0.020091194659471512,0.004159483592957258,-0.01053298357874155
0.011837465688586235,0.007128350902348757,-0.003894308814778924,-0.02011156640946865,0.004100415855646133,-0.010731925256550312
0.011793559417128563,0.006816521752625704,-0.0035269821528345346,-0.019829653203487396,0.004390348214656115,-0.01033096481114626
0.011635520495474339,0.007165525108575821,-0.003647484350949526,-0.020437419414520264,0.004028653260320425,-0.010731922462582588
0.011939243413507938,0.007575480733066797,-0.003970629069954157,-0.01945934072136879,0.003626621328294277,-0.010470389388501644
0.012094050645828247,0.007170843426138163,-0.003686604555696249,-0.02018636465072632,0.0036134638357907534,-0.010491500608623028
0.011888034641742706,0.008091690950095654,-0.0034977064933627844,-0.020624155178666115,0.004236956126987934,-0.010686593130230904
0.01217473391443491,0.00803934596478939,-0.0036480268463492393,-0.020432209596037865,0.004158735740929842,-0.01057341042906046
0.012017716653645039,0.007720031309872866,-0.0037242115940898657,-0.020774085074663162,0.003891443368047476,-0.010684343054890633
0.012474090792238712,0.007477481849491596,-0.003656833665445447,-0.021812891587615013,0.003814093070104718,-0.010764594189822674
0.012104048393666744,0.008129117079079151,-0.004138128366321325,-0.02159467712044716,0.004216623958200216,-0.010916219092905521
0.012171712704002857,0.00803123228251934,-0.004170188680291176,-0.020964225754141808,0.004190090112388134,-0.011014197021722794
0.011919538490474224,0.008300082758069038,-0.003541522193700075,-0.0214559156447649,0.003918113186955452,-0.010832845233380795
0.011919538490474224,0.008300082758069038,-0.003541522193700075,-0.0214559156447649,0.003918113186955452,-0.010832845233380795
0.012094622477889061,0.007794196251779795,-0.003568867687135935,-0.02245967648923397,0.0038180816918611526,-0.01078080851584673
0.012405695393681526,0.008193621411919594,-0.0038435179740190506,-0.022005990147590637,0.003499659476801753,-0.01050435472279787
0.011956138536334038,0.008476349525153637,-0.004263164941221476,-0.02234804444015026,0.0034945779480040073,-0.010634384118020535
0.012406636029481888,0.008199631236493587,-0.003930133301764727,-0.02229180745780468,0.004053005948662758,-0.010900275781750679
0.012178265489637852,0.00814973283559084,-0.0035844005178660154,-0.02301488257944584,0.004151256289333105,-0.010667750611901283
0.012247762642800808,0.008441677317023277,-0.00364505173638463,-0.022466355934739113,0.004206398501992226,-0.011005568318068981
0.012445827946066856,0.008623313158750534,-0.0038602168206125498,-0.02261177822947502,0.003944810479879379,-0.011222886852920055
0.01229255460202694,0.00816899724304676,-0.003897523507475853,-0.02188875339925289,0.003527985420078039,-0.011008365079760551
0.012548327445983887,0.008150152862071991,-0.004319062922149897,-0.02182646468281746,0.003551896195858717,-0.010758516378700733
0.012187945656478405,0.009007854387164116,-0.0041345651261508465,-0.02262207493185997,0.003824938554316759,-0.010850420221686363
0.012635947205126286,0.009145492687821388,-0.004206709563732147,-0.022984925657510757,0.003992137499153614,-0.011667056940495968
0.01213833224028349,0.007895435206592083,-0.003991962876170874,-0.02197127789258957,0.0043510617688298225,-0.010782050900161266
0.012406833469867706,0.007049590814858675,-0.0037244621198624372,-0.02181900665163994,0.004615225829184055,-0.010761892423033714
0.01262003555893898,0.008239693008363247,-0.0036327773705124855,-0.022701602429151535,0.004643843974918127,-0.011467480100691319
0.012492562644183636,0.007814166136085987,-0.0037192979361861944,-0.023456208407878876,0.004184165969491005,-0.012056627310812473
0.012764647603034973,0.008073330856859684,-0.0037646470591425896,-0.02259516902267933,0.003942372743040323,-0.0117063382640481
0.012291648425161839,0.008001739159226418,-0.0037494360003620386,-0.021834613755345345,0.004006070550531149,-0.011923440732061863
0.012286556884646416,0.008322982117533684,-0.003781374078243971,-0.022459711879491806,0.004079130012542009,-0.01122900191694498
0.012965640053153038,0.007921976037323475,-0.0037342754658311605,-0.023064173758029938,0.004004616755992174,-0.011423774063587189
0.012793557718396187,0.008383301086723804,-0.0037010025698691607,-0.023011354729533195,0.00438033789396286,-0.01151064969599247
0.012787350453436375,0.008358614519238472,-0.0036864865105599165,-0.022386381402611732,0.004164675250649452,-0.011757158674299717
0.012909925542771816,0.008918270468711853,-0.0037133716978132725,-0.023116959258913994,0.004151465836912394,-0.012075471691787243
0.012662047520279884,0.008714153431355953,-0.003718157298862934,-0.02393851801753044,0.0040893228724598885,-0.012037340551614761
0.012752803973853588,0.008905002847313881,-0.0037196024786680937,-0.0237094946205616,0.0043426742777228355,-0.012067173607647419
0.012839951552450657,0.008433765731751919,-0.004308165982365608,-0.023759473115205765,0.004204334691166878,-0.012201144360005856
0.013470056466758251,0.008482571691274643,-0.0040918211452662945,-0.02277262881398201,0.004467736463993788,-0.01156957820057869
0.012889650650322437,0.00880487635731697,-0.004254620522260666,-0.023195941001176834,0.004690396133810282,-0.01148800179362297
0.013212121091783047,0.009381035342812538,-0.004215311724692583,-0.02358713187277317,0.004578512627631426,-0.01181188877671957
0.013212121091783047,0.009381035342812538,-0.004215311724692583,-0.02358713187277317,0.004578512627631426,-0.01181188877671957
0.012930482625961304,0.00855846144258976,-0.00412827217951417,-0.024007026106119156,0.004182583186775446,-0.011938539333641529
0.01302060391753912,0.008763222023844719,-0.004056933801621199,-0.02449449896812439,0.004184406716376543,-0.01200407650321722
0.013277662917971611,0.009006588719785213,-0.003965604584664106,-0.023858197033405304,0.004140503704547882,-0.012087616138160229
0.012878294102847576,0.008947527036070824,-0.004357510711997747,-0.024170247837901115,0.004058102611452341,-0.01262248307466507
0.013570071198046207,0.009006489999592304,-0.004538430832326412,-0.024196578189730644,0.004479111637920141,-0.012218208983540535
0.013079025782644749,0.008982871659100056,-0.004250628408044577,-0.02408214658498764,0.004731471184641123,-0.011583106592297554
0.013509881682693958,0.009047962725162506,-0.003867499530315399,-0.024161050096154213,0.004460348282009363,-0.011403943412005901
0.013038220815360546,0.009215972386300564,-0.004234978463500738,-0.024186696857213974,0.0043633487075567245,-0.012279090471565723
0.01336725614964962,0.00950212124735117,-0.004207784775644541,-0.024255163967609406,0.0040815831162035465,-0.011458863504230976
0.013126027770340443,0.009311533533036709,-0.003970591817051172,-0.024566136300563812,0.0038162842392921448,-0.011466576717793941
0.013423318974673748,0.009231221862137318,-0.004376367200165987,-0.024430928751826286,0.0035719675943255424,-0.011494973674416542
0.013034971430897713,0.010152433067560196,-0.0041456567123532295,-0.02471492812037468,0.004110023379325867,-0.01208527572453022
0.013789295218884945,0.009395522996783257,-0.004149746615439653,-0.025258220732212067,0.005044122692197561,-0.011949692852795124
0.01360465306788683,0.009778086096048355,-0.00426372280344367,-0.025645628571510315,0.005142651032656431,-0.012216617353260517
0.013734206557273865,0.009771094657480717,-0.004215305205434561,-0.026025252416729927,0.0045120371505618095,-0.012156675569713116
0.01522543840110302,0.009683391079306602,-0.004090378060936928,-0.025996316224336624,0.004049734678119421,-0.012243893928825855
0.013340706937015057,0.010047288611531258,-0.003899866947904229,-0.025761447846889496,0.004216338973492384,-0.012549431063234806
0.013069510459899902,0.010171628557145596,-0.0044253175146877766,-0.025987548753619194,0.004480439238250256,-0.012256056070327759
0.014002660289406776,0.009874812327325344,-0.004698439035564661,-0.02628049999475479,0.00485213240608573,-0.012697688303887844
0.013559669256210327,0.010271073319017887,-0.004406247287988663,-0.02661691978573799,0.004924323409795761,-0.01252397708594799
0.01368696242570877,0.010123014450073242,-0.00405943114310503,-0.026878058910369873,0.00505636865273118,-0.012647268362343311
0.013654912821948528,0.010104510933160782,-0.003983064088970423,-0.027067717164754868,0.004978299606591463,-0.012345189228653908
0.014437292702496052,0.010663443244993687,-0.0044257063418626785,-0.02721436135470867,0.004380363039672375,-0.01245319377630949
0.014437292702496052,0.010663443244993687,-0.0044257063418626785,-0.02721436135470867,0.004380363039672375,-0.01245319377630949
0.013652889989316463,0.009998699650168419,-0.0041266451589763165,-0.02665623649954796,0.004298644606024027,-0.01222275011241436
0.014344802126288414,0.01077218260616064,-0.004251996986567974,-0.028352340683341026,0.004601439461112022,-0.012443765997886658
0.013773645274341106,0.01034611091017723,-0.004547894466668367,-0.02833486720919609,0.004902797285467386,-0.0127258887514472
0.014194992370903492,0.010088932700455189,-0.004629685077816248,-0.027400756254792213,0.004817602690309286,-0.012367305345833302
0.013859576545655727,0.010801693424582481,-0.004219891503453255,-0.027086706832051277,0.004742923192679882,-0.012400449253618717
0.014080558903515339,0.010912351310253143,-0.003977491986006498,-0.026356063783168793,0.004709778819233179,-0.012210994958877563
0.013692991808056831,0.010305368341505527,-0.00394346471875906,-0.026399243623018265,0.004171788226813078,-0.012179583311080933
0.01442304253578186,0.010760083794593811,-0.004394707269966602,-0.02763361483812332,0.004252877086400986,-0.012195170857012272
0.014464118517935276,0.010516384616494179,-0.004592608194798231,-0.027607511729002,0.004791479092091322,-0.012443405576050282
0.014325202442705631,0.011104234494268894,-0.004306774120777845,-0.027353385463356972,0.004773576743900776,-0.013042277656495571
0.014380079694092274,0.011286471970379353,-0.003867256687954068,-0.027999870479106903,0.004872649442404509,-0.012982387095689774
0.014765793457627296,0.011093701235949993,-0.004188972059637308,-0.028415372595191002,0.0051845950074493885,-0.012560563161969185
0.014681577682495117,0.011595314368605614,-0.004487920086830854,-0.027795791625976562,0.0047346120700240135,-0.012204699218273163
0.015153137035667896,0.011311964131891727,-0.0042539979331195354,-0.027123361825942993,0.004625183064490557,-0.013875762932002544
0.014402300119400024,0.011270360089838505,-0.004392242059111595,-0.02751328982412815,0.004930595867335796,-0.012774207629263401
0.014698488637804985,0.011092103086411953,-0.004871794022619724,-0.029427696019411087,0.004924628883600235,-0.012838399969041348
0.015196217224001884,0.011074758134782314,-0.004795778077095747,-0.02857571840286255,0.005238719284534454,-0.012811492197215557
0.014955258928239346,0.011004584841430187,-0.004354029428213835,-0.028830636292696,0.005071924068033695,-0.01314949244260788
0.015422404743731022,0.010727068409323692,-0.004513123072683811,-0.029373569414019585,0.004847527947276831,-0.012953344732522964
0.015218915417790413,0.011258574202656746,-0.0045532179065048695,-0.02890537679195404,0.0048340363427996635,-0.013232492841780186
0.015427117235958576,0.01107038464397192,-0.005229923874139786,-0.02867383509874344,0.004757886286824942,-0.012838345021009445
0.015112624503672123,0.010669942013919353,-0.0052954889833927155,-0.028986798599362373,0.004471523221582174,-0.01289649773389101
0.015648843720555305,0.011663170531392097,-0.004873036872595549,-0.02900778502225876,0.004585409536957741,-0.013048559427261353
0.015329521149396896,0.011032307520508766,-0.004776088986545801,-0.028876125812530518,0.0047517018392682076,-0.012886893935501575
0.015329521149396896,0.011032307520508766,-0.004776088986545801,-0.028876125812530518,0.0047517018392682076,-0.012886893935501575
0.015472878701984882,0.011589241214096546,-0.004947693552821875,-0.029046617448329926,0.004954697098582983,-0.013067856431007385
0.016192857176065445,0.011022359132766724,-0.004911650437861681,-0.030327988788485527,0.005009475164115429,-0.012750805355608463
0.016192857176065445,0.011022359132766724,-0.004911650437861681,-0.030327988788485527,0.005009475164115429,-0.012750805355608463
0.016740180552005768,0.011987181380391121,-0.005078827030956745,-0.02913467399775982,0.00444363197311759,-0.012954339385032654
0.016077520325779915,0.01156332902610302,-0.004941313993185759,-0.028981881216168404,0.004576732404530048,-0.01321738213300705
0.016769258305430412,0.010468270629644394,-0.004838530905544758,-0.02895117737352848,0.005040548741817474,-0.013004448264837265
0.016502810642123222,0.010780425742268562,-0.00497737992554903,-0.029292991384863853,0.005480211693793535,-0.013024233281612396
0.016643406823277473,0.01085511315613985,-0.0047719432041049,-0.030273739248514175,0.005266218911856413,-0.012469837442040443
0.016790034249424934,0.010969766415655613,-0.004444122314453125,-0.030856747180223465,0.004516152665019035,-0.0126075129956007
0.016622232273221016,0.011023198254406452,-0.00509281549602747,-0.03072214126586914,0.004441286437213421,-0.012664438225328922
0.017075276002287865,0.010938996449112892,-0.005520016420632601,-0.029517700895667076,0.004938999190926552,-0.013049580156803131
0.01697300747036934,0.01198484655469656,-0.004534746520221233,-0.02993779070675373,0.005097258370369673,-0.013101479038596153
0.01719912700355053,0.011323541402816772,-0.004266055300831795,-0.03093067929148674,0.005339934024959803,-0.013210800476372242
0.016930297017097473,0.01127287931740284,-0.0048715886659920216,-0.030801471322774887,0.005374240223318338,-0.013644756749272346
0.017665943130850792,0.010732728987932205,-0.0052976058796048164,-0.03146453946828842,0.0052407048642635345,-0.013622340746223927
0.017777219414711,0.011012914590537548,-0.005470568779855967,-0.031186845153570175,0.005254289135336876,-0.013507673516869545
0.017624421045184135,0.010377379134297371,-0.005006227642297745,-0.02913363091647625,0.005490300711244345,-0.013436243869364262
0.017477774992585182,0.010797941125929356,-0.004559712018817663,-0.029054122045636177,0.0053070830181241035,-0.013480594381690025
0.017477482557296753,0.011426903307437897,-0.004831518046557903,-0.030729612335562706,0.005302946083247662,-0.01380564458668232
0.017624344676733017,0.011206158436834812,-0.005405224394053221,-0.031107228249311447,0.004990501794964075,-0.013929973356425762
0.017178133130073547,0.011400149203836918,-0.005564815364778042,-0.031040817499160767,0.004767053294926882,-0.0138705400750041
0.01776563748717308,0.011466361582279205,-0.005487679969519377,-0.030592212453484535,0.004727794323116541,-0.013269857503473759
0.017799049615859985,0.010517490096390247,-0.004686393309384584,-0.03081713616847992,0.005035704467445612,-0.012954393401741982
0.01767507754266262,0.010976395569741726,-0.004596182610839605,-0.03099956177175045,0.00502935191616416,-0.013402778655290604
0.017645971849560738,0.011613315902650356,-0.005600476171821356,-0.03169628232717514,0.00491498364135623,-0.013225783593952656
0.017645971849560738,0.011613315902650356,-0.005600476171821356,-0.03169628232717514,0.00491498364135623,-0.013225783593952656
0.017253288999199867,0.011226783506572247,-0.005368705838918686,-0.03193143010139465,0.004791551735252142,-0.01324385218322277
0.017738105729222298,0.011352792382240295,-0.005380955059081316,-0.0331280343234539,0.004564483184367418,-0.013206243515014648
0.018099313601851463,0.011348308064043522,-0.005003499332815409,-0.03179442137479782,0.004809931386262178,-0.013420717790722847
0.017997000366449356,0.011421957984566689,-0.004996920935809612,-0.03204483911395073,0.004985202569514513,-0.013875921256840229
0.018050597980618477,0.011539318598806858,-0.005365412216633558,-0.0319548025727272,0.0053067561239004135,-0.014030832797288895
0.018101133406162262,0.01132062915712595,-0.005049169063568115,-0.031967125833034515,0.005412290804088116,-0.013953085988759995
0.017602290958166122,0.011626646853983402,-0.005206946283578873,-0.03239639848470688,0.005459188017994165,-0.013993995264172554
0.017822423949837685,0.011558781377971172,-0.005090433172881603,-0.032538894563913345,0.005525377579033375,-0.01471689436584711
0.017784113064408302,0.011471821926534176,-0.004946903791278601,-0.03237895295023918,0.006004436407238245,-0.013608667999505997
0.01792810671031475,0.011630058288574219,-0.005188369657844305,-0.0327543169260025,0.005525582004338503,-0.013140205293893814
0.01831262744963169,0.01134897954761982,-0.005521928425878286,-0.03317970037460327,0.005381620954722166,-0.013761060312390327
0.017852069810032845,0.012612060643732548,-0.005194511730223894,-0.0337260439991951,0.005249514244496822,-0.013982883654534817
0.01866869442164898,0.011798952706158161,-0.0051843831315636635,-0.03326699882745743,0.00579528883099556,-0.014095041900873184
0.017896385863423347,0.01228785514831543,-0.005947837606072426,-0.03351398929953575,0.005080671515315771,-0.014176588505506516
0.018128003925085068,0.011933897621929646,-0.005492594093084335,-0.03405078127980232,0.0051564378663897514,-0.013899670913815498
0.01835787482559681,0.012608478777110577,-0.005212286952883005,-0.03417615219950676,0.0052557592280209064,-0.013737061992287636
0.018736138939857483,0.01200056541711092,-0.004946934059262276,-0.03358395770192146,0.005513400305062532,-0.013853317126631737
0.018863679841160774,0.012311897240579128,-0.005402558948844671,-0.034629322588443756,0.005254690069705248,-0.014075865037739277
0.018480334430933,0.012270447798073292,-0.005739802028983831,-0.035818133503198624,0.005390750244259834,-0.014319635927677155
0.018612129613757133,0.012320322915911674,-0.005075513850897551,-0.035860784351825714,0.0056449337862432,-0.014425772242248058
0.018944600597023964,0.01235983893275261,-0.004732371307909489,-0.03400491550564766,0.006052257027477026,-0.014557776041328907
0.018711498007178307,0.012870382517576218,-0.005175601225346327,-0.03454774618148804,0.005545371677726507,-0.014472086913883686
0.018732523545622826,0.01432474423199892,-0.00513410521671176,-0.03522874414920807,0.005310562439262867,-0.014361881650984287
0.018893208354711533,0.01364000141620636,-0.006108035333454609,-0.03653750941157341,0.005501227919012308,-0.014409095980226994
0.018893208354711533,0.01364000141620636,-0.006108035333454609,-0.03653750941157341,0.005501227919012308,-0.014409095980226994
0.01864001527428627,0.01408668514341116,-0.005619172006845474,-0.03643850237131119,0.006023768335580826,-0.014191946014761925
0.019079331308603287,0.013442850671708584,-0.0056752716191112995,-0.035449374467134476,0.005960637237876654,-0.014584895223379135
0.019191991537809372,0.013975542038679123,-0.005237114150077105,-0.03408876806497574,0.0058165849186480045,-0.014718246646225452
0.018808463588356972,0.013323760591447353,-0.005473459605127573,-0.034902215003967285,0.005821832921355963,-0.014621867798268795
0.019037064164876938,0.013817786239087582,-0.005718238651752472,-0.03619035705924034,0.005931494757533073,-0.014308200217783451
0.019036337733268738,0.013253738172352314,-0.006242277566343546,-0.03577549383044243,0.005677010864019394,-0.01431379932910204
0.01887267641723156,0.01385069265961647,-0.005769186653196812,-0.03530135378241539,0.005894763860851526,-0.014431631192564964
0.01903139241039753,0.013987729325890541,-0.005108102690428495,-0.03552986681461334,0.006120104808360338,-0.014437521807849407
0.019201846793293953,0.014542029239237309,-0.005164720118045807,-0.03575890511274338,0.005744847934693098,-0.014359007589519024
0.018979361280798912,0.013776920735836029,-0.005553962662816048,-0.036083828657865524,0.0058089555241167545,-0.014380495995283127
0.019514674320816994,0.014720404520630836,-0.0058359187096357346,-0.03620627522468567,0.005552846472710371,-0.014515616931021214
0.019615447148680687,0.014331934042274952,-0.005327119491994381,-0.03605202957987785,0.0057450756430625916,-0.014832676388323307
0.01914105750620365,0.014729362912476063,-0.0049215382896363735,-0.03635285794734955,0.005889954976737499,-0.015008482150733471
0.0200902558863163,0.014684384688735008,-0.005367786157876253,-0.03647913783788681,0.005983738694339991,-0.015238315798342228
0.019868813455104828,0.014788380824029446,-0.005577989853918552,-0.0360899455845356,0.0058216517791152,-0.014847972430288792
0.019854051992297173,0.014613653533160686,-0.006001844070851803,-0.03589054197072983,0.005857662297785282,-0.015227582305669785
0.020051345229148865,0.01464362908154726,-0.00503174215555191,-0.036256689578294754,0.005514038726687431,-0.015325254760682583
0.019936032593250275,0.014694903045892715,-0.00516074663028121,-0.03613242134451866,0.005491259042173624,-0.015271765179932117
0.020044546574354172,0.014698076993227005,-0.005490188021212816,-0.03742433711886406,0.005591043271124363,-0.016508078202605247
0.020318854600191116,0.015351371839642525,-0.006150634028017521,-0.03793732076883316,0.0059686461463570595,-0.015333633869886398
0.020561212673783302,0.014831009320914745,-0.005656805355101824,-0.03641371801495552,0.006114506628364325,-0.014645114541053772
0.020252421498298645,0.015461094677448273,-0.005268972832709551,-0.035138022154569626,0.006199099589139223,-0.015090354718267918
0.020735060796141624,0.01500788889825344,-0.0053326948545873165,-0.038312457501888275,0.006202549207955599,-0.015608598478138447
0.02096991054713726,0.01542059239000082,-0.00557041447609663,-0.03716636821627617,0.00585357379168272,-0.01563996635377407
0.020369378849864006,0.01488779578357935,-0.005678163375705481,-0.03819776698946953,0.006346602458506823,-0.015593819320201874
0.019904760643839836,0.01537211611866951,-0.005933789536356926,-0.039458874613046646,0.006519454997032881,-0.015793003141880035
0.02077944204211235,0.015373597852885723,-0.005778431426733732,-0.03779294341802597,0.0064374906942248344,-0.015963077545166016
0.020760467275977135,0.015793120488524437,-0.005795472767204046,-0.03799263760447502,0.0064560906030237675,-0.015781819820404053
0.02079799212515354,0.015398304909467697,-0.005712880752980709,-0.039897795766592026,0.006478323135524988,-0.015125454403460026
0.02055848017334938,0.015801306813955307,-0.005771595053374767,-0.040421225130558014,0.005948641337454319,-0.015491466969251633
0.02055848017334938,0.015801306813955307,-0.005771595053374767,-0.040421225130558014,0.005948641337454319,-0.015491466969251633
0.020893365144729614,0.015534568578004837,-0.006154812406748533,-0.03967554122209549,0.005976531188935041,-0.015900902450084686
0.021090736612677574,0.01572543941438198,-0.005870570428669453,-0.040176503360271454,0.006201892159879208,-0.01649729162454605
0.02138778753578663,0.016281789168715477,-0.006078417878597975,-0.04027656838297844,0.006023256108164787,-0.016300279647111893
0.02193182334303856,0.015834730118513107,-0.00586336012929678,-0.04062285274267197,0.006090826354920864,-0.016335517168045044
0.021530967205762863,0.016351891681551933,-0.0058961305767297745,-0.04079708084464073,0.005895213223993778,-0.01610860787332058
0.021016307175159454,0.01593220978975296,-0.0062555959448218346,-0.04054219648241997,0.006184750236570835,-0.015922967344522476
0.020679660141468048,0.016290897503495216,-0.005646724719554186,-0.040928952395915985,0.006542442832142115,-0.016015898436307907
0.02173742838203907,0.016457468271255493,-0.005788775160908699,-0.04085901379585266,0.006659427657723427,-0.016347622498869896
0.02252965420484543,0.016636740416288376,-0.006044440902769566,-0.04157165810465813,0.0063093253411352634,-0.017008738592267036
0.021847793832421303,0.01683918572962284,-0.006023768335580826,-0.04137800261378288,0.006424658931791782,-0.017285436391830444
0.021712632849812508,0.016414225101470947,-0.006183105520904064,-0.04116569831967354,0.006731093395501375,-0.01703605242073536
0.022231677547097206,0.017135361209511757,-0.005570220295339823,-0.041450630873441696,0.006613392848521471,-0.016391998156905174
0.022408435121178627,0.016606951132416725,-0.005756620317697525,-0.042081739753484726,0.006123008672147989,-0.0167299322783947
0.022673174738883972,0.017271220684051514,-0.006320883519947529,-0.04248876869678497,0.006287428550422192,-0.016678135842084885
0.022775817662477493,0.017504962161183357,-0.006407021079212427,-0.04191700741648674,0.0065220799297094345,-0.016870208084583282
0.022566860541701317,0.017613060772418976,-0.005914651323109865,-0.042907871305942535,0.006440357770770788,-0.01664702035486698
0.02261783555150032,0.017257263883948326,-0.005964614916592836,-0.04261142387986183,0.006153203547000885,-0.01719805784523487
0.022597014904022217,0.017452962696552277,-0.006063592154532671,-0.04100661724805832,0.006069480907171965,-0.01691034808754921
0.022784508764743805,0.017876988276839256,-0.00585113326087594,-0.04066585376858711,0.006499281153082848,-0.016283608973026276
0.023162808269262314,0.017507724463939667,-0.006833295337855816,-0.04231419786810875,0.007059856317937374,-0.017246052622795105
0.023432178422808647,0.01834474690258503,-0.006215521600097418,-0.04265404865145683,0.006992551498115063,-0.016628284007310867
0.023278087377548218,0.018114961683750153,-0.005569285713136196,-0.04376569017767906,0.006695093587040901,-0.01708279550075531
0.023156316950917244,0.018034057691693306,-0.0060119181871414185,-0.042232949286699295,0.0065654730424284935,-0.01728920452296734
0.023313095793128014,0.018337920308113098,-0.006113840267062187,-0.04151368886232376,0.0067358240485191345,-0.017067547887563705
0.023301981389522552,0.01781788468360901,-0.006237967871129513,-0.043025530874729156,0.006898032501339912,-0.016783086583018303
0.0239183958619833,0.018194086849689484,-0.006039070431143045,-0.04295232892036438,0.006805059965699911,-0.016391461715102196
0.023685021325945854,0.018653487786650658,-0.006052403245121241,-0.04242704063653946,0.0068250056356191635,-0.0167436171323061
0.02380715310573578,0.018158450722694397,-0.006068436428904533,-0.04238095507025719,0.006870656739920378,-0.01682966947555542
0.024133505299687386,0.01860710419714451,-0.006148666609078646,-0.04217647388577461,0.00741087319329381,-0.017149431630969048
0.023751527070999146,0.018748968839645386,-0.006138969212770462,-0.042428407818078995,0.00677109370008111,-0.017428990453481674
0.0239831805229187,0.018362650647759438,-0.0063120415434241295,-0.04184025153517723,0.006430303677916527,-0.017163332551717758
0.0239831805229187,0.018362650647759438,-0.0063120415434241295,-0.04184025153517723,0.006430303677916527,-0.017163332551717758
0.024752287194132805,0.0188525952398777,-0.006143423728644848,-0.04291144385933876,0.006672616582363844,-0.016977492719888687
0.02420147880911827,0.018763285130262375,-0.006068233400583267,-0.0429774709045887,0.00681727658957243,-0.016862867400050163
0.024312099441885948,0.018460610881447792,-0.006012137979269028,-0.04316439479589462,0.006486363708972931,-0.016784723848104477
0.024928219616413116,0.019120236858725548,-0.0061881449073553085,-0.04307420551776886,0.006536989007145166,-0.017204612493515015
0.024675564840435982,0.01929943822324276,-0.006405018735677004,-0.043725401163101196,0.006685979664325714,-0.017617689445614815
0.02451552450656891,0.019186021760106087,-0.006124791689217091,-0.044157687574625015,0.00703278137370944,-0.017794033512473106
0.024094898253679276,0.019743455573916435,-0.005907808430492878,-0.044284574687480927,0.007073668763041496,-0.017398269847035408
0.024687442928552628,0.01920737884938717,-0.00591895030811429,-0.045025695115327835,0.007208961062133312,-0.017387090250849724
0.025517692789435387,0.018475955352187157,-0.00613027298822999,-0.04616131633520126,0.0067132641561329365,-0.01786675862967968
0.025264866650104523,0.01908937841653824,-0.006271746940910816,-0.044032055884599686,0.006989780813455582,-0.01773868501186371
0.02502657100558281,0.019711054861545563,-0.006072539370507002,-0.045287180691957474,0.006763840559870005,-0.01763884164392948
0.024907533079385757,0.01968122087419033,-0.005753526464104652,-0.04584110528230667,0.006692339666187763,-0.017553646117448807
0.024983858689665794,0.018766555935144424,-0.005995900370180607,-0.04585203155875206,0.006719554774463177,-0.017343750223517418
0.025141142308712006,0.01979658380150795,-0.006122063845396042,-0.04409387707710266,0.006952153984457254,-0.01767924800515175
0.024608178064227104,0.020015740767121315,-0.005950361955910921,-0.04555448144674301,0.007826408371329308,-0.018225649371743202
0.024623896926641464,0.019607992842793465,-0.005992259830236435,-0.04633435234427452,0.007200287654995918,-0.01782563328742981
0.02548345737159252,0.019779276102781296,-0.005996042396873236,-0.04643463343381882,0.006766041740775108,-0.017793383449316025
0.02533930353820324,0.02043413370847702,-0.006063360255211592,-0.046266913414001465,0.006981209851801395,-0.01717197336256504
0.025030478835105896,0.020186714828014374,-0.006448770873248577,-0.046393655240535736,0.007423153147101402,-0.017113741487264633
0.024990912526845932,0.019667301326990128,-0.005886002443730831,-0.047029100358486176,0.00743115833029151,-0.017830850556492805
0.024966983124613762,0.02018151432275772,-0.005724010989069939,-0.04665633291006088,0.006928872317075729,-0.017968568950891495
0.025778666138648987,0.020795684307813644,-0.006519111804664135,-0.04679829999804497,0.0070676254108548164,-0.01833718828856945
0.02595924213528633,0.020095963031053543,-0.006288232281804085,-0.04722229018807411,0.006967844907194376,-0.018696581944823265
0.025660570710897446,0.020029807463288307,-0.006354985758662224,-0.04748548939824104,0.006491540465503931,-0.01825599931180477
0.0257175974547863,0.020463980734348297,-0.005959832575172186,-0.047448065131902695,0.0065531060099601746,-0.017807556316256523
0.0257175974547863,0.020463980734348297,-0.005959832575172186,-0.047448065131902695,0.0065531060099601746,-0.017807556316256523
0.02562992088496685,0.019900858402252197,-0.006325745489448309,-0.047313034534454346,0.007020344026386738,-0.017623689025640488
0.02578706108033657,0.02005123905837536,-0.007472209632396698,-0.04775724187493324,0.007054872810840607,-0.01764230616390705
0.025865361094474792,0.020622704178094864,-0.007430822588503361,-0.0475151501595974,0.006654365919530392,-0.018002299591898918
0.025960495695471764,0.020585360005497932,-0.006661737337708473,-0.04703737422823906,0.006697602570056915,-0.0182286836206913
0.025848448276519775,0.02034377120435238,-0.006751136388629675,-0.04727555438876152,0.006688084453344345,-0.01826309971511364
0.026107806712388992,0.02077065408229828,-0.007577394135296345,-0.048884738236665726,0.007156990468502045,-0.017932187765836716
0.026366332545876503,0.020886104553937912,-0.007157357409596443,-0.04664352536201477,0.0071424879133701324,-0.017620939761400223
0.025920096784830093,0.02087503857910633,-0.007194342091679573,-0.04639611765742302,0.006666077766567469,-0.01783536747097969
0.02588861994445324,0.020589398220181465,-0.00743115646764636,-0.04723707586526871,0.007059677969664335,-0.01851290464401245
0.02642480470240116,0.02082563191652298,-0.007619147654622793,-0.04932290315628052,0.007907270453870296,-0.018672896549105644
0.02571842260658741,0.020937031134963036,-0.006956193130463362,-0.0484267920255661,0.00791011843830347,-0.017989521846175194
0.026211457327008247,0.02115154266357422,-0.0072547621093690395,-0.048635248094797134,0.006568944081664085,-0.017613979056477547
0.026104947552084923,0.02140527404844761,-0.007281257305294275,-0.04933452606201172,0.007001426070928574,-0.0180083978921175
0.02626454085111618,0.021636849269270897,-0.007248582784086466,-0.04953671619296074,0.006990260910242796,-0.018431585282087326
0.02654646337032318,0.02122490480542183,-0.0072454060427844524,-0.04968668520450592,0.007049706764519215,-0.018894333392381668
0.026514297351241112,0.021648921072483063,-0.007077677641063929,-0.05014923959970474,0.0072098239324986935,-0.019252067431807518
0.026727112010121346,0.02191375568509102,-0.007305517792701721,-0.050113990902900696,0.007135284598916769,-0.020543990656733513
0.02609863691031933,0.022088410332798958,-0.007641655392944813,-0.050343915820121765,0.007576826028525829,-0.018460029736161232
0.026930471882224083,0.021647602319717407,-0.006861015222966671,-0.05035070702433586,0.007667570374906063,-0.01851494424045086
0.02737998031079769,0.021421073004603386,-0.007005431689321995,-0.050791919231414795,0.007625018712133169,-0.018675558269023895
0.027564868330955505,0.021480340510606766,-0.007507716305553913,-0.05066559091210365,0.007844197563827038,-0.01888979598879814
0.027631621807813644,0.02224794216454029,-0.007413786370307207,-0.051207151263952255,0.00778382970020175,-0.01908840797841549
0.026956547051668167,0.022830026224255562,-0.0069026160053908825,-0.05208214744925499,0.007284986320883036,-0.01870718039572239
0.026132414117455482,0.022592606022953987,-0.007291831076145172,-0.050625741481781006,0.006953889969736338,-0.018699875101447105
0.027139661833643913,0.022294988855719566,-0.007631747517734766,-0.05276993662118912,0.0071656666696071625,-0.019004544243216515
0.027773553505539894,0.022616740316152573,-0.007781981956213713,-0.05217152461409569,0.007978018373250961,-0.019114866852760315
0.026824088767170906,0.022188857197761536,-0.0069548459723591805,-0.05106671154499054,0.00770838325843215,-0.019192339852452278
0.026824088767170906,0.022188857197761536,-0.0069548459723591805,-0.05106671154499054,0.00770838325843215,-0.019192339852452278
0.02738449163734913,0.022035248577594757,-0.006767932791262865,-0.05213578790426254,0.007503471337258816,-0.019138921052217484
0.027939917519688606,0.02254430577158928,-0.00736092496663332,-0.054341137409210205,0.007368101272732019,-0.018855229020118713
0.027138035744428635,0.022898541763424873,-0.008204583078622818,-0.05334447696805,0.007922221906483173,-0.01903245411813259
0.02738548256456852,0.022821197286248207,-0.007025965955108404,-0.052324242889881134,0.007900592871010303,-0.019408244639635086
0.027261612936854362,0.02263343706727028,-0.007445727474987507,-0.05305599793791771,0.0070801242254674435,-0.019453853368759155
0.027061602100729942,0.023305222392082214,-0.007898378185927868,-0.05389945209026337,0.007161259651184082,-0.019600432366132736
0.02763861045241356,0.022360607981681824,-0.008314624428749084,-0.053720612078905106,0.007477275095880032,-0.01955355703830719
0.02810819260776043,0.023165447637438774,-0.007565672975033522,-0.05389418452978134,0.008053412660956383,-0.01921394094824791
0.0279588233679533,0.023031730204820633,-0.007518267724663019,-0.053503941744565964,0.0076651726849377155,-0.0192234106361866
0.027562398463487625,0.02234838344156742,-0.007741173263639212,-0.05316298082470894,0.008033771067857742,-0.019808216020464897
0.028091436251997948,0.023267177864909172,-0.007982796989381313,-0.053661130368709564,0.007516620680689812,-0.019968915730714798
0.02793547697365284,0.02337327040731907,-0.007612150628119707,-0.05404670163989067,0.007563414517790079,-0.02016691118478775
0.02832687646150589,0.023565929383039474,-0.00751076964661479,-0.05344260483980179,0.0077241589315235615,-0.020040616393089294
0.02809648960828781,0.02341824397444725,-0.007651505991816521,-0.05348413437604904,0.007802002597600222,-0.021345173940062523
0.028235703706741333,0.023133400827646255,-0.008286707103252411,-0.053389374166727066,0.008032080717384815,-0.019669046625494957
0.028131946921348572,0.02325323037803173,-0.007706732023507357,-0.05300510674715042,0.008084077388048172,-0.019329175353050232
0.02781038172543049,0.023294145241379738,-0.00813005119562149,-0.052550796419382095,0.00816433411091566,-0.019962895661592484
0.02813667431473732,0.023697881028056145,-0.007910633459687233,-0.0539880134165287,0.008181403391063213,-0.020244186744093895
0.026983430609107018,0.023666683584451675,-0.0076897344551980495,-0.05257226154208183,0.007838512770831585,-0.02036728709936142
0.028847722336649895,0.02346203103661537,-0.007968790829181671,-0.05290867015719414,0.007701974827796221,-0.020321689546108246
0.028847722336649895,0.02346203103661537,-0.007968790829181671,-0.05290867015719414,0.007701974827796221,-0.020321689546108246
0.02892916277050972,0.023604417219758034,-0.008282615803182125,-0.05371169373393059,0.0077171907760202885,-0.020354025065898895
