davideferrari95/blind_handover_controller/data/Test 104 - [2024-02-07 -- 16-20-57]/joint_states_data.csv
shoulder_pan_joint,shoulder_lift_joint,elbow_joint,wrist_1_joint,wrist_2_joint,wrist_3_joint
0.005454299971461296,0.0049574244767427444,-0.008762047626078129,0.003175323363393545,-0.0,0.007050232030451298
0.005037193186581135,0.0056589748710393906,-0.008479668758809566,0.0030201487243175507,-0.0,0.006506972014904022
0.005037193186581135,0.0056589748710393906,-0.008479668758809566,0.0030201487243175507,-0.0,0.006506972014904022
0.005258546676486731,0.005421936511993408,-0.008411518298089504,0.0029068642761558294,-0.0,0.006346471142023802
0.005105078686028719,0.005897480063140392,-0.008600571192800999,0.003340941620990634,-0.0,0.006155616603791714
0.005848756991326809,0.0053762574680149555,-0.008164298720657825,0.0036000425461679697,-0.0,0.006784425117075443
0.005848756991326809,0.0053762574680149555,-0.008164298720657825,0.0036000425461679697,-0.0,0.006784425117075443
0.005794688127934933,0.005371605046093464,-0.008110368624329567,0.0034946741070598364,-0.0,0.006517897825688124
0.005577138625085354,0.005178436171263456,-0.008513246662914753,0.0033009580802172422,-0.0,0.006347836460918188
0.004994769115000963,0.0056238421238958836,-0.00829654186964035,0.003017307259142399,-0.0,0.006585424300283194
0.005235643591731787,0.005508120637387037,-0.007577728945761919,0.00334531138651073,-0.0,0.0067309001460671425
0.005447565112262964,0.005648368038237095,-0.007667544297873974,0.003139567794278264,-0.0,0.006200646515935659
0.005649095866829157,0.005267057567834854,-0.008133066818118095,0.0033084743190556765,-0.0,0.006365023087710142
0.005217195022851229,0.005396638996899128,-0.008227812126278877,0.003343570278957486,-0.0,0.0059801568277180195
0.005806236062198877,0.005185570567846298,-0.008015058934688568,0.003548941807821393,-0.0,0.005891888402402401
0.00538251269608736,0.005097215063869953,-0.008463048376142979,0.0034428811632096767,-0.0,0.00601097010076046
0.005471425596624613,0.005846930667757988,-0.008089322596788406,0.0033530539367347956,-0.0,0.0058907815255224705
0.005767844617366791,0.005439508240669966,-0.0076617528684437275,0.0031910636462271214,-0.0,0.006264452822506428
0.005627600941807032,0.005323771387338638,-0.007344294339418411,0.0033364349510520697,-0.0,0.006628850474953651
0.005825131665915251,0.00513348588719964,-0.008396463468670845,0.0031061857007443905,-0.0,0.006813713815063238
0.0051818289794027805,0.00581834651529789,-0.007779447361826897,0.0030219315085560083,-0.0,0.0064510260708630085
0.0052529857493937016,0.005408905912190676,-0.007434241473674774,0.0029443614184856415,-0.0,0.006287987809628248
0.005248389672487974,0.005056244786828756,-0.008083442226052284,0.0030183903872966766,-0.0,0.006242936942726374
0.005768368020653725,0.005004191305488348,-0.00789597537368536,0.003162923501804471,-0.0,0.0062200757674872875
0.005700438283383846,0.00528959883376956,-0.0073005990125238895,0.003053687047213316,-0.0,0.0063324496150016785
0.005591210909187794,0.005618744995445013,-0.007202747277915478,0.0032684835605323315,-0.0,0.006502628792077303
0.005130917765200138,0.00531153567135334,-0.007436686661094427,0.0034545359667390585,-0.0,0.00664469925686717
0.005054411478340626,0.005392779130488634,-0.007918255403637886,0.0034186511766165495,-0.0,0.006269799079746008
0.0059539396315813065,0.005545997526496649,-0.0072739277966320515,0.003228937042877078,-0.0,0.0062087466940283775
0.006173018366098404,0.0052007706835865974,-0.0070304302498698235,0.003352579427883029,-0.0,0.006351258605718613
0.005392397288233042,0.00543135404586792,-0.007478840183466673,0.00317770685069263,-0.0,0.005723604932427406
0.005389160476624966,0.005089192651212215,-0.008116601966321468,0.0029180841520428658,-0.0,0.0059530665166676044
0.0055591813288629055,0.0058534350246191025,-0.007586133200675249,0.0029722522012889385,-0.0,0.005939580500125885
0.005845389794558287,0.005433422513306141,-0.006969947833567858,0.0033687343820929527,-0.0,0.00649624178186059
0.005688188131898642,0.004944689571857452,-0.006883758120238781,0.003300165291875601,-0.0,0.006421486847102642
0.005416483152657747,0.005261790473014116,-0.007143832743167877,0.003283063881099224,-0.0,0.006064467132091522
0.005488652270287275,0.00526562612503767,-0.007253855932503939,0.003310931148007512,-0.0,0.0059333425015211105
0.005488652270287275,0.00526562612503767,-0.007253855932503939,0.003310931148007512,-0.0,0.0059333425015211105
0.005412090104073286,0.005060325376689434,-0.007351783104240894,0.0030403765849769115,-0.0,0.005894077941775322
0.006135381292551756,0.005028459709137678,-0.007788004353642464,0.0030298097990453243,-0.0,0.006064139772206545
0.005688793025910854,0.005192063748836517,-0.007219168357551098,0.0033015478402376175,-0.0,0.005859312601387501
0.005933819338679314,0.005422570277005434,-0.006955749820917845,0.00339684309437871,-0.0,0.00627808878198266
0.0057417466305196285,0.0051988945342600346,-0.007395100314170122,0.0033916644752025604,-0.0,0.005643659271299839
0.006098080426454544,0.005428336560726166,-0.00787800457328558,0.0032149653416126966,-0.0,0.006312604993581772
0.005906740203499794,0.005211643874645233,-0.007664024364203215,0.0031500812619924545,-0.0,0.006314849015325308
0.005884312558919191,0.00522542605176568,-0.007411709986627102,0.003199702361598611,-0.0,0.005681414622813463
0.006027549970895052,0.005353978835046291,-0.007479857187718153,0.0031363556627184153,-0.0,0.00589642534032464
0.005399744026362896,0.005194743163883686,-0.0076766237616539,0.003115314757451415,-0.0,0.005625170189887285
0.0058571104891598225,0.005252270959317684,-0.00755319045856595,0.003343651769682765,-0.0,0.0062561617232859135
0.0060115293599665165,0.005239555612206459,-0.0070405518636107445,0.0031506430823355913,-0.0,0.006035258062183857
0.006049121264368296,0.005720632616430521,-0.006501759402453899,0.0031766914762556553,-0.0,0.0059993029572069645
0.005887551698833704,0.0053115482442080975,-0.008224749937653542,0.0032447788398712873,-0.0,0.006131353788077831
0.005859420634806156,0.005785763263702393,-0.00791855901479721,0.0032416151370853186,-0.0,0.005730970297008753
0.006176409777253866,0.005427037365734577,-0.006842362228780985,0.003400663146749139,-0.0,0.005949876271188259
0.0060788048431277275,0.005135595332831144,-0.006867125630378723,0.003241864964365959,-0.0,0.0056986017152667046
0.006411218550056219,0.005838260054588318,-0.007491580210626125,0.0035361589398235083,-0.0,0.0057954140938818455
0.005738317500799894,0.005373788997530937,-0.007039974443614483,0.004226024262607098,-0.0,0.00558184739202261
0.005671949591487646,0.0056227738969028,-0.006543801166117191,0.0036951862275600433,-0.0,0.0056300717405974865
0.006448310799896717,0.005333734210580587,-0.0063937874510884285,0.0032134114298969507,-0.0,0.005376400426030159
0.006317393388599157,0.0053578452207148075,-0.007618239615112543,0.0030729121062904596,-0.0,0.005852138623595238
0.006278654094785452,0.004989114589989185,-0.008370245806872845,0.003305250545963645,-0.0,0.005850816611200571
0.005856097210198641,0.004777402617037296,-0.007787949871271849,0.0034013590775430202,-0.0,0.005494995508342981
0.005859582684934139,0.004508879967033863,-0.007037946954369545,0.003534305840730667,-0.0,0.005190331023186445
0.00652560219168663,0.004424231592565775,-0.0073419963009655476,0.0036525956820696592,-0.0,0.005684699863195419
0.006211197469383478,0.004579210188239813,-0.008051539771258831,0.0037149591371417046,-0.0,0.005577341187745333
0.005989352706819773,0.004673243034631014,-0.007119836751371622,0.003349492559209466,-0.0,0.005768239963799715
0.005996267776936293,0.004543744493275881,-0.007275077980011702,0.0030755153857171535,-0.0,0.005307720508426428
0.0059951734729111195,0.004771138075739145,-0.008500590920448303,0.002813047030940652,-0.0,0.005194676574319601
0.0059951734729111195,0.004771138075739145,-0.008500590920448303,0.002813047030940652,-0.0,0.005194676574319601
0.006706961430609226,0.004392310045659542,-0.007748396135866642,0.0028776354156434536,-0.0,0.0052449400536715984
0.006882417947053909,0.004104012157768011,-0.007428389508277178,0.0029296905267983675,-0.0,0.005637501832097769
0.006192554719746113,0.004408125299960375,-0.0077539668418467045,0.002833422739058733,-0.0,0.005485536064952612
0.006324675865471363,0.004437616094946861,-0.007515059784054756,0.00291457143612206,-0.0,0.005296382587403059
0.00688179861754179,0.004804549273103476,-0.007631287910044193,0.0028786947950720787,-0.0,0.0052843051962554455
0.00642384821549058,0.004342027939856052,-0.00754591915756464,0.0029109728056937456,-0.0,0.005517011042684317
0.0062791514210402966,0.004407668951898813,-0.008551327511668205,0.002843576017767191,-0.0,0.0053704045712947845
0.006264404393732548,0.0040998575277626514,-0.0085370484739542,0.0028901388868689537,-0.0,0.005746600218117237
0.0060106562450528145,0.003981293644756079,-0.007894867099821568,0.002975622657686472,-0.0,0.005262437276542187
0.006471356377005577,0.004417481832206249,-0.007544648367911577,0.003181532258167863,-0.0,0.005222927313297987
0.006824162323027849,0.004245105665177107,-0.007924266159534454,0.003201862331479788,-0.0,0.005342069081962109
0.006165181752294302,0.004236833192408085,-0.007446649018675089,0.0034001676831394434,-0.0,0.005243239924311638
0.005911324173212051,0.004157362971454859,-0.007132536265999079,0.003627785947173834,-0.0,0.005234633572399616
0.00717770354822278,0.0042714690789580345,-0.007576864678412676,0.0037224628031253815,-0.0,0.0049959225580096245
0.007167568430304527,0.0040083094500005245,-0.007894993759691715,0.003286662045866251,-0.0,0.00466867396607995
0.0061811963096261024,0.004232723731547594,-0.0076907239854335785,0.003116993233561516,-0.0,0.004878793377429247
0.006344935856759548,0.004269683267921209,-0.007284348364919424,0.0033254704903811216,-0.0,0.005181511864066124
0.006715054158121347,0.004059137776494026,-0.007405684795230627,0.003415894927456975,-0.0,0.005110708996653557
0.006619029212743044,0.004317224025726318,-0.007482932414859533,0.0035008261911571026,-0.0,0.005301479250192642
0.006826338823884726,0.00421559065580368,-0.007253056857734919,0.0032196538522839546,-0.0,0.005294314585626125
0.00649802153930068,0.0043325526639819145,-0.0070588295347988605,0.003333088243380189,-0.0,0.005059363320469856
0.006296297535300255,0.004495738074183464,-0.007622336503118277,0.003125194227322936,-0.0,0.005530403461307287
0.006287303753197193,0.0042398711666464806,-0.007775816600769758,0.0032297854777425528,-0.0,0.005465545225888491
0.006787588819861412,0.0044697122648358345,-0.007223237305879593,0.003510205540806055,-0.0,0.0053775678388774395
0.0068581439554691315,0.004549033939838409,-0.006774961948394775,0.00377744366414845,-0.0,0.005058745853602886
0.0068581439554691315,0.004549033939838409,-0.006774961948394775,0.00377744366414845,-0.0,0.005058745853602886
0.006821821443736553,0.004331114701926708,-0.0072067962028086185,0.003671628423035145,-0.0,0.005077805835753679
0.006350178737193346,0.004532666876912117,-0.008163592778146267,0.0032120305113494396,-0.0,0.004846970085054636
0.006732867565006018,0.004499093163758516,-0.007597544230520725,0.0030121379531919956,-0.0,0.004719383083283901
0.006777452304959297,0.0042982157319784164,-0.008295517414808273,0.002800214337185025,-0.0,0.004942156374454498
0.006694298703223467,0.004457065835595131,-0.007914931513369083,0.003001350210979581,-0.0,0.005041516851633787
0.0065778400748968124,0.00420129019767046,-0.007526270113885403,0.003437741892412305,-0.0,0.004937191493809223
0.006422333884984255,0.004206608049571514,-0.007501920685172081,0.003287847153842449,-0.0,0.004970272537320852
0.006703234743326902,0.004675773903727531,-0.008512433618307114,0.0030929427593946457,-0.0,0.004963768180459738
0.006657294929027557,0.004836914129555225,-0.008273215964436531,0.002838644664734602,-0.0,0.004638835787773132
0.0063651250675320625,0.004643326625227928,-0.00795793253928423,0.00311875413171947,-0.0,0.004415119998157024
0.00726318871602416,0.00436426280066371,-0.007638145238161087,0.0036295021418482065,-0.0,0.00479669077321887
0.0066587734036147594,0.0040588085539639,-0.007503894157707691,0.003726397408172488,-0.0,0.005097960587590933
0.006497641559690237,0.0038609204348176718,-0.008004247210919857,0.003465422196313739,-0.0,0.005149685312062502
0.006636870559304953,0.004155673086643219,-0.007828740403056145,0.003217482939362526,-0.0,0.005351447965949774
0.006798269227147102,0.00465364521369338,-0.007732420694082975,0.003356421133503318,-0.0,0.004886531736701727
0.007369999308139086,0.004700356628745794,-0.008093283511698246,0.003685329109430313,-0.0,0.004883913788944483
0.006854644976556301,0.004126273561269045,-0.0075960904359817505,0.003491140203550458,-0.0,0.0048163230530917645
0.006391196046024561,0.004351967480033636,-0.006404530722647905,0.003517564618960023,-0.0,0.004693503025919199
0.006488027051091194,0.004109970293939114,-0.0074864341877400875,0.0036423075944185257,-0.0,0.004539128392934799
0.00720110721886158,0.004208452068269253,-0.008303280919790268,0.003740744199603796,-0.0,0.0046182479709386826
0.006958665791898966,0.004106906242668629,-0.007496449165046215,0.003626079298555851,-0.0,0.00469497824087739
0.007337880786508322,0.004274674225598574,-0.008044486865401268,0.0035756449215114117,-0.0,0.00468571949750185
0.007606686558574438,0.004431439097970724,-0.008551261387765408,0.0036654986906796694,-0.0,0.004708526190370321
0.007025495637208223,0.0042717638425529,-0.007883640006184578,0.003773287869989872,-0.0,0.004697978030890226
0.00709394458681345,0.0044685471802949905,-0.007423314265906811,0.0035147571470588446,-0.0,0.004538251087069511
0.007165106944739819,0.004220147617161274,-0.007388714700937271,0.0033674754668027163,-1.8382228290647618e-06,0.004625281319022179
0.007086759898811579,0.0040166378021240234,-0.008206181228160858,0.0034452853724360466,-1.200228041398077e-07,0.004461532924324274
0.006974880117923021,0.004083580337464809,-0.008082154206931591,0.003781598759815097,-5.116759793644121e-10,0.004646392073482275
0.007212653756141663,0.004904475063085556,-0.008353634737432003,0.003512018360197544,-3.3408786154209835e-11,0.004669003188610077
0.006876910105347633,0.004826371558010578,-0.008199474774301052,0.003556575160473585,-2.1813551399213482e-12,0.004355697426944971
0.007189582567662001,0.004395021125674248,-0.008138077333569527,0.003760493593290448,-1.424268960149161e-13,0.004442471079528332
0.007189582567662001,0.004395021125674248,-0.008138077333569527,0.003760493593290448,-1.424268960149161e-13,0.004442471079528332
0.007461410481482744,0.004544961731880903,-0.007608780637383461,0.0037675730418413877,-9.29945868439119e-15,0.0041261897422373295
0.007580976467579603,0.004375586286187172,-0.007510272786021233,0.003649092046543956,-6.071881037613975e-16,0.004031051881611347
0.007027538027614355,0.004217414651066065,-0.008564160205423832,0.0035899654030799866,-3.9645042915270056e-17,0.004058315884321928
0.007297507021576166,0.004465146455913782,-0.00847204215824604,0.0036940451245754957,-2.588537649892817e-18,0.004075254779309034
0.007023812737315893,0.004546931944787502,-0.007928636856377125,0.0037196078337728977,-1.6901303242504382e-19,0.0047355215065181255
0.007040339056402445,0.004283865448087454,-0.008485379628837109,0.0038014815654605627,-1.103534304285535e-20,0.004568534903228283
0.007119664456695318,0.004459783900529146,-0.00878449808806181,0.003892058739438653,-7.2052909203494565e-22,0.004074106924235821
0.0073385839350521564,0.004470010753720999,-0.00776889082044363,0.00400069635361433,-4.704540193430497e-23,0.00401342986151576
0.007520074490457773,0.004177824128419161,-0.008144592866301537,0.003954267594963312,-3.071728715545862e-24,0.004146281164139509
0.007310058921575546,0.004294368904083967,-0.00870876107364893,0.003815770149230957,-2.0056193171779816e-25,0.004098641686141491
0.007173164281994104,0.00408079382032156,-0.007831049151718616,0.003729446791112423,-1.3095260508503902e-26,0.0039782230742275715
0.007254551164805889,0.004429550841450691,-0.007482077926397324,0.0037705956492573023,-8.55026998832413e-28,0.004337643273174763
0.007946561090648174,0.004495944827795029,-0.008852718397974968,0.003985450603067875,-5.582715398360263e-29,0.004934296477586031
0.0076117138378322124,0.004344567656517029,-0.008645134046673775,0.003965313546359539,-3.64511431851004e-30,0.004550948739051819
0.007621281780302525,0.004393915645778179,-0.008123003877699375,0.0038012731820344925,-2.3799991969262586e-31,0.004135767929255962
0.007997379638254642,0.004240243695676327,-0.008181028068065643,0.003796896431595087,-1.5539694424508902e-32,0.0035701452288776636
0.007917659357190132,0.0043545071966946125,-0.00831169169396162,0.0038542882539331913,-1.0146310713191268e-33,0.0035211320500820875
0.007716812193393707,0.0046712132170796394,-0.007926522754132748,0.003821758320555091,-6.624816394464448e-35,0.003742512548342347
0.0076130167581140995,0.004725201986730099,-0.007571907248347998,0.003655798966065049,-4.3255318663681174e-36,0.0038593921344727278
0.007782313972711563,0.00428951857611537,-0.008167402818799019,0.0035240657161921263,-2.8242632449856387e-37,0.0038725328631699085
0.007680183742195368,0.004228556994348764,-0.008881872519850731,0.003627830883488059,-1.8440420772445574e-38,0.0042636943981051445
0.008119042962789536,0.004143821075558662,-0.008472999557852745,0.004107365384697914,-1.2040278704125623e-39,0.003851760644465685
0.00770205445587635,0.004345826804637909,-0.008059346117079258,0.004116665106266737,-7.861424514708656e-41,0.0035205173771828413
0.007666508201509714,0.004490213003009558,-0.008312908001244068,0.004253733437508345,-5.132956274821805e-42,0.0036321538500487804
0.007648532744497061,0.004835351370275021,-0.008243941701948643,0.004055762197822332,-3.3491033297363128e-43,0.0038009025156497955
0.007807201240211725,0.004368077963590622,-0.0078652398660779,0.004177324939519167,-2.2420775429197073e-44,0.00388374668546021
0.007807201240211725,0.004368077963590622,-0.0078652398660779,0.004177324939519167,-2.2420775429197073e-44,0.00388374668546021
0.007420780602842569,0.00434452947229147,-0.00789754930883646,0.004264291375875473,-1.401298464324817e-45,0.00435459241271019
0.008552064187824726,0.0049774604849517345,-0.008640602231025696,0.003955448977649212,-0.0,0.003619368188083172
0.007856052368879318,0.004444566555321217,-0.008100875653326511,0.004260257817804813,-0.0,0.0033478490076959133
0.007421029265969992,0.004468372091650963,-0.008842040784657001,0.004220630973577499,-0.0,0.0035607805475592613
0.008100049570202827,0.004537349101155996,-0.00894532073289156,0.004310394637286663,-0.0,0.0038908657152205706
0.008157565258443356,0.00464611267670989,-0.008061111904680729,0.004286620300263166,-0.0,0.0036403536796569824
0.007871734909713268,0.0047933440655469894,-0.00819996278733015,0.004387638997286558,-0.0,0.0034200483933091164
0.007503553759306669,0.00457322783768177,-0.008645640686154366,0.004574197344481945,-0.0,0.0034476483706384897
0.007969418540596962,0.004442814737558365,-0.008395453914999962,0.004733193200081587,-0.0,0.0034267648588865995
0.008597025647759438,0.004873079247772694,-0.0081629054620862,0.004567684140056372,-0.0,0.003551780479028821
0.007947094738483429,0.004916895180940628,-0.008725123479962349,0.004761071875691414,-0.0,0.0033019627444446087
0.0076918164268136024,0.004660694394260645,-0.008732574991881847,0.0047685448080301285,-0.0,0.003043221076950431
0.008021606132388115,0.004329127259552479,-0.008119449019432068,0.004409297369420528,-7.542360981460661e-05,0.002985425526276231
0.008228669874370098,0.00480166869238019,-0.008299182169139385,0.004457853268831968,-9.300452802563086e-05,0.003074699779972434
0.008090543560683727,0.004889071919023991,-0.008532754145562649,0.004273755010217428,-9.234594472218305e-05,0.0033440394327044487
0.008331564255058765,0.004856423009186983,-0.008407547138631344,0.004070286173373461,-9.056893759407103e-05,0.003367714351043105
0.007888630963861942,0.005454929545521736,-0.008093046955764294,0.004291029181331396,-8.878731750883162e-05,0.0031634026672691107
0.007838246412575245,0.005167810246348381,-0.009391901083290577,0.004505744203925133,-8.706958760740235e-05,0.003476550569757819
0.007592774461954832,0.0044460357166826725,-0.00888787116855383,0.004617256578058004,-9.382311691297218e-05,0.0033168154768645763
0.008138514123857021,0.004454825073480606,-0.008297615684568882,0.0046615637838840485,-0.00010002439375966787,0.0034875066485255957
0.00890704058110714,0.005021775607019663,-0.007927723228931427,0.004468206316232681,-9.871442307485268e-05,0.003320235526189208
0.008003681898117065,0.005053434055298567,-0.00874777976423502,0.0040493495762348175,-9.697552741272375e-05,0.003307341830804944
0.008210862055420876,0.00541811715811491,-0.008084152825176716,0.0038599881809204817,-9.526684880256653e-05,0.0032304415944963694
0.008361396379768848,0.004989970475435257,-0.007617325987666845,0.00403650663793087,-9.36154174269177e-05,0.002996241906657815
0.008627301082015038,0.004304324742406607,-0.008838114328682423,0.004184375982731581,-9.202023647958413e-05,0.0028832920361310244
0.008169835433363914,0.004449860192835331,-0.009154140017926693,0.003977696876972914,-9.04783810256049e-05,0.002687514992430806
0.00864801649004221,0.004583529196679592,-0.008136646822094917,0.0038078357465565205,-8.898728265194222e-05,0.0029166333843022585
0.008372548967599869,0.005007477011531591,-0.008829876780509949,0.004395824391394854,-9.680753282736987e-05,0.0034422099124640226
0.008372548967599869,0.005007477011531591,-0.008829876780509949,0.004395824391394854,-9.680753282736987e-05,0.0034422099124640226
0.008366965688765049,0.004577041137963533,-0.008681015111505985,0.004762088414281607,-9.868633060250431e-05,0.0032032765448093414
0.00882670097053051,0.004467449616640806,-0.00804585125297308,0.004609463736414909,-9.73826099652797e-05,0.0028792612720280886
0.00867441575974226,0.004934162367135286,-0.008657770231366158,0.00448302086442709,-9.591449634172022e-05,0.0027236631140112877
0.008742007426917553,0.004976199474185705,-0.009420753456652164,0.004770165309309959,-9.447710908716545e-05,0.002426265273243189
0.008675625547766685,0.004557997453957796,-0.008313637226819992,0.004496718756854534,-9.30813912418671e-05,0.002314105862751603
0.008635325357317924,0.0045094615779817104,-0.008418587036430836,0.00451242458075285,-9.172609134111553e-05,0.0024029151536524296
0.008309856057167053,0.005121712572872639,-0.008569237776100636,0.004234237130731344,-9.040982695296407e-05,0.0026267848443239927
0.008614666759967804,0.005043793469667435,-0.00851165410131216,0.004413367714732885,-8.913067722460255e-05,0.0026705265045166016
0.009387524798512459,0.0045882114209234715,-0.008030365221202374,0.004985551815479994,-9.721172682475299e-05,0.002849944168701768
0.008591976948082447,0.004839762579649687,-0.008572988212108612,0.005005992483347654,-9.884970495477319e-05,0.0027920349966734648
0.008252347819507122,0.004922595806419849,-0.00869979988783598,0.004401048645377159,-9.770249016582966e-05,0.0028307633474469185
0.009284621104598045,0.004721642937511206,-0.008398860692977905,0.004053950775414705,-9.640694770496339e-05,0.002676502801477909
0.008797957561910152,0.004735046532005072,-0.008388468064367771,0.003986554220318794,-9.513404074823484e-05,0.0027054494712501764
0.008792663924396038,0.005070530343800783,-0.008500911295413971,0.004326812922954559,-9.389348269905895e-05,0.002766761928796768
0.009018298238515854,0.004971634596586227,-0.008176188915967941,0.004530631471425295,-0.00011744774383259937,0.0027473908849060535
0.00914782378822565,0.004745621234178543,-0.008333534002304077,0.004824575036764145,-0.00013739916903432459,0.0028348832856863737
0.00916455127298832,0.004766348749399185,-0.008542841300368309,0.004800063092261553,-0.00013482023496180773,0.0026431104633957148
0.009084212593734264,0.004724171012639999,-0.008609337732195854,0.004650305025279522,-0.0001309955696342513,0.0023158045951277018
0.009426630102097988,0.004828072153031826,-0.008719787001609802,0.004352211486548185,-0.0001272964000236243,0.0021602592896670103
0.008822411298751831,0.005051330663263798,-0.00818807166069746,0.00436420738697052,-0.0001452881406294182,0.0023748446255922318
0.009517612867057323,0.0048031858168542385,-0.008630349300801754,0.004550957586616278,-0.0001443628570996225,0.0024299563374370337
0.009479464031755924,0.004373759031295776,-0.008438394404947758,0.00478904414921999,-0.00014079222455620766,0.002531076315790415
0.00916222296655178,0.004510709084570408,-0.007769683841615915,0.005082306917756796,-0.00013722667063120753,0.0023899569641798735
0.009042452089488506,0.0047265635803341866,-0.008489426225423813,0.005165961571037769,-0.0001338264555670321,0.0022838858421891928
0.009560850448906422,0.0050848256796598434,-0.008835595101118088,0.0046583982184529305,-0.00014949178148526698,0.0020578864496201277
0.009378978982567787,0.004995886702090502,-0.008275991305708885,0.004578502848744392,-0.00014857048518024385,0.002121881116181612
0.009382244199514389,0.005008388310670853,-0.008581302128732204,0.004950791131705046,-0.00014204822946339846,0.0021999035961925983
0.009141468442976475,0.004861700814217329,-0.008781895972788334,0.00492478720843792,-0.00013891892740502954,0.002463356126099825
0.008977705612778664,0.004711795132607222,-0.008569876663386822,0.00492798862978816,-0.0001359219168080017,0.0025467765517532825
0.009707820601761341,0.004926107358187437,-0.008402216248214245,0.0047959196381270885,-0.0001423964713467285,0.002360540209338069
0.009707820601761341,0.004926107358187437,-0.008402216248214245,0.0047959196381270885,-0.0001423964713467285,0.002360540209338069
0.009712925180792809,0.0048435283824801445,-0.008519764989614487,0.0047879512421786785,-0.00014828902203589678,0.0019012358970940113
0.00938168354332447,0.00421897042542696,-0.00840506050735712,0.004574243910610676,-0.00014586345059797168,0.001573153305798769
0.00931703019887209,0.0035243092570453882,-0.008575230836868286,0.004869687836617231,-0.00014300197653938085,0.0015528411604464054
0.009076714515686035,0.003557574935257435,-0.008337775245308876,0.005492838099598885,-0.0001402212947141379,0.001653374987654388
0.008985674940049648,0.0043027461506426334,-0.008299570530653,0.005168308038264513,-0.00020230452355463058,0.0017041396349668503
0.00978870876133442,0.004096032585948706,-0.007887518033385277,0.004782970994710922,-0.00020247406791895628,0.002175390487536788
0.009726460091769695,0.004301106091588736,-0.008846527896821499,0.004761288408190012,-0.0001943118404597044,0.002271739998832345
0.00937222596257925,0.004180465824902058,-0.008515957742929459,0.004791515413671732,-0.00018632507999427617,0.002259728731587529
0.009832133539021015,0.004023077432066202,-0.008108534850180149,0.005021648947149515,-0.000178918955498375,0.0019703807774931192
0.01002271007746458,0.0041800071485340595,-0.007706498261541128,0.005004763137549162,-0.00017207680502906442,0.0015848438488319516
0.009625015780329704,0.004024583380669355,-0.00893979799002409,0.004896873142570257,-0.00018197395547758788,0.0014963221037760377
0.009725007228553295,0.003787684254348278,-0.008110761642456055,0.005018359981477261,-0.00019071539281867445,0.00148006621748209
0.009763727895915508,0.004276478197425604,-0.007958630099892616,0.004839451517909765,-0.0001851661945693195,0.0017005797708407044
0.009394130669534206,0.004138507880270481,-0.00819581188261509,0.004756078589707613,-0.00017908962036017329,0.0020829911809414625
0.00979302916675806,0.00400604959577322,-0.008957525715231895,0.004562615416944027,-0.00017334450967609882,0.00223742239177227
0.010579562745988369,0.003930652514100075,-0.007513520773500204,0.005097624845802784,-0.00016795250121504068,0.002362517174333334
0.009777884930372238,0.0038437696639448404,-0.008115197531878948,0.005484205204993486,-0.00017619022401049733,0.0020928331650793552
0.009851234033703804,0.004307784605771303,-0.009340688586235046,0.005132952705025673,-0.00018356484360992908,0.0016141998348757625
0.010166142135858536,0.0041639055125415325,-0.008568975143134594,0.0050586191937327385,-0.00017916178330779076,0.0012879886198788881
0.00995071791112423,0.003918933216482401,-0.00810774601995945,0.005059910472482443,-0.0001864663790911436,0.001243738573975861
0.010479861870408058,0.0038604240398854017,-0.008695983327925205,0.0049278633669018745,-0.00019296839309390634,0.0012148449895903468
0.009900623001158237,0.0038970313034951687,-0.008853581734001637,0.005294262897223234,-0.00018866303435061127,0.001363428309559822
0.010006248019635677,0.003938745241612196,-0.008721369318664074,0.005181863903999329,-0.0001838931639213115,0.0013834270648658276
0.010655988939106464,0.004441059660166502,-0.008827906101942062,0.005033391527831554,-0.00017931622278410941,0.0019691861234605312
0.009985317476093769,0.004141918383538723,-0.009189927019178867,0.005496552679687738,-0.0002128323685610667,0.0018161697080358863
0.010721891187131405,0.003899620845913887,-0.009332019835710526,0.00546187674626708,-0.00020858280186075717,0.0015460787108168006
0.009897611103951931,0.003942968789488077,-0.00901105534285307,0.005648788996040821,-0.00021948823996353894,0.0012481187004595995
0.009897611103951931,0.003942968789488077,-0.00901105534285307,0.005648788996040821,-0.00021948823996353894,0.0012481187004595995
0.010141786187887192,0.003991774283349514,-0.008982641622424126,0.005548965651541948,-0.00021946766355540603,0.0010747503256425261
0.010703714564442635,0.003871674183756113,-0.008309122174978256,0.005403555929660797,-0.000211454025702551,0.0010412890696898103
0.010147970169782639,0.003827027278020978,-0.009308352135121822,0.005555077455937862,-0.00020352171850390732,0.0008663397748023272
0.01050784531980753,0.0043540350161492825,-0.009039570577442646,0.004737273324280977,-0.00022031138360034674,0.000760254159104079
0.010237142443656921,0.004152766428887844,-0.008751867339015007,0.005325377453118563,-0.00022024348436389118,0.0008014319464564323
0.010064409114420414,0.004339729435741901,-0.00911490898579359,0.006182220298796892,-0.00021328531147446483,0.0008283120114356279
0.01047816127538681,0.004267493728548288,-0.009294149465858936,0.005827930755913258,-0.0002063316642306745,0.0011361789656803012
0.010405554436147213,0.004038508515805006,-0.008853306993842125,0.005375274457037449,-0.00019979014177806675,0.0010497145121917129
0.010867130942642689,0.003899987321346998,-0.008783617988228798,0.005212479270994663,-0.0001936484477482736,0.0011377925984561443
0.010305263102054596,0.004262913484126329,-0.009615442715585232,0.005200476385653019,-0.00021290553559083492,0.0012095345882698894
0.010060612112283707,0.004336458630859852,-0.00949680432677269,0.005712083075195551,-0.0002083758299704641,0.0010778290452435613
0.010325743816792965,0.004031697753816843,-0.008741399273276329,0.005432617384940386,-0.00020261835015844554,0.0011983083095401525
0.010486689396202564,0.004046188667416573,-0.009373870678246021,0.005579083226621151,-0.00019707888714037836,0.0010342119494453073
0.010386183857917786,0.003988231997936964,-0.009405139833688736,0.005376954097300768,-0.0002225647185696289,0.0009208592236973345
0.009991345927119255,0.003909518010914326,-0.009915463626384735,0.005162969697266817,-0.00024033150111790746,0.0007964306860230863
0.010604429058730602,0.00423442292958498,-0.009805581532418728,0.0052790832705795765,-0.00022998667554929852,0.0006784722208976746
0.009948250837624073,0.00407041423022747,-0.009227745234966278,0.005295605398714542,-0.00021892173390369862,0.0005894829519093037
0.010400834493339062,0.004538691136986017,-0.00879884883761406,0.005108051002025604,-0.00020877063798252493,0.0006105321226641536
0.010459886863827705,0.004760438110679388,-0.009741926565766335,0.005365715362131596,-0.0001995125930989161,0.0005593237583525479
0.01044028252363205,0.0042895106598734856,-0.010591410100460052,0.00512912031263113,-0.00019104077364318073,0.000548272393643856
0.010156984440982342,0.004226295277476311,-0.009164350107312202,0.005232100374996662,-0.00018325932614970952,0.0005383435636758804
0.010600068606436253,0.004172338638454676,-0.009778980165719986,0.005513431038707495,-0.00020661736198235303,0.00040558408363722265
0.01025218516588211,0.004305359907448292,-0.009758485481142998,0.0059794834814965725,-0.0002030401665251702,0.00043085048673674464
0.010585414245724678,0.004543198272585869,-0.009298942983150482,0.005680709611624479,-0.00019594529294408858,0.0004609449242707342
0.010607096366584301,0.00453032273799181,-0.009526800364255905,0.005522024352103472,-0.00018270321015734226,0.0007134662591852248
0.010607096366584301,0.00453032273799181,-0.009526800364255905,0.005522024352103472,-0.00018270321015734226,0.0007134662591852248
0.010289231315255165,0.004277557134628296,-0.009691804647445679,0.00611656391993165,-0.00019586867711041123,0.000827779876999557
0.010289231315255165,0.004277557134628296,-0.009691804647445679,0.00611656391993165,-0.00019586867711041123,0.000827779876999557
0.01090704184025526,0.00446388591080904,-0.009516112506389618,0.005557016469538212,-0.00019326382607687265,0.0008313828730024397
0.011127467267215252,0.004435418639332056,-0.01042064931243658,0.005642284173518419,-0.00018772685143630952,0.0007409052923321724
0.011226879432797432,0.004319127183407545,-0.011644897982478142,0.00570030277594924,-0.00018230830028187484,0.0007447122479788959
0.011284074746072292,0.004411051981151104,-0.010523920878767967,0.006337547209113836,-0.0001771815586835146,0.0006848711054772139
0.011196058243513107,0.004585400223731995,-0.009672786109149456,0.006573429796844721,-0.00017233469407074153,0.0006259853835217655
0.011285482905805111,0.004624821245670319,-0.01039676833897829,0.005782377440482378,-0.00019010175310540944,0.0005759113118983805
0.01133259478956461,0.004736022092401981,-0.010332475416362286,0.005808699410408735,-0.00018663215450942516,0.0005332265282049775
0.010824255645275116,0.004521063528954983,-0.010568127036094666,0.005820440594106913,-0.00018200912745669484,0.0004964352119714022
0.011215600185096264,0.004956063814461231,-0.01022548507899046,0.006215873174369335,-0.0001775276759872213,0.0004643955617211759
0.010906117036938667,0.004859783686697483,-0.010111686773598194,0.006276706699281931,-0.00017325587396044284,0.00037757543032057583
0.010739491321146488,0.0046967011876404285,-0.010100879706442356,0.005854140035808086,-0.00017417027265764773,0.00034148525446653366
0.01096500363200903,0.004401905927807093,-0.010374253615736961,0.005654504522681236,-0.00017256052524317056,0.000316930963890627
0.01103841233998537,0.004531778860837221,-0.010488438419997692,0.005234577693045139,-0.0001665057789068669,0.00029603540315292776
0.010608346201479435,0.005095834378153086,-0.009716181084513664,0.0055619338527321815,-0.00016058498295024037,0.00027775103808380663
0.011239191517233849,0.004938704892992973,-0.010437948629260063,0.005847664549946785,-0.00015505263581871986,0.00026159678236581385
0.010915076360106468,0.004531516693532467,-0.010434596799314022,0.006091509945690632,-0.00014988734619691968,0.00024721884983591735
0.012055029161274433,0.004484437871724367,-0.010140938684344292,0.005848119966685772,-0.00014505551371257752,0.0002343402593396604
0.012994117103517056,0.004566593561321497,-0.010226236656308174,0.005624017678201199,-0.00016673617938067764,0.00022273730428423733
0.01287109311670065,0.004089090041816235,-0.009787398390471935,0.005949331913143396,-0.0001633995707379654,0.0002122299774782732
0.012169239111244678,0.004388272296637297,-0.010555638000369072,0.006368668749928474,-0.0001587086298968643,0.00020266840874683112
0.011851651594042778,0.004684446845203638,-0.010171884670853615,0.006188482511788607,-0.00017321950872428715,0.00019393270486034453
0.012696770951151848,0.004310958087444305,-0.009966745972633362,0.0059766932390630245,-0.00017445335106458515,0.000185918906936422
0.012498348020017147,0.004323519766330719,-0.010578825138509274,0.0057999552227556705,-0.00017013552132993937,0.00017854073666967452
0.012743105180561543,0.004079500213265419,-0.010365857742726803,0.0063434140756726265,-0.00016568685532547534,0.000171726627741009
0.012848788872361183,0.004487932194024324,-0.010191481560468674,0.006363656371831894,-0.00017950552864931524,0.00015954715490806848
0.013141459785401821,0.004384538158774376,-0.010033665224909782,0.005790486931800842,-0.00017548451432958245,0.00015408371109515429
0.013922934420406818,0.004570240154862404,-0.009551291354000568,0.005790978204458952,-0.00017133145593106747,0.00014898179506417364
0.013922934420406818,0.004570240154862404,-0.009551291354000568,0.005790978204458952,-0.00017133145593106747,0.00014898179506417364
0.011978925205767155,0.00436942046508193,-0.009825889021158218,0.006126763299107552,-0.0002326907415408641,0.00013972893066238612
0.011978925205767155,0.00436942046508193,-0.009825889021158218,0.006126763299107552,-0.0002326907415408641,0.00013972893066238612
0.012672183103859425,0.0045355199836194515,-0.009302597492933273,0.006045531947165728,-0.00022355954570230097,0.00013552082236856222
0.012720448896288872,0.004185474012047052,-0.010038955137133598,0.006063982378691435,-0.0002131269866367802,0.00013155823398847133
0.013161453418433666,0.004553042817860842,-0.009834978729486465,0.005889673251658678,-0.00020349751866888255,0.000108883083157707
0.012659342028200626,0.004607824143022299,-0.009430905804038048,0.00625182781368494,-0.0001946913544088602,9.98652249109e-05
0.013271193951368332,0.00439099594950676,-0.010144389234483242,0.006524084601551294,-0.00020487391157075763,9.678801870904863e-05
0.01326697040349245,0.004402165301144123,-0.009951908141374588,0.006981136742979288,-0.00021377517259679735,9.422867151442915e-05
0.01287398487329483,0.00473066559061408,-0.010183313861489296,0.006544874515384436,-0.00020670381491072476,9.182366920867935e-05
0.013276224955916405,0.004673946648836136,-0.010198504664003849,0.0066866097040474415,-0.00019915217126253992,8.95395569386892e-05
0.012621479108929634,0.004296968691051006,-0.009760766290128231,0.0069600180722773075,-0.0002198356087319553,7.66332886996679e-05
0.013426573015749454,0.003956921864300966,-0.009846585802733898,0.006911080796271563,-0.00021610938711091876,6.469761137850583e-05
0.013066424988210201,0.004308695904910564,-0.010049363598227501,0.006725845858454704,-0.00020918283553328365,6.253904575714841e-05
0.013596814125776291,0.004306803457438946,-0.010038348846137524,0.006412784568965435,-0.00020247534848749638,6.112660048529506e-05
0.013311072252690792,0.004295331425964832,-0.009738367050886154,0.00663358997553587,-0.00022048887331038713,-4.578807784128003e-05
0.013514973223209381,0.004471358843147755,-0.010444450192153454,0.006964635103940964,-0.0002171822270611301,-5.1338418415980414e-05
0.013376045040786266,0.0040277522057294846,-0.00971652939915657,0.006548869889229536,-0.0002110354253090918,-7.384912169072777e-05
0.01307612843811512,0.003771418472751975,-0.009206991642713547,0.006420689169317484,-0.00024835224030539393,-8.543555304640904e-05
0.013585275039076805,0.0037436250131577253,-0.010789569467306137,0.006596059538424015,-0.00024905329337343574,-9.460115688852966e-05
0.01350841112434864,0.0042330981232225895,-0.010035279206931591,0.006828767247498035,-0.0002368845307501033,-0.00011308343528071418
0.014013439416885376,0.00430698087438941,-0.009481385350227356,0.007029535714536905,-0.0002250937686767429,-0.0003723935515154153
0.01367549505084753,0.004004565067589283,-0.010156587697565556,0.006548286881297827,-0.00021437223767861724,-0.0006425551255233586
0.013694973662495613,0.004358119331300259,-0.010281364433467388,0.006988284643739462,-0.00020462127577047795,-0.0006598511827178299
0.013489329256117344,0.004234227817505598,-0.010248328559100628,0.007592781912535429,-0.00021485840261448175,-0.0006394594092853367
0.013514985330402851,0.004119663964956999,-0.010235760360956192,0.007608827203512192,-0.00022376667766366154,-0.0006606161477975547
0.01382692065089941,0.0034923155326396227,-0.009231562726199627,0.006584067363291979,-0.00020774586300831288,-0.0008372856536880136
0.01366986334323883,0.003886081278324127,-0.010434684343636036,0.007281646132469177,-0.00023113460338208824,-0.0007561836391687393
0.013833509758114815,0.0041625588200986385,-0.009876670315861702,0.007412508130073547,-0.0002249090321129188,-0.0006652203155681491
0.013833509758114815,0.0041625588200986385,-0.009876670315861702,0.007412508130073547,-0.0002249090321129188,-0.0006652203155681491
0.013786416500806808,0.004537740722298622,-0.010967363603413105,0.006479891017079353,-0.00021004676818847656,-0.0008292808779515326
0.013786416500806808,0.004537740722298622,-0.010967363603413105,0.006479891017079353,-0.00021004676818847656,-0.0008292808779515326
0.013544783927500248,0.0041377427987754345,-0.010215840302407742,0.007386873476207256,-0.00022846439969725907,-0.000843411311507225
0.014135989360511303,0.0039142160676419735,-0.009902838617563248,0.0071126315742731094,-0.0002247953088954091,-0.0011244929628446698
0.013782869093120098,0.0038872030563652515,-0.010315686464309692,0.007086017169058323,-0.0002182086609536782,-0.0013938252814114094
0.01386632677167654,0.004289892036467791,-0.010054434649646282,0.006978615187108517,-0.00021180322801228613,-0.0013349612709134817
0.013934244401752949,0.004307254683226347,-0.009872641414403915,0.006952241063117981,-0.00020575145026668906,-0.0013318045530468225
0.01412221696227789,0.004063991829752922,-0.010959235019981861,0.007647761143743992,-0.00022357226407621056,-0.0013685619924217463
0.01440841518342495,0.004227738361805677,-0.010271956212818623,0.007788518909364939,-0.00022067376994527876,-0.0016411368269473314
0.014176426455378532,0.00448635732755065,-0.010599976405501366,0.007279863581061363,-0.00024200175539590418,-0.0017526078736409545
0.01394503191113472,0.004125109873712063,-0.010294845327734947,0.007181723136454821,-0.00024102209135890007,-0.00194622203707695
0.013839799910783768,0.004263364709913731,-0.010198474861681461,0.007525607943534851,-0.0002501944836694747,-0.0018520174780860543
0.014162215404212475,0.004278102889657021,-0.011051230132579803,0.007461439352482557,-0.00025756529066711664,-0.0017706515500321984
0.014085398055613041,0.004096914082765579,-0.010753491893410683,0.006987747736275196,-0.0002793437452055514,-0.0018262817757204175
0.014108226634562016,0.003939131274819374,-0.009971742518246174,0.007022644393146038,-0.00027305123512633145,-0.002124754711985588
0.014006310142576694,0.004349141847342253,-0.011748649179935455,0.00734641682356596,-0.0004992759204469621,-0.0021787742152810097
0.014289465732872486,0.00426527950912714,-0.01042954996228218,0.007598503492772579,-0.0005505952285602689,-0.002400577301159501
0.014152628369629383,0.004237382207065821,-0.010650875978171825,0.007732916623353958,-0.0005212933756411076,-0.0022989707067608833
0.01442546583712101,0.003895920468494296,-0.01101305428892374,0.007595236878842115,-0.0005151822115294635,-0.0022455942817032337
0.014097416773438454,0.0035260075237601995,-0.010728469118475914,0.007555920165032148,-0.0005085123120807111,-0.00204778672195971
0.014414784498512745,0.0034886447247117758,-0.010995021089911461,0.008018932305276394,-0.0005309274420142174,-0.001988417934626341
0.014425177127122879,0.0038902349770069122,-0.010784781537950039,0.007882572710514069,-0.0005035563372075558,-0.0018952327081933618
0.014518423937261105,0.0041080042719841,-0.010652830824255943,0.008250301703810692,-0.0005734948208555579,-0.001898965914733708
0.014154861681163311,0.004351323936134577,-0.011264614760875702,0.008013902232050896,-0.0006122469785623252,-0.0020276487339287996
0.014997796155512333,0.003851747140288353,-0.01080970000475645,0.007434424944221973,-0.0005853580078110099,-0.0030237075407058
0.01498460303992033,0.0038802295457571745,-0.01180240698158741,0.007723275572061539,-0.0005751575226895511,-0.0037041117902845144
0.014607247896492481,0.003976875450462103,-0.010668066330254078,0.007723596878349781,-0.0005640249000862241,-0.0038324156776070595
0.014857903122901917,0.004075412172824144,-0.011830302886664867,0.007962915115058422,-0.000617633864749223,-0.0037199410144239664
0.014857903122901917,0.004075412172824144,-0.011830302886664867,0.007962915115058422,-0.000617633864749223,-0.0037199410144239664
0.014509442262351513,0.004088529851287603,-0.011598472483456135,0.00794639065861702,-0.0006563657661899924,-0.003576872404664755
0.01448595616966486,0.004081695340573788,-0.010579117573797703,0.007955215871334076,-0.0006098916637711227,-0.003316245274618268
0.014363927766680717,0.004053961019963026,-0.012041578069329262,0.007776748854666948,-0.000634514435660094,-0.003001147648319602
0.014785868115723133,0.00391044607385993,-0.01158976648002863,0.008065588772296906,-0.0005815406329929829,-0.002946244552731514
0.014542130753397942,0.0037816225085407495,-0.01168386172503233,0.008409569971263409,-0.0005884823622182012,-0.003466891823336482
0.014724863693118095,0.0037082829512655735,-0.011560237035155296,0.008405765518546104,-0.0005599820287898183,-0.003849237458780408
0.0147938821464777,0.003694453975185752,-0.011574655771255493,0.00809809286147356,-0.0005617245915345848,-0.003905475838109851
0.014499315060675144,0.003679911606013775,-0.011934064328670502,0.00815457385033369,-0.0005379639915190637,-0.003786467481404543
0.014624711126089096,0.004207132384181023,-0.010809090919792652,0.008376598358154297,-0.00048301275819540024,-0.003453417681157589
0.015013978816568851,0.004162183962762356,-0.011728206649422646,0.008340217173099518,-0.000511391379404813,-0.0033889543265104294
0.015099897980690002,0.004052193369716406,-0.011654694564640522,0.0077559263445436954,-0.00047644582809880376,-0.0034195054322481155
0.015009631402790546,0.003958753310143948,-0.010887322947382927,0.007586506195366383,-0.0004920033970847726,-0.003336327150464058
0.014935465529561043,0.004013335332274437,-0.011749779805541039,0.0085288155823946,-0.00047180920955725014,-0.003600700758397579
0.014978279359638691,0.003531397320330143,-0.01170169748365879,0.008452429436147213,-0.00043992610881105065,-0.003861613105982542
0.015456161461770535,0.0035556231159716845,-0.012378414161503315,0.008177636191248894,-0.0004620353283826262,-0.004135246388614178
0.014753645285964012,0.003692867234349251,-0.01223146915435791,0.008432140573859215,-0.0004406881344038993,-0.0041328188963234425
0.01485799066722393,0.0037686328869313,-0.011420805007219315,0.008772202767431736,-0.0004428735701367259,-0.0043229409493505955
0.014937788248062134,0.004151829518377781,-0.011894808150827885,0.008694536983966827,-0.0004476752656046301,-0.004225774668157101
0.015311026014387608,0.004219858441501856,-0.011901194229722023,0.008321919478476048,-0.00044672703370451927,-0.004473967012017965
0.015394664369523525,0.003999743144959211,-0.012625672854483128,0.00853150524199009,-0.00047903222730383277,-0.0044889505952596664
0.016242615878582,0.003938301000744104,-0.011761925183236599,0.008345643989741802,-0.00048036364023573697,-0.004419825971126556
0.016023539006710052,0.0034852405078709126,-0.011779529973864555,0.008001725189387798,-0.0004773398977704346,-0.004450353793799877
0.016653751954436302,0.0035639030393213034,-0.012791362591087818,0.008229243569076061,-0.0005609294748865068,-0.00458564655855298
0.016031039878726006,0.004292713012546301,-0.012557227164506912,0.008152374997735023,-0.0005297685856930912,-0.004782165866345167
0.016180820763111115,0.004113187547773123,-0.011905739083886147,0.007988542318344116,-0.0005435560597106814,-0.004517802502959967
0.016079746186733246,0.0039791446179151535,-0.0122300423681736,0.00839813333004713,-0.0005131711950525641,-0.004241881892085075
0.01668284460902214,0.0034599406644701958,-0.01248882059007883,0.008444112725555897,-0.0004698748525697738,-0.004374974872916937
0.016564061865210533,0.0035805886145681143,-0.012154283933341503,0.008184979669749737,-0.000467192119685933,-0.004553874954581261
0.016564061865210533,0.0035805886145681143,-0.012154283933341503,0.008184979669749737,-0.000467192119685933,-0.004553874954581261
0.01689736917614937,0.004297810140997171,-0.012455998919904232,0.008177303709089756,-0.0004645267326850444,-0.005008428357541561
0.016771582886576653,0.004125849809497595,-0.01204852294176817,0.008768493309617043,-0.0004345533379819244,-0.005508363712579012
0.016792302951216698,0.003962202928960323,-0.01250206958502531,0.008669502101838589,-0.00040662693209014833,-0.005138527136296034
0.017006030306220055,0.0034464101772755384,-0.012376322411000729,0.00823015347123146,-0.00038196920650079846,-0.004857315681874752
0.016765162348747253,0.004147213418036699,-0.012493070214986801,0.008796117268502712,-0.00039803210529498756,-0.004579228814691305
0.01696750894188881,0.004532012157142162,-0.01243162527680397,0.008720691315829754,-0.000388423417462036,-0.004467131104320288
0.0167560912668705,0.00434569688513875,-0.012108133174479008,0.008810819126665592,-0.0003692736499942839,-0.004629730712622404
0.017202582210302353,0.003991990815848112,-0.01229726430028677,0.00901838205754757,-0.000351301598129794,-0.004923432599753141
0.01728617027401924,0.003780775237828493,-0.012489869259297848,0.009394192136824131,-0.0003349561884533614,-0.005376407410949469
0.016741910949349403,0.003720301203429699,-0.012797006405889988,0.008055930957198143,-0.00028963113436475396,-0.005531439557671547
0.017074452713131905,0.0038915628101676702,-0.012345843017101288,0.008138279430568218,-0.0002636278804857284,-0.005438486114144325
0.016671376302838326,0.003882414661347866,-0.013112146407365799,0.008581849746406078,-0.00024847337044775486,-0.0051049659959971905
0.016866939142346382,0.0039293826557695866,-0.012903477996587753,0.009409924037754536,-0.00023543027054984123,-0.004792219493538141
0.0171250868588686,0.003908384125679731,-0.011952020227909088,0.008800921961665154,-0.00025673460913822055,-0.004793964792042971
0.016733316704630852,0.004225921351462603,-0.012259084731340408,0.009193681180477142,-0.000254978978773579,-0.005117292515933514
0.01756199076771736,0.004081259947270155,-0.0120291318744421,0.009015846997499466,-0.00024412722268607467,-0.005134358070790768
0.017337985336780548,0.00402814382687211,-0.012747821398079395,0.009077702648937702,-0.00023360778868664056,-0.004878165666013956
0.017337985336780548,0.00402814382687211,-0.012747821398079395,0.009077702648937702,-0.00023360778868664056,-0.004878165666013956
0.017449796199798584,0.004121507052332163,-0.012602302245795727,0.00913560763001442,-0.0002150047803297639,-0.005112841725349426
0.017623338848352432,0.0040927124209702015,-0.012821759097278118,0.008691363036632538,-0.00020677043357864022,-0.005553799215704203
0.017738759517669678,0.004001017659902573,-0.012003147043287754,0.008817301131784916,-0.00019914403674192727,-0.00560780381783843
0.017492832615971565,0.0038465484976768494,-0.01239579264074564,0.009160845540463924,-0.00021574023412540555,-0.006089529022574425
0.017728280276060104,0.00424411054700613,-0.013392566703259945,0.008597108535468578,-0.00020915256754960865,-0.005381652619689703
0.017628924921154976,0.004038071259856224,-0.012605865485966206,0.009130232036113739,-0.00020246219355612993,-0.005385540425777435
0.017786527052521706,0.0038922682870179415,-0.012810545042157173,0.009226649068295956,-0.00019615945348050445,-0.006269040517508984
0.017856985330581665,0.0041541592217981815,-0.012764847837388515,0.009282493032515049,-0.00019023637287318707,-0.006246847566217184
0.01787177473306656,0.004261115565896034,-0.013191037811338902,0.010051771998405457,-0.00020755532023031265,-0.005998869892209768
0.01787177473306656,0.004261115565896034,-0.013191037811338902,0.010051771998405457,-0.00020755532023031265,-0.005998869892209768
0.01809651590883732,0.004024095833301544,-0.013087917119264603,0.009730896912515163,-0.0002048017777269706,-0.006044579204171896
0.01765931397676468,0.004011492244899273,-0.012604963965713978,0.009099937975406647,-0.00019933715520892292,-0.005646232515573502
0.017885632812976837,0.0038888566195964813,-0.013027221895754337,0.009407530538737774,-0.00019398021686356515,-0.005782250314950943
0.018150663003325462,0.003833391238003969,-0.01224934495985508,0.009433768689632416,-0.00019709274056367576,-0.005835168529301882
0.018171649426221848,0.003919481765478849,-0.013205942697823048,0.009302400052547455,-0.0001918194320751354,-0.005681084003299475
0.018830621615052223,0.004283847752958536,-0.012804893776774406,0.009349947795271873,-0.00018417123646941036,-0.005610790569335222
0.018963541835546494,0.00497573334723711,-0.013259085826575756,0.009631607681512833,-0.00017694217967800796,-0.005994437262415886
0.018661819398403168,0.004599431995302439,-0.012996028177440166,0.00955633819103241,-0.00020198636048007756,-0.006330185104161501
0.018347017467021942,0.0044045113027095795,-0.013341388665139675,0.009125511161983013,-0.0001966973504750058,-0.006205496843904257
0.017953822389245033,0.004116704687476158,-0.01302067469805479,0.009668382816016674,-0.00018991445540450513,-0.0063031441532075405
0.018369019031524658,0.004329863004386425,-0.012718054465949535,0.009518777020275593,-0.00018347011064179242,-0.006090650334954262
0.019016262143850327,0.004537513479590416,-0.013391966000199318,0.009565185755491257,-0.0001774411794031039,-0.006142752710729837
0.018675880506634712,0.004848773591220379,-0.012871637009084225,0.009631187655031681,-0.00019663874991238117,-0.006429559085518122
0.018270088359713554,0.0046705384738743305,-0.01341528445482254,0.009570769965648651,-0.0001939999492606148,-0.006495111621916294
0.018777457997202873,0.004851341713219881,-0.012788137421011925,0.009637710638344288,-0.0001884208613773808,-0.006370303686708212
0.019042199477553368,0.0043386234901845455,-0.013364218175411224,0.009850651025772095,-0.00018296294729225338,-0.006484797690063715
0.019347086548805237,0.004371583927422762,-0.013175806030631065,0.009254776872694492,-0.00020149280317127705,-0.006812926381826401
0.019246023148298264,0.0046465336345136166,-0.013732543215155602,0.009879500605165958,-0.0001975110062630847,-0.006697650998830795
0.019004441797733307,0.004464910365641117,-0.01343473605811596,0.010000642389059067,-0.00026711198734119534,-0.006508521735668182
0.019444648176431656,0.004420710261911154,-0.013587690889835358,0.009526470676064491,-0.0002752335858531296,-0.006280934438109398
0.018930282443761826,0.004657604731619358,-0.01303048338741064,0.009850332513451576,-0.00030602305196225643,-0.0065564950928092
0.018930282443761826,0.004657604731619358,-0.01303048338741064,0.009850332513451576,-0.00030602305196225643,-0.0065564950928092
0.019943151623010635,0.004186193458735943,-0.013430881313979626,0.010106333531439304,-0.0003104176721535623,-0.006519254297018051
0.019365843385457993,0.004189003724604845,-0.01379257719963789,0.00981083046644926,-0.00031720733386464417,-0.006627440918236971
0.019636573269963264,0.003959041554480791,-0.013045316562056541,0.009274411015212536,-0.0003222723607905209,-0.006608789321035147
0.019636573269963264,0.003959041554480791,-0.013045316562056541,0.009274411015212536,-0.0003222723607905209,-0.006608789321035147
0.0195330698043108,0.00431516719982028,-0.013105537742376328,0.009911362081766129,-0.0003845650644507259,-0.006635765079408884
0.0195330698043108,0.00431516719982028,-0.013105537742376328,0.009911362081766129,-0.0003845650644507259,-0.006635765079408884
0.019924890249967575,0.004576719366014004,-0.014092075638473034,0.009660289622843266,-0.00043006904888898134,-0.006807730998843908
0.020278604701161385,0.0041922954842448235,-0.01360367238521576,0.010475066490471363,-0.00039746155380271375,-0.006725250277668238
0.020046208053827286,0.0039018664974719286,-0.014075344428420067,0.010381252504885197,-0.0004334139812272042,-0.007043812423944473
0.019963402301073074,0.004321177024394274,-0.013553094118833542,0.009756568819284439,-0.00043809073395095766,-0.007503012660890818
0.019956892356276512,0.004115596879273653,-0.0141756571829319,0.009823327884078026,-0.0004378797020763159,-0.007231769617646933
0.020149951800704002,0.003920137416571379,-0.01361975260078907,0.010492868721485138,-0.0004398289311211556,-0.0067985388450324535
0.020054878666996956,0.0042481450363993645,-0.014541718177497387,0.009968895465135574,-0.00043936612200923264,-0.006930216681212187
0.020250990986824036,0.004449086729437113,-0.01403914112597704,0.00976114347577095,-0.0005116512184031308,-0.007193550001829863
0.02043824829161167,0.0045112562365829945,-0.014520862139761448,0.010056866332888603,-0.0005607352359220386,-0.007584063336253166
0.020147625356912613,0.004076757002621889,-0.014184488914906979,0.01063263788819313,-0.0005298611940816045,-0.007077697664499283
0.020309919491410255,0.004305063281208277,-0.015159528702497482,0.01054487843066454,-0.0005430021556094289,-0.007024677004665136
0.020594006404280663,0.004163242876529694,-0.01426810584962368,0.010780878365039825,-0.0005167945637367666,-0.007010227534919977
0.02052839659154415,0.004187201615422964,-0.014632883481681347,0.010724236257374287,-0.00047870143316686153,-0.007153566461056471
0.020304623991250992,0.004154627211391926,-0.01416842546314001,0.010559611022472382,-0.0005040455143898726,-0.007335083093494177
0.020693661645054817,0.004355923738330603,-0.0144089600071311,0.010400131344795227,-0.00047465867828577757,-0.007557314820587635
0.020907999947667122,0.0040640681982040405,-0.014120292849838734,0.009853185154497623,-0.00048654249985702336,-0.007601307239383459
0.02072303555905819,0.004423149861395359,-0.014688613824546337,0.01073975395411253,-0.00047462625661864877,-0.007664114702492952
0.02069614827632904,0.004210763145238161,-0.014333941973745823,0.010331223718822002,-0.0005059866234660149,-0.007044698111712933
0.020947851240634918,0.003969462588429451,-0.015105048194527626,0.010350498370826244,-0.000529732380528003,-0.00736977718770504
0.020988544449210167,0.003809190820902586,-0.014104533940553665,0.011067439801990986,-0.0005588686908595264,-0.007609393447637558
0.020450396463274956,0.00429882574826479,-0.014934208244085312,0.010261403396725655,-0.0006805139710195363,-0.007632141467183828
0.021214740350842476,0.004518675152212381,-0.013943689875304699,0.010243838652968407,-0.0008168344502337277,-0.007072386331856251
0.02143028937280178,0.00463617779314518,-0.014505243860185146,0.010537481866776943,-0.0007448059041053057,-0.0070963273756206036
0.02089909464120865,0.004287357907742262,-0.015202703885734081,0.010915080085396767,-0.0007659880211576819,-0.007430397439748049
0.020893054082989693,0.004498784895986319,-0.014483354985713959,0.010419045574963093,-0.0007875912706367671,-0.007365881931036711
0.021812066435813904,0.004183517303317785,-0.01445864886045456,0.010464766062796116,-0.0008489001193083823,-0.008041632361710072
0.021062055602669716,0.004362243227660656,-0.014212136156857014,0.011165332049131393,-0.0007662314455956221,-0.007642119191586971
0.021062055602669716,0.004362243227660656,-0.014212136156857014,0.011165332049131393,-0.0007662314455956221,-0.007642119191586971
0.021295461803674698,0.0044367932714521885,-0.015043511055409908,0.010020740330219269,-0.0007768386276438832,-0.007988267578184605
0.020935991778969765,0.004537978209555149,-0.014213579706847668,0.010155126452445984,-0.0006976295844651759,-0.007747120223939419
0.02107344940304756,0.004590461030602455,-0.014866827987134457,0.010172542184591293,-0.0006283911061473191,-0.007651291321963072
0.022124605253338814,0.004282784648239613,-0.014202975668013096,0.010473299771547318,-0.0006416629767045379,-0.007875658571720123
0.0216287262737751,0.0042432574555277824,-0.014538302086293697,0.0102086765691638,-0.0005978912231512368,-0.007732362952083349
0.02146037295460701,0.004490658175200224,-0.014051555655896664,0.011104262433946133,-0.0005525927990674973,-0.007481967099010944
0.021985460072755814,0.004267808049917221,-0.014748205430805683,0.010721595026552677,-0.0004945475375279784,-0.00790455937385559
0.021925874054431915,0.0044587585143744946,-0.014020891860127449,0.010952837765216827,-0.0004427208041306585,-0.008312861435115337
0.021600723266601562,0.004195526707917452,-0.01466653123497963,0.010927827097475529,-0.0004776171699631959,-0.008793171495199203
0.02175816148519516,0.004427681211382151,-0.01424852479249239,0.010673378594219685,-0.00044324935879558325,-0.007175774313509464
0.02203507162630558,0.004416549112647772,-0.014673732221126556,0.01163197960704565,-0.0004733890818897635,-0.00687163881957531
0.02107870951294899,0.004085552413016558,-0.013943461701273918,0.011383526027202606,-0.0004441586206667125,-0.007997892796993256
0.021070262417197227,0.0038522735703736544,-0.01465546153485775,0.010494169779121876,-0.00046639415086247027,-0.008321387693285942
0.02184879407286644,0.004367977846413851,-0.014048615470528603,0.011489909142255783,-0.0004445993108674884,-0.00833162572234869
0.02243161015212536,0.004144012462347746,-0.01434326171875,0.010424583218991756,-0.0004191645421087742,-0.008021428249776363
0.022235946729779243,0.004431855399161577,-0.013978804461658001,0.01105245016515255,-0.0003961212933063507,-0.00855099968612194
0.021898506209254265,0.004606364294886589,-0.014749804511666298,0.011406244710087776,-0.00037664559204131365,-0.008049332536756992
0.022128058597445488,0.0042352029122412205,-0.014199087396264076,0.010607985779643059,-0.000393733469536528,-0.008005684241652489
0.022133203223347664,0.004144274163991213,-0.014724282547831535,0.011446868069469929,-0.00036505964817479253,-0.008164215832948685
0.02224193699657917,0.00393820833414793,-0.01368830818682909,0.011211014352738857,-0.0003378422115929425,-0.008157740347087383
0.022061700001358986,0.004462534096091986,-0.014206706546247005,0.01057017408311367,-0.00031424922053702176,-0.008101203478872776
0.02229650504887104,0.004242874216288328,-0.0138050876557827,0.011456623673439026,-0.00029372464632615447,-0.0082910330966115
0.022824518382549286,0.004247702658176422,-0.013688033446669579,0.01123343501240015,-0.00031150103313848376,-0.008745811879634857
0.022824518382549286,0.004247702658176422,-0.013688033446669579,0.01123343501240015,-0.00031150103313848376,-0.008745811879634857
0.02273610047996044,0.004240995738655329,-0.014392614364624023,0.011558677069842815,-0.0002947133907582611,-0.00892888568341732
0.02254868485033512,0.00394054502248764,-0.01394279208034277,0.0112969521433115,-0.0002794690662994981,-0.009134607389569283
0.023139536380767822,0.004176869988441467,-0.014690556563436985,0.011674142442643642,-0.00030406052246689796,-0.009283408522605896
0.023265808820724487,0.00413598632439971,-0.013954797759652138,0.011794345453381538,-0.00029506973805837333,-0.009048798121511936
0.023123862221837044,0.004043793771415949,-0.01431414857506752,0.011832749471068382,-0.00028219373780302703,-0.008875112980604172
0.022656500339508057,0.0038694674149155617,-0.013800344429910183,0.011958693154156208,-0.00028898302116431296,-0.008957510814070702
0.02286652848124504,0.004011334851384163,-0.014624269679188728,0.01144090760499239,-0.0002947223256342113,-0.009229348972439766
0.022963320836424828,0.004205711185932159,-0.014108158648014069,0.011865183711051941,-0.0002842335670720786,-0.00870371051132679
0.023052319884300232,0.004369878675788641,-0.015001998282968998,0.011194302700459957,-0.0002735100279096514,-0.008443751372396946
0.023374926298856735,0.0039926618337631226,-0.014123928733170033,0.011406716890633106,-0.00026585962041281164,-0.008638271130621433
0.023291844874620438,0.003809042740613222,-0.014808591455221176,0.011760836467146873,-0.00025186885613948107,-0.008958839811384678
0.022817088291049004,0.004331967327743769,-0.014501300640404224,0.011779234744608402,-0.00023856993357185274,-0.009212488308548927
0.023248374462127686,0.004174164030700922,-0.015226899646222591,0.011688289232552052,-0.00026875422918237746,-0.008905356749892235
0.02365151420235634,0.003906196914613247,-0.01450609415769577,0.011183504946529865,-0.0002586312184575945,-0.00919339433312416
0.023792101070284843,0.004219410941004753,-0.014979846775531769,0.011353042908012867,-0.0002773792948573828,-0.009139733389019966
0.02334156632423401,0.004152456298470497,-0.014877334237098694,0.012072784826159477,-0.00027484860038384795,-0.009234190918505192
0.023512760177254677,0.00423668697476387,-0.015453577972948551,0.012018337845802307,-0.0002824032271746546,-0.009127898141741753
0.023909257724881172,0.003994964994490147,-0.014800501056015491,0.012052996084094048,-0.000288318726234138,-0.009841174818575382
0.023783259093761444,0.003859155811369419,-0.015106177888810635,0.011659626848995686,-0.00041612223139964044,-0.009708180092275143
0.023659566417336464,0.004252022597938776,-0.014561114832758904,0.011828986927866936,-0.00048464647261425853,-0.009575674310326576
0.023961586877703667,0.004084390588104725,-0.015297245234251022,0.011820908635854721,-0.0005026907310821116,-0.009552637115120888
0.023121729493141174,0.003989974036812782,-0.015435190871357918,0.011752456426620483,-0.0004985049017705023,-0.009621321223676205
0.024104297161102295,0.004053323529660702,-0.016190623864531517,0.01212893147021532,-0.0005257438169792295,-0.009582103230059147
0.02424176223576069,0.004010307136923075,-0.015527106821537018,0.011369554325938225,-0.0007443860522471368,-0.00948024820536375
0.02436584047973156,0.004477951675653458,-0.015956787392497063,0.012139675207436085,-0.0007372573600150645,-0.009790345095098019
0.0239656250923872,0.0043095070868730545,-0.015494663268327713,0.011967108584940434,-0.0006523181218653917,-0.009818869642913342
0.022872716188430786,0.004057646729052067,-0.01589171215891838,0.012349697761237621,-0.0006720624514855444,-0.009765120223164558
0.02358889766037464,0.0038909176364541054,-0.015379118733108044,0.011888416483998299,-0.0006125358631834388,-0.009773269295692444
0.02358889766037464,0.0038909176364541054,-0.015379118733108044,0.011888416483998299,-0.0006125358631834388,-0.009773269295692444
0.024409035220742226,0.00389858172275126,-0.015677258372306824,0.012222734279930592,-0.0005585479666478932,-0.009959395974874496
0.023786049336194992,0.004203763324767351,-0.015290307812392712,0.012239182367920876,-0.0005485086003318429,-0.010209948755800724
0.023921113461256027,0.004763414151966572,-0.014208820648491383,0.012700662016868591,-0.0005396766937337816,-0.009780485183000565
0.024833856150507927,0.004309662617743015,-0.01588802970945835,0.01249412726610899,-0.0004922772059217095,-0.009534954093396664
0.024539059028029442,0.004459771793335676,-0.016119955107569695,0.012273228727281094,-0.0004367380461189896,-0.009365824051201344
0.023735230788588524,0.004111135844141245,-0.015443237498402596,0.01264064759016037,-0.00045584767940454185,-0.009752485901117325
0.023953869938850403,0.00392064917832613,-0.015499384142458439,0.012453565374016762,-0.0004369185771793127,-0.00968115497380495
0.023735137656331062,0.004309139214456081,-0.015716183930635452,0.013055846095085144,-0.0004549055884126574,-0.009703529998660088
0.023992056027054787,0.004343195352703333,-0.015432959422469139,0.012652864679694176,-0.0004387111694086343,-0.010097824968397617
0.024625854566693306,0.004299773834645748,-0.015822667628526688,0.012955979444086552,-0.0004618458042386919,-0.009574317373335361
0.02453167550265789,0.004387218970805407,-0.015635628253221512,0.012903484515845776,-0.00044057067134417593,-0.009833286516368389
0.0245126411318779,0.004574337974190712,-0.016099564731121063,0.012966874055564404,-0.0005339915514923632,-0.009591514244675636
0.024137556552886963,0.004635848570615053,-0.015151862986385822,0.013200446031987667,-0.0004939506179653108,-0.009052394889295101
0.024588944390416145,0.00429279450327158,-0.0159427672624588,0.01270435843616724,-0.0005289126420393586,-0.009102524258196354
0.024825282394886017,0.004012844525277615,-0.015189462341368198,0.012922007590532303,-0.000546140712685883,-0.008660532534122467
0.024317344650626183,0.004199214745312929,-0.01590554043650627,0.01236642710864544,-0.000519784283824265,-0.008833101019263268
0.024425430223345757,0.0046305167488753796,-0.015764446929097176,0.012964276596903801,-0.000540616107173264,-0.009193941950798035
0.02452850341796875,0.004675895441323519,-0.015912247821688652,0.012406385503709316,-0.0005126576870679855,-0.009042082354426384
0.024677062407135963,0.004722293000668287,-0.01593250408768654,0.01288768369704485,-0.000575762358494103,-0.009423979558050632
0.024677062407135963,0.004722293000668287,-0.01593250408768654,0.01288768369704485,-0.000575762358494103,-0.009423979558050632
0.02435273490846157,0.004392087925225496,-0.015856903046369553,0.012874286621809006,-0.0006139722536318004,-0.00918120052665472
0.024820832535624504,0.004033808596432209,-0.016069870442152023,0.012764587067067623,-0.0006056008278392255,-0.00958903320133686
0.024820832535624504,0.004033808596432209,-0.016069870442152023,0.012764587067067623,-0.0006056008278392255,-0.00958903320133686
0.025271395221352577,0.004435231443494558,-0.015574255026876926,0.013264188542962074,-0.0005693934508599341,-0.009833159856498241
0.023597637191414833,0.004700064659118652,-0.016254708170890808,0.01256554201245308,-0.0006438081618398428,-0.009531011804938316
0.025198351591825485,0.004752974025905132,-0.015900911763310432,0.012863782234489918,-0.0006703665130771697,-0.009260057471692562
0.025513585656881332,0.0037537820171564817,-0.01636418327689171,0.012832938693463802,-0.0006355787627398968,-0.009881969541311264
0.025513585656881332,0.0037537820171564817,-0.01636418327689171,0.012832938693463802,-0.0006355787627398968,-0.009881969541311264
0.025151805952191353,0.003963026218116283,-0.016227485612034798,0.012942859902977943,-0.0006406130851246417,-0.009312495589256287
0.02545524388551712,0.004030182957649231,-0.01629888452589512,0.012614602223038673,-0.0006056111305952072,-0.009451393038034439
0.025278780609369278,0.004366307053714991,-0.015961885452270508,0.012878542765974998,-0.0006270093144848943,-0.009574394673109055
0.02566193975508213,0.004647113382816315,-0.01652892492711544,0.012296332977712154,-0.000655561510939151,-0.009733286686241627
0.026400884613394737,0.004956717602908611,-0.015990767627954483,0.012615150772035122,-0.0006828951882198453,-0.009934653528034687
0.02600017376244068,0.004400953650474548,-0.01669524982571602,0.012707996182143688,-0.0006381745333783329,-0.01039307564496994
0.026259591802954674,0.004153744783252478,-0.01613518036901951,0.013474521227180958,-0.0006416396936401725,-0.009569640271365643
0.024726953357458115,0.003976040985435247,-0.016128193587064743,0.013154896907508373,-0.0006064216722734272,-0.009501385502517223
0.025997379794716835,0.0039515369571745396,-0.016656070947647095,0.013505909591913223,-0.0006523197516798973,-0.00983530841767788
0.026538943871855736,0.004404767882078886,-0.01644960232079029,0.013073274865746498,-0.0005995171959511936,-0.00989438034594059
0.026424812152981758,0.004751625005155802,-0.01678771711885929,0.012849493883550167,-0.0006292529287748039,-0.010034667328000069
0.026538310572504997,0.004780493211001158,-0.016144657507538795,0.013297326862812042,-0.0005693878047168255,-0.010101711377501488
0.0267171710729599,0.004183405544608831,-0.016769617795944214,0.013149429112672806,-0.0005568110500462353,-0.01066705770790577
0.027081824839115143,0.003849194385111332,-0.01662270538508892,0.012979822233319283,-0.0005459748790599406,-0.010374805890023708
0.02729727514088154,0.0039757066406309605,-0.016495967283844948,0.012346506118774414,-0.0005575837567448616,-0.010549111291766167
0.026346910744905472,0.003906280733644962,-0.016829121857881546,0.0133523466065526,-0.0005328707047738135,-0.010278635658323765
0.026515552774071693,0.0037762445863336325,-0.01654708944261074,0.013482591137290001,-0.0005006542196497321,-0.01029474288225174
0.026940135285258293,0.004448758438229561,-0.016747238114476204,0.013827359303832054,-0.000481777562526986,-0.010238614864647388
0.02745499275624752,0.004720186814665794,-0.01620887964963913,0.013003330677747726,-0.0005124854505993426,-0.010907914489507675
0.02712354250252247,0.004386101849377155,-0.016918092966079712,0.013199146836996078,-0.0005358981434255838,-0.010545848868787289
0.027435820549726486,0.004063659347593784,-0.017341624945402145,0.01305821631103754,-0.000511132413521409,-0.010531925596296787
0.027381034567952156,0.003503648331388831,-0.016627296805381775,0.01370667852461338,-0.0005067068850621581,-0.010491415858268738
0.02724376693367958,0.004180631600320339,-0.016833094879984856,0.013758490793406963,-0.0005014761700294912,-0.010587857104837894
0.02724376693367958,0.004180631600320339,-0.016833094879984856,0.013758490793406963,-0.0005014761700294912,-0.010587857104837894
0.026322921738028526,0.00437694089487195,-0.01732274517416954,0.013668511062860489,-0.000545913353562355,-0.010761997662484646
0.02799035608768463,0.004447873681783676,-0.017064930871129036,0.01306754071265459,-0.0004525452677626163,-0.010743122547864914
0.027835631743073463,0.00439213402569294,-0.017570344731211662,0.012851342558860779,-0.00048754416638985276,-0.010744293220341206
0.027835631743073463,0.00439213402569294,-0.017570344731211662,0.012851342558860779,-0.00048754416638985276,-0.010744293220341206
0.028274795040488243,0.004034481011331081,-0.017263615503907204,0.014000941999256611,-0.0004881603817921132,-0.010644103400409222
0.028278881683945656,0.0034694517962634563,-0.01743910275399685,0.012908166274428368,-0.0004841035115532577,-0.011128019541501999
0.028312992304563522,0.0034846521448343992,-0.016933774575591087,0.012957333587110043,-0.0004990046145394444,-0.011397749185562134
0.028185002505779266,0.004220880568027496,-0.017352646216750145,0.012463344261050224,-0.0004819332098122686,-0.010959204286336899
0.028825610876083374,0.004152287729084492,-0.018575038760900497,0.013157632201910019,-0.0005207944195717573,-0.011242339387536049
0.028732415288686752,0.004452427849173546,-0.01853244937956333,0.013305267319083214,-0.0005599673604592681,-0.01122763380408287
0.0286723505705595,0.004315599333494902,-0.01811833865940571,0.013899878598749638,-0.0005754675948992372,-0.010535374283790588
0.028696464374661446,0.003973674960434437,-0.0184969250112772,0.013810023665428162,-0.0005453266785480082,-0.010526369325816631
0.028896288946270943,0.004252588376402855,-0.017675209790468216,0.014246711507439613,-0.0005557848489843309,-0.010887270793318748
0.028788382187485695,0.004153335001319647,-0.017941005527973175,0.01412956789135933,-0.0005312031717039645,-0.010910432785749435
0.029076511040329933,0.003986517898738384,-0.017902884632349014,0.014064068906009197,-0.0004956874181516469,-0.010575360618531704
0.028886405751109123,0.003917291760444641,-0.018098631873726845,0.014046385884284973,-0.000557076942641288,-0.010521095246076584
0.029512176290154457,0.003917298279702663,-0.018886787816882133,0.014251509681344032,-0.0005092420033179224,-0.01083400659263134
0.02928311936557293,0.004200604744255543,-0.01860506273806095,0.014254864305257797,-0.0004582988622132689,-0.01075032353401184
0.02980397455394268,0.004213606473058462,-0.01802770048379898,0.014511522836983204,-0.0004768433573190123,-0.011045195162296295
0.02958744391798973,0.004333997145295143,-0.017315726727247238,0.014545322395861149,-0.00045540789142251015,-0.010762299410998821
0.029540803283452988,0.004030400421470404,-0.018640251830220222,0.01461840234696865,-0.00048166600754484534,-0.01076681911945343
0.0293708648532629,0.003866850631311536,-0.019235873594880104,0.014457730576395988,-0.0005113984225317836,-0.010962960310280323
0.029690666124224663,0.0037874202243983746,-0.018864145502448082,0.01456313207745552,-0.0005519255646504462,-0.010634969919919968
0.030490554869174957,0.0038551685865968466,-0.01803329773247242,0.014327721670269966,-0.0005895476206205785,-0.010818286798894405
0.029933569952845573,0.004320418927818537,-0.01899152249097824,0.014335672371089458,-0.0006214288878254592,-0.011023169383406639
0.026824194937944412,0.004372789524495602,-0.01814049854874611,0.014175581745803356,-0.0006474695401266217,-0.010985529981553555
0.02964683622121811,0.00404727179557085,-0.017671044915914536,0.014175515621900558,-0.0006127697415649891,-0.011273305863142014
0.030478142201900482,0.003831403097137809,-0.01904354989528656,0.014311575330793858,-0.0008074493962340057,-0.011445525102317333
0.029516112059354782,0.004146565217524767,-0.019397029653191566,0.014228645712137222,-0.0008215440902858973,-0.011570293456315994
0.029882071539759636,0.00427410751581192,-0.018572581931948662,0.014676615595817566,-0.0007423374918289483,-0.011813520453870296
0.03072410821914673,0.004028273746371269,-0.018712926656007767,0.014908859506249428,-0.0006544110365211964,-0.011416837573051453
0.03072410821914673,0.004028273746371269,-0.018712926656007767,0.014908859506249428,-0.0006544110365211964,-0.011416837573051453
0.02926834113895893,0.004049011506140232,-0.018521221354603767,0.014704673551023006,-0.000611153373029083,-0.011037847958505154
0.03009403869509697,0.0042189364321529865,-0.018801607191562653,0.014576483517885208,-0.0005773778539150953,-0.011618317104876041
0.030331984162330627,0.003948220983147621,-0.01919339969754219,0.01454846654087305,-0.0005424833507277071,-0.011453654617071152
0.030269891023635864,0.004327977076172829,-0.019139684736728668,0.014659658074378967,-0.0005049722967669368,-0.01214128639549017
0.030269891023635864,0.004327977076172829,-0.019139684736728668,0.014659658074378967,-0.0005049722967669368,-0.01214128639549017
0.029944438487291336,0.004073355346918106,-0.018153859302401543,0.014740237966179848,-0.0004303602618165314,-0.011551892384886742
0.03026515245437622,0.004337516147643328,-0.01835070177912712,0.014658838510513306,-0.0004454792069736868,-0.011630348861217499
0.03029615804553032,0.004179611336439848,-0.018850836902856827,0.014479084871709347,-0.00046210410073399544,-0.011568574234843254
0.030272167176008224,0.003993627615272999,-0.01860804855823517,0.014534476213157177,-0.0004609714087564498,-0.011074899695813656
0.03014574944972992,0.004007059149444103,-0.01915353164076805,0.014782445505261421,-0.0004315234546083957,-0.011568770743906498
0.03001055307686329,0.004005216062068939,-0.01912444457411766,0.01502272766083479,-0.00045766145922243595,-0.01188252680003643
0.030317330732941628,0.0039493427611887455,-0.018433410674333572,0.015092742629349232,-0.00043359945993870497,-0.011673039756715298
0.030428605154156685,0.00402398407459259,-0.019131110981106758,0.015553692355751991,-0.00041142976260744035,-0.011473443359136581
0.030323702841997147,0.003926888573914766,-0.01874140463769436,0.015562319196760654,-0.0005075520020909607,-0.010806497186422348
0.030286675319075584,0.003918563015758991,-0.018535969778895378,0.015915753319859505,-0.0005445154965855181,-0.011652760207653046
0.03046417236328125,0.003956376109272242,-0.01934194378554821,0.015648167580366135,-0.0005050163599662483,-0.011861060746014118
0.030079420655965805,0.004302820190787315,-0.01914236694574356,0.015978632494807243,-0.0004624756402336061,-0.012029378674924374
0.029100412502884865,0.004063799977302551,-0.018560338765382767,0.015318830497562885,-0.0004919701023027301,-0.012473362497985363
0.031020108610391617,0.004437829367816448,-0.01910051517188549,0.01548923458904028,-0.00046030947123654187,-0.012297075241804123
0.031702905893325806,0.00421280087903142,-0.019494885578751564,0.015031999908387661,-0.0004743069875985384,-0.01225761417299509
0.032007742673158646,0.003967043943703175,-0.01871544122695923,0.015288753435015678,-0.00045818297076039016,-0.011443867348134518
0.030651506036520004,0.004205272998660803,-0.019469065591692924,0.015083848498761654,-0.000463522388599813,-0.011599898338317871
0.03027898259460926,0.004290407057851553,-0.019402416422963142,0.015195909887552261,-0.0004505354736465961,-0.012015321291983128
0.03135961666703224,0.0040404945611953735,-0.018913380801677704,0.01496314536780119,-0.0004512321320362389,-0.012125428766012192
0.031864460557699203,0.004061010666191578,-0.019405068829655647,0.015259405598044395,-0.00044975959463045,-0.01256572175770998
0.031475167721509933,0.00417888630181551,-0.0195224117487669,0.015109698288142681,-0.00041734520345926285,-0.012516417540609837
0.03250950202345848,0.004454495385289192,-0.019268663600087166,0.01479866448789835,-0.0004475745663512498,-0.012780614197254181
0.031827446073293686,0.004537112079560757,-0.01957608014345169,0.015090824104845524,-0.00046586577082052827,-0.011882531456649303
0.03131913021206856,0.004770676605403423,-0.01973792165517807,0.014982705935835838,-0.00045076815877109766,-0.011636544950306416
0.031142305582761765,0.004520844202488661,-0.019644008949398994,0.01533881388604641,-0.0005400929367169738,-0.012207219377160072
0.03195544332265854,0.004117343109101057,-0.020070621743798256,0.015321670100092888,-0.0005379482754506171,-0.012319321744143963
0.03195544332265854,0.004117343109101057,-0.020070621743798256,0.015321670100092888,-0.0005379482754506171,-0.012319321744143963
0.03247666731476784,0.004628406837582588,-0.019944118335843086,0.015759192407131195,-0.0005243442137725651,-0.012418384663760662
0.0320596918463707,0.004290854092687368,-0.020272009074687958,0.01448389608412981,-0.0005486327572725713,-0.012717693112790585
0.03209333121776581,0.004446300212293863,-0.019599564373493195,0.014845588244497776,-0.0006228946731425822,-0.013022313825786114
0.03209333121776581,0.004446300212293863,-0.019599564373493195,0.014845588244497776,-0.0006228946731425822,-0.013022313825786114
0.03242506831884384,0.004559126682579517,-0.02038087695837021,0.015056694857776165,-0.0006667646812275052,-0.012563688680529594
0.03217782825231552,0.004571420606225729,-0.021098434925079346,0.015929536893963814,-0.0006684044492430985,-0.012569042854011059
0.03236081451177597,0.004094235599040985,-0.02058740146458149,0.016240933910012245,-0.0006460538716055453,-0.01295375730842352
0.03222597762942314,0.004418741911649704,-0.019918037578463554,0.01661563850939274,-0.000666731153614819,-0.012679094448685646
0.03286893665790558,0.0046226331032812595,-0.020185526460409164,0.0170341394841671,-0.0006177850882522762,-0.012986438348889351
0.0335192009806633,0.004275310318917036,-0.02078130654990673,0.016505300998687744,-0.0007048120023682714,-0.012943782843649387
0.031508918851614,0.00435972586274147,-0.020385991781949997,0.01682993769645691,-0.0007344928453676403,-0.012892140075564384
0.03298657387495041,0.004441756289452314,-0.020283419638872147,0.016606589779257774,-0.0007059223717078567,-0.012670927681028843
0.03305945172905922,0.004528729245066643,-0.02042156644165516,0.016911642625927925,-0.0006770450272597373,-0.012921925634145737
0.03280182182788849,0.0042137764394283295,-0.02018159069120884,0.01693396456539631,-0.0006895903497934341,-0.013349921442568302
0.03292933106422424,0.003985910676419735,-0.02013218216598034,0.016738349571824074,-0.0006969733512960374,-0.013024509884417057
0.033173173666000366,0.004425304476171732,-0.020558807998895645,0.016910593956708908,-0.0007162473048083484,-0.013137923553586006
0.0334618054330349,0.004407527390867472,-0.020751334726810455,0.01640118472278118,-0.0006842801813036203,-0.012743407860398293
0.03340912237763405,0.0048183416947722435,-0.020191529765725136,0.01683545671403408,-0.0007049813284538686,-0.01282427553087473
0.033474091440439224,0.004775544628500938,-0.02046608179807663,0.016402626410126686,-0.0007245325250551105,-0.012860334478318691
0.03346867114305496,0.004336474929004908,-0.02066897414624691,0.01614416390657425,-0.0007536717457696795,-0.013118769973516464
0.033549755811691284,0.004436629358679056,-0.019771207123994827,0.01620054990053177,-0.00079054303932935,-0.013308614492416382
0.034083105623722076,0.004187566693872213,-0.019925063475966454,0.016098100692033768,-0.0008068500901572406,-0.013467774726450443
0.03429035097360611,0.004316695034503937,-0.020980121567845345,0.016371460631489754,-0.0008184185135178268,-0.013596856035292149
0.033864159137010574,0.004575379192829132,-0.020809544250369072,0.015744883567094803,-0.0007836487493477762,-0.013300096616148949
0.033739253878593445,0.005194135010242462,-0.020114583894610405,0.01636911928653717,-0.0008605609182268381,-0.01335572637617588
0.03454822301864624,0.004620836582034826,-0.020425505936145782,0.016352560371160507,-0.000860302709043026,-0.013257256709039211
0.03561950847506523,0.0042604319751262665,-0.020452266559004784,0.01681099273264408,-0.0007572250906378031,-0.013528146781027317
0.03422652184963226,0.004233086947351694,-0.020050780847668648,0.01660424843430519,-0.0007675074739381671,-0.013650176115334034
0.03338199853897095,0.004917586222290993,-0.02012823149561882,0.01644403301179409,-0.00077486113877967,-0.01349884457886219
0.034631047397851944,0.004523069132119417,-0.02067728526890278,0.016338394954800606,-0.0007551892194896936,-0.013320204801857471
0.035298191010951996,0.004991061054170132,-0.02026204764842987,0.016977090388536453,-0.0007727687479928136,-0.013204935938119888
0.035298191010951996,0.004991061054170132,-0.02026204764842987,0.016977090388536453,-0.0007727687479928136,-0.013204935938119888
0.03566558286547661,0.004370551090687513,-0.020270003005862236,0.01683611422777176,-0.0007617406663484871,-0.013403477147221565
0.03453874588012695,0.004514421336352825,-0.020331764593720436,0.016952654346823692,-0.0007335947593674064,-0.013277305290102959
0.03399902209639549,0.004692789167165756,-0.02016175165772438,0.01712278462946415,-0.000918252335395664,-0.01309998519718647
0.03472878038883209,0.004667977802455425,-0.02032068371772766,0.016747213900089264,-0.0008576677646487951,-0.013236730359494686
0.03576209768652916,0.004722119774669409,-0.020733200013637543,0.017119864001870155,-0.0008348154951818287,-0.013165568001568317
0.034791555255651474,0.004681579768657684,-0.020428601652383804,0.016798680648207664,-0.0007614691858179867,-0.013729329220950603
0.035650111734867096,0.004379044286906719,-0.020194916054606438,0.01705400086939335,-0.0006808514590375125,-0.013349977321922779
0.035560257732868195,0.004505872260779142,-0.020325131714344025,0.016882486641407013,-0.0006958911544643342,-0.013551988638937473
0.03512099012732506,0.00438659219071269,-0.02089117281138897,0.016844160854816437,-0.0006393574876710773,-0.01343789417296648
0.03594436123967171,0.004291839431971312,-0.020555373281240463,0.017113547772169113,-0.0005755341262556612,-0.013662179931998253
0.035646963864564896,0.004477425944060087,-0.020856965333223343,0.016724230721592903,-0.0005586980259977281,-0.013482093811035156
0.03494444489479065,0.0046161506325006485,-0.021036110818386078,0.017269272357225418,-0.0005459061940200627,-0.013426859863102436
0.03534117713570595,0.0044140382669866085,-0.02120872214436531,0.01692306622862816,-0.0005754666635766625,-0.01320289634168148
0.03580426052212715,0.004512585699558258,-0.020424319431185722,0.016962124034762383,-0.0005976228858344257,-0.013366755098104477
0.035550836473703384,0.004432105924934149,-0.020719269290566444,0.016959764063358307,-0.0005603455356322229,-0.013517755083739758
0.03501827269792557,0.0048092566430568695,-0.021294567734003067,0.016787881031632423,-0.0006042620516382158,-0.013710780069231987
0.03559224307537079,0.0048157088458538055,-0.021730143576860428,0.01747213304042816,-0.0006030905060470104,-0.013848861679434776
0.036767877638339996,0.004886481445282698,-0.02116481401026249,0.01739065907895565,-0.0006145305815152824,-0.013965196907520294
0.03516606613993645,0.004857951775193214,-0.02211923711001873,0.017868202179670334,-0.0005734399310313165,-0.0142437145113945
0.035115331411361694,0.004723990801721811,-0.021921902894973755,0.01762022264301777,-0.0005615299451164901,-0.014221224002540112
0.035910092294216156,0.004610536620020866,-0.021127214655280113,0.017432842403650284,-0.000550275610294193,-0.014121404848992825
0.03568796068429947,0.004705445375293493,-0.020819900557398796,0.017685340717434883,-0.0005616213893517852,-0.014083403162658215
0.0366847924888134,0.0043657259084284306,-0.02140442281961441,0.018067480996251106,-0.0005371423903852701,-0.01381409540772438
0.036541033536195755,0.004403701517730951,-0.022252239286899567,0.017313426360487938,-0.0005437199142761528,-0.014034276828169823
0.03562692552804947,0.0045254966244101524,-0.021734299138188362,0.017705237492918968,-0.0005733845755457878,-0.014279467053711414
0.03510773554444313,0.004635991062968969,-0.021082792431116104,0.017405474558472633,-0.0005714150029234588,-0.014188071712851524
0.036656200885772705,0.004482267424464226,-0.021845269948244095,0.017107687890529633,-0.0007447097450494766,-0.01409954484552145
0.03560288995504379,0.00438303779810667,-0.02181750163435936,0.01720345951616764,-0.0007687004981562495,-0.014189600013196468
0.03560288995504379,0.00438303779810667,-0.02181750163435936,0.01720345951616764,-0.0007687004981562495,-0.014189600013196468
0.036606281995773315,0.004885583650320768,-0.021808987483382225,0.017965590581297874,-0.0007878131582401693,-0.01390092633664608
0.03645607456564903,0.005007847677916288,-0.022040754556655884,0.01813962124288082,-0.0007791966199874878,-0.014515112154185772
0.03630426153540611,0.004898002836853266,-0.0214415043592453,0.017949586734175682,-0.000791514350567013,-0.014160651713609695
0.036594633013010025,0.004714619368314743,-0.021025074645876884,0.017894169315695763,-0.0007405361393466592,-0.014601866714656353
0.03699011355638504,0.004566086921840906,-0.02178068831562996,0.017891528084874153,-0.0008032256737351418,-0.015522642992436886
0.03672020882368088,0.004583613947033882,-0.022022105753421783,0.019125061109662056,-0.0007589012384414673,-0.014419193379580975
0.036760807037353516,0.004515710286796093,-0.021942386403679848,0.01903427392244339,-0.0007724663009867072,-0.014276384375989437
0.03733397647738457,0.004760188516229391,-0.021681390702724457,0.018463216722011566,-0.0007795408018864691,-0.01472906582057476
0.03731650486588478,0.004823984112590551,-0.021401597186923027,0.01863718591630459,-0.0008554802625440061,-0.01471641194075346
0.03717665374279022,0.004859512206166983,-0.022051552310585976,0.01788991317152977,-0.0009038354037329555,-0.014894317835569382
0.037085484713315964,0.004427226260304451,-0.022530144080519676,0.01778106391429901,-0.0009058411233127117,-0.01467574667185545
0.036108843982219696,0.004449494183063507,-0.022049710154533386,0.018262280151247978,-0.0008825198165141046,-0.014404764398932457
0.03811756521463394,0.004582365043461323,-0.02194024622440338,0.01837545447051525,-0.0008915245998650789,-0.014757038094103336
0.03772454708814621,0.004656060598790646,-0.02223038859665394,0.018978150561451912,-0.0008963575237430632,-0.014833163470029831
0.0374588742852211,0.004765896592289209,-0.022337904199957848,0.019003357738256454,-0.000897302757948637,-0.015059140510857105
0.037289269268512726,0.004745076410472393,-0.02212158776819706,0.018486620858311653,-0.0008402141975238919,-0.015472618862986565
0.037635840475559235,0.004789454396814108,-0.022145377472043037,0.018471146002411842,-0.0008361838408745825,-0.015440539456903934
0.03791726380586624,0.00469596590846777,-0.022123908624053,0.018778802827000618,-0.000819785927888006,-0.014868219383060932
0.038202520459890366,0.004892036784440279,-0.02257957123219967,0.018380573019385338,-0.0008146966574713588,-0.015353653579950333
0.03784436360001564,0.0047869011759757996,-0.022731827571988106,0.0187416672706604,-0.0007647350430488586,-0.015374043956398964
0.03801068291068077,0.004800050053745508,-0.022397872060537338,0.018604837357997894,-0.0007697747787460685,-0.015633482486009598
0.03774607181549072,0.005336216185241938,-0.022294778376817703,0.01871326006948948,-0.000770500220824033,-0.01583995670080185
0.038632363080978394,0.005034940782934427,-0.022513289004564285,0.0190218985080719,-0.0007209799950942397,-0.01584445871412754
0.03971607983112335,0.004725418984889984,-0.022951815277338028,0.018398495391011238,-0.0007859276374801993,-0.015184416435658932
0.03799188882112503,0.005075867287814617,-0.02240343578159809,0.018569979816675186,-0.0007448143442161381,-0.015552988275885582
0.0388452410697937,0.004950658418238163,-0.022867584601044655,0.018759939819574356,-0.0007555546471849084,-0.015302879735827446
0.0388452410697937,0.004950658418238163,-0.022867584601044655,0.018759939819574356,-0.0007555546471849084,-0.015302879735827446
0.038999028503894806,0.005364994518458843,-0.02311338298022747,0.018908992409706116,-0.0007039655465632677,-0.015520046465098858
0.04044564068317413,0.00512905977666378,-0.02335844375193119,0.018995609134435654,-0.0007457818137481809,-0.01566539704799652
0.04008045792579651,0.004868822637945414,-0.022939931601285934,0.01890876702964306,-0.0007684172014705837,-0.0160373542457819
0.037701159715652466,0.004704026505351067,-0.022433960810303688,0.018630225211381912,-0.0007702783332206309,-0.015668349340558052
0.038307495415210724,0.004878706764429808,-0.022823886945843697,0.018489724025130272,-0.000758657231926918,-0.015791431069374084
0.040130626410245895,0.004867770709097385,-0.02358284778892994,0.018365316092967987,-0.0007273626979440451,-0.01570589281618595
0.03973535820841789,0.005157371051609516,-0.02339463122189045,0.01884281449019909,-0.000756209425162524,-0.015988705679774284
0.03965997323393822,0.004438004922121763,-0.0238664411008358,0.019002655521035194,-0.0006788053433410823,-0.01612476073205471
0.03960829973220825,0.004305106122046709,-0.02393227443099022,0.018980136141180992,-0.0006931601674295962,-0.01643131673336029
0.03927702084183693,0.004160059150308371,-0.02400249056518078,0.019594425335526466,-0.0006765886791981757,-0.016296226531267166
0.03953670710325241,0.004080449230968952,-0.024096479639410973,0.01934790425002575,-0.0006521897157654166,-0.016006268560886383
0.039211489260196686,0.004390483256429434,-0.023960314691066742,0.019153062254190445,-0.0006723969709128141,-0.016158197075128555
0.03946573659777641,0.00458925124257803,-0.02392401173710823,0.019408373162150383,-0.0006257541244849563,-0.015890564769506454
0.03932669386267662,0.0046248482540249825,-0.02414780855178833,0.01912662200629711,-0.0006745927385054529,-0.016357988119125366
0.03940039873123169,0.004633160308003426,-0.02424219809472561,0.018357321619987488,-0.0007028143736533821,-0.01631871983408928
0.040558937937021255,0.004110431298613548,-0.024329209700226784,0.018732555210590363,-0.0007485757814720273,-0.01663406938314438
0.03956956788897514,0.003784324275329709,-0.023983905091881752,0.019443288445472717,-0.0008910370524972677,-0.01662578247487545
0.03848351165652275,0.00401559192687273,-0.02418714389204979,0.02003117837011814,-0.0010478950571268797,-0.01669907011091709
0.03975456953048706,0.004111827351152897,-0.02434353344142437,0.020059602335095406,-0.0010334233520552516,-0.016629237681627274
0.03947950899600983,0.004321659449487925,-0.02454022690653801,0.01959223300218582,-0.0010148374130949378,-0.01635569892823696
0.04082559794187546,0.004450456704944372,-0.02439066395163536,0.01867329515516758,-0.001021631876938045,-0.017572030425071716
0.04028279706835747,0.004815125372260809,-0.024247419089078903,0.01855386421084404,-0.00102059671189636,-0.016151130199432373
0.0382433757185936,0.004364443477243185,-0.023957103490829468,0.01880788803100586,-0.001002353965304792,-0.016009243205189705
0.04065970331430435,0.004003424663096666,-0.02483719401061535,0.01964826136827469,-0.000939544930588454,-0.01656833104789257
0.04030139371752739,0.004077760968357325,-0.025105426087975502,0.0192855317145586,-0.0008254972053691745,-0.016679439693689346
0.040291447192430496,0.004418167285621166,-0.025397557765245438,0.018651699647307396,-0.0008297013700939715,-0.016762152314186096
0.040078725665807724,0.004600981250405312,-0.024508358910679817,0.019705215469002724,-0.0008145112078636885,-0.016986902803182602
0.040078725665807724,0.004600981250405312,-0.024508358910679817,0.019705215469002724,-0.0008145112078636885,-0.016986902803182602
0.04010570049285889,0.0048403372056782246,-0.024952128529548645,0.02013479359447956,-0.0008230718085542321,-0.01659068465232849
0.04087289795279503,0.004548700992017984,-0.02457539178431034,0.02018536627292633,-0.0008033000631257892,-0.016932761296629906
0.04036826267838478,0.004293776582926512,-0.024492882192134857,0.02007165364921093,-0.0008450163877569139,-0.01719876378774643
0.04060257598757744,0.004009293857961893,-0.025130419060587883,0.0203627310693264,-0.0008543970761820674,-0.017466630786657333
0.04051792994141579,0.00394405284896493,-0.025560809299349785,0.01983642391860485,-0.0008774098823778331,-0.01760329306125641
0.04094124957919121,0.004348705988377333,-0.02512197010219097,0.01970364712178707,-0.00121477956417948,-0.0172126367688179
0.041029464453458786,0.0046377419494092464,-0.02491222321987152,0.020232466980814934,-0.0011993070365861058,-0.017034193500876427
0.04110404849052429,0.004693842027336359,-0.024775035679340363,0.020608896389603615,-0.0011339208576828241,-0.016890499740839005
0.041817717254161835,0.004445873200893402,-0.024920746684074402,0.02015575021505356,-0.0010082988301292062,-0.016946887597441673
0.0413953959941864,0.004091514740139246,-0.024760862812399864,0.020323894917964935,-0.0008925673319026828,-0.017078692093491554
0.04158543050289154,0.004362677223980427,-0.024926677346229553,0.019924290478229523,-0.0007592067704536021,-0.01713692769408226
0.04153914004564285,0.004574285354465246,-0.024927617982029915,0.01976805180311203,-0.000712106644641608,-0.017686894163489342
0.04185063764452934,0.0043892827816307545,-0.025099612772464752,0.02004905417561531,-0.00067716563353315,-0.017544277012348175
0.04156513139605522,0.004582470282912254,-0.025078896433115005,0.020306792110204697,-0.0006914061959832907,-0.01739838533103466
0.04200849309563637,0.0046708956360816956,-0.02502439357340336,0.01994750276207924,-0.0007000000332482159,-0.017826931551098824
0.04218514636158943,0.004687333945184946,-0.02493746392428875,0.01981697417795658,-0.0007119412766769528,-0.017856746912002563
0.042029328644275665,0.004621239844709635,-0.02469642087817192,0.0204656720161438,-0.0007538612699136138,-0.018229825422167778
0.04273716360330582,0.0042999438010156155,-0.024915587157011032,0.020208897069096565,-0.0007729620556347072,-0.018166804686188698
0.04218599572777748,0.004352262243628502,-0.025129634886980057,0.019697993993759155,-0.000788272765930742,-0.017502503469586372
0.04259274899959564,0.004332356154918671,-0.025020239874720573,0.019847163930535316,-0.001112510566599667,-0.017414970323443413
0.04363683611154556,0.005137870088219643,-0.025667589157819748,0.01989169605076313,-0.0010929183335974813,-0.01696125417947769
0.04259257763624191,0.004974927753210068,-0.026653751730918884,0.019785679876804352,-0.0010636586230248213,-0.017080198973417282
0.04140382632613182,0.00477710971608758,-0.025728894397616386,0.020317118614912033,-0.0009825084125623107,-0.01748318038880825
0.04340117424726486,0.0044792648404836655,-0.02543680928647518,0.020419055595993996,-0.0009277316858060658,-0.0180610753595829
0.0434112586081028,0.004223700612783432,-0.025205126032233238,0.020158272236585617,-0.0009146261727437377,-0.018181953579187393
0.043511711061000824,0.005123867653310299,-0.026270894333720207,0.020829882472753525,-0.0008096992969512939,-0.019106876105070114
0.04195186868309975,0.0050459313206374645,-0.025823909789323807,0.020411357283592224,-0.0008142715669237077,-0.017763761803507805
0.044009171426296234,0.004920439328998327,-0.025970187038183212,0.01998603716492653,-0.0007707581389695406,-0.017330706119537354
0.04379366338253021,0.0051397597417235374,-0.026546219363808632,0.020764200016856194,-0.0007871166453696787,-0.018224108964204788
0.043599341064691544,0.004769532009959221,-0.026418237015604973,0.02095603011548519,-0.000809597026091069,-0.01834116503596306
0.0436406284570694,0.004721551202237606,-0.025876371189951897,0.02041160687804222,-0.0008204681798815727,-0.018288910388946533
0.0436406284570694,0.004721551202237606,-0.025876371189951897,0.02041160687804222,-0.0008204681798815727,-0.018288910388946533
0.043686799705028534,0.005949824117124081,-0.025781510397791862,0.02019423246383667,-0.0009632876026444137,-0.018468135967850685
0.044030264019966125,0.0060917385853827,-0.025081023573875427,0.020291991531848907,-0.0010558005888015032,-0.018244212493300438
0.043549150228500366,0.004492881707847118,-0.02555706538259983,0.020159130915999413,-0.0009724072879180312,-0.018706640228629112
0.043324120342731476,0.004991609137505293,-0.025862092152237892,0.020182324573397636,-0.0009585430379956961,-0.018970077857375145
