davideferrari95/blind_handover_controller/data/Test 42 - [2024-02-07 -- 15-01-04]/joint_states_data.csv
shoulder_pan_joint,shoulder_lift_joint,elbow_joint,wrist_1_joint,wrist_2_joint,wrist_3_joint
0.004371329676359892,-0.009407675825059414,-0.010099122300744057,0.015413585118949413,-0.0,0.003538658143952489
0.004371329676359892,-0.009407675825059414,-0.010099122300744057,0.015413585118949413,-0.0,0.003538658143952489
0.004190065432339907,-0.009391880594193935,-0.010854348540306091,0.01575298048555851,-0.0,0.0036224990617483854
0.00430376036092639,-0.00941427517682314,-0.010553674772381783,0.015395134687423706,-0.0,0.003739986103028059
0.004637591540813446,-0.009549678303301334,-0.010670939460396767,0.01541484147310257,-0.0,0.003959948662668467
0.004595703445374966,-0.009818441234529018,-0.011210129596292973,0.01491796039044857,-0.0,0.0036505060270428658
0.004595703445374966,-0.009818441234529018,-0.011210129596292973,0.01491796039044857,-0.0,0.0036505060270428658
0.004493666347116232,-0.010236646048724651,-0.010585692711174488,0.01517489179968834,-0.0,0.0037532998248934746
0.004493666347116232,-0.010236646048724651,-0.010585692711174488,0.01517489179968834,-0.0,0.0037532998248934746
0.004003685899078846,-0.009970691055059433,-0.010114900767803192,0.015615090727806091,-0.0,0.003936777822673321
0.0041686794720590115,-0.010587291792035103,-0.010745760053396225,0.015874190255999565,-0.0,0.003962773829698563
0.004661243408918381,-0.009943651966750622,-0.010521404445171356,0.015587846748530865,-0.0,0.003959417808800936
0.004258869215846062,-0.010692577809095383,-0.009953334927558899,0.016196824610233307,-0.0,0.0039297593757510185
0.004463431891053915,-0.009919766336679459,-0.010761168785393238,0.01611226424574852,-0.0,0.003524225205183029
0.0040982686914503574,-0.009151091799139977,-0.010878827422857285,0.01590244099497795,-0.0,0.0035430616699159145
0.003801190061494708,-0.009380588307976723,-0.010024546645581722,0.014638013206422329,-0.0,0.004113034810870886
0.003668723627924919,-0.010155328549444675,-0.010298705659806728,0.014950455166399479,-0.0,0.004188524559140205
0.0037936822045594454,-0.010568610392510891,-0.010156052187085152,0.0158316008746624,-0.0,0.004002565983682871
0.0038502076640725136,-0.009570494294166565,-0.009989326819777489,0.015559694729745388,-0.0,0.0038461617659777403
0.0038917353376746178,-0.00989938247948885,-0.010756589472293854,0.015922408550977707,-0.0,0.0037851545494049788
0.0038385933730751276,-0.010202815756201744,-0.010058539919555187,0.015634074807167053,-0.0,0.003472953336313367
0.0038817902095615864,-0.009322489611804485,-0.010049219243228436,0.016346773132681847,-0.0,0.0034974142909049988
0.003956571687012911,-0.009492292068898678,-0.010118797421455383,0.016427308320999146,-0.0,0.004090842790901661
0.003970608115196228,-0.009407144039869308,-0.009944172576069832,0.016209017485380173,-0.0,0.004224942531436682
0.003998769447207451,-0.008960391394793987,-0.009850564412772655,0.01596691645681858,-0.0,0.004042765125632286
0.0035202084109187126,-0.0076269530691206455,-0.010097255930304527,0.015874968841671944,-0.0,0.0041480762884020805
0.0035484866239130497,-0.007412472739815712,-0.009955144487321377,0.01620381698012352,-0.0,0.004192306660115719
0.004287705756723881,-0.007740456145256758,-0.010698425583541393,0.015419513918459415,-0.0,0.00433461694046855
0.004138003569096327,-0.007732835132628679,-0.010938720777630806,0.016244718804955482,-0.0,0.004096194636076689
0.003984267823398113,-0.008015205152332783,-0.00985909067094326,0.01590661332011223,-0.0,0.003539010416716337
0.003458351595327258,-0.008332699537277222,-0.009725977666676044,0.016186613589525223,-0.0,0.003461203770712018
0.003458351595327258,-0.008332699537277222,-0.009725977666676044,0.016186613589525223,-0.0,0.003461203770712018
0.003870797110721469,-0.008180968463420868,-0.009785044007003307,0.01596706174314022,-0.0,0.0035531874746084213
0.0035239635035395622,-0.007750547956675291,-0.010327179916203022,0.01624598540365696,-0.0,0.0034414567053318024
0.0034780502319335938,-0.007677147164940834,-0.010481154546141624,0.016170557588338852,-0.0,0.0035428665578365326
0.004180207848548889,-0.0073778871446847916,-0.009729905985295773,0.016369789838790894,-0.0,0.0039171804673969746
0.004149430897086859,-0.007547035813331604,-0.010608513839542866,0.016038205474615097,-0.0,0.003673001192510128
0.00397700909525156,-0.0076238615438342094,-0.00980723462998867,0.016379326581954956,-0.0,0.003979900851845741
0.0038613316137343645,-0.007403049152344465,-0.009255284443497658,0.016100086271762848,-0.0,0.003828675951808691
0.003912980668246746,-0.0072333235293626785,-0.010511067695915699,0.016075056046247482,-0.0,0.0035406940151005983
0.0034062666818499565,-0.007418142631649971,-0.00992702879011631,0.01571456529200077,-0.0,0.003252078080549836
0.003512393683195114,-0.007503441069275141,-0.009559295140206814,0.015856895595788956,-0.0,0.0034626545384526253
0.003732970217242837,-0.007332759443670511,-0.010029410012066364,0.01655769906938076,-0.0,0.00405185716226697
0.004186184145510197,-0.0072168526239693165,-0.009738614782691002,0.016764502972364426,-0.0,0.004354614764451981
0.003622120013460517,-0.007291744463145733,-0.009298115968704224,0.016905302181839943,-0.0,0.004462392535060644
0.0032612006179988384,-0.007246511988341808,-0.009925750084221363,0.016411328688263893,-0.0,0.004215630237013102
0.0032404453959316015,-0.007057150360196829,-0.010512675158679485,0.016481604427099228,-0.0,0.004029826261103153
0.003510118694975972,-0.006962132174521685,-0.009149874560534954,0.016524480655789375,-0.0,0.004023303277790546
0.0037526909727603197,-0.0074907829985022545,-0.009785845875740051,0.017180828377604485,-0.0,0.003943732473999262
0.0038474297616630793,-0.007103386335074902,-0.009547697380185127,0.017052926123142242,-0.0,0.0039023812860250473
0.0038952662143856287,-0.007265207823365927,-0.009233120828866959,0.016020694747567177,-0.0,0.0038761901669204235
0.0039396281354129314,-0.007523342501372099,-0.010508624836802483,0.016638582572340965,-0.0,0.003950506914407015
0.003526983316987753,-0.006897971034049988,-0.009788218885660172,0.015757981687784195,-0.0,0.004129689186811447
0.004032962955534458,-0.0071725198067724705,-0.009327156469225883,0.01588095724582672,-0.0,0.004262561444193125
0.004198783077299595,-0.00743724312633276,-0.01063989195972681,0.0159226693212986,-0.0,0.004423082340508699
0.003854230511933565,-0.00717342970892787,-0.009318073280155659,0.016893237829208374,-0.0,0.00408304575830698
0.003854230511933565,-0.00717342970892787,-0.009318073280155659,0.016893237829208374,-0.0,0.00408304575830698
0.003843603190034628,-0.0072203208692371845,-0.010353904217481613,0.01689065806567669,-0.0,0.004172046203166246
0.003843603190034628,-0.0072203208692371845,-0.010353904217481613,0.01689065806567669,-0.0,0.004172046203166246
0.004103740677237511,-0.006893505342304707,-0.009672068990767002,0.017220035195350647,-0.0,0.004355889745056629
0.004133838694542646,-0.0070298402570188046,-0.011114663444459438,0.018017176538705826,-0.0,0.004202632699161768
0.0038457270711660385,-0.00727731641381979,-0.010285180062055588,0.016403233632445335,-0.0,0.004164606332778931
0.0037396596744656563,-0.007412983104586601,-0.009640100412070751,0.015898369252681732,-0.0,0.004167955834418535
0.00428746547549963,-0.0068496596068143845,-0.01036730594933033,0.01659710891544819,-0.0,0.004004831425845623
0.004180894698947668,-0.006614353507757187,-0.010222184471786022,0.01690828986465931,-0.0,0.004229794256389141
0.0035742055624723434,-0.0068263583816587925,-0.009024414233863354,0.017335830256342888,-0.0,0.00405831728130579
0.0034995046444237232,-0.007212784141302109,-0.009993454441428185,0.017002342268824577,-0.0,0.003887441474944353
0.004278860986232758,-0.006763631943613291,-0.010507172904908657,0.01660800538957119,-0.0,0.004182410892099142
0.004563583061099052,-0.006759821902960539,-0.009728748351335526,0.016935916617512703,-0.0,0.00429799547418952
0.004129056353121996,-0.007020981516689062,-0.010683533735573292,0.01716904155910015,-0.0,0.00450604734942317
0.004321873188018799,-0.007344681303948164,-0.009938864037394524,0.017651548609137535,-0.0,0.004237576853483915
0.004194615874439478,-0.007277447264641523,-0.010001563467085361,0.016963841393589973,-0.0,0.0041400776244699955
0.004157249350100756,-0.006708972621709108,-0.011004394851624966,0.01697896420955658,-0.0,0.0039285155944526196
0.004183006007224321,-0.0071432096883654594,-0.010284710675477982,0.017212800681591034,-0.0,0.003583368146792054
0.004508609417825937,-0.006699036806821823,-0.009693030267953873,0.017073314636945724,-0.0,0.003759888233616948
0.004555385094136,-0.0070001608692109585,-0.011112850159406662,0.01734836772084236,-0.0,0.004227973986417055
0.004338839091360569,-0.006751971784979105,-0.010167413391172886,0.01700395718216896,-0.0,0.004798238631337881
0.00450129434466362,-0.006871359888464212,-0.010088855400681496,0.017202114686369896,-0.0,0.004517069552093744
0.004203961696475744,-0.006939397193491459,-0.010475675575435162,0.01722065359354019,-0.0,0.00410997262224555
0.0042450036853551865,-0.0073205409571528435,-0.010019106790423393,0.0168436449021101,-0.0,0.003996886778622866
0.004593170713633299,-0.006810775958001614,-0.010742603801190853,0.01666438765823841,-0.0,0.004044883418828249
0.004565693438053131,-0.006770542357116938,-0.009710320271551609,0.016855088993906975,-0.0,0.004385979846119881
0.004565693438053131,-0.006770542357116938,-0.009710320271551609,0.016855088993906975,-0.0,0.004385979846119881
0.004565693438053131,-0.006770542357116938,-0.009710320271551609,0.016855088993906975,-0.0,0.004385979846119881
0.004346023313701153,-0.007047535385936499,-0.010795161128044128,0.016790086403489113,-0.0,0.004685640800744295
0.004619405139237642,-0.006757789291441441,-0.010126352310180664,0.016847096383571625,-0.0,0.004609629046171904
0.004289633594453335,-0.007162805646657944,-0.010667734779417515,0.016701238229870796,-0.0,0.0043886504136025906
0.0044713388197124004,-0.007548946421593428,-0.010313603095710278,0.017375750467181206,-0.0,0.004114923998713493
0.00466126436367631,-0.006964807864278555,-0.010252074338495731,0.016651278361678123,-0.0,0.003919390495866537
0.00427203020080924,-0.00617957254871726,-0.010389715433120728,0.01661105267703533,-0.0,0.003747706301510334
0.004333248361945152,-0.006541614420711994,-0.010312922298908234,0.01596786454319954,-0.0,0.004296531900763512
0.004501235671341419,-0.006949270609766245,-0.010010926984250546,0.01573236472904682,-0.0,0.00456199562177062
0.004504728596657515,-0.006677168421447277,-0.010582473129034042,0.015913156792521477,-0.0,0.0045753116719424725
0.004361902829259634,-0.006242374889552593,-0.01008604746311903,0.01543541718274355,-0.0,0.004192863591015339
0.004522406030446291,-0.006373551208525896,-0.010722927749156952,0.016165966168045998,-0.0,0.004245446529239416
0.004462225828319788,-0.006710683926939964,-0.010191996581852436,0.016309704631567,-0.0,0.004289539065212011
0.004292978439480066,-0.007197060156613588,-0.010319119319319725,0.01680923067033291,-0.0,0.004099373240023851
0.004465059377253056,-0.006871198769658804,-0.011033173650503159,0.01695292629301548,-0.0,0.00433711614459753
0.004081520717591047,-0.006001739762723446,-0.01018806267529726,0.01736919768154621,-0.0,0.004599415231496096
0.004363189917057753,-0.006497933529317379,-0.009638860821723938,0.017368584871292114,-0.0,0.004666220396757126
0.0045889271423220634,-0.006925658322870731,-0.01078773569315672,0.016752542927861214,-0.0,0.004703403916209936
0.004704984836280346,-0.006185322534292936,-0.010670913383364677,0.016998589038848877,-0.0,0.004892533179372549
0.004891993012279272,-0.006015903782099485,-0.010085676796734333,0.01604834571480751,-0.0,0.004599621519446373
0.004942739848047495,-0.00649675540626049,-0.010906337760388851,0.01635706052184105,-0.0,0.004328042268753052
0.00487582478672266,-0.006832551676779985,-0.010387403890490532,0.017680175602436066,-0.0,0.004876148421317339
0.005091826431453228,-0.00639352248981595,-0.010420825332403183,0.01613425649702549,-0.0,0.004907658789306879
0.004914217162877321,-0.006393843330442905,-0.010247083380818367,0.01601099967956543,-0.0,0.004986676387488842
0.004857861902564764,-0.006303368601948023,-0.009627154096961021,0.01586402952671051,-0.0,0.005302668083459139
0.005321463569998741,-0.006119917146861553,-0.010794158093631268,0.01683800294995308,-0.0,0.004648701753467321
0.005068511702120304,-0.006866245064884424,-0.010147087275981903,0.016957860440015793,-0.0,0.004527166951447725
0.005068511702120304,-0.006866245064884424,-0.010147087275981903,0.016957860440015793,-0.0,0.004527166951447725
0.004933343734592199,-0.006403276696801186,-0.010405267588794231,0.017006391659379005,-0.0,0.004722085781395435
0.004865911323577166,-0.005993297323584557,-0.010095993056893349,0.016850680112838745,-0.0,0.00479248957708478
0.0051394132897257805,-0.006117928307503462,-0.010409876704216003,0.016578631475567818,-0.0,0.004832834471017122
0.0055970698595047,-0.0061837551183998585,-0.01116857212036848,0.016016192734241486,-0.0,0.0050316471606493
0.005327062215656042,-0.006337231956422329,-0.010188565589487553,0.016663692891597748,-0.0,0.004817427601665258
0.004877861123532057,-0.00611772621050477,-0.009761334396898746,0.016195617616176605,-0.0,0.004670457448810339
0.004747465252876282,-0.006411651149392128,-0.01054868008941412,0.016105201095342636,-0.0,0.00452881446108222
0.005315527319908142,-0.0066896663047373295,-0.010026778094470501,0.015957992523908615,-0.0,0.0049302829429507256
0.005695702042430639,-0.006608914118260145,-0.00975831225514412,0.016181256622076035,-0.0,0.00485240900889039
0.0056109060533344746,-0.006408890709280968,-0.010817280039191246,0.01603841595351696,-0.0,0.0048867203295230865
0.005350782535970211,-0.006395532283931971,-0.010553199797868729,0.01590483821928501,-0.0,0.004795385990291834
0.005385747645050287,-0.006709841080009937,-0.01002221554517746,0.016308972612023354,-0.0,0.0047225370071828365
0.005334667861461639,-0.0063828369602561,-0.010663124732673168,0.016313821077346802,-0.0,0.005080748349428177
0.005554468370974064,-0.006495446898043156,-0.010114478878676891,0.01678323745727539,-0.0,0.005122738424688578
0.0052404687739908695,-0.0061855800449848175,-0.010513301007449627,0.016575584188103676,-0.0,0.005403214134275913
0.005796256009489298,-0.005968702957034111,-0.011023209430277348,0.016670003533363342,-0.0,0.005021699704229832
0.005426615942269564,-0.00614704005420208,-0.01003200188279152,0.01660025864839554,-0.0,0.0046882107853889465
0.005089317914098501,-0.006632653996348381,-0.01016939990222454,0.01634376309812069,-0.0,0.004884227178990841
0.005679040681570768,-0.006888259202241898,-0.01021409872919321,0.01673758588731289,-0.0,0.004781270865350962
0.00551238190382719,-0.005828442983329296,-0.010361261665821075,0.016191747039556503,-0.0,0.004847652744501829
0.005335931666195393,-0.006000984460115433,-0.01021084375679493,0.016505274921655655,-0.0,0.004868257325142622
0.0053825099021196365,-0.006198653485625982,-0.010551268234848976,0.016194988042116165,-0.0,0.005159534048289061
0.005473318509757519,-0.006239255890250206,-0.010207300074398518,0.016761763021349907,-0.0,0.00521521270275116
0.0055168489925563335,-0.006635298021137714,-0.010744399391114712,0.016802795231342316,-0.0,0.005256887525320053
0.00563054159283638,-0.006671278737485409,-0.010264357551932335,0.01667000725865364,-0.0,0.005467578768730164
0.005990076344460249,-0.006583039648830891,-0.010904255323112011,0.016833128407597542,-0.0,0.0056300051510334015
0.005990076344460249,-0.006583039648830891,-0.010904255323112011,0.016833128407597542,-0.0,0.0056300051510334015
0.005990076344460249,-0.006583039648830891,-0.010904255323112011,0.016833128407597542,-0.0,0.0056300051510334015
0.005366036202758551,-0.006973947398364544,-0.010333920828998089,0.016792098060250282,-0.0,0.005395287182182074
0.005624537821859121,-0.006283153314143419,-0.010087952949106693,0.016322309151291847,-0.0,0.004973501432687044
0.006334122270345688,-0.006486745085567236,-0.009891070425510406,0.016917478293180466,-0.0,0.005140874534845352
0.005690093617886305,-0.006873121485114098,-0.01072448119521141,0.016460593789815903,-0.0,0.005402609705924988
0.005628409795463085,-0.0067261941730976105,-0.010978075675666332,0.016595790162682533,-0.0,0.005853602662682533
0.006011181510984898,-0.006371485535055399,-0.009887607768177986,0.01664886064827442,-0.0,0.005911712534725666
0.005532116163522005,-0.006345408968627453,-0.010106218978762627,0.016946712508797646,-0.0,0.005303672049194574
0.005952558945864439,-0.006643474102020264,-0.010009745135903358,0.01663627102971077,-0.0,0.005222691223025322
0.005785379093140364,-0.007176520302891731,-0.009891343303024769,0.016190452501177788,-0.0,0.005070004146546125
0.006156515330076218,-0.007920486852526665,-0.01069256104528904,0.0161278136074543,-0.0,0.005736866965889931
0.005946057382971048,-0.006175877992063761,-0.010514344088733196,0.017281711101531982,-0.0,0.006358334794640541
0.0058929193764925,-0.006282559596002102,-0.009771275334060192,0.01641754060983658,-0.0,0.0061562806367874146
0.006200965028256178,-0.006964372005313635,-0.010556879453361034,0.015851225703954697,-0.0,0.005252637434750795
0.006045612506568432,-0.006941040046513081,-0.010435348376631737,0.01595497876405716,-0.0,0.004912390373647213
0.006074641831219196,-0.006783675402402878,-0.010556631721556187,0.01565045863389969,-0.0,0.00526703055948019
0.006210821680724621,-0.006520425900816917,-0.011117340065538883,0.01568455621600151,-0.0,0.005717332009226084
0.006084120366722345,-0.006880894768983126,-0.01025134976953268,0.016233304515480995,-0.0,0.00598765118047595
0.006459140684455633,-0.006840007845312357,-0.010216495022177696,0.0166369266808033,-0.0,0.005809959955513477
0.006801667157560587,-0.007119373418390751,-0.010650117881596088,0.017264127731323242,-0.0,0.005885082297027111
0.006204291246831417,-0.006662601139396429,-0.010142526589334011,0.01660136692225933,-2.6430429898027796e-06,0.006039683241397142
0.005991959944367409,-0.006724436767399311,-0.010432031936943531,0.016603520140051842,-1.725718306033741e-07,0.005787282716482878
0.006469312123954296,-0.0069469125010073185,-0.010647349059581757,0.016433095559477806,-1.1267705879447476e-08,0.005862908903509378
0.006706944201141596,-0.00734282610937953,-0.010679318569600582,0.0165987778455019,-7.357007225650136e-10,0.005459646228700876
0.0064429622143507,-0.006975160446017981,-0.011082427576184273,0.017198998481035233,-4.8035998789774936e-11,0.0056602973490953445
0.006471538450568914,-0.00696588633581996,-0.0111383693292737,0.01667390950024128,-3.1364075833012484e-12,0.00571700744330883
0.006598277948796749,-0.007005604915320873,-0.01009075902402401,0.017184900119900703,-2.0478500080585438e-13,0.005714450962841511
0.006943231914192438,-0.007437332533299923,-0.0109086399897933,0.016335975378751755,-1.3370996137010947e-14,0.005931145045906305
0.006264053750783205,-0.0069122957065701485,-0.010121099650859833,0.01607535406947136,-8.730304530483437e-16,0.005784211680293083
0.006264053750783205,-0.0069122957065701485,-0.010121099650859833,0.01607535406947136,-8.730304530483437e-16,0.005784211680293083
0.006593904923647642,-0.0068632569164037704,-0.010743309743702412,0.0162359606474638,-3.721866078957846e-18,0.0054566338658332825
0.00641382671892643,-0.006940000224858522,-0.010737676173448563,0.016949079930782318,-2.4301124000614814e-19,0.005674660671502352
0.007158937398344278,-0.006904760375618935,-0.010139934718608856,0.016784755513072014,-1.5866897730635482e-20,0.006256194785237312
0.006585759576410055,-0.0067113302648067474,-0.010736791417002678,0.01699993573129177,-1.0359949466860628e-21,0.0059757172130048275
0.006422486621886492,-0.006939001381397247,-0.010789362713694572,0.016527537256479263,-6.764306819604855e-23,0.005830028094351292
0.0063054547645151615,-0.007346002385020256,-0.011203678324818611,0.01706549897789955,-4.4166089606962676e-24,0.006059312727302313
0.007079324685037136,-0.007025310304015875,-0.010936764068901539,0.01707589067518711,-2.883730342841985e-25,0.005968274548649788
0.006898052990436554,-0.006463107652962208,-0.010693042539060116,0.016805043444037437,-1.8828698486162305e-26,0.006376452744007111
0.00670402217656374,-0.00671724695712328,-0.011173996143043041,0.016667382791638374,-1.2293794391796876e-27,0.00596091290935874
0.006638381630182266,-0.006716902833431959,-0.01092765387147665,0.015610073693096638,-8.026968461268005e-29,0.005766632501035929
0.007092736661434174,-0.006709734909236431,-0.0112143037840724,0.016119083389639854,-9.917507668433245e-06,0.00599907198920846
0.007089255843311548,-0.0065027764067053795,-0.01152162067592144,0.015370531938970089,-0.00019931035058107227,0.006086782086640596
0.006823719013482332,-0.00727063836529851,-0.01091363187879324,0.016060763970017433,-0.00020271891844458878,0.006637451238930225
0.006566795986145735,-0.006708759348839521,-0.011586448177695274,0.01667923480272293,-0.00019475426233839244,0.006464122328907251
0.006772151216864586,-0.0066243670880794525,-0.011635858565568924,0.016482064500451088,-0.0001867248647613451,0.006183146964758635
0.006864386610686779,-0.006604215130209923,-0.010794898495078087,0.017014753073453903,-0.0001792869734345004,0.006334763951599598
0.006776188965886831,-0.006538258865475655,-0.01148213166743517,0.016257936134934425,-0.00020231360394973308,0.006677036639302969
0.007203799672424793,-0.006269444245845079,-0.011355599388480186,0.016502918675541878,-0.00019896472804248333,0.006783555261790752
0.006996489595621824,-0.005293021909892559,-0.011939937248826027,0.01610288955271244,-0.0001921522489283234,0.006462858524173498
0.006622255314141512,-0.004912594333291054,-0.011104151606559753,0.01688223145902157,-0.00018556576105765998,0.006305783521384001
0.007096185348927975,-0.004823294002562761,-0.011175934225320816,0.01692776381969452,-0.00017940107500180602,0.0065796105191111565
0.006841047201305628,-0.005199313163757324,-0.011886573396623135,0.016031665727496147,-0.00019504548981785774,0.006772689521312714
0.006774361710995436,-0.005159095395356417,-0.011014122515916824,0.01610042154788971,-0.0001957685744855553,0.006481190677732229
0.007080184295773506,-0.004977306351065636,-0.011904341168701649,0.01604035310447216,-0.00019029768009204417,0.006323708686977625
0.00745351193472743,-0.005123829934746027,-0.01210575271397829,0.01710197515785694,-0.00020428470452316105,0.006304418668150902
0.007624941412359476,-0.005092257168143988,-0.01169364620000124,0.016689389944076538,-0.00020467674767132849,0.006404677405953407
0.007171814329922199,-0.005115140695124865,-0.01142708770930767,0.016600923612713814,-0.00019941315986216068,0.006924914661794901
0.00729483412578702,-0.004901091568171978,-0.01099671795964241,0.016282767057418823,-0.00019435510330367833,0.006974493153393269
0.007568067871034145,-0.004732748493552208,-0.011477104388177395,0.016106197610497475,-0.00027518015122041106,0.0068089659325778484
0.007568067871034145,-0.004732748493552208,-0.011477104388177395,0.016106197610497475,-0.00027518015122041106,0.0068089659325778484
0.00696558877825737,-0.004892084281891584,-0.011170868761837482,0.01611425168812275,-0.0002978340198751539,0.007249318063259125
0.00696558877825737,-0.004892084281891584,-0.011170868761837482,0.01611425168812275,-0.0002978340198751539,0.007249318063259125
0.007410939317196608,-0.004426207393407822,-0.011275648139417171,0.015782959759235382,-0.00028935057343915105,0.0067483666352927685
0.0072974637150764465,-0.00431434391066432,-0.011199219152331352,0.01630052551627159,-0.0002769661077763885,0.00669438298791647
0.007060480769723654,-0.004178019240498543,-0.011190793476998806,0.016145387664437294,-0.00028385876794345677,0.006906504742801189
0.007117901928722858,-0.004357742611318827,-0.010703065432608128,0.0162251815199852,-0.0002897056401707232,0.006832129321992397
0.007807738613337278,-0.004554920829832554,-0.011156377382576466,0.016341490671038628,-0.00027958358987234533,0.007052033208310604
0.007147458381950855,-0.004627699498087168,-0.010389517992734909,0.01643209345638752,-0.0002595030819065869,0.006683951709419489
0.007147458381950855,-0.004627699498087168,-0.010389517992734909,0.01643209345638752,-0.0002595030819065869,0.006683951709419489
0.007105047348886728,-0.004795231390744448,-0.011451905593276024,0.01574971154332161,-0.0003117085143458098,0.006840389687567949
0.007910139858722687,-0.00466565927490592,-0.010760165750980377,0.015767043456435204,-0.0003458661667536944,0.006675994023680687
0.008242852985858917,-0.004704366438090801,-0.010280946269631386,0.0160673875361681,-0.00035624063457362354,0.006942724343389273
0.007594841532409191,-0.004682786762714386,-0.011065606959164143,0.016644397750496864,-0.0003615091845858842,0.006983014754951
0.00836828164756298,-0.004916321951895952,-0.010720200836658478,0.01644786447286606,-0.0003682228270918131,0.00738516403362155
0.007937095127999783,-0.005020485259592533,-0.010965853929519653,0.01607566699385643,-0.00037201913073658943,0.007256732322275639
0.007876246236264706,-0.004850747063755989,-0.010767022147774696,0.01608220674097538,-0.0003964727511629462,0.0073409536853432655
0.007581015583127737,-0.004656717646867037,-0.010761979036033154,0.015627320855855942,-0.00038153567584231496,0.007465888746082783
0.007660701870918274,-0.004653191193938255,-0.01190984807908535,0.01572115160524845,-0.0004995359922759235,0.008056122809648514
0.007984224706888199,-0.004635208286345005,-0.012179620563983917,0.01523252297192812,-0.0004905514651909471,0.007706973701715469
0.008333547972142696,-0.004726349376142025,-0.011756910011172295,0.01588589698076248,-0.0004878607578575611,0.007567739114165306
0.008490685373544693,-0.004539804067462683,-0.01132846437394619,0.01570616476237774,-0.00048307658289559186,0.007546709384769201
0.008041511289775372,-0.004951173905283213,-0.010964160785079002,0.0165475495159626,-0.0004457234463188797,0.0077779837884008884
0.008177760988473892,-0.004809440579265356,-0.011762470006942749,0.01603124476969242,-0.0004118639917578548,0.007312891539186239
0.00824551098048687,-0.004298639949411154,-0.011306008324027061,0.015672367066144943,-0.00042954774107784033,0.007216719910502434
0.008889791555702686,-0.004471852444112301,-0.011122539639472961,0.015612567774951458,-0.00041578314267098904,0.007380693219602108
0.008140834048390388,-0.004568284843116999,-0.011733624152839184,0.016041027382016182,-0.00039092483348213136,0.008023671805858612
0.008140834048390388,-0.004568284843116999,-0.011733624152839184,0.016041027382016182,-0.00039092483348213136,0.008023671805858612
0.008035710081458092,-0.005146748851984739,-0.011485593393445015,0.01689399778842926,-0.00038443462108261883,0.007646552287042141
0.008722467347979546,-0.0048341089859604836,-0.011231697164475918,0.01690596342086792,-0.0003758363891392946,0.00718151917681098
0.008271469734609127,-0.004890513606369495,-0.011419297195971012,0.016006117686629295,-0.0003409941855352372,0.00877775065600872
0.008271469734609127,-0.004890513606369495,-0.011419297195971012,0.016006117686629295,-0.0003409941855352372,0.00877775065600872
0.008193666115403175,-0.004946767818182707,-0.010945106856524944,0.015849050134420395,-0.0003255738120060414,0.007763685192912817
0.0091288723051548,-0.005144862923771143,-0.011289565823972225,0.015844125300645828,-0.0003114845894742757,0.006980076897889376
0.008428196422755718,-0.005436809733510017,-0.01162989903241396,0.016172129660844803,-0.00029856644687242806,0.007941191084682941
0.008478408679366112,-0.004889563657343388,-0.01203757431358099,0.01640886627137661,-0.00028805367765016854,0.008060125634074211
0.009342887438833714,-0.0043623726814985275,-0.011538008227944374,0.017232967540621758,-0.00024633659631945193,0.008465031161904335
0.008606870658695698,-0.004397046286612749,-0.010970323346555233,0.016975926235318184,-0.00023193545348476619,0.007830394431948662
0.008625981397926807,-0.005041478667408228,-0.01109588984400034,0.016923710703849792,-0.00022045784862712026,0.007640300318598747
0.008871093392372131,-0.005138623993843794,-0.01107459980994463,0.01650405488908291,-0.00021015192032791674,0.007932025007903576
0.009029289707541466,-0.005359923932701349,-0.010865073651075363,0.01577385887503624,-0.00020077297813259065,0.007906890474259853
0.009166191332042217,-0.005057383794337511,-0.011407206766307354,0.01587498001754284,-0.0001921962248161435,0.007708176039159298
0.0082614216953516,-0.004396131727844477,-0.01068510115146637,0.015598735772073269,-0.00018432205251883715,0.008148607797920704
0.009022790938615799,-0.004391171503812075,-0.010877396911382675,0.016149822622537613,-0.00017706758808344603,0.008190911263227463
0.008974220603704453,-0.004954251926392317,-0.011236974969506264,0.015798568725585938,-0.00017036324425134808,0.008060678839683533
0.00826401449739933,-0.005320357624441385,-0.01104496605694294,0.016093268990516663,-0.0001947529090102762,0.007872347719967365
0.009012216702103615,-0.005559195298701525,-0.01161926705390215,0.016032129526138306,-0.00018989892851095647,0.008129614405333996
0.008763197809457779,-0.005030466243624687,-0.010992750525474548,0.016063004732131958,-0.00018357305089011788,0.008336112834513187
0.00868125632405281,-0.004508006386458874,-0.010690703056752682,0.0160905160009861,-0.00017754505097400397,0.007912353612482548
0.009026182815432549,-0.00443966593593359,-0.011205501854419708,0.016019323840737343,-0.00017189342179335654,0.008254156447947025
0.008826382458209991,-0.0050805676728487015,-0.010730642825365067,0.01645067147910595,-0.00016659007815178484,0.008141801692545414
0.008875008672475815,-0.005148427095264196,-0.010683701373636723,0.01748002879321575,-0.00016160408267751336,0.008073014207184315
0.00869715679436922,-0.004985524341464043,-0.011561168357729912,0.016052158549427986,-0.0001569079322507605,0.008205872029066086
0.008982974104583263,-0.005109009798616171,-0.01164458878338337,0.01531909592449665,-0.00015247701958287507,0.008405428379774094
0.009190079756081104,-0.0048601520247757435,-0.011478818021714687,0.016039365902543068,-0.00014828947314526886,0.008577197790145874
0.009016642346978188,-0.0046505010686814785,-0.01139669120311737,0.016027528792619705,-0.000140568838105537,0.008258385583758354
0.009167125448584557,-0.0046999347396194935,-0.01177032757550478,0.01576351746916771,-0.00015682926459703594,0.008110121823847294
0.009167125448584557,-0.0046999347396194935,-0.01177032757550478,0.01576351746916771,-0.00015682926459703594,0.008110121823847294
0.008835307322442532,-0.004875193815678358,-0.010803566314280033,0.015425332821905613,-0.00015568468370474875,0.00864473544061184
0.008963077329099178,-0.004997345618903637,-0.011147423647344112,0.015754874795675278,-0.00015210401033982635,0.008596300147473812
0.00916936807334423,-0.0051336269825696945,-0.011370464228093624,0.015425209887325764,-0.0001485297252656892,0.008822401985526085
0.009288739413022995,-0.004832468461245298,-0.010979953221976757,0.01581742987036705,-0.0001451090647606179,0.008059907704591751
0.009100805036723614,-0.004287038929760456,-0.011782231740653515,0.015294674783945084,-0.00014184199972078204,0.008085356093943119
0.009487147442996502,-0.0044528949074447155,-0.011133125051856041,0.015504129230976105,-0.00013871876581106335,0.008706471882760525
0.009268822148442268,-0.005036659073084593,-0.011476573534309864,0.014922243542969227,-0.00013573004980571568,0.008828431367874146
0.009192253462970257,-0.0050124553963541985,-0.011306604370474815,0.015656866133213043,-0.00013286725152283907,0.008787966333329678
0.009600425139069557,-0.004829500801861286,-0.01108752004802227,0.015670377761125565,-0.00013012306590098888,0.008383535780012608
0.00977389793843031,-0.0046143424697220325,-0.01177859865128994,0.01600504107773304,-0.000127489649457857,0.008691647090017796
0.009153480641543865,-0.0046193706803023815,-0.012211760506033897,0.016296561807394028,-0.00012496078852564096,0.008824866265058517
0.009576811455190182,-0.004670773632824421,-0.011734036728739738,0.016063135117292404,-0.0001225304149556905,0.008719530887901783
0.00971537921577692,-0.004601079039275646,-0.011474698781967163,0.016107093542814255,-0.00012019272980978712,0.008957729674875736
0.009448913857340813,-0.004666196648031473,-0.011250472627580166,0.015757594257593155,-0.00011794255260610953,0.008727964013814926
0.00952504575252533,-0.004638903774321079,-0.011958722025156021,0.016423702239990234,-0.00013014812429901212,0.008644014596939087
0.009683091193437576,-0.004647530615329742,-0.012064866721630096,0.015969902276992798,-0.0001297853741561994,0.00912491511553526
0.009514794684946537,-0.004524123389273882,-0.012552124448120594,0.016576359048485756,-0.00012761431571561843,0.009336194954812527
0.009874518029391766,-0.004609532654285431,-0.01202936191111803,0.016311008483171463,-0.0001254003873327747,0.00903937965631485
0.01009706687182188,-0.004657232668250799,-0.012151028960943222,0.01653268001973629,-0.00012325405259616673,0.009180082939565182
0.010092542506754398,-0.0047113485634326935,-0.012454681098461151,0.016709398478269577,-0.00012117969163227826,0.009192988276481628
0.009886438027024269,-0.0047125923447310925,-0.01184894423931837,0.01654970832169056,-0.00011934766371268779,0.009228130802512169
0.009833945892751217,-0.004685668740421534,-0.012186032719910145,0.016665132716298103,-0.00010326456686016172,0.009076456539332867
0.010324464179575443,-0.004674850031733513,-0.011704247444868088,0.01663826033473015,-9.786168084247038e-05,0.009199310094118118
0.010324464179575443,-0.004674850031733513,-0.011704247444868088,0.01663826033473015,-9.786168084247038e-05,0.009199310094118118
0.009978905320167542,-0.004648406524211168,-0.012257954105734825,0.016484957188367844,-9.577492892276496e-05,0.009093900211155415
0.009873539209365845,-0.0046745166182518005,-0.01195212360471487,0.01643538661301136,-9.377887181472033e-05,0.009290936402976513
0.010180951096117496,-0.0047353641130030155,-0.012699480168521404,0.01634482853114605,-9.186426905216649e-05,0.00922554824501276
0.010095709934830666,-0.004706673324108124,-0.012081786058843136,0.016271602362394333,-9.00264349183999e-05,0.00911229569464922
0.009858420118689537,-0.0044081006199121475,-0.012210538610816002,0.01660999283194542,-8.826068369671702e-05,0.009218052960932255
0.010218420997262001,-0.004194457549601793,-0.011572709307074547,0.0161528792232275,-8.656287536723539e-05,0.009270298294723034
0.009837019257247448,-0.004861502442508936,-0.011932626366615295,0.016261016950011253,-9.328751912107691e-05,0.009912922978401184
0.0104994997382164,-0.004908528178930283,-0.012540725991129875,0.01607181318104267,-9.946368663804606e-05,0.009482798166573048
0.010124250315129757,-0.004485905636101961,-0.011632831767201424,0.01630684919655323,-9.817108366405591e-05,0.00948583334684372
0.009978185407817364,-0.004047768656164408,-0.012366063892841339,0.0157922450453043,-9.64512801147066e-05,0.009753298945724964
0.010533875785768032,-0.004123200196772814,-0.01235545426607132,0.016014795750379562,-9.476082777837291e-05,0.011061440221965313
0.010590438731014729,-0.004072892013937235,-0.012477407231926918,0.016603415831923485,-9.31268441490829e-05,0.009520684368908405
0.010065794922411442,-0.004327018279582262,-0.012122705578804016,0.01589534804224968,-0.00010480975470272824,0.008837265893816948
0.011063044890761375,-0.004189779981970787,-0.011896876618266106,0.016504986211657524,-0.00010489513806533068,0.0091693215072155
0.010383476503193378,-0.004477169364690781,-0.012712386436760426,0.016113072633743286,-0.00010329478391213343,0.009123621508479118
0.010294581763446331,-0.004123350605368614,-0.011719129979610443,0.01666986756026745,-0.00010163622937398031,0.009744427166879177
0.010043309070169926,-0.003955199383199215,-0.012241142801940441,0.016207445412874222,-0.00010002303315559402,0.009776952676475048
0.010267735458910465,-0.004224667325615883,-0.011743408627808094,0.01590764708817005,-0.00010538742208154872,0.009454724378883839
0.010444540530443192,-0.004321156535297632,-0.011656994931399822,0.016102811321616173,-0.00011032799375243485,0.009187670424580574
0.010791213251650333,-0.004061830695718527,-0.012205641716718674,0.015959089621901512,-0.00010908448894042522,0.009427126497030258
0.010924686677753925,-0.0038936312776058912,-0.012220420874655247,0.016710756346583366,-0.00010748411295935512,0.009844011627137661
0.011742315255105495,-0.0038372697308659554,-0.012565878219902515,0.016192186623811722,-0.00010590501187834889,0.009744629263877869
0.012421952560544014,-0.003821501974016428,-0.012218941934406757,0.016440754756331444,-0.0001043697920977138,0.009778402745723724
0.011730407364666462,-0.004049438517540693,-0.01220752950757742,0.016313040629029274,-0.0001340944436378777,0.010235445573925972
0.01180480420589447,-0.003865852253511548,-0.012247397564351559,0.016637587919831276,-0.00015903603343758732,0.010065053589642048
0.011395251378417015,-0.0035655859392136335,-0.011646783910691738,0.016582069918513298,-0.00017073252820409834,0.009875793009996414
0.011916322633624077,-0.003426825627684593,-0.012563025578856468,0.016334930434823036,-0.00017945660511031747,0.009725751355290413
0.011916322633624077,-0.003426825627684593,-0.012563025578856468,0.016334930434823036,-0.00017945660511031747,0.009725751355290413
0.012078500352799892,-0.003917214926332235,-0.012374037876725197,0.015821436420083046,-0.00018301628006156534,0.010538632050156593
0.012269017286598682,-0.004030604846775532,-0.012236014008522034,0.015688300132751465,-0.00018568694940768182,0.010259163565933704
0.012269017286598682,-0.004030604846775532,-0.012236014008522034,0.015688300132751465,-0.00018568694940768182,0.010259163565933704
0.012244105339050293,-0.003944383468478918,-0.012477419339120388,0.01616654545068741,-0.00018042373994830996,0.01015776488929987
0.012693468481302261,-0.003841807832941413,-0.0120483273640275,0.015279172919690609,-0.00017540392582304776,0.010006166063249111
0.012246900238096714,-0.003733223071321845,-0.01253111194819212,0.015399049036204815,-0.00017065244901459664,0.010390481911599636
0.012788534164428711,-0.003582837525755167,-0.01220980379730463,0.016177911311388016,-0.0001661514543229714,0.010993821546435356
0.012303144671022892,-0.003366467310115695,-0.012927034869790077,0.01600666157901287,-0.00016188208246603608,0.01056522224098444
0.012110356241464615,-0.0035005039535462856,-0.012397832237184048,0.016152065247297287,-0.0001578263472765684,0.010502290911972523
0.011971430853009224,-0.0036785549018532038,-0.012640299275517464,0.01546946819871664,-0.00015396888193208724,0.01026274636387825
0.012364815920591354,-0.00373642984777689,-0.012209952808916569,0.016042619943618774,-0.00016621346003375947,0.010286184959113598
0.012245193123817444,-0.003691617166623473,-0.011920307762920856,0.015591106377542019,-0.0001674013474257663,0.010103733278810978
0.012908724136650562,-0.003715988714247942,-0.012845689430832863,0.015710867941379547,-0.000163920150953345,0.010683939792215824
0.012492134235799313,-0.0036691247951239347,-0.012522854842245579,0.015592796728014946,-0.00016029215476009995,0.0102040721103549
0.011938302777707577,-0.0036964770406484604,-0.012774970382452011,0.016135668382048607,-0.00015680264914408326,0.010495591908693314
0.012389934621751308,-0.0034595243632793427,-0.012230939231812954,0.01619848795235157,-0.00015346062718890607,0.010493637062609196
0.012409279122948647,-0.003440466243773699,-0.012446492910385132,0.016133341938257217,-0.00018088982324115932,0.01041797362267971
0.01251140795648098,-0.0036367573775351048,-0.012612970545887947,0.01609538123011589,-0.00020186766050755978,0.01069714967161417
0.012485995888710022,-0.0037904384080320597,-0.012565064243972301,0.0161079503595829,-0.00019502092618495226,0.01005375012755394
0.012693749740719795,-0.003797354642301798,-0.012686644680798054,0.01652412675321102,-0.00018703757086768746,0.01066372636705637
0.012744632549583912,-0.003796541830524802,-0.011939681135118008,0.01583082787692547,-0.0001795802527340129,0.011266442015767097
0.012676754966378212,-0.0037482036277651787,-0.012401786632835865,0.015801895409822464,-0.00020488027075771242,0.010601413436233997
0.012803339399397373,-0.003701613750308752,-0.01228181179612875,0.015945805236697197,-0.00019941299979109317,0.010706149972975254
0.012675859965384007,-0.0036725574173033237,-0.01264689490199089,0.016308778896927834,-0.00019244261784479022,0.010540137998759747
0.012563885189592838,-0.003799596568569541,-0.012665917165577412,0.01638534665107727,-0.00018582814664114267,0.010476634837687016
0.012713144533336163,-0.003524933010339737,-0.011795313097536564,0.01602034457027912,-0.00020562041027005762,0.010947473347187042
0.012931355275213718,-0.0034371602814644575,-0.012428411282598972,0.016743000596761703,-0.00020257885626051575,0.01102637778967619
0.012589117512106895,-0.003206568770110607,-0.012307294644415379,0.016466528177261353,-0.00019649368186946958,0.010855530388653278
0.012624030001461506,-0.0034390375949442387,-0.012463962659239769,0.016759715974330902,-0.0001849702384788543,0.010995843447744846
0.012286375276744366,-0.0034915562719106674,-0.012662509456276894,0.01640072464942932,-0.00020363903604447842,0.011278067715466022
0.012997407466173172,-0.0033637303858995438,-0.012680914252996445,0.01686721108853817,-0.0001995563943637535,0.011349456384778023
0.012997407466173172,-0.0033637303858995438,-0.012680914252996445,0.01686721108853817,-0.0001995563943637535,0.011349456384778023
0.012864554300904274,-0.003100629197433591,-0.011737496592104435,0.01638960652053356,-0.00019427365623414516,0.011101250536739826
0.012906355783343315,-0.003091549500823021,-0.012612896040081978,0.016353590413928032,-0.00024191098054870963,0.011765041388571262
0.01267312653362751,-0.003297277959063649,-0.012434490956366062,0.015781277790665627,-0.00024599095922894776,0.011316780932247639
0.012822970747947693,-0.00305384723469615,-0.012819956988096237,0.015621449798345566,-0.00027796084759756923,0.012110630050301552
0.01315020676702261,-0.0031523117795586586,-0.012556154280900955,0.015341726131737232,-0.00030570727540180087,0.011124499142169952
0.012864513322710991,-0.003286060644313693,-0.013275098986923695,0.01613251492381096,-0.00033354826155118644,0.010710685513913631
0.013016920536756516,-0.0032025622203946114,-0.012740942649543285,0.016347160562872887,-0.0007597823860123754,0.010811791755259037
0.012704028747975826,-0.0036080500576645136,-0.012770155444741249,0.016344990581274033,-0.0009268688736483455,0.01121232658624649
0.013495433144271374,-0.0033262548968195915,-0.013330384157598019,0.01612197607755661,-0.0014736189041286707,0.01114634145051241
0.013238543644547462,-0.0030390212778002024,-0.013376560993492603,0.015389937907457352,-0.001858508912846446,0.011270328424870968
0.013422364369034767,-0.002917810808867216,-0.0131269795820117,0.01580827496945858,-0.0024266366381198168,0.011596383526921272
0.013087824918329716,-0.0028752696234732866,-0.012365399859845638,0.015252845361828804,-0.002768237143754959,0.011591373942792416
0.01344690378755331,-0.0031001863535493612,-0.013404147699475288,0.016558891162276268,-0.0032476966734975576,0.011629600077867508
0.013097424060106277,-0.003312039189040661,-0.013161981478333473,0.01606125943362713,-0.0036234587896615267,0.011508945375680923
0.013279542326927185,-0.003122130176052451,-0.013713845983147621,0.01604156382381916,-0.003910483326762915,0.011964800767600536
0.013243154622614384,-0.0031900901813060045,-0.013459846377372742,0.015909690409898758,-0.003986665979027748,0.01164074894040823
0.01334462407976389,-0.00325124547816813,-0.013323034159839153,0.015923233702778816,-0.0038333460688591003,0.011911156587302685
0.013444247655570507,-0.0034741507843136787,-0.012936411425471306,0.015509983524680138,-0.003689883276820183,0.011786073446273804
0.013308069668710232,-0.0037012333050370216,-0.013183100149035454,0.015122838318347931,-0.003347317222505808,0.011544546112418175
0.013463979586958885,-0.0033317215275019407,-0.013728750869631767,0.01565900631248951,-0.0024594489950686693,0.012164711952209473
0.012884416617453098,-0.003122447757050395,-0.013363445177674294,0.01545736100524664,-0.0017243644688278437,0.012023890390992165
0.013603504747152328,-0.0034285353031009436,-0.013891691341996193,0.01632791943848133,-0.001305155805312097,0.011686721816658974
0.013438842259347439,-0.003145114053040743,-0.01280992105603218,0.016214890405535698,-0.001210062182508409,0.011922475881874561
0.013438599184155464,-0.0037293799687176943,-0.013306820765137672,0.01629580184817314,-0.0010231714695692062,0.011878869496285915
0.01274253148585558,-0.0038795501459389925,-0.013180335983633995,0.0158689022064209,-0.00088035425869748,0.012038791552186012
0.012726712971925735,-0.003135382430627942,-0.013967892155051231,0.015669696033000946,-0.0007722016307525337,0.012005570344626904
0.014113369397819042,-0.003148547140881419,-0.013231324963271618,0.015392516739666462,-0.0006199446506798267,0.012086776085197926
0.01350841298699379,-0.00353630306199193,-0.013137517496943474,0.015496386215090752,-0.0005643370095640421,0.012166446074843407
0.014180315658450127,-0.0038217746187001467,-0.013451794162392616,0.015536689199507236,-0.0005178946303203702,0.012682488188147545
0.014180315658450127,-0.0038217746187001467,-0.013451794162392616,0.015536689199507236,-0.0005178946303203702,0.012682488188147545
0.013938679359853268,-0.0033490783534944057,-0.013312599621713161,0.01600140705704689,-0.00047852349234744906,0.012119390070438385
0.01357230544090271,-0.003087039105594158,-0.013776780106127262,0.015781519934535027,-0.00044471840374171734,0.01215344574302435
0.014336970634758472,-0.002891719341278076,-0.013356447219848633,0.01613525301218033,-0.00041537723154760897,0.012324456125497818
0.01407297607511282,-0.0030651919078081846,-0.013067946769297123,0.015677666291594505,-0.0003896724374499172,0.012384777888655663
0.013523826375603676,-0.0033129656221717596,-0.013118944130837917,0.01615125872194767,-0.0003669631259981543,0.012207305990159512
0.012929240241646767,-0.0031474758870899677,-0.012861878611147404,0.016157127916812897,-0.0003467559872660786,0.012157541699707508
0.01486499048769474,-0.0031725510489195585,-0.013675489462912083,0.015938332304358482,-0.0003286597493570298,0.012578222900629044
0.014086350798606873,-0.0032202645670622587,-0.013098690658807755,0.01570557802915573,-0.0003123588103335351,0.012193625792860985
0.014138513244688511,-0.0030206257943063974,-0.013670714572072029,0.015893319621682167,-0.00029760031611658633,0.012366723269224167
0.013796400278806686,-0.002951046684756875,-0.013246358372271061,0.016462769359350204,-0.0002841716632246971,0.012586789205670357
0.014068597927689552,-0.0026061483658850193,-0.013691231608390808,0.015992499887943268,-0.0002719045151025057,0.01219719834625721
0.013699331320822239,-0.0020339193288236856,-0.013095046393573284,0.016238108277320862,-0.0002606527996249497,0.012332016602158546
0.01465559471398592,-0.0013920688070356846,-0.01362855639308691,0.015869228169322014,-0.00025029489188455045,0.012591635808348656
0.01409091055393219,-0.0012638624757528305,-0.013359608128666878,0.01617935113608837,-0.00024072914675343782,0.013309790752828121
0.014621393755078316,-0.0013478767359629273,-0.013559929095208645,0.015693511813879013,-0.00023186781618278474,0.012802116572856903
0.014318977482616901,-0.0013236680533736944,-0.013347635976970196,0.015835972502827644,-0.0002236360014649108,0.012908149510622025
0.014949588105082512,-0.0014184805331751704,-0.013134441338479519,0.01601528562605381,-0.00021596848091576248,0.012542950920760632
0.014446969144046307,-0.0019794004037976265,-0.013438663445413113,0.01608356647193432,-0.00020942810806445777,0.012962119653820992
0.01467529870569706,-0.001972571248188615,-0.013332286849617958,0.01651746965944767,-6.969387322897092e-05,0.01266657467931509
0.013821125961840153,-0.0018274553585797548,-0.013955151662230492,0.016054905951023102,-5.876499926671386e-05,0.012433351948857307
0.014590080827474594,-0.0015879087150096893,-0.01299514900892973,0.016430199146270752,-5.6359007430728525e-05,0.012797001749277115
0.01419160421937704,-0.0014434524346143007,-0.013647852465510368,0.016133897006511688,-5.461187174660154e-05,0.012808630242943764
0.014827023260295391,-0.0012688999995589256,-0.013086875900626183,0.016593119129538536,-5.300127304508351e-05,0.013950043357908726
0.014603817835450172,-0.001108442316763103,-0.013891855254769325,0.016448335722088814,-5.148501440999098e-05,0.012855283915996552
0.015048067085444927,-0.0011834297329187393,-0.013322700746357441,0.016251569613814354,-5.0053204176947474e-05,0.012805268168449402
0.015048067085444927,-0.0011834297329187393,-0.013322700746357441,0.016251569613814354,-5.0053204176947474e-05,0.012805268168449402
0.0145789235830307,-0.001431252807378769,-0.013478266075253487,0.016743645071983337,-4.6198976633604616e-05,0.013055686838924885
0.015121658332645893,-0.0013312066439539194,-0.013489852659404278,0.016549110412597656,-4.504281605477445e-05,0.01280187163501978
0.015121658332645893,-0.0013312066439539194,-0.013489852659404278,0.016549110412597656,-4.504281605477445e-05,0.01280187163501978
0.014720616862177849,-0.0013692290522158146,-0.013489890843629837,0.016628259792923927,-4.3943138734903187e-05,0.013179071247577667
0.015114352107048035,-0.001283647259697318,-0.01372095849364996,0.01823044940829277,-4.28959792770911e-05,0.013217993080615997
0.015275878831744194,-0.0011581738945096731,-0.01334333885461092,0.01651020161807537,-4.189742685412057e-05,0.013748048804700375
0.015917127951979637,-0.0011045974679291248,-0.013619484379887581,0.016187801957130432,-4.0944305510492995e-05,0.013474112376570702
0.016186323016881943,-0.0010819226736202836,-0.013350428082048893,0.015687836334109306,-4.003368303528987e-05,0.013621771708130836
0.015668746083974838,-0.0012868493795394897,-0.013766197487711906,0.016478538513183594,-3.916259447578341e-05,0.013056679628789425
0.01617472618818283,-0.0014429212315008044,-0.013120243325829506,0.01617591083049774,-3.832866423181258e-05,0.013400641269981861
0.01619318127632141,-0.0013809335650876164,-0.013911113142967224,0.016205893829464912,-3.752951670321636e-05,0.013625848107039928
0.016621733084321022,-0.001300579053349793,-0.013330421410501003,0.015682360157370567,-3.67629763786681e-05,0.014028649777173996
0.016391726210713387,-0.0012444080784916878,-0.013888348825275898,0.01610468700528145,-3.6027166061103344e-05,0.014000575058162212
0.01628130115568638,-0.0011792032746598125,-0.013433007523417473,0.016531040892004967,-3.5320153983775526e-05,0.014016120694577694
0.016790591180324554,-0.0011344999074935913,-0.01388756837695837,0.01593221351504326,-3.464046312728897e-05,0.013930653221905231
0.016763882711529732,-0.0010444094659760594,-0.013632254675030708,0.01599639467895031,-3.398641274543479e-05,0.014298406429588795
0.016952291131019592,-0.0010210361797362566,-0.014132196083664894,0.01550302654504776,-3.3356569474563e-05,0.014370405115187168
0.01652030274271965,-0.0010057638864964247,-0.013395849615335464,0.01596849597990513,-3.2749641832197085e-05,0.014315498992800713
0.017081739380955696,-0.0009971375111490488,-0.013848708011209965,0.015906352549791336,-1.81877567229094e-05,0.014303979463875294
0.016553306952118874,-0.0012055975385010242,-0.013593032024800777,0.016457822173833847,-1.5937361240503378e-05,0.014146117493510246
0.01726987585425377,-0.001165640540421009,-0.013940254226326942,0.01617669127881527,-1.553628135297913e-05,0.014093195088207722
0.017069146037101746,-0.0011240283492952585,-0.01389896497130394,0.015980646014213562,-1.5264542525983416e-05,0.014369652606546879
0.016814151778817177,-0.0012797822710126638,-0.01402465533465147,0.016210505738854408,-1.500943471910432e-05,0.014527620747685432
0.017250027507543564,-0.0012114462442696095,-0.013833144679665565,0.016119353473186493,-1.47631890285993e-05,0.01491972990334034
0.017192766070365906,-0.0011591750662773848,-0.013781106099486351,0.0160998348146677,-1.4524918697134126e-05,0.014528637751936913
0.017388034611940384,-0.0011337287724018097,-0.013968635350465775,0.015899714082479477,-1.4294249012891669e-05,0.014764679595828056
0.01761876791715622,-0.0011282082414254546,-0.013949986547231674,0.016487689688801765,-1.4070756151340902e-05,0.014750386588275433
0.017092587426304817,-0.001093512517400086,-0.014071254059672356,0.016815537586808205,-1.3854159078618977e-05,0.014492044225335121
0.017870109528303146,-0.0010824220953509212,-0.013891934417188168,0.016995185986161232,-1.364411673421273e-05,0.014509904198348522
0.017948850989341736,-0.0011855678167194128,-0.013441842049360275,0.01626085489988327,-1.324260483670514e-05,0.014699296094477177
0.017948850989341736,-0.0011855678167194128,-0.013441842049360275,0.01626085489988327,-1.324260483670514e-05,0.014699296094477177
0.017863644286990166,-0.001139649422839284,-0.013866310939192772,0.016096895560622215,-1.3050579582341015e-05,0.014587673358619213
0.01742837205529213,-0.0010937637416645885,-0.013508398085832596,0.015581258572638035,-1.2864052223449107e-05,0.014843839220702648
0.018108021467924118,-0.001049690181389451,-0.014233652502298355,0.016062313690781593,-1.2682756278081797e-05,0.01493766251951456
0.018259447067975998,-0.0010369706433266401,-0.014105072245001793,0.01581464894115925,-1.2506528037192766e-05,0.014531036838889122
0.017975633963942528,-0.0010175962233915925,-0.01467178389430046,0.016688702628016472,-1.2335121027717832e-05,0.01458060648292303
0.018160071223974228,-0.0011369126150384545,-0.013733264990150928,0.016719317063689232,-1.2168340617790818e-05,0.014484276995062828
0.018069691956043243,-0.001137601095251739,-0.01431550644338131,0.016263030469417572,-1.200601582240779e-05,0.014745144173502922
0.017968960106372833,-0.0011126192985102534,-0.013543032109737396,0.01620495691895485,-1.1847970199596602e-05,0.014950319193303585
0.017398681491613388,-0.0013437990564852953,-0.014148376882076263,0.016062606126070023,-1.1694021850416902e-05,0.015008386224508286
0.01823415420949459,-0.0012617663014680147,-0.013593650422990322,0.01689262129366398,-1.154402707470581e-05,0.014729450456798077
0.01886845752596855,-0.001198962447233498,-0.014332850463688374,0.016521519050002098,-1.139783034886932e-05,0.014754192903637886
0.01870519481599331,-0.0010814626002684236,-0.013919636607170105,0.016642872244119644,-1.1255293429712765e-05,0.014701297506690025
0.018583830446004868,-0.00111339648719877,-0.014852333813905716,0.01636679843068123,-1.1116278074041475e-05,0.014994390308856964
0.0187595896422863,-0.0010900116758421063,-0.014147413894534111,0.01651703752577305,-1.0980656952597201e-05,0.015667233616113663
0.019070791080594063,-0.001085714902728796,-0.014317953959107399,0.01651865988969803,-1.0848302736121695e-05,0.014652528800070286
0.018586276099085808,-0.0013192550977692008,-0.013899687677621841,0.015807706862688065,-1.0719095371314324e-05,0.014825811609625816
0.0185654666274786,-0.0012539767194539309,-0.014769886620342731,0.01574772596359253,-1.0592930266284384e-05,0.01549079641699791
0.0185654666274786,-0.0012539767194539309,-0.014769886620342731,0.01574772596359253,-1.0592930266284384e-05,0.01549079641699791
0.018473871052265167,-0.0010768620995804667,-0.014909179881215096,0.01651531085371971,-1.03493193819304e-05,0.01568949967622757
0.019155364483594894,-0.0010451277485117316,-0.014667138457298279,0.01632004976272583,-1.0231661690340843e-05,0.015531474724411964
0.018545741215348244,-0.001021247124299407,-0.014958955347537994,0.016530828550457954,-1.0116651537828147e-05,0.015605511143803596
0.01841110922396183,-0.0010143707040697336,-0.014199473895132542,0.015794262290000916,-1.0004202522395644e-05,0.015345736406743526
0.01937277987599373,-0.0010283852461725473,-0.015324406325817108,0.01571103371679783,-2.5421911686862586e-06,0.015359400771558285
0.01978924870491028,-0.0010949153220281005,-0.016302146017551422,0.015756139531731606,-1.0837759134574299e-08,0.01596182957291603
0.019287101924419403,-0.0009893591050058603,-0.014346974901854992,0.016170695424079895,-7.076282337870055e-10,0.01611418090760708
0.018748970702290535,-0.0009801944252103567,-0.014383875764906406,0.01578524522483349,-4.620306914837613e-11,0.01584017090499401
0.018959645181894302,-0.0010736268013715744,-0.01494267676025629,0.016413256525993347,-3.0167298780553464e-12,0.015996534377336502
0.01924426294863224,-0.001048764679580927,-0.015145490877330303,0.016373027116060257,-1.9697089825073538e-13,0.01642373390495777
0.01924426294863224,-0.001048764679580927,-0.015145490877330303,0.016373027116060257,-1.9697089825073538e-13,0.01642373390495777
0.019099673256278038,-0.00108954100869596,-0.014644306153059006,0.016586866229772568,-1.2860792617495898e-14,0.016506733372807503
0.019212156534194946,-0.0010977096389979124,-0.014828260987997055,0.01659957692027092,-8.397178119031346e-16,0.016423704102635384
0.019656790420413017,-0.0010769875952973962,-0.01481875590980053,0.01623700186610222,-5.4827575790488905e-17,0.01613732799887657
0.019781773909926414,-0.0010404244530946016,-0.015157539397478104,0.016813328489661217,-3.5798486803595354e-18,0.01655985787510872
0.019399559125304222,-0.001011344720609486,-0.015085477381944656,0.01644255220890045,-2.337385453394287e-19,0.016611987724900246
0.019741367548704147,-0.0010136759374290705,-0.01526840403676033,0.016767283901572227,-1.5261456452209218e-20,0.016391539946198463
0.019462529569864273,-0.0009957385482266545,-0.015240655280649662,0.015930164605379105,-9.964641548488026e-22,0.016298450529575348
0.019406314939260483,-0.0009824995649978518,-0.014672428369522095,0.015597792342305183,-6.50619910448123e-23,0.016707008704543114
0.020035140216350555,-0.00102123839315027,-0.015142448246479034,0.015579753555357456,-4.248083027792092e-24,0.016945602372288704
0.019523346796631813,-0.0010137464851140976,-0.015211470425128937,0.01558280922472477,-2.773694600363035e-25,0.01661888137459755
0.019277583807706833,-0.0009957297006621957,-0.015396777540445328,0.016790300607681274,-1.8110244957476224e-26,0.016739634796977043
0.01974184811115265,-0.0009725977433845401,-0.01510388683527708,0.01704474538564682,-1.1824695635242477e-27,0.016866939142346382
0.020328989252448082,-0.0008685368811711669,-0.015854395925998688,0.017289241775870323,-7.720681803681026e-29,0.01732475869357586
0.019954459741711617,-0.0008314550505019724,-0.015013437718153,0.016339853405952454,-5.04105354480079e-30,0.016770444810390472
0.020023472607135773,-0.000796179287135601,-0.014995008707046509,0.016268564388155937,-3.2914474238984793e-31,0.016866663470864296
0.020253190770745277,-0.0007307858322747052,-0.01467161811888218,0.016646847128868103,-2.1490800614123787e-32,0.01713138446211815
0.02009495720267296,-0.0007468254771083593,-0.0156436525285244,0.016539478674530983,-1.4031957799357227e-33,0.017127839848399162
0.01981968618929386,-0.0007554477197118104,-0.014750407077372074,0.01687435992062092,-9.161866107212517e-35,0.017228512093424797
0.020161621272563934,-0.0007572847534902394,-0.015536193735897541,0.016441138461232185,-5.982044044375247e-36,0.017098741605877876
0.020123619586229324,-0.0007654103101231158,-0.014953353442251682,0.01632542721927166,-3.9058475052994714e-37,0.01725589856505394
0.019972853362560272,-0.0007065893732942641,-0.01512475498020649,0.016103161498904228,-2.550239330286921e-38,0.017219826579093933
0.020211778581142426,-0.0007249800255522132,-0.015032760798931122,0.016843365505337715,-1.665123728800179e-39,0.016831539571285248
0.021768255159258842,-0.0006536816945299506,-0.015212294645607471,0.017104962840676308,-1.0872114265310526e-40,0.01727295108139515
0.021768255159258842,-0.0006536816945299506,-0.015212294645607471,0.017104962840676308,-1.0872114265310526e-40,0.01727295108139515
0.020640647038817406,-0.0006186667014844716,-0.015284901484847069,0.016520027071237564,-4.6382979169151445e-43,0.01736174151301384
0.02063632756471634,-0.0006219465285539627,-0.015155439265072346,0.01615774817764759,-3.0828566215145976e-44,0.017595576122403145
0.020624617114663124,-0.000653983443044126,-0.015127589926123619,0.016910148784518242,-1.401298464324817e-45,0.01785110868513584
0.020894795656204224,-0.000672903552185744,-0.015442602336406708,0.016169080510735512,-0.0,0.018170341849327087
0.021052390336990356,-0.0006176019087433815,-0.015229638665914536,0.016272783279418945,-0.0,0.017696207389235497
0.021159524098038673,-0.0006417596596293151,-0.015220986679196358,0.01672002486884594,-0.0,0.017916470766067505
0.021669087931513786,-0.0007064982783049345,-0.014856843277812004,0.016533195972442627,-0.0,0.01800134964287281
0.020974760875105858,-0.0006617636536248028,-0.01569865457713604,0.01699058897793293,-0.0,0.017527032643556595
0.021630726754665375,-0.0006912844837643206,-0.015448556281626225,0.016570737585425377,-0.0,0.017795855179429054
0.02128899283707142,-0.0006141630001366138,-0.015619983896613121,0.016923751682043076,-0.0,0.018366483971476555
0.020636284723877907,-0.0006419654819183052,-0.014774270355701447,0.016853656619787216,-0.0,0.01890142820775509
0.021191012114286423,-0.0005836853524670005,-0.015316743403673172,0.016863355413079262,-0.0,0.01793617755174637
0.021848052740097046,-0.0006072891992516816,-0.014907834120094776,0.016977224498987198,-0.0,0.017464781180024147
0.021801497787237167,-0.000562726054340601,-0.015589024871587753,0.016591805964708328,-0.0,0.01761329174041748
0.021587437018752098,-0.0005219614831730723,-0.015870949253439903,0.01725710555911064,-0.0,0.018612923100590706
0.021664604544639587,-0.0004866727103944868,-0.015917405486106873,0.017076443880796432,-0.0,0.018625987693667412
0.022262800484895706,-0.00045585440238937736,-0.01619364507496357,0.01705225557088852,-0.0,0.018746333196759224
0.022370632737874985,-0.000428706785896793,-0.016062989830970764,0.01689370721578598,-0.0,0.01808549091219902
0.021923692896962166,-0.00040461160824634135,-0.015382423996925354,0.016566753387451172,-0.0,0.017399245873093605
0.021564200520515442,-0.00038308280636556447,-0.014964436180889606,0.01719115488231182,-0.0,0.01789170503616333
0.021831609308719635,-0.0003637269837781787,-0.015990333631634712,0.016898099333047867,-0.0,0.018461430445313454
0.02217320166528225,-0.0003462341846898198,-0.015568959526717663,0.01687651500105858,-0.0,0.019060315564274788
0.022848060354590416,-0.00033034812076948583,-0.016268420964479446,0.01683863252401352,-0.0,0.018610581755638123
0.022467898204922676,-0.000302580971037969,-0.015831144526600838,0.017099231481552124,-0.0,0.019019026309251785
0.022586321458220482,-0.0002903770946431905,-0.015798725187778473,0.016989143565297127,-0.0,0.019935928285121918
0.022586321458220482,-0.0002903770946431905,-0.015798725187778473,0.016989143565297127,-0.0,0.019935928285121918
0.02295929379761219,-0.00027911990764550865,-0.01617508940398693,0.01714097149670124,-1.5608180774506764e-06,0.0200447179377079
0.022832516580820084,-0.0002687029482331127,-0.016720544546842575,0.016918068751692772,-1.0191026689199134e-07,0.01942986249923706
0.02287709154188633,-0.000259035179624334,-0.01646284945309162,0.01662111096084118,-6.654012008056043e-09,0.019064927473664284
0.022966112941503525,-0.0002500392438378185,-0.016408326104283333,0.016714084893465042,-4.3445941289022016e-10,0.018706895411014557
0.02323630265891552,-0.0002416470379102975,-0.016050830483436584,0.016469882801175117,-2.8367096865933306e-11,0.01877526193857193
0.023006703704595566,-0.0002338007907383144,-0.017067566514015198,0.016640054062008858,-1.8521688089495614e-12,0.019466495141386986
0.0239291712641716,-0.00022644703858532012,-0.01629367657005787,0.01650157757103443,-0.0005832985625602305,0.01991894654929638
0.023428671061992645,-0.00021954227122478187,-0.016263015568256378,0.016753138974308968,-0.0006406264146789908,0.019777502864599228
0.0233348049223423,-0.00021304581605363637,-0.016575412824749947,0.016401225700974464,-0.0006218636408448219,0.01984252594411373
0.023627737537026405,-0.00020692299585789442,-0.01638060249388218,0.016150308772921562,-0.0006057865684852004,0.01995766907930374
0.02355428785085678,-0.00020114220387768,-0.016902122646570206,0.016454854980111122,-0.0005897360970266163,0.019710414111614227
0.0239725299179554,-0.00019567586423363537,-0.01631278172135353,0.016285043209791183,-0.0006135358707979321,0.019763657823204994
0.023653099313378334,-0.00019049867114517838,-0.01693863235414028,0.016521932557225227,-0.0006124848150648177,0.01970728114247322
0.02400737628340721,-0.00018558833107817918,-0.016612136736512184,0.016419926658272743,-0.0005788932321593165,0.019547928124666214
0.024324487894773483,-0.0001809250534279272,-0.016433320939540863,0.016427943482995033,-0.0006109810783527792,0.019622063264250755
0.024019118398427963,-0.000176489949808456,-0.016674485057592392,0.016219262033700943,-0.000622179766651243,0.020144259557127953
0.024098988622426987,-0.00017226733325514942,-0.016439417377114296,0.016314812004566193,-0.0005855113849975169,0.020034965127706528
0.02442348189651966,-0.00016824205522425473,-0.016612429171800613,0.016629917547106743,-0.0006030861986801028,0.01970015838742256
0.02486678957939148,-0.00016440049512311816,-0.016338974237442017,0.016123665496706963,-0.0005648288642987609,0.019613971933722496
0.024381354451179504,-0.00016073067672550678,-0.017064448446035385,0.016107667237520218,-0.0006179398624226451,0.020261788740754128
0.024480467662215233,-0.00015722076932433993,-0.016807759180665016,0.015841694548726082,-0.0006385895540006459,0.020495522767305374
0.024740954861044884,-0.000153861241415143,-0.01616816222667694,0.01680169440805912,-0.0005941088311374187,0.020470449700951576
0.02465062588453293,-0.00015064199396874756,-0.016790468245744705,0.01646740362048149,-0.0006136561860330403,0.020540351048111916
0.02536345273256302,-0.00014755497977603227,-0.016460416838526726,0.01651757024228573,-0.0005687612574547529,0.0202720258384943
0.02536345273256302,-0.00014755497977603227,-0.016460416838526726,0.01651757024228573,-0.0005687612574547529,0.0202720258384943
0.025105126202106476,-0.00013900859630666673,-0.01680178754031658,0.01676974445581436,-0.0005074679502286017,0.020395061001181602
0.025105126202106476,-0.00013900859630666673,-0.01680178754031658,0.01676974445581436,-0.0005074679502286017,0.020395061001181602
0.025499898940324783,-0.0001363758638035506,-0.017147639766335487,0.01660165749490261,-0.00047766536590643227,0.020502902567386627
0.025107525289058685,-0.00013384093472268432,-0.016595972701907158,0.017064061015844345,-0.0004481691576074809,0.020479369908571243
0.025464411824941635,-0.00013139820657670498,-0.01655145362019539,0.017056943848729134,-0.0004196499940007925,0.020571375265717506
0.025825930759310722,-0.00012904329923912883,-0.015878023579716682,0.0167250819504261,-0.0003846995532512665,0.02012575790286064
0.026859993115067482,-0.00012677133781835437,-0.01680174097418785,0.01701003685593605,-0.00035443337401375175,0.020132020115852356
0.02665366232395172,-0.00011082506534876302,-0.016863491386175156,0.016461214050650597,-0.00038961812970228493,0.02054787613451481
0.025333713740110397,-4.2462048440938815e-05,-0.016895119100809097,0.01670660637319088,-0.0003671033773571253,0.021166536957025528
0.025197789072990417,-1.695698119874578e-05,-0.016917098313570023,0.016611650586128235,-0.00039730037678964436,0.021164067089557648
0.026397794485092163,-6.565322223650583e-07,-0.01626494713127613,0.017237458378076553,-0.00042716372990980744,0.021030256524682045
0.026377582922577858,-8.80821726667591e-09,-0.016426410526037216,0.017256567254662514,-0.0006138653843663633,0.020526116713881493
0.025665659457445145,-1.181734710087312e-10,-0.015886971727013588,0.01682616025209427,-0.0006669951835647225,0.020070021972060204
0.026121189817786217,-1.5854478103635716e-12,-0.01661013439297676,0.017267007380723953,-0.0007157569634728134,0.02004542201757431
0.026675956323742867,-2.1270804873864922e-14,-0.016322005540132523,0.016735153272747993,-0.0010784253245219588,0.02054225280880928
0.02677280642092228,-2.853749819901896e-16,-0.016507698222994804,0.01679218001663685,-0.0012553426204249263,0.021023888140916824
0.02643623761832714,-3.8286695716991615e-18,-0.01678559184074402,0.016730938106775284,-0.0012058602878823876,0.02095889113843441
0.02596566081047058,-5.136648786051666e-20,-0.016382422298192978,0.016959713771939278,-0.0010948050767183304,0.02126975543797016
0.026551809161901474,-6.891469682913544e-22,-0.016478031873703003,0.01754595898091793,-0.000998353585600853,0.02174251154065132
0.02716115489602089,-9.245785075074977e-24,-0.015901854261755943,0.017608754336833954,-0.0009165439987555146,0.02152516134083271
0.02687802165746689,-1.240440139591221e-25,-0.01649470254778862,0.017714381217956543,-0.0009097899310290813,0.021397849544882774
0.027136527001857758,-1.6642087760826435e-27,-0.016398940235376358,0.018257275223731995,-0.000850061362143606,0.021307766437530518
0.02659519575536251,-2.2327483391947973e-29,-0.01658107526600361,0.017546983435750008,-0.0008520683040842414,0.02098972164094448
0.026463154703378677,-2.9955167210789684e-31,-0.017026662826538086,0.01655898056924343,-0.000906199449673295,0.02058182843029499
0.0262221060693264,-4.018868248667548e-33,-0.016546793282032013,0.015948224812746048,-0.0009494044934399426,0.021101592108607292
0.026311248540878296,-7.233820599440292e-37,-0.01615975797176361,0.01710958406329155,-0.0012786294100806117,0.0221080519258976
0.026394329965114594,0.00011115770030301064,-0.01668519526720047,0.017281414940953255,-0.0013189463643357158,0.021838022395968437
0.0265435092151165,0.00010435272270115092,-0.017172645777463913,0.017291726544499397,-0.0012523847399279475,0.021622931584715843
0.0265435092151165,0.00010435272270115092,-0.017172645777463913,0.017291726544499397,-0.0012523847399279475,0.021622931584715843
0.026465751230716705,9.86293816822581e-05,-0.01733257807791233,0.0165398046374321,-0.0011904621496796608,0.02170928195118904
0.026750149205327034,9.350533946417272e-05,-0.017776327207684517,0.016934039071202278,-0.001145648304373026,0.021546604111790657
0.026941077783703804,8.888745651347563e-05,-0.016675561666488647,0.016760023310780525,-0.0011138117406517267,0.021541250869631767
0.0268032755702734,0.00012532551772892475,-0.017498640343546867,0.017380796372890472,-0.0010818360606208444,0.022045845165848732
0.027245603501796722,0.00012132240226492286,-0.01768479309976101,0.01737436279654503,-0.0009961756877601147,0.02205830067396164
0.026985669508576393,0.00011612600064836442,-0.016759313642978668,0.01611138880252838,-0.0009805200388655066,0.021911868825554848
0.026742231100797653,0.00011133733642054722,-0.017176786437630653,0.016049906611442566,-0.0009678778005763888,0.02203105017542839
0.026415018364787102,0.00014112269855104387,-0.016726691275835037,0.014852485619485378,-0.0009585779625922441,0.02210395596921444
0.027844149619340897,0.0001371195976389572,-0.01777047850191593,0.015421377494931221,-0.0009517005528323352,0.022128067910671234
0.028282253071665764,0.0001321064046351239,-0.017793698236346245,0.015860240906476974,-0.000879243016242981,0.02244546078145504
0.028274837881326675,0.00012743040861096233,-0.01680835150182247,0.016859445720911026,-0.0008135245880112052,0.022231295704841614
0.027487382292747498,0.00014327961253002286,-0.017803635448217392,0.01732691377401352,-0.0008121339487843215,0.02351214550435543
0.026843849569559097,0.00014861492672935128,-0.01696959137916565,0.017255790531635284,-0.0007818034500814974,0.022019783034920692
0.027613965794444084,0.00014399466454051435,-0.01784544251859188,0.017468715086579323,-0.0007478832849301398,0.022085728123784065
0.028674893081188202,0.0002641851606313139,-0.018003487959504128,0.016860611736774445,-0.0007448941469192505,0.022709757089614868
0.02805246226489544,0.0002543371228966862,-0.0173821821808815,0.015479876659810543,-0.0007637509261257946,0.02278010919690132
0.028254499658942223,0.00028322040452621877,-0.017986057326197624,0.016356486827135086,-0.0008057726081460714,0.022476905956864357
0.02860221266746521,0.0002742001670412719,-0.016814684495329857,0.017155500128865242,-0.0009429947822354734,0.022385334596037865
0.028372833505272865,0.00026101592811755836,-0.017187947407364845,0.017284732311964035,-0.0011042967671528459,0.022610390558838844
0.027646372094750404,0.00028555880999192595,-0.01764078252017498,0.016799146309494972,-0.0011536472011357546,0.022685598582029343
0.028129685670137405,0.00027760909870266914,-0.01720309816300869,0.01704535260796547,-0.001067907316610217,0.022830864414572716
0.02856619283556938,0.00026595170493237674,-0.018111195415258408,0.017117803916335106,-0.0011526838643476367,0.022760553285479546
0.028805963695049286,0.00029112445190548897,-0.017789294943213463,0.01704976335167885,-0.0010313760722056031,0.022837910801172256
0.028522951528429985,0.0004682974249590188,-0.017312785610556602,0.016940513625741005,-0.0008655137498863041,0.02258479781448841
0.028626661747694016,0.00045559724094346166,-0.017184920608997345,0.016962997615337372,-0.0007674352964386344,0.022577088326215744
0.028537964448332787,0.0004895313177257776,-0.017819121479988098,0.016577206552028656,-0.0007313580135814846,0.02283499948680401
0.02851453609764576,0.0004975719493813813,-0.0172872394323349,0.016852794215083122,-0.0007021308992989361,0.023292897269129753
0.028939925134181976,0.0004847757227253169,-0.01709713600575924,0.017308402806520462,-0.0006067867507226765,0.023296261206269264
0.02876986563205719,0.0006261715898290277,-0.017315208911895752,0.016656547784805298,-0.0005104872980155051,0.022763002663850784
0.02876986563205719,0.0006261715898290277,-0.017315208911895752,0.016656547784805298,-0.0005104872980155051,0.022763002663850784
0.02893589809536934,0.0006238537607714534,-0.01691289432346821,0.01687757298350334,-0.0005414508050307631,0.02267000451683998
0.029428917914628983,0.0006450795335695148,-0.017398755997419357,0.016228051856160164,-0.000573918514419347,0.022826071828603745
0.02917112037539482,0.0005868165171705186,-0.01699121855199337,0.016246594488620758,-0.0006038108258508146,0.023447489365935326
0.02959480695426464,0.0006138960598036647,-0.017222627997398376,0.01604473404586315,-0.000988423707894981,0.023748178035020828
0.02942693792283535,0.000614808639511466,-0.017645757645368576,0.016603831201791763,-0.0009960480965673923,0.023279651999473572
0.029437560588121414,0.0005912435008212924,-0.017153678461909294,0.017087511718273163,-0.0008913364144973457,0.022614233195781708
0.029922347515821457,0.0007073404267430305,-0.017742956057190895,0.016973841935396194,-0.000878634222317487,0.023027930408716202
0.02952931448817253,0.0006605422240681946,-0.017518041655421257,0.017158979550004005,-0.0007946312543936074,0.023300081491470337
0.02946099266409874,0.0006856786785647273,-0.017786363139748573,0.01700662635266781,-0.0007592604961246252,0.02386629395186901
0.029675360769033432,0.0007042690995149314,-0.018035899847745895,0.017401259392499924,-0.0007214999641291797,0.023404767736792564
0.030156966298818588,0.0008767947438172996,-0.01713930070400238,0.01775791309773922,-0.0006856254185549915,0.023416949436068535
0.030470140278339386,0.0008939700783230364,-0.017632583156228065,0.01761220395565033,-0.0006858709966763854,0.024687843397259712
0.030166711658239365,0.0008950771880336106,-0.01773913949728012,0.017440780997276306,-0.0006832742947153747,0.024085460230708122
0.03084127977490425,0.0008957364480011165,-0.0175502747297287,0.016807591542601585,-0.0006616500904783607,0.02380487322807312
0.030542613938450813,0.0008153332746587694,-0.017822960391640663,0.017255524173378944,-0.0007347484352067113,0.022966356948018074
0.03051987662911415,0.000944041064940393,-0.017425525933504105,0.01707785204052925,-0.0007076144684106112,0.024430595338344574
0.030542755499482155,0.000938897137530148,-0.01787317916750908,0.01681388169527054,-0.0007267691544257104,0.024737773463129997
0.03097037971019745,0.0009337228257209063,-0.017842687666416168,0.016841720789670944,-0.000738290895242244,0.0247335284948349
0.030680496245622635,0.0010216973023489118,-0.017467042431235313,0.017171401530504227,-0.0006798924878239632,0.024285325780510902
0.030635148286819458,0.0011879414087161422,-0.018024234101176262,0.0177659559994936,-0.0007609335007146001,0.023991471156477928
0.031144671142101288,0.001533510978333652,-0.018014641478657722,0.01708989031612873,-0.0006705547566525638,0.024219589307904243
0.03195248171687126,0.0016333062667399645,-0.018497847020626068,0.017554454505443573,-0.0006195246241986752,0.024139828979969025
0.03152010589838028,0.0016029495745897293,-0.017928898334503174,0.017278337851166725,-0.0005572095396928489,0.0243275947868824
0.030099118128418922,0.0017218433786183596,-0.01827072538435459,0.017189577221870422,-0.0005051280604675412,0.02425832860171795
0.031154533848166466,0.001575490809045732,-0.018190978094935417,0.017346270382404327,-0.0005333602312020957,0.02456558309495449
0.03167939931154251,0.0015768457669764757,-0.01791648380458355,0.01712578348815441,-0.0004960028454661369,0.024803534150123596
0.03174988925457001,0.0015794087667018175,-0.018399663269519806,0.017275650054216385,-0.0005211564712226391,0.025097010657191277
0.03174988925457001,0.0015794087667018175,-0.018399663269519806,0.017275650054216385,-0.0005211564712226391,0.025097010657191277
0.03244570642709732,0.0016992057207971811,-0.01886088028550148,0.01723962090909481,-0.0004908902919851243,0.02499738149344921
0.031973112374544144,0.0017417672788724303,-0.018581220880150795,0.017807891592383385,-0.0004255960520822555,0.024916360154747963
0.03144245222210884,0.0020534240175038576,-0.019037969410419464,0.017930228263139725,-0.00044446164974942803,0.024572325870394707
0.03127937391400337,0.0020461413078010082,-0.018642595037817955,0.017281919717788696,-0.00042680950718931854,0.025299066677689552
0.03184105455875397,0.0022377455607056618,-0.018261151388287544,0.017833447083830833,-0.000458041817182675,0.025411134585738182
0.032113779336214066,0.002156950067728758,-0.019021350890398026,0.017461327835917473,-0.0004606962902471423,0.025501249358057976
0.031024489551782608,0.002100508427247405,-0.01887410506606102,0.017658930271863937,-0.00045902474084869027,0.025198373943567276
0.03250272572040558,0.0022570169530808926,-0.019189756363630295,0.017671702429652214,-0.0005938232061453164,0.025606665760278702
0.03300759941339493,0.00224716286174953,-0.019284576177597046,0.0171340499073267,-0.0006564356735907495,0.025601830333471298
0.03224403038620949,0.002755147870630026,-0.018524890765547752,0.017787670716643333,-0.000660249381326139,0.025589976459741592
0.03210001066327095,0.002969390945509076,-0.019334252923727036,0.01780405454337597,-0.0006390468333847821,0.025319751352071762
0.032596562057733536,0.0026326330844312906,-0.019873401150107384,0.017430704087018967,-0.0006546002114191651,0.025239482522010803
0.03228888288140297,0.0026337227318435907,-0.019291609525680542,0.017357561737298965,-0.0007140423986129463,0.025741446763277054
0.032205674797296524,0.0026505731511861086,-0.018763428553938866,0.016760552302002907,-0.0007046564132906497,0.0268007330596447
0.03286885842680931,0.002793853171169758,-0.019632553681731224,0.016741853207349777,-0.0007203089189715683,0.02673458866775036
0.032826393842697144,0.0027151957619935274,-0.01931723766028881,0.016708604991436005,-0.0006483341567218304,0.02567749284207821
0.03268124908208847,0.0030147398356348276,-0.01919405534863472,0.016730008646845818,-0.0006691283197142184,0.02488597109913826
0.03254767879843712,0.0030637593008577824,-0.019278528168797493,0.016833726316690445,-0.0006852372898720205,0.02541542612016201
0.03289614990353584,0.0032554888166487217,-0.0192891675978899,0.016639694571495056,-0.000635297445114702,0.026429753750562668
0.03270750120282173,0.0035389147233217955,-0.01985858753323555,0.017025047913193703,-0.0006500290473923087,0.025542357936501503
0.03270750120282173,0.0035389147233217955,-0.01985858753323555,0.017025047913193703,-0.0006500290473923087,0.025542357936501503
0.033288996666669846,0.003534523770213127,-0.01946384273469448,0.017123011872172356,-0.0007050760323181748,0.026546478271484375
0.03384120762348175,0.0034049751702696085,-0.01960165612399578,0.016989445313811302,-0.0010054532904177904,0.026084760203957558
0.03333999216556549,0.003439520951360464,-0.0196614321321249,0.017439963296055794,-0.0010650272015482187,0.025932732969522476
0.03333999216556549,0.003439520951360464,-0.0196614321321249,0.017439963296055794,-0.0010650272015482187,0.025932732969522476
0.03364982083439827,0.0037820155266672373,-0.020091339945793152,0.017359133809804916,-0.0009434617822989821,0.026903152465820312
0.03364982083439827,0.0037820155266672373,-0.020091339945793152,0.017359133809804916,-0.0009434617822989821,0.026903152465820312
0.032588064670562744,0.003792866598814726,-0.019987517967820168,0.017395317554473877,-0.0010329685173928738,0.027612686157226562
0.032809678465127945,0.003807979868724942,-0.019490549340844154,0.017223704606294632,-0.0010164519771933556,0.027149347588419914
0.03474661335349083,0.004290841054171324,-0.01987268403172493,0.017271924763917923,-0.0009357343660667539,0.0267175305634737
0.03409881517291069,0.004054853226989508,-0.020085042342543602,0.016623398289084435,-0.0009267207933589816,0.02684786356985569
0.033149562776088715,0.0039214156568050385,-0.01985732652246952,0.01700536347925663,-0.0009019244462251663,0.026650290936231613
0.03426307439804077,0.004290411248803139,-0.02016383782029152,0.017420874908566475,-0.0009114968706853688,0.026446834206581116
0.03382524847984314,0.0043088896200060844,-0.020467720925807953,0.017265640199184418,-0.0008598781423643231,0.026708096265792847
0.03417523205280304,0.004479236900806427,-0.020167190581560135,0.017545968294143677,-0.0008064896683208644,0.027061816304922104
0.034151818603277206,0.004479797091335058,-0.02024749293923378,0.017566511407494545,-0.0008062634733505547,0.027140116319060326
0.03405965492129326,0.0041803536005318165,-0.020330829545855522,0.017885740846395493,-0.0007801764295436442,0.02731369063258171
0.034046851098537445,0.005063042044639587,-0.020344611257314682,0.017777379602193832,-0.0008063034620136023,0.027232840657234192
0.03408828750252724,0.004453520756214857,-0.02012920379638672,0.01755768060684204,-0.0007891508867032826,0.027298355475068092
0.034566767513751984,0.004460393916815519,-0.020528724417090416,0.01778413914144039,-0.0007489983108825982,0.02734183333814144
0.034548260271549225,0.004697510041296482,-0.020516112446784973,0.017555350437760353,-0.0007550704758614302,0.02765609510242939
0.03459300473332405,0.004594000987708569,-0.01992768794298172,0.01752385124564171,-0.0007010741392150521,0.027535980567336082
0.03461173176765442,0.004924400709569454,-0.02029966190457344,0.01696064881980419,-0.0007169078453443944,0.02763618901371956
0.03413195535540581,0.004813600797206163,-0.02085808478295803,0.017901599407196045,-0.0007326523191295564,0.02796277403831482
0.035219769924879074,0.00567616568878293,-0.020304759964346886,0.01744113489985466,-0.000681630102917552,0.027956390753388405
0.03533133491873741,0.005403105169534683,-0.02044084668159485,0.017141016200184822,-0.0006938264123164117,0.02798675000667572
0.03476349636912346,0.005035167094320059,-0.020807145163416862,0.017382804304361343,-0.0006423844606615603,0.027939414605498314
0.03495918959379196,0.005300538148730993,-0.02039414830505848,0.017287155613303185,-0.0006347944145090878,0.028162099421024323
0.03557923808693886,0.005261120852082968,-0.02071571908891201,0.01713368482887745,-0.0005648978403769433,0.027072658762335777
0.0353861004114151,0.005550659727305174,-0.020742954686284065,0.016886670142412186,-0.0005886693252250552,0.028576841577887535
0.0353861004114151,0.005550659727305174,-0.020742954686284065,0.016886670142412186,-0.0005886693252250552,0.028576841577887535
0.03543776646256447,0.005292436107993126,-0.020289059728384018,0.016890399158000946,-0.0005413220496848226,0.02856750786304474
0.03516250103712082,0.0053121475502848625,-0.020286139100790024,0.016909513622522354,-0.0005633755354210734,0.0282612107694149
0.03551097586750984,0.005553388502448797,-0.020743204280734062,0.01678859442472458,-0.0005623523611575365,0.0293166134506464
0.0355231799185276,0.006033418234437704,-0.021431492641568184,0.01741582155227661,-0.0005528907058760524,0.029318341985344887
0.03514100983738899,0.0054291910491883755,-0.020642545074224472,0.017759498208761215,-0.0005850243614986539,0.028059430420398712
0.036257464438676834,0.005077752750366926,-0.020755600184202194,0.017593596130609512,-0.000620038656052202,0.027615349739789963
0.03709005191922188,0.0057845693081617355,-0.020756898447871208,0.017762701958417892,-0.0006494337576441467,0.02797023393213749
0.035140909254550934,0.005453694611787796,-0.020532425493001938,0.01699734292924404,-0.0006801054696552455,0.029291070997714996
0.034733425825834274,0.0060553704388439655,-0.02028191275894642,0.017232444137334824,-0.001057552290149033,0.0286801028996706
0.035999372601509094,0.005519458092749119,-0.022837402299046516,0.0169973261654377,-0.0009744502021931112,0.028911452740430832
0.03577956557273865,0.005393573082983494,-0.020643994212150574,0.017123201861977577,-0.0009590585250407457,0.02946462668478489
0.03710736706852913,0.005627601407468319,-0.020128797739744186,0.017916522920131683,-0.0008969892514869571,0.029252411797642708
0.03692718222737312,0.006068880204111338,-0.021124500781297684,0.017956651747226715,-0.0008430815651081502,0.02841011807322502
0.03607231006026268,0.006524313241243362,-0.02245650254189968,0.017847400158643723,-0.0007603135891258717,0.027850037440657616
0.03538123518228531,0.005805429071187973,-0.022069592028856277,0.018007012084126472,-0.0006647946429438889,0.028541866689920425
0.03663066402077675,0.005773294251412153,-0.02049129270017147,0.018000848591327667,-0.0006794146029278636,0.02970156818628311
0.036541711539030075,0.005674893967807293,-0.02114768512547016,0.018644457682967186,-0.0007035867893137038,0.029556874185800552
0.03623412549495697,0.005698781926184893,-0.020845500752329826,0.018284348770976067,-0.0007236615638248622,0.029303597286343575
0.03679549694061279,0.005780018866062164,-0.020701294764876366,0.017668068408966064,-0.0007866985979489982,0.029322832822799683
0.03654585778713226,0.006005222909152508,-0.021062975749373436,0.01738518476486206,-0.0008792943553999066,0.02908167988061905
0.03633660823106766,0.005520227365195751,-0.021625466644763947,0.016406506299972534,-0.0008873756742104888,0.02890249714255333
0.03704029694199562,0.005701221991330385,-0.02131570689380169,0.017310582101345062,-0.0008893974008969963,0.029571441933512688
0.03693760558962822,0.006398729048669338,-0.02109851874411106,0.01736929826438427,-0.0008161013247445226,0.02973039075732231
0.03605462610721588,0.006422997917979956,-0.020992761477828026,0.018249884247779846,-0.0008562646107748151,0.029278306290507317
0.036581169813871384,0.0057368893176317215,-0.021317005157470703,0.017701392993330956,-0.0008623705944046378,0.029766596853733063
0.03756619617342949,0.005742799025028944,-0.0213059913367033,0.01757775992155075,-0.0008526144665665925,0.030182575806975365
0.037099502980709076,0.006051842123270035,-0.020768573507666588,0.01744363084435463,-0.0008952771313488483,0.02934747003018856
0.037099502980709076,0.006051842123270035,-0.020768573507666588,0.01744363084435463,-0.0008952771313488483,0.02934747003018856
0.03542342409491539,0.006001019850373268,-0.021079393103718758,0.017312772572040558,-0.0009195962338708341,0.030014604330062866
0.03649961203336716,0.0062126899138092995,-0.021626096218824387,0.018190624192357063,-0.0009911335073411465,0.03057923913002014
0.03674052655696869,0.006321386434137821,-0.020861396566033363,0.017587266862392426,-0.001114947022870183,0.030124688521027565
0.03654293343424797,0.005704347509890795,-0.021055929362773895,0.017917821183800697,-0.0011965531157329679,0.03007112629711628
0.03785569593310356,0.005882584024220705,-0.021089935675263405,0.018174966797232628,-0.0011489286553114653,0.02993587963283062
0.03713184595108032,0.005965230520814657,-0.021312836557626724,0.01774025708436966,-0.0010055240709334612,0.030028829351067543
0.03539601340889931,0.006086164619773626,-0.020876877009868622,0.018110014498233795,-0.0009591309353709221,0.03010236658155918
0.03681112825870514,0.005858852528035641,-0.0211504939943552,0.01750146597623825,-0.0008704746142029762,0.029610516503453255
0.03752509132027626,0.005842557176947594,-0.021269315853714943,0.01755167357623577,-0.0007879831246100366,0.03072093240916729
0.03750482574105263,0.005309126805514097,-0.021085409447550774,0.018033325672149658,-0.0006447528721764684,0.031716205179691315
0.03698423132300377,0.0057649496011435986,-0.020650863647460938,0.017837518826127052,-0.0005619979347102344,0.031105900183320045
0.037040114402770996,0.006491720210760832,-0.02086174115538597,0.018292656168341637,-0.0005851524765603244,0.0293962974101305
0.0376376211643219,0.0058224815875291824,-0.021204262971878052,0.01853841170668602,-0.0005383601528592408,0.029738817363977432
0.037742339074611664,0.004195156041532755,-0.020783381536602974,0.017284948378801346,-0.0005605687038041651,0.030849216505885124
0.03786766901612282,0.002692157868295908,-0.020595062524080276,0.01713992841541767,-0.0005235631251707673,0.031022468581795692
0.03742724657058716,0.002441788325086236,-0.020511487498879433,0.017275534570217133,-0.0005481926491484046,0.03135208785533905
0.037175845354795456,0.002855262951925397,-0.02053757943212986,0.017837248742580414,-0.0006013956153765321,0.031391799449920654
0.037471164017915726,0.0038156844675540924,-0.020233863964676857,0.018477998673915863,-0.0006449451320804656,0.03045426495373249
0.038193944841623306,0.00402842415496707,-0.02055511809885502,0.01845766045153141,-0.0006937988800927997,0.029788564890623093
0.03782176226377487,0.003762207692489028,-0.020213359966874123,0.01826440915465355,-0.001219706959091127,0.029987310990691185
0.03786695748567581,0.003530076937749982,-0.02014196664094925,0.016935687512159348,-0.0013425146462395787,0.031001320108771324
0.03841855376958847,0.0036788294091820717,-0.021214354783296585,0.01868516393005848,-0.0011880961246788502,0.030534639954566956
0.038374580442905426,0.004273261874914169,-0.021317023783922195,0.018584921956062317,-0.0011463803239166737,0.03194497898221016
0.03835858404636383,0.004171602427959442,-0.02061687596142292,0.018063269555568695,-0.000984351267106831,0.031885743141174316
0.03835858404636383,0.004171602427959442,-0.02061687596142292,0.018063269555568695,-0.000984351267106831,0.031885743141174316
0.03895081952214241,0.0035681251902133226,-0.020911257714033127,0.018268996849656105,-0.0009353334899060428,0.03140539303421974
0.038512974977493286,0.003472669282928109,-0.021493345499038696,0.017342114821076393,-0.0008407823625020683,0.03137231990695
0.03888997808098793,0.003578498726710677,-0.021062549203634262,0.017196618020534515,-0.0008345266687683761,0.030995666980743408
0.039101023226976395,0.004215916618704796,-0.021337170153856277,0.01686166599392891,-0.0007661780109629035,0.0312466062605381
0.03908504173159599,0.004030537325888872,-0.02114480547606945,0.01693948544561863,-0.0006891436059959233,0.03163407742977142
0.03943432867527008,0.004254735540598631,-0.021278224885463715,0.01800018735229969,-0.000656046555377543,0.03167753294110298
0.039212778210639954,0.004245532676577568,-0.021603981032967567,0.017847103998064995,-0.0007257605902850628,0.031774066388607025
0.03908323496580124,0.004134499002248049,-0.021788986399769783,0.017690930515527725,-0.0007073250017128885,0.032161105424165726
0.039998654276132584,0.0040176017209887505,-0.021733982488512993,0.017668550834059715,-0.0009745900752022862,0.03196665644645691
0.04077858477830887,0.003956702537834644,-0.02159823104739189,0.0173458494246006,-0.0009776685619726777,0.03189722076058388
0.0400395430624485,0.004323743283748627,-0.02106126770377159,0.017754774540662766,-0.0009056981070898473,0.032228466123342514
0.03816607594490051,0.004373973701149225,-0.020821252837777138,0.01738165318965912,-0.000900806044228375,0.032087426632642746
0.04004891216754913,0.004304348025470972,-0.021148797124624252,0.01749027520418167,-0.0009018417331390083,0.03241301700472832
0.040321096777915955,0.004385402891784906,-0.022024089470505714,0.01767096109688282,-0.000910445989575237,0.032537974417209625
0.040262773633003235,0.004950290080159903,-0.021344158798456192,0.017441751435399055,-0.0009093428961932659,0.03246382623910904
0.04180380329489708,0.00491452869027853,-0.0212874598801136,0.018375756219029427,-0.0009080637828446925,0.03237074986100197
0.039205897599458694,0.004970071371644735,-0.021275602281093597,0.018825536593794823,-0.0009580706246197224,0.031794335693120956
0.03934527933597565,0.004791148006916046,-0.021772369742393494,0.018764184787869453,-0.0009524328634142876,0.03341963142156601
0.041078124195337296,0.00479700043797493,-0.020926589146256447,0.019264888018369675,-0.0009541598847135901,0.034417711198329926
0.04061330109834671,0.005352108273655176,-0.021134015172719955,0.01910017803311348,-0.0009474619873799384,0.03326981142163277
0.04003886878490448,0.005533179268240929,-0.021630896255373955,0.018696486949920654,-0.0009461661684326828,0.03130895271897316
0.04007265716791153,0.005223493557423353,-0.021621529012918472,0.018148887902498245,-0.0009339544922113419,0.03254277631640434
0.04013529419898987,0.005439599510282278,-0.021134452894330025,0.017964646220207214,-0.0008940428378991783,0.032792530953884125
0.04013529419898987,0.005439599510282278,-0.021134452894330025,0.017964646220207214,-0.0008940428378991783,0.032792530953884125
0.040076397359371185,0.004713456612080336,-0.021973315626382828,0.018049387261271477,-0.0009606920066289604,0.03394252061843872
0.04016750305891037,0.0048975832760334015,-0.021776322275400162,0.017297880724072456,-0.0010623557027429342,0.03340493515133858
0.04191315174102783,0.005353846121579409,-0.02140071988105774,0.01786579005420208,-0.0010797074064612389,0.032592929899692535
0.0409710668027401,0.005497252568602562,-0.02153525874018669,0.01789681240916252,-0.0011125282617285848,0.031767021864652634
0.03917747735977173,0.005476185120642185,-0.021866243332624435,0.017644217237830162,-0.0011762233916670084,0.03318706899881363
0.04062443971633911,0.004962299019098282,-0.021903585642576218,0.018262704834342003,-0.0011326321400702,0.03361481800675392
0.041150856763124466,0.005458664149045944,-0.02201020158827305,0.018080562353134155,-0.0010436176089569926,0.033836014568805695
0.04182763770222664,0.00538525590673089,-0.0224961768835783,0.01813846454024315,-0.0009631263092160225,0.03334492817521095
0.04144458472728729,0.00551578588783741,-0.0230078287422657,0.018116790801286697,-0.0008539619157090783,0.03238467872142792
0.04023990035057068,0.005808922927826643,-0.022481104359030724,0.018375955522060394,-0.0007262727594934404,0.03344088792800903
0.04017513245344162,0.005930023733526468,-0.022175125777721405,0.018833860754966736,-0.0007164067937992513,0.034420471638441086
0.041739195585250854,0.005344006232917309,-0.022030003368854523,0.01880020648241043,-0.0007092594169080257,0.03422403335571289
0.041198041290044785,0.005506176967173815,-0.022588517516851425,0.0182172991335392,-0.0006811345811001956,0.03394388407468796
0.040737949311733246,0.005840403493493795,-0.02265360578894615,0.01860956661403179,-0.0006934329285286367,0.03372598811984062
0.040909554809331894,0.006602104753255844,-0.022548731416463852,0.0183706171810627,-0.0007057449547573924,0.03423026204109192
0.04073720797896385,0.0058072470128536224,-0.022376909852027893,0.017810627818107605,-0.0007409072713926435,0.03426934406161308
0.041469696909189224,0.005283521953970194,-0.022159812971949577,0.01811663806438446,-0.000821819412522018,0.03385642170906067
0.041043877601623535,0.005452857818454504,-0.022457562386989594,0.01824153959751129,-0.0007958778878673911,0.03370480611920357
0.04083547368645668,0.006105691660195589,-0.023039251565933228,0.018435657024383545,-0.0011392126325517893,0.033913999795913696
0.04085766524076462,0.006649141665548086,-0.02304021455347538,0.018181022256612778,-0.0011167640332132578,0.03410928696393967
0.041193485260009766,0.0061988793313503265,-0.022504499182105064,0.018107973039150238,-0.0010492188157513738,0.034539394080638885
0.041504502296447754,0.006183634512126446,-0.02265755459666252,0.01839403621852398,-0.0009688131394796073,0.03395124152302742
0.041076891124248505,0.005801638588309288,-0.02275904081761837,0.01854931190609932,-0.0008968086913228035,0.034239351749420166
0.04161814972758293,0.006025292444974184,-0.02292146347463131,0.018523959442973137,-0.0007577809737995267,0.03554489463567734
0.041078563779592514,0.006694879848510027,-0.023298174142837524,0.01867898553609848,-0.0007688081241212785,0.034507375210523605
0.04147660359740257,0.006181205157190561,-0.023054305464029312,0.01859348453581333,-0.0007339069270528853,0.033965401351451874
0.04147660359740257,0.006181205157190561,-0.023054305464029312,0.01859348453581333,-0.0007339069270528853,0.033965401351451874
0.04162827506661415,0.005973030813038349,-0.02280188724398613,0.018943553790450096,-0.0007210546755231917,0.03427271917462349
0.04177597910165787,0.0059901149943470955,-0.023006845265626907,0.01877576671540737,-0.0007747382041998208,0.034581027925014496
0.041784703731536865,0.006324781104922295,-0.023208944126963615,0.018916534259915352,-0.0008085065637715161,0.03615080192685127
0.04192795976996422,0.00644706143066287,-0.02299250289797783,0.01919298805296421,-0.0008356621256098151,0.03484153375029564
0.041824568063020706,0.006056246347725391,-0.022289574146270752,0.018831826746463776,-0.0012994012795388699,0.03370855376124382
0.041967619210481644,0.006274753250181675,-0.023081058636307716,0.018662696704268456,-0.0012721248203888535,0.03343410789966583
0.04208409786224365,0.006686267908662558,-0.023869631811976433,0.019065091386437416,-0.0012223292142152786,0.03469513729214668
0.04207359626889229,0.006994485389441252,-0.02406902052462101,0.01863216422498226,-0.0010907291434705257,0.03557237610220909
0.04151925817131996,0.00685516744852066,-0.023225907236337662,0.01839199848473072,-0.0009156313608400524,0.03504958376288414
0.043510064482688904,0.006442470010370016,-0.0229555182158947,0.018419846892356873,-0.0008927807211875916,0.03523469716310501
0.04340069741010666,0.006653137505054474,-0.023433035239577293,0.01812225952744484,-0.0008429133449681103,0.03537047281861305
0.04145757108926773,0.0069361901842057705,-0.023149089887738228,0.018201477825641632,-0.0008468347368761897,0.03428512439131737
0.04239371791481972,0.00698024732992053,-0.02349165454506874,0.01872103288769722,-0.0008298169705085456,0.03534803166985512
0.041964832693338394,0.006864969152957201,-0.023714235052466393,0.018782397732138634,-0.0008579184068366885,0.036046214401721954
0.043581273406744,0.006307718809694052,-0.023542489856481552,0.019036611542105675,-0.0009652303997427225,0.03571849688887596
0.04367997497320175,0.00659481156617403,-0.023555366322398186,0.01902306266129017,-0.001281015109270811,0.03537041321396828
0.04197411611676216,0.006936687044799328,-0.024134937673807144,0.01868768036365509,-0.0012964812340214849,0.03537868335843086
0.04256094619631767,0.006736008450388908,-0.02448992431163788,0.01882670819759369,-0.0012244605459272861,0.0357588529586792
0.043324969708919525,0.006516904570162296,-0.022889139130711555,0.01837279088795185,-0.0011511591728776693,0.035253625363111496
0.042983755469322205,0.006320914253592491,-0.02346857264637947,0.018111614510416985,-0.0010213081259280443,0.035253625363111496
0.04286043718457222,0.006842967122793198,-0.023947549983859062,0.019130488857626915,-0.0008537456742487848,0.035555336624383926
0.043276187032461166,0.0061594354920089245,-0.024085422977805138,0.018888752907514572,-0.000822866044472903,0.036076851189136505
0.04269353300333023,0.0061523145996034145,-0.024387851357460022,0.01929810829460621,-0.0008319849148392677,0.035838354378938675
0.04269353300333023,0.0061523145996034145,-0.024387851357460022,0.01929810829460621,-0.0008319849148392677,0.035838354378938675
0.04423757269978523,0.006784196011722088,-0.02456512488424778,0.01883145608007908,-0.0008750539273023605,0.03625620901584625
0.043973442167043686,0.006955654360353947,-0.024048224091529846,0.019740447402000427,-0.0009633023873902857,0.03511124476790428
