davideferrari95/blind_handover_controller/data/Test 17 - [2024-02-07 -- 14-15-23]/joint_states_data.csv
shoulder_pan_joint,shoulder_lift_joint,elbow_joint,wrist_1_joint,wrist_2_joint,wrist_3_joint
0.008074886165559292,0.0030147782526910305,-0.008647419512271881,0.004045185633003712,-0.0003438882122281939,0.008970817551016808
0.008074886165559292,0.0030147782526910305,-0.008647419512271881,0.004045185633003712,-0.0003438882122281939,0.008970817551016808
0.00811694748699665,0.0034435682464390993,-0.007938450202345848,0.003780837170779705,-0.00031962088542059064,0.008863947354257107
0.00832864549010992,0.004183526150882244,-0.00813622772693634,0.0036028469912707806,-0.0002984226739499718,0.008534228429198265
0.00793792586773634,0.004455628804862499,-0.007910885848104954,0.003239297540858388,-0.00030708042322658,0.00831834226846695
0.00793792586773634,0.004455628804862499,-0.007910885848104954,0.003239297540858388,-0.00030708042322658,0.00831834226846695
0.007757740560919046,0.004088594578206539,-0.008248049765825272,0.003483659354969859,-0.00031427625799551606,0.008752811700105667
0.00802511814981699,0.003930641803890467,-0.008579886518418789,0.0037543626967817545,-0.00029853833257220685,0.008684821426868439
0.008472521789371967,0.0035484081599861383,-0.008253082633018494,0.004321956541389227,-0.00028299493715167046,0.008409836329519749
0.008517158217728138,0.004100169986486435,-0.007493231445550919,0.004164875019341707,-0.00026890478329733014,0.008379450999200344
0.007338154595345259,0.004118623677641153,-0.007253692951053381,0.004296787548810244,-0.00028766223113052547,0.008778423070907593
0.007890202105045319,0.004166791215538979,-0.007866330444812775,0.0037823438178747892,-0.0002728892141021788,0.008512728847563267
0.007802303414791822,0.003504366846755147,-0.007432357873767614,0.003647885750979185,-0.00026159873232245445,0.008835031650960445
0.007802303414791822,0.003504366846755147,-0.007432357873767614,0.003647885750979185,-0.00026159873232245445,0.008835031650960445
0.00766443507745862,0.004195668268948793,-0.0074203768745064735,0.0040741912089288235,-0.00027370077441446483,0.0081474082544446
0.007885969243943691,0.0039533027447760105,-0.007543153595179319,0.004113653674721718,-0.0002656963770277798,0.008283501490950584
0.0076248231343925,0.0037540604826062918,-0.0076093412935733795,0.004519232548773289,-0.00025637203361839056,0.008465630002319813
0.008214117027819157,0.003786104265600443,-0.006893966346979141,0.004224591422826052,-0.0002475649234838784,0.008328551426529884
0.008392714895308018,0.003936917521059513,-0.007246267516165972,0.0039314767345786095,-0.00023457843053620309,0.008265127427875996
0.007763621862977743,0.003493093652650714,-0.007391933351755142,0.0038471075240522623,-0.0002219529851572588,0.008556945249438286
0.008183223195374012,0.0035763338673859835,-0.0072607481852173805,0.003954756539314985,-0.00021145257051102817,0.008582068607211113
0.009008368477225304,0.003644238691776991,-0.006922908127307892,0.0035450109280645847,-0.00020195524848531932,0.008519446477293968
0.008703741244971752,0.00368933635763824,-0.0072270892560482025,0.003510670503601432,-0.00022677423839922994,0.008613080717623234
0.00848390907049179,0.0037435104604810476,-0.007339884527027607,0.003958387766033411,-0.00022204390552360564,0.008560906164348125
0.007899927906692028,0.004161547403782606,-0.007616003975272179,0.004246881231665611,-0.0002135612303391099,0.008282138966023922
0.00888666883111,0.004243091680109501,-0.007487003225833178,0.004068959504365921,-0.00023077668447513133,0.00835324078798294
0.008227949030697346,0.004048310685902834,-0.007592829875648022,0.003933390602469444,-0.00023032884928397834,0.008558074943721294
0.008027601055800915,0.0039608352817595005,-0.007119456306099892,0.003895161207765341,-0.00022270783665589988,0.0080928485840559
0.008065454661846161,0.0040153744630515575,-0.007060464005917311,0.003996046259999275,-0.00024179561296477914,0.007818388752639294
0.008905882015824318,0.004031832795590162,-0.007398667745292187,0.003973338752985001,-0.00023748644161969423,0.00847253855317831
0.007985913194715977,0.003972088918089867,-0.007622947916388512,0.0038555075880140066,-0.00023013415921013802,0.009060079231858253
0.008004278875887394,0.004354933742433786,-0.00740862125530839,0.004289265722036362,-0.00022302103752736002,0.008294457569718361
0.008223621174693108,0.004253054037690163,-0.006474655587226152,0.00416055042296648,-0.00026164084556512535,0.008050668984651566
0.008223621174693108,0.004253054037690163,-0.006474655587226152,0.00416055042296648,-0.00026164084556512535,0.008050668984651566
0.008228709921240807,0.004185879603028297,-0.007081006653606892,0.003916202578693628,-0.00028793164528906345,0.00868562888354063
0.008303141221404076,0.003883475437760353,-0.007723867427557707,0.004080144688487053,-0.0002732591819949448,0.00856421422213316
0.00809885561466217,0.0037033369299024343,-0.007434637751430273,0.004041082225739956,-0.00025778330746106803,0.008160300552845001
0.00861349981278181,0.0037334999069571495,-0.007337550632655621,0.003898102790117264,-0.00024382238916587085,0.007875575684010983
0.008989972993731499,0.003852372756227851,-0.006592013407498598,0.004228296224027872,-0.00027132892864756286,0.008017863146960735
0.008154955692589283,0.0038322533946484327,-0.007296307478100061,0.004496301524341106,-0.00029071158496662974,0.007425921969115734
0.008087888360023499,0.004299102816730738,-0.007543074432760477,0.004193292465060949,-0.00029993156204000115,0.007465653121471405
0.008086883462965488,0.003660727757960558,-0.006941076368093491,0.00353678734973073,-0.0003055886481888592,0.007637204136699438
0.008252982050180435,0.0034415919799357653,-0.007181229069828987,0.0034403158351778984,-0.00029429796268232167,0.00799234677106142
0.008583140559494495,0.0034157249610871077,-0.007655988447368145,0.0037851734086871147,-0.00038522679824382067,0.007860271260142326
0.008772567845880985,0.00365553330630064,-0.007706315256655216,0.004024773836135864,-0.0003688125289045274,0.007626750506460667
0.00872102938592434,0.0038407822139561176,-0.007347563747316599,0.004021645989269018,-0.000341795472195372,0.008070096373558044
0.008688392117619514,0.004259523004293442,-0.007531499955803156,0.0035724870394915342,-0.0003176955215167254,0.007719716988503933
0.008514482527971268,0.004175193607807159,-0.0076659019105136395,0.0035243297461420298,-0.00034046583459712565,0.007714677602052689
0.008209520019590855,0.00401289202272892,-0.007279937621206045,0.004145467188209295,-0.0003330400795675814,0.0075442614033818245
0.00851564109325409,0.003873345209285617,-0.007177375257015228,0.0037444550544023514,-0.00031452340772375464,0.007391720078885555
0.00870923325419426,0.003879725933074951,-0.008249596692621708,0.003529780078679323,-0.0002972931833937764,0.007417628075927496
0.008891667239367962,0.003911241423338652,-0.007874339818954468,0.003509009722620249,-0.00028173960163258016,0.007403174415230751
0.008005557581782341,0.003919677343219519,-0.008070419542491436,0.003639664500951767,-0.0002677720913197845,0.00740634324029088
0.008277611806988716,0.0038773848209530115,-0.0077794399112463,0.0036734354216605425,-0.00025514321168884635,0.007377905305474997
0.00826136115938425,0.0038262989837676287,-0.00787578709423542,0.003660451155155897,-0.0002814677427522838,0.00739815691486001
0.0080923056229949,0.0043458095751702785,-0.008223612792789936,0.004183625336736441,-0.0002717819297686219,0.007502367720007896
0.008118691854178905,0.0042028785683214664,-0.008108426816761494,0.004397233948111534,-0.0002607020433060825,0.00761095155030489
0.008168983273208141,0.003878810675814748,-0.007493732031434774,0.004269677679985762,-0.00028134568128734827,0.00775909936055541
0.008239599876105785,0.003736412851139903,-0.007618208881467581,0.0035793923307210207,-0.00027486839098855853,0.007603143807500601
0.008236764930188656,0.0037905219942331314,-0.008086846210062504,0.0035856985487043858,-0.0002650272217579186,0.007485975045710802
0.00849843118339777,0.003802412888035178,-0.007708644028753042,0.003781127743422985,-0.0002556090767029673,0.007537720259279013
0.008309307508170605,0.004320827312767506,-0.007641537580639124,0.0034942382480949163,-0.00024186621885746717,0.007500197738409042
0.008114553056657314,0.004126401152461767,-0.008256861940026283,0.003478711238130927,-0.00022847122454550117,0.007086669094860554
0.007836653850972652,0.0039780535735189915,-0.007692323997616768,0.003595079528167844,-0.0002173589455196634,0.007304505445063114
0.007836653850972652,0.0039780535735189915,-0.007692323997616768,0.003595079528167844,-0.0002173589455196634,0.007304505445063114
0.008922968059778214,0.003886345075443387,-0.007560895290225744,0.004200704395771027,-0.00020733715791720897,0.0077633303590118885
0.007848521694540977,0.003753810189664364,-0.00812606606632471,0.003849281230941415,-0.00018983853806275874,0.007311947178095579
0.008206644095480442,0.004067783243954182,-0.007478129584342241,0.003771556541323662,-0.00021610404655802995,0.0072412951849401
0.008463848382234573,0.004610144067555666,-0.007159483153373003,0.004115349613130093,-0.0002099166449625045,0.007475909776985645
0.0085259098559618,0.004243670497089624,-0.007557228673249483,0.004242402035742998,-0.00020219972066115588,0.007369564846158028
0.007981173694133759,0.004394270479679108,-0.007922137156128883,0.004036713857203722,-0.00019490976410452276,0.006884129252284765
0.008500639349222183,0.004361342638731003,-0.007427825592458248,0.004284657537937164,-0.00018811952031683177,0.006928263697773218
0.008436948992311954,0.00456397095695138,-0.00700826570391655,0.00422022957354784,-0.0002080631093122065,0.007375596556812525
0.008298163302242756,0.004265346564352512,-0.007788391318172216,0.003983330447226763,-0.0002049128815997392,0.007521465420722961
0.008325007744133472,0.004053897690027952,-0.008453553542494774,0.003791755298152566,-0.000198686626390554,0.007115071173757315
0.008379839360713959,0.004008609801530838,-0.007911019027233124,0.003855561837553978,-0.00019262639398220927,0.0068716444075107574
0.008255376480519772,0.00396208418533206,-0.007809107657521963,0.003537016687914729,-0.00018691200239118189,0.007299275603145361
0.008254259824752808,0.004160369746387005,-0.008068880997598171,0.004019278101623058,-0.00018152609118260443,0.007485047448426485
0.009133348241448402,0.00467645050957799,-0.007673104293644428,0.004182512406259775,-0.00017644176841713488,0.007506964262574911
0.007971471175551414,0.004667310044169426,-0.007254463620483875,0.004242233000695705,-0.00018980161985382438,0.007040632423013449
0.00791044533252716,0.004343533888459206,-0.007892944850027561,0.0042568095959723,-0.00019053627329412848,0.0068758511915802956
0.008296058513224125,0.004060894716531038,-0.007982016541063786,0.003960122354328632,-0.00018599050235934556,0.0069963023997843266
0.008426656015217304,0.0042840237729251385,-0.007597754709422588,0.003626828547567129,-0.00018133070261683315,0.006889007985591888
0.008240669034421444,0.004307907074689865,-0.007577483542263508,0.003547149943187833,-0.00017687721992842853,0.006895257160067558
0.008090319111943245,0.0040657734498381615,-0.007081250660121441,0.003476337529718876,-0.00017263625341001898,0.00718148285523057
0.00887564942240715,0.004156904295086861,-0.00818708911538124,0.0035821665078401566,-0.00016859376046340913,0.007183300331234932
0.008602028712630272,0.004100371617823839,-0.008033700287342072,0.004006582777947187,-0.00016473601863253862,0.007165051996707916
0.008149729110300541,0.004353503696620464,-0.007094689644873142,0.004151530098170042,-0.000165317949722521,0.006896553561091423
0.008149729110300541,0.004353503696620464,-0.007094689644873142,0.004151530098170042,-0.000165317949722521,0.006896553561091423
0.008433490991592407,0.0041001965291798115,-0.007453019265085459,0.004451385233551264,-0.00016351538943126798,0.006668493151664734
0.008480665273964405,0.003943816293030977,-0.007968764752149582,0.004460823722183704,-0.0001580466632731259,0.00683232955634594
0.008147389627993107,0.0038839150220155716,-0.007862602360546589,0.004304362926632166,-0.00015270063886418939,0.0071485466323792934
0.007855202071368694,0.004339960403740406,-0.006790420040488243,0.003674228908494115,-0.00014769000699743629,0.006953887641429901
0.00870430562645197,0.004312178120017052,-0.007465369533747435,0.004005301743745804,-0.00016444271022919565,0.0064019812270998955
0.008146913722157478,0.004113421775400639,-0.0074514420703053474,0.004240014590322971,-0.0001612188498256728,0.006608674302697182
0.007787399925291538,0.0038345279172062874,-0.006874291226267815,0.004474091809242964,-0.0001566518476465717,0.00672963447868824
0.008309368044137955,0.0035795969888567924,-0.006952256429940462,0.004454074893146753,-0.0001522420352557674,0.006638137623667717
0.008913764730095863,0.0036674358416348696,-0.007526097819209099,0.00418384512886405,-0.00014806789113208652,0.006382360123097897
0.008020905777812004,0.00391564192250371,-0.007858709432184696,0.0038466504774987698,-0.00014411586744245142,0.006401119753718376
0.008162315934896469,0.004011656157672405,-0.007313915528357029,0.0037257405929267406,-0.00014036970969755203,0.006694143172353506
0.008171537891030312,0.00437683891505003,-0.006820429116487503,0.003843555459752679,-0.00015808752505108714,0.006413150578737259
0.008548188954591751,0.0046311188489198685,-0.007432073820382357,0.004285665228962898,-0.00015557109145447612,0.006176518741995096
0.007943079806864262,0.004218467511236668,-0.007727336138486862,0.004542948212474585,-0.00015191035345196724,0.006091802380979061
0.008288930170238018,0.003926121164113283,-0.0075581795535981655,0.004231247119605541,-0.00015875519602559507,0.006240855436772108
0.008272781036794186,0.004270080476999283,-0.006908593699336052,0.004004208836704493,-0.00016492727445438504,0.006284425035119057
0.00813719630241394,0.004215675871819258,-0.007289049681276083,0.003948692232370377,-0.00016186047287192196,0.006090780254453421
0.008214619942009449,0.004175731446594,-0.008064097724854946,0.003929624333977699,-0.00015834247460588813,0.00615091435611248
0.008214619942009449,0.004175731446594,-0.008064097724854946,0.003929624333977699,-0.00015834247460588813,0.00615091435611248
0.00849148165434599,0.004352396819740534,-0.007588931359350681,0.0038651253562420607,-0.00018753540643956512,0.0058524273335933685
0.00868016853928566,0.004407081287354231,-0.007287130691111088,0.003920770715922117,-0.00020993006182834506,0.006454623769968748
0.008334781043231487,0.004534667823463678,-0.0075043984688818455,0.004024724010378122,-0.00020251802925486118,0.006440286990255117
0.008411115035414696,0.004152360372245312,-0.008646530099213123,0.0039387294091284275,-0.00021288709831424057,0.00575679587200284
0.008814698085188866,0.004381085280328989,-0.007881044410169125,0.003824093146249652,-0.00022180614178068936,0.0058622159995138645
0.008423150517046452,0.004104488529264927,-0.0074669667519629,0.003619579365476966,-0.00021416309755295515,0.005899785552173853
0.008425557985901833,0.003884589299559593,-0.007665334269404411,0.004378118086606264,-0.00020606450561899692,0.006134063936769962
0.008863992989063263,0.004145668353885412,-0.007951418869197369,0.004631747957319021,-0.00019849387172143906,0.005640987306833267
0.009097895585000515,0.004064532462507486,-0.007704268209636211,0.004613710101693869,-0.00021913094678893685,0.00561152258887887
0.00845846813172102,0.0043128556571900845,-0.007374291308224201,0.004141436889767647,-0.00021543911134358495,0.0058124675415456295
0.009127356112003326,0.00408824672922492,-0.007887848652899265,0.004246392287313938,-0.00020855561888311058,0.005875112023204565
0.00868440605700016,0.003936339169740677,-0.007509998045861721,0.004188343416899443,-0.00020188720372971147,0.005641124676913023
0.008231102488934994,0.004168493673205376,-0.007242541294544935,0.0042385561391711235,-0.0002167084312532097,0.0052683367393910885
0.008871758356690407,0.0047735972329974174,-0.008004043251276016,0.004249722231179476,-0.00021048377675469965,0.005349013954401016
0.008552532643079758,0.004593758378177881,-0.007499699480831623,0.004119270946830511,-0.0002045117289526388,0.005379160866141319
0.008357013575732708,0.004201001953333616,-0.0074803754687309265,0.004362903535366058,-0.00019886351947207004,0.0059176161885261536
0.008921989239752293,0.00387315871194005,-0.007750370539724827,0.004404078703373671,-0.0001935182517627254,0.005829446483403444
0.008699764497578144,0.0038636457175016403,-0.007767829112708569,0.004505563993006945,-0.00021759096125606447,0.005693335551768541
0.0082717165350914,0.00437069172039628,-0.007574520539492369,0.004205838777124882,-0.0002341091021662578,0.0055052293464541435
0.009086268953979015,0.004494617693126202,-0.007647168356925249,0.0042127142660319805,-0.00022426196665037423,0.00581453088670969
0.008405792526900768,0.004336421377956867,-0.007787032518535852,0.003967370372265577,-0.000213726467336528,0.00561359990388155
0.008653584867715836,0.0040603624656796455,-0.007728470489382744,0.003789967857301235,-0.00020404093083925545,0.005800876300781965
0.009055626578629017,0.004328595474362373,-0.007372944615781307,0.0038551432080566883,-0.00021427632600534707,0.005417410749942064
0.008635024540126324,0.004206227138638496,-0.00727655878290534,0.004247812554240227,-0.0002231849211966619,0.005277096759527922
0.008485396392643452,0.0039726137183606625,-0.008025779388844967,0.0041213748045265675,-0.00021544084302149713,0.005108283832669258
0.008812745101749897,0.004023387096822262,-0.007802821230143309,0.0041886805556714535,-0.0002072470961138606,0.0047946530394256115
0.00881265103816986,0.004081615712493658,-0.007419691886752844,0.004276268184185028,-0.00019959041674155742,0.005301904398947954
0.008810540661215782,0.003909857477992773,-0.0076424237340688705,0.004025243688374758,-0.00019247607269790024,0.005771124269813299
0.008810540661215782,0.003909857477992773,-0.0076424237340688705,0.004025243688374758,-0.00019247607269790024,0.005771124269813299
0.00867445208132267,0.003811806673184037,-0.007597814314067364,0.0038286654744297266,-0.00018585039651952684,0.005651047918945551
0.008669150061905384,0.004274363163858652,-0.007519904989749193,0.004133936949074268,-0.00017966610903386027,0.005026944912970066
0.008947446011006832,0.004091212525963783,-0.007238588761538267,0.004230549093335867,-0.00019902423082385212,0.00502614164724946
0.009692887775599957,0.0035883032251149416,-0.007514765486121178,0.003869439009577036,-0.00019056902965530753,0.0051551880314946175
0.009692887775599957,0.0035883032251149416,-0.007514765486121178,0.003869439009577036,-0.00019056902965530753,0.0051551880314946175
0.008838392794132233,0.003073467407375574,-0.007575333584100008,0.0035614019725471735,-0.00018498770077712834,0.005000793840736151
0.009215213358402252,0.0029319273307919502,-0.007433680817484856,0.003644159296527505,-0.0001797113218344748,0.005149334203451872
0.008920364081859589,0.0033354777842760086,-0.0076009673066437244,0.004100072663277388,-0.00017472708714194596,0.004997439682483673
0.009243429638445377,0.0033628155943006277,-0.0076400586403906345,0.004597305785864592,-0.00018193750292994082,0.005051142070442438
0.009148736484348774,0.003596727503463626,-0.008317851461470127,0.004678595345467329,-0.00018838579126168042,0.004861277528107166
0.009580348618328571,0.003642207244411111,-0.006938832812011242,0.004470869433134794,-0.00017974269576370716,0.0044175805523991585
0.009804591536521912,0.0033503028098493814,-0.007297484204173088,0.004167978651821613,-0.00017536741506773978,0.0041986750438809395
0.008852967992424965,0.00337389437481761,-0.007985818199813366,0.004117288626730442,-0.00017119800031650811,0.0040347944013774395
0.009102093987166882,0.0036331391893327236,-0.007557953707873821,0.0040071941912174225,-0.00017709651729092002,0.004006385803222656
0.009223339147865772,0.003335571615025401,-0.007585650775581598,0.003939877264201641,-0.0001719402353046462,0.004368564113974571
0.009684744291007519,0.0032630448695272207,-0.007929968647658825,0.003975424915552139,-0.0001657124812481925,0.004139778204262257
0.009190982207655907,0.0033401695545762777,-0.00768537912517786,0.004347245208919048,-0.00015983280900400132,0.004307920578867197
0.009561530314385891,0.003377340268343687,-0.007454187609255314,0.004100799094885588,-0.0001543503167340532,0.004558064974844456
0.009370113722980022,0.003222415456548333,-0.007351759821176529,0.0038815997540950775,-0.00017132174980361015,0.004468946717679501
0.00926677044481039,0.003292156383395195,-0.00809235405176878,0.0037867953069508076,-0.00017282193584833294,0.004120293073356152
0.009513964876532555,0.0036504233721643686,-0.0076357172802090645,0.0037717046216130257,-0.00016790447989478707,0.003944281488656998
0.00935663003474474,0.00394872622564435,-0.007395580410957336,0.0037813594099134207,-0.0001628696481930092,0.0039243451319634914
0.01013513095676899,0.0034962184727191925,-0.007367535959929228,0.004098223987966776,-0.0001581027900101617,0.003532248083502054
0.009716778993606567,0.0031530559062957764,-0.007988136261701584,0.004313131794333458,-0.00015360544784925878,0.00399377103894949
0.009373027831315994,0.003122204216197133,-0.007625446654856205,0.004515902139246464,-0.00014935649232938886,0.004563477355986834
0.00895179808139801,0.003307587467133999,-0.00638265535235405,0.004287051036953926,-0.00014533635112456977,0.00481176795437932
0.009603209793567657,0.003434181911870837,-0.007818696089088917,0.003999687731266022,-0.0001415270089637488,0.004540278576314449
0.009603209793567657,0.003434181911870837,-0.007818696089088917,0.003999687731266022,-0.0001415270089637488,0.004540278576314449
0.009758505038917065,0.00349272764287889,-0.008388782851397991,0.0038949954323470592,-0.00013791254605166614,0.004248740151524544
0.009495722129940987,0.003273928537964821,-0.007461788132786751,0.004076648037880659,-0.00013447777018882334,0.003602085169404745
0.00981324352324009,0.003554106457158923,-0.007548578083515167,0.004129395354539156,-0.0001474214077461511,0.0035931013990193605
0.01049682404845953,0.003299880772829056,-0.006968118716031313,0.004400755278766155,-0.0001490776485297829,0.003729590680450201
0.009111540392041206,0.0031613451428711414,-0.008073669858276844,0.004477221053093672,-0.00014595960965380073,0.003835921175777912
0.00971815176308155,0.0031671361066401005,-0.008266525343060493,0.004301815293729305,-0.00014267586811911315,0.003890796098858118
0.010703977197408676,0.00330738490447402,-0.0071337237022817135,0.003971719183027744,-0.00013951757864560932,0.003843082580715418
0.00972331129014492,0.0033839496318250895,-0.007364447694271803,0.0038102976977825165,-0.000150956679135561,0.0035048634745180607
0.009895476512610912,0.0033197933807969093,-0.007606687024235725,0.004161997232586145,-0.0001494936877861619,0.0034746730234473944
0.009488074108958244,0.0031042781192809343,-0.007418088614940643,0.004170648753643036,-0.00014647211355622858,0.0033752024173736572
0.00974968634545803,0.003022268880158663,-0.00762229273095727,0.004041637293994427,-0.00014355291204992682,0.003017570124939084
0.00999059621244669,0.0030801596585661173,-0.007684515789151192,0.004211151972413063,-0.00014074693899601698,0.002881014719605446
0.009619486518204212,0.0033762657549232244,-0.007410856895148754,0.004215742461383343,-0.00013804809714201838,0.0027806374710053205
0.009789399802684784,0.0034651660826057196,-0.007667286787182093,0.004393843002617359,-0.00015416948008351028,0.0031464784406125546
0.009778118692338467,0.0034932419657707214,-0.007841221988201141,0.004085577558726072,-0.00015174482541624457,0.0033053301740437746
0.010566459968686104,0.00336557743139565,-0.007848760113120079,0.004389297682791948,-0.00014696943981107324,0.0033752568997442722
0.010048924013972282,0.003447445807978511,-0.007364276796579361,0.004606820177286863,-0.00014233231195248663,0.003362060757353902
0.009795808233320713,0.0036762855015695095,-0.007064548321068287,0.004377387464046478,-0.00015840159903746098,0.0031591288279742002
0.009832724928855896,0.0034075500443577766,-0.0078848572447896,0.004492344334721565,-0.00016016940935514867,0.0028615009505301714
0.010722023434937,0.0035256375558674335,-0.008312595076858997,0.004492840729653835,-0.00015596557932440192,0.0028342758305370808
0.010130762122571468,0.003658938454464078,-0.008189155720174313,0.004092742223292589,-0.0001516139745945111,0.0029214308597147465
0.01007060520350933,0.003800267120823264,-0.0075741917826235294,0.004291481338441372,-0.00016568585124332458,0.002993690548464656
0.011249515227973461,0.003282533958554268,-0.008251494728028774,0.0041856165044009686,-0.00016706385940779,0.0029390626586973667
0.011249515227973461,0.003282533958554268,-0.008251494728028774,0.0041856165044009686,-0.00016706385940779,0.0029390626586973667
0.010013884864747524,0.0032772235572338104,-0.008268112316727638,0.0044563584960997105,-0.00016311551735270768,0.003066906239837408
0.009583537466824055,0.00337220449000597,-0.008149877190589905,0.004323831759393215,-0.0001787492074072361,0.0029555910732597113
0.01016809232532978,0.0036263528745621443,-0.008288325741887093,0.004369775764644146,-0.00017707186634652317,0.0025499763432890177
0.010271512903273106,0.0033648167736828327,-0.008429666981101036,0.004514829721301794,-0.0001729946961859241,0.002489469712600112
0.010502147488296032,0.003094806568697095,-0.008219318464398384,0.0045839943923056126,-0.000269818352535367,0.002255042316392064
0.01071249134838581,0.0033547752536833286,-0.007913046516478062,0.004446662031114101,-0.0002853074111044407,0.002218617359176278
0.00998056773096323,0.003124477807432413,-0.008352366276085377,0.004472870379686356,-0.00027029914781451225,0.0023335095029324293
0.010889829136431217,0.0032850655261427164,-0.008319522254168987,0.004252887796610594,-0.00030260076164267957,0.0022558877244591713
0.010996811091899872,0.0033800925593823195,-0.008259604685008526,0.004331900272518396,-0.00031302394927479327,0.002142595127224922
0.010092196054756641,0.0034186202101409435,-0.008379237726330757,0.0042755622416734695,-0.0003191510040778667,0.0019198691006749868
0.010300238616764545,0.0038751966785639524,-0.007734114769846201,0.004347793757915497,-0.00032986057340167463,0.0017210333608090878
0.010322040878236294,0.0034108248073607683,-0.007920103147625923,0.004282223526388407,-0.0004226689343340695,0.0018303790129721165
0.011141924187541008,0.0030833149794489145,-0.008320633322000504,0.004464615602046251,-0.0004758587456308305,0.0018495399272069335
0.011225548572838306,0.0029780922923237085,-0.008839206770062447,0.004639512859284878,-0.000500008522067219,0.0021137206349521875
0.01150230597704649,0.003070811042562127,-0.008428066037595272,0.00477112689986825,-0.00047601244295947254,0.001954767620190978
0.011323494836688042,0.00334899197332561,-0.008131408132612705,0.004649230279028416,-0.0004386319196783006,0.0018931770464405417
0.011456530541181564,0.0034514872822910547,-0.008249897509813309,0.004406529013067484,-0.0004396569274831563,0.0015279293293133378
0.011456530541181564,0.0034514872822910547,-0.008249897509813309,0.004406529013067484,-0.0004396569274831563,0.0015279293293133378
0.011447581462562084,0.0032154242508113384,-0.00841217115521431,0.004308812320232391,-0.00046224496327340603,0.001348960562609136
0.011479046195745468,0.0035642008297145367,-0.009249997325241566,0.004548759199678898,-0.0004409010289236903,0.0012074732221662998
0.011337129399180412,0.003265627194195986,-0.008309712633490562,0.004720858298242092,-0.00044904855894856155,0.0011511113261803985
0.010949734598398209,0.0030015010852366686,-0.00829591229557991,0.004785451106727123,-0.000438542541814968,0.0010526060359552503
0.010884222574532032,0.0029411534778773785,-0.007954777218401432,0.004541091620922089,-0.000440357718616724,0.0009725759155116975
0.01102258637547493,0.003092279890552163,-0.00872593093663454,0.004575861617922783,-0.0004398023884277791,0.0009572694543749094
0.01102258637547493,0.003092279890552163,-0.00872593093663454,0.004575861617922783,-0.0004398023884277791,0.0009572694543749094
0.010755381546914577,0.003091647755354643,-0.008625717833638191,0.004607758019119501,-0.0004676329263020307,0.000980823184363544
0.011046873405575752,0.0031602485105395317,-0.008698333986103535,0.004619763698428869,-0.00044290669029578567,0.000904097396414727
0.010908722877502441,0.003309641731902957,-0.00876608770340681,0.004657252691686153,-0.0004693531955126673,0.0010199745884165168
0.011211695149540901,0.003074867883697152,-0.008614828810095787,0.004757996648550034,-0.0004440224729478359,0.0009332337649539113
0.01171699445694685,0.0031819730065762997,-0.008396734483540058,0.004894142970442772,-0.0005145699251443148,0.0008004563860595226
0.011277366429567337,0.0032453141175210476,-0.008668034337460995,0.004880531691014767,-0.0004916428588330746,0.0006971879047341645
0.011226290836930275,0.0030980370938777924,-0.008471575565636158,0.004803041461855173,-0.0005102574941702187,0.0006173265865072608
0.011170621030032635,0.0030376482754945755,-0.00845733005553484,0.004622222390025854,-0.0004846271767746657,0.0005538933328352869
0.01088630873709917,0.0028433918487280607,-0.008351805619895458,0.004558117128908634,-0.0005149422213435173,0.000502300972584635
0.01197700947523117,0.0029871026054024696,-0.00920732319355011,0.004798957146704197,-0.00048025144496932626,0.000525520124938339
0.011444996111094952,0.00305790058337152,-0.008521361276507378,0.005174098536372185,-0.0005057959933765233,0.0004933218588121235
0.01154983602464199,0.0031306189484894276,-0.008287323638796806,0.004887079354375601,-0.0005122088477946818,0.00042699617915786803
0.01125924289226532,0.0028612930327653885,-0.00925589632242918,0.004740883596241474,-0.0004808930098079145,0.00039987964555621147
0.011330556124448776,0.002928166650235653,-0.008716451935470104,0.004707780666649342,-0.0004995734198018909,0.0003760035033337772
0.011180980131030083,0.0029373508878052235,-0.007844403386116028,0.004788424354046583,-0.0004753222456201911,0.00035481774830259383
0.011280241422355175,0.003070185426622629,-0.008645870722830296,0.004728637635707855,-0.0004915972240269184,0.0003358926041983068
0.011451834812760353,0.002898572478443384,-0.0090958122164011,0.004678364377468824,-0.000471483072033152,0.00021846996969543397
0.011311792768537998,0.0029027278069406748,-0.008060009218752384,0.004983098711818457,-0.0004396535223349929,0.0001129634547396563
0.011432940140366554,0.0028511141426861286,-0.008682584390044212,0.00502422172576189,-0.00046564076910726726,0.00010060540807899088
0.01130466628819704,0.003160926280543208,-0.009261572733521461,0.00486857770010829,-0.0004848473472520709,9.490293450653553e-05
0.010548747144639492,0.0031287861056625843,-0.00859173946082592,0.004860980436205864,-0.0004765158228110522,9.012356895254925e-05
0.011282805353403091,0.002905559493228793,-0.008221263997256756,0.0052368734031915665,-0.0005138610722497106,8.58236089698039e-05
0.01133163645863533,0.0030071025248616934,-0.009005678817629814,0.005115230567753315,-0.0005422959802672267,8.19167762529105e-05
0.011137020774185658,0.002973193069919944,-0.008545417338609695,0.005224485415965319,-0.0005081500275991857,7.835032738512382e-05
0.011793119832873344,0.0033608858939260244,-0.00821163784712553,0.005021573510020971,-0.00047077739145606756,7.508143607992679e-05
0.011263338848948479,0.003220905549824238,-0.009287719614803791,0.004901787266135216,-0.0004962492967024446,7.207446469692513e-05
0.011401494964957237,0.0029526802245527506,-0.008826497942209244,0.004996734205633402,-0.0004677960532717407,6.929923983989283e-05
0.011400089599192142,0.002981192199513316,-0.008445666171610355,0.004961017519235611,-0.0004904008819721639,6.672992458334193e-05
0.01117902621626854,0.0029110813047736883,-0.008920801803469658,0.005187744740396738,-0.00048632672405801713,3.4350458008702844e-05
0.01117902621626854,0.0029110813047736883,-0.008920801803469658,0.005187744740396738,-0.00048632672405801713,3.4350458008702844e-05
0.011696873232722282,0.0030575147829949856,-0.008814644999802113,0.0053688534535467625,-0.00048433509073220193,3.1203766411636025e-05
0.011255322024226189,0.0032895382028073072,-0.008742333389818668,0.0047754463739693165,-0.0004799135203938931,3.0034543669898994e-05
0.011357827112078667,0.003115885891020298,-0.008482086472213268,0.004635292571038008,-0.0004787795478478074,3.8467214835691266e-06
0.01157354936003685,0.0031029528472572565,-0.009190461598336697,0.005109203979372978,-0.0004753526591230184,2.5116341362263483e-07
0.011437282897531986,0.0029418696649372578,-0.009116491302847862,0.005056531168520451,-0.00044397302553988993,1.6399175351011763e-08
0.011564758606255054,0.0028850804083049297,-0.008534237742424011,0.005121388006955385,-0.00046607860713265836,1.0707489339623066e-09
0.010859335772693157,0.0027854733634740114,-0.009223765693604946,0.0052324398420751095,-0.00044430201523937285,6.991224960062326e-11
0.011243483051657677,0.002838314278051257,-0.008959054946899414,0.004730893764644861,-0.0004188983584754169,4.564770002962737e-12
0.011945570819079876,0.002757943468168378,-0.008788395673036575,0.005001294892281294,-0.00042738293996080756,2.980468519556134e-13
0.011788006871938705,0.0021630243863910437,-0.00952740665525198,0.00510950805619359,-0.00036886578891426325,-0.0009935853304341435
0.01132174301892519,0.0019735353998839855,-0.008557496592402458,0.0048814937472343445,-0.0003409452037885785,-0.0011164050083607435
0.011394779197871685,0.002142257522791624,-0.00812939740717411,0.00520574813708663,-0.00036351592279970646,-0.0011185589246451855
0.01185174472630024,0.002554053207859397,-0.009035718627274036,0.005138077773153782,-0.00035417545586824417,-0.0014380287611857057
0.011117956601083279,0.0024677568580955267,-0.008581357076764107,0.005402750335633755,-0.00033325457479804754,-0.0015284307301044464
0.011473726481199265,0.002338482066988945,-0.00817142240703106,0.005346442572772503,-0.0003524849016685039,-0.001667006523348391
0.011748653836548328,0.0023315781727433205,-0.009578392840921879,0.005386515520513058,-0.00036933599039912224,-0.0017104570288211107
0.011532684788107872,0.002193731488659978,-0.009027501568198204,0.005457606632262468,-0.00037325499579310417,-0.0019212827319279313
0.011332157999277115,0.002130244392901659,-0.00878484919667244,0.005423534195870161,-0.00040876201819628477,-0.001955025363713503
0.011372269131243229,0.002120144898071885,-0.008604317903518677,0.005271891597658396,-0.0004495802859310061,-0.002255185740068555
0.011782110668718815,0.002360708313062787,-0.008952567353844643,0.0056907846592366695,-0.0004856940940953791,-0.002209403784945607
0.011595443822443485,0.0022949534468352795,-0.008462345227599144,0.005881979130208492,-0.0004998276708647609,-0.0023769999388605356
0.011425782926380634,0.0024250412825495005,-0.008565588854253292,0.005581699777394533,-0.0004962229286320508,-0.0027956124395132065
0.01173635758459568,0.002209105296060443,-0.009468728676438332,0.0052850376814603806,-0.0007915952010080218,-0.002905510365962982
0.011665526777505875,0.0020929672755301,-0.009031910449266434,0.005203082226216793,-0.000837913597933948,-0.0028040562756359577
0.012060717679560184,0.001999904867261648,-0.008496541529893875,0.005556508433073759,-0.0008013685001060367,-0.002766707446426153
0.012060717679560184,0.001999904867261648,-0.008496541529893875,0.005556508433073759,-0.0008013685001060367,-0.002766707446426153
0.011473788879811764,0.002020058687776327,-0.009058190509676933,0.005730588920414448,-0.0007582513499073684,-0.002509430516511202
0.011936464346945286,0.0023419810459017754,-0.0086963577196002,0.005695309489965439,-0.0007507301052100956,-0.002430869732052088
0.011645113117992878,0.002247887896373868,-0.008590861223638058,0.005367283709347248,-0.000699701311532408,-0.0028435871936380863
0.011503700166940689,0.00216488353908062,-0.009007885120809078,0.005062289535999298,-0.0006580434856005013,-0.004547353833913803
0.011837579309940338,0.002236268948763609,-0.009685900062322617,0.005359012167900801,-0.0006825044401921332,-0.005390378646552563
0.012220067903399467,0.0021462433505803347,-0.008636011742055416,0.006120750214904547,-0.0006936267600394785,-0.005140460561960936
0.013043420389294624,0.0021446056198328733,-0.008078793063759804,0.005873273592442274,-0.0006463716272264719,-0.004677305463701487
0.011378486640751362,0.0021265496034175158,-0.009002836421132088,0.005829423200339079,-0.000665495463181287,-0.004593401215970516
0.011126683093607426,0.002325361594557762,-0.008662573993206024,0.005803578067570925,-0.000784539501182735,-0.004651525989174843
0.012044977396726608,0.002271283185109496,-0.009531425312161446,0.005757979117333889,-0.0007773761753924191,-0.00469553517177701
0.012126424349844456,0.0020935742650181055,-0.009368757717311382,0.0060714068822562695,-0.0007390573737211525,-0.004924396052956581
0.011919342912733555,0.002042828593403101,-0.008610931225121021,0.0058458102867007256,-0.0007525045075453818,-0.005577052012085915
0.011253594420850277,0.0021894595120102167,-0.00852117408066988,0.005843551829457283,-0.0007947569247335196,-0.005499876569956541
0.012090343981981277,0.0021282322704792023,-0.009238604456186295,0.005930315237492323,-0.000820784829556942,-0.00586582999676466
0.012120448984205723,0.0021191725973039865,-0.008894420228898525,0.005848615430295467,-0.0008893038029782474,-0.005537722259759903
0.011944948695600033,0.002045721746981144,-0.00856043677777052,0.006062461528927088,-0.0008451821049675345,-0.005775345489382744
0.011865549720823765,0.002119912765920162,-0.009504038840532303,0.005583815276622772,-0.0009424964082427323,-0.0057488796301186085
0.011890177614986897,0.0020900180097669363,-0.008774583227932453,0.005367069970816374,-0.0009404988959431648,-0.005672043655067682
0.012226692400872707,0.002321916166692972,-0.00816721934825182,0.005505979526787996,-0.0009075929992832243,-0.005770479328930378
0.011847313493490219,0.002457345835864544,-0.00929212011396885,0.00612275768071413,-0.0008195680566132069,-0.005701562389731407
0.012309192679822445,0.0023203822784125805,-0.009530724957585335,0.006116633303463459,-0.000822999223601073,-0.005848829168826342
0.0124695785343647,0.0021626553498208523,-0.009272311814129353,0.005867690313607454,-0.0007592215551994741,-0.006127631291747093
0.012097776867449284,0.0020647828932851553,-0.008889651857316494,0.006023865658789873,-0.0006646434194408357,-0.006261609029024839
0.012453630566596985,0.002098915632814169,-0.008872054517269135,0.005001444835215807,-0.0006642183871008456,-0.006929977331310511
0.01227753609418869,0.0020221166778355837,-0.008465202525258064,0.005591381341218948,-0.000663580431137234,-0.006853861268609762
0.012075246311724186,0.002245222916826606,-0.008385632187128067,0.0064606936648488045,-0.0006417097756639123,-0.006789546925574541
0.011813574470579624,0.002037149854004383,-0.009593394584953785,0.006417917553335428,-0.000662648759316653,-0.006814979016780853
0.011813574470579624,0.002037149854004383,-0.009593394584953785,0.006417917553335428,-0.000662648759316653,-0.006814979016780853
0.01199654582887888,0.0020699745509773493,-0.009350270964205265,0.005982183385640383,-0.0007040950586088002,-0.006908754352480173
0.011929620988667011,0.0020288352388888597,-0.008823854848742485,0.005454533267766237,-0.000714549794793129,-0.006695072166621685
0.012172839604318142,0.002020819578319788,-0.008648281916975975,0.006179189309477806,-0.0007088162237778306,-0.007245359010994434
0.012521837837994099,0.001835299888625741,-0.008657396771013737,0.006777179893106222,-0.0006808225298300385,-0.007861325517296791
0.011890768073499203,0.0019671020563691854,-0.00873907282948494,0.006680208258330822,-0.0006990604451857507,-0.007877583615481853
0.012048562057316303,0.0023249920923262835,-0.009363147430121899,0.0061175101436674595,-0.000781129056122154,-0.00773635134100914
0.012091759592294693,0.0022849361412227154,-0.008922489359974861,0.005545787513256073,-0.0008042330737225711,-0.007676930166780949
0.012438198551535606,0.0025044032372534275,-0.008631423115730286,0.0058159129694104195,-0.0008016945794224739,-0.007627724204212427
0.012577333487570286,0.0022697397507727146,-0.008506499230861664,0.006433050613850355,-0.0007860014447942376,-0.008078714832663536
0.012989168986678123,0.0019693991634994745,-0.009185311384499073,0.005930793005973101,-0.000781943672336638,-0.008577455766499043
0.012247093953192234,0.002141857286915183,-0.009192205965518951,0.006068194285035133,-0.0007812915137037635,-0.008496567606925964
0.013467316515743732,0.0022804909385740757,-0.009280884638428688,0.006494814995676279,-0.0007662532734684646,-0.008517549373209476
0.013557340018451214,0.002239115769043565,-0.008999032899737358,0.006696108728647232,-0.0007798941223882139,-0.008766570128500462
0.013514767400920391,0.0023073069751262665,-0.008819794282317162,0.0064213513396680355,-0.0007500113570131361,-0.00861611682921648
0.013188689015805721,0.0021461714059114456,-0.010061503387987614,0.006175084505230188,-0.0008678259328007698,-0.008669441565871239
0.013501224108040333,0.0020758279133588076,-0.00913785956799984,0.005774932447820902,-0.0008790358551777899,-0.008657134138047695
0.01369568519294262,0.0018828622996807098,-0.009476222097873688,0.006359619554132223,-0.0008823330281302333,-0.009083031676709652
0.013680944219231606,0.001951965969055891,-0.009976229630410671,0.005941437091678381,-0.0008431852329522371,-0.009380325675010681
0.013524453155696392,0.002230376238003373,-0.00985992606729269,0.005813965108245611,-0.0010049206903204322,-0.009066642262041569
0.01365047600120306,0.0022642933763563633,-0.009631199762225151,0.005823959596455097,-0.0009239576174877584,-0.009277381002902985
0.013811170123517513,0.002507162047550082,-0.009405468590557575,0.006202523596584797,-0.000916008313652128,-0.009039144963026047
0.01340777799487114,0.0022259093821048737,-0.009341103956103325,0.006640922743827105,-0.0008068266324698925,-0.009502905420958996
0.013795332983136177,0.002150139305740595,-0.009392783045768738,0.006416278891265392,-0.0008102349238470197,-0.009763253852725029
0.013651911169290543,0.0020680073648691177,-0.010003358125686646,0.0061663673259317875,-0.0007470817654393613,-0.009833751246333122
0.013995358720421791,0.002045139204710722,-0.00989545788615942,0.006118697114288807,-0.0007440384360961616,-0.009612697176635265
0.013441046699881554,0.0022882435005158186,-0.008929491974413395,0.006242040544748306,-0.0007338382420130074,-0.010386536829173565
0.013877417892217636,0.002236336236819625,-0.00971971731632948,0.006450456567108631,-0.0007505785906687379,-0.010299147106707096
0.013666480779647827,0.002191334031522274,-0.009933585301041603,0.006353100296109915,-0.00085433479398489,-0.009781679138541222
0.01416837703436613,0.002083600964397192,-0.009381471201777458,0.00644636619836092,-0.0009743115515448153,-0.009993107989430428
0.01416837703436613,0.002083600964397192,-0.009381471201777458,0.00644636619836092,-0.0009743115515448153,-0.009993107989430428
0.014051551930606365,0.0021228911355137825,-0.009952629916369915,0.006505575031042099,-0.0009798362152650952,-0.010753205046057701
0.0145833445712924,0.0019394165137782693,-0.010124940425157547,0.006301150657236576,-0.0009716169442981482,-0.011061117984354496
0.013811890035867691,0.0020912433974444866,-0.009440598078072071,0.0065410928800702095,-0.0012033787788823247,-0.010664965957403183
0.014120521023869514,0.0021145720966160297,-0.009569455869495869,0.006386317778378725,-0.001204605563543737,-0.01149448286741972
0.013810209929943085,0.00230564852245152,-0.009664744138717651,0.006291625555604696,-0.001157808699645102,-0.0113989831879735
0.014030428603291512,0.002319578779861331,-0.01002945750951767,0.006338469684123993,-0.0010277627734467387,-0.01157914288341999
0.014014744199812412,0.002171250293031335,-0.01018443237990141,0.007077652495354414,-0.0009335820795968175,-0.011521097272634506
0.014062004163861275,0.0020044478587806225,-0.009929405525326729,0.006986050400882959,-0.0009155782172456384,-0.011676806025207043
0.013845679350197315,0.0019716601818799973,-0.009845386259257793,0.006853446364402771,-0.0008949664188548923,-0.012177417986094952
0.014287462458014488,0.0021424645092338324,-0.009552677161991596,0.007018611766397953,-0.0008789428393356502,-0.011703968048095703
0.01410882081836462,0.0021092926617711782,-0.009187642484903336,0.007237558253109455,-0.0009260335355065763,-0.01142790075391531
0.013716334477066994,0.002266041235998273,-0.010685925371944904,0.006932387128472328,-0.0009249995346181095,-0.01152686309069395
0.014186326414346695,0.002147982595488429,-0.010398621670901775,0.006549312267452478,-0.000929890782572329,-0.011708864010870457
0.014173637144267559,0.002172855194658041,-0.009644098579883575,0.00677407206967473,-0.0011381538351997733,-0.011634252965450287
0.014666658826172352,0.0020729743409901857,-0.010511469095945358,0.0073263938538730145,-0.001041162176989019,-0.011639378033578396
0.01476531196385622,0.0020016897469758987,-0.009746183641254902,0.00744783366099,-0.0009849884081631899,-0.011422783136367798
0.014355858787894249,0.001950961770489812,-0.009459391236305237,0.0069954837672412395,-0.000939501915127039,-0.011494304053485394
0.014346793293952942,0.0021848806645721197,-0.01047017052769661,0.007078482303768396,-0.0008868704899214208,-0.011662252247333527
0.014845183119177818,0.002205840777605772,-0.010627016425132751,0.00736575061455369,-0.0008596438565291464,-0.011628558859229088
0.014346596784889698,0.002383880317211151,-0.00970461219549179,0.00735813332721591,-0.0008972784853540361,-0.011557931080460548
0.014773979783058167,0.0022388461511582136,-0.009860980324447155,0.006670733448117971,-0.0009150179685093462,-0.011739566922187805
0.014457742683589458,0.0021198445465415716,-0.0097345020622015,0.006653322838246822,-0.001264832797460258,-0.011511972174048424
0.014685389585793018,0.00202446011826396,-0.009772147983312607,0.007716631516814232,-0.0012603679206222296,-0.011981154792010784
0.014539126306772232,0.001973506063222885,-0.010647687129676342,0.007846083492040634,-0.0012183375656604767,-0.01191466860473156
0.015418369323015213,0.002058283891528845,-0.009969552978873253,0.007192539516836405,-0.001303117605857551,-0.01214034017175436
0.015418369323015213,0.002058283891528845,-0.009969552978873253,0.007192539516836405,-0.001303117605857551,-0.01214034017175436
0.014731318689882755,0.0020784209482371807,-0.009654787369072437,0.006664571352303028,-0.0012289395090192556,-0.012018836103379726
0.01517738401889801,0.0023590566124767065,-0.01048253569751978,0.00728106964379549,-0.0011719195172190666,-0.012259620241820812
0.014902949333190918,0.0021336693316698074,-0.009635413065552711,0.007485838141292334,-0.0011104523437097669,-0.012555688619613647
0.015547673217952251,0.0022039010655134916,-0.009557590819895267,0.00727410614490509,-0.0010750724468380213,-0.01261505950242281
0.016570139676332474,0.00203346717171371,-0.010411021299660206,0.006918048020452261,-0.0010766671039164066,-0.012424804270267487
0.015214623883366585,0.0020009756553918123,-0.009623141027987003,0.00683028856292367,-0.0010524495737627149,-0.012364907190203667
0.015058914199471474,0.0019248644821345806,-0.00913137849420309,0.007328543346375227,-0.0010736779076978564,-0.012953485362231731
0.01588704064488411,0.0021302690729498863,-0.009875504299998283,0.008042100816965103,-0.0010565079282969236,-0.013035248033702374
0.015921635553240776,0.0022518846672028303,-0.010188236832618713,0.007944745942950249,-0.0010313621023669839,-0.013678031042218208
0.015629995614290237,0.002215995918959379,-0.00976679939776659,0.007850264199078083,-0.0010125241242349148,-0.014006773941218853
0.01572771556675434,0.002290187869220972,-0.010390606708824635,0.007696672808378935,-0.0009611256537027657,-0.014170692302286625
0.016196196898818016,0.001995789585635066,-0.00967664085328579,0.007427277974784374,-0.0009302178514190018,-0.014304447919130325
0.01584608294069767,0.0018624878721311688,-0.010041738860309124,0.007623444776982069,-0.0009250521543435752,-0.014565235003829002
0.016140470281243324,0.0019868239760398865,-0.00967305339872837,0.007920952513813972,-0.0009601195924915373,-0.014664477668702602
0.015827711671590805,0.0019942321814596653,-0.009771663695573807,0.007470506243407726,-0.0009741279063746333,-0.01472399104386568
0.01615947112441063,0.002013045595958829,-0.010047008283436298,0.007213199511170387,-0.0009641355136409402,-0.015306440182030201
0.01615947112441063,0.002013045595958829,-0.010047008283436298,0.007213199511170387,-0.0009641355136409402,-0.015306440182030201
0.0160168819129467,0.0019132854649797082,-0.00949820876121521,0.007884901016950607,-0.0011326390085741878,-0.01571575179696083
0.01624314859509468,0.0018705814145505428,-0.009838703088462353,0.007935785688459873,-0.0011434584157541394,-0.015699677169322968
0.016107019037008286,0.0019032867858186364,-0.009719301015138626,0.007761714514344931,-0.0011270636459812522,-0.015796829015016556
0.01650328002870083,0.0018818493699654937,-0.009643688797950745,0.007710911333560944,-0.001116803614422679,-0.01561820413917303
0.016127075999975204,0.0019182781688869,-0.009787156246602535,0.007620230782777071,-0.0010998715879395604,-0.015618053264915943
0.016821740195155144,0.0018892757361754775,-0.009305727668106556,0.00751477899029851,-0.0010669241892173886,-0.015995314344763756
0.016277924180030823,0.0019174758344888687,-0.010170352645218372,0.007559181656688452,-0.0010422569466754794,-0.016322381794452667
0.01641136221587658,0.0021196373272687197,-0.010110290721058846,0.007585762534290552,-0.001128345145843923,-0.016072703525424004
0.01669810712337494,0.002090733265504241,-0.009534720331430435,0.007408183999359608,-0.0011454795021563768,-0.015920182690024376
0.016555072739720345,0.0021008397452533245,-0.009511650539934635,0.007491858676075935,-0.0011290962575003505,-0.01653249002993107
0.016806649044156075,0.0020353980362415314,-0.009843036532402039,0.007736440282315016,-0.001191900111734867,-0.016681507229804993
0.016598235815763474,0.0017748536774888635,-0.009560364298522472,0.00789798703044653,-0.0012454417301341891,-0.016922011971473694
0.01708553545176983,0.0018028576159849763,-0.009099616669118404,0.007827775552868843,-0.0012316054198890924,-0.01678876206278801
0.017119312658905983,0.001682381029240787,-0.009905364364385605,0.007826605811715126,-0.0012059310683980584,-0.01666385494172573
0.01689486764371395,0.0017814029706642032,-0.00975298136472702,0.007666236255317926,-0.0011781469220295548,-0.016895214095711708
0.01689486764371395,0.0017814029706642032,-0.00975298136472702,0.007666236255317926,-0.0011781469220295548,-0.016895214095711708
0.01671691983938217,0.0017012396128848195,-0.009363922290503979,0.008081099949777126,-0.001118308980949223,-0.016814284026622772
0.016770577058196068,0.001910717342980206,-0.009983322583138943,0.007807358168065548,-0.0010658735409379005,-0.01710030809044838
0.017407964915037155,0.0017507802695035934,-0.00979806762188673,0.007951873354613781,-0.0009555667056702077,-0.01706307753920555
0.017173299565911293,0.0017294943099841475,-0.009077143855392933,0.008353408426046371,-0.0008348526316694915,-0.01729400083422661
0.017648955807089806,0.0017459779046475887,-0.009763792157173157,0.008451834321022034,-0.000828622723929584,-0.017273705452680588
0.017015617340803146,0.0011608871864154935,-0.009773497469723225,0.007933584973216057,-0.0008592180674895644,-0.017814021557569504
0.017011860385537148,0.001041555660776794,-0.010253017768263817,0.007815069518983364,-0.0012254338944330812,-0.01831922121345997
0.017007367685437202,0.0009180629276670516,-0.009502235800027847,0.008147704415023327,-0.0012431173818185925,-0.018283654004335403
0.01737767457962036,0.0009102059993892908,-0.010652524419128895,0.00870748795568943,-0.0016855110879987478,-0.01835591346025467
0.01755477674305439,0.0009087969083338976,-0.011386063881218433,0.008559875190258026,-0.001584101701155305,-0.018106574192643166
0.01734793931245804,0.0008522514253854752,-0.010892964899539948,0.008738956414163113,-0.0014855143381282687,-0.017855051904916763
0.01725625805556774,0.0008575180545449257,-0.011084500700235367,0.008798391558229923,-0.0014399487990885973,-0.018026649951934814
0.01721331663429737,0.0008886635187081993,-0.01109944749623537,0.008420287631452084,-0.001354666892439127,-0.01807320863008499
0.01778995245695114,0.0013395723653957248,-0.010653262957930565,0.008963932283222675,-0.0013025114312767982,-0.018745888024568558
0.018581926822662354,0.0012650539865717292,-0.011419313959777355,0.009112099185585976,-0.0013094311580061913,-0.01899564079940319
0.018119288608431816,0.0011003330582752824,-0.01031567994505167,0.008056962862610817,-0.0013563052052631974,-0.018735868856310844
0.017670046538114548,0.0010651282500475645,-0.01098963525146246,0.008010582067072392,-0.0013469260884448886,-0.018776223063468933
0.01799147017300129,0.0009338012314401567,-0.01199471578001976,0.008285359479486942,-0.0014538837131112814,-0.018706249073147774
0.01777849718928337,0.0007982676033861935,-0.011056560091674328,0.00866133812814951,-0.001414466998539865,-0.019081074744462967
0.01799646019935608,0.0008078028913587332,-0.011669954285025597,0.007894746027886868,-0.0013224163558334112,-0.019126633182168007
0.017717394977808,0.0008197712013497949,-0.011569639667868614,0.00828105304390192,-0.0012646884424611926,-0.01849428005516529
0.01797361671924591,0.0008290375117212534,-0.011178066954016685,0.00851630698889494,-0.0012188105611130595,-0.01809908263385296
0.018442489206790924,0.0008563471492379904,-0.011611845344305038,0.007690500933676958,-0.001177863567136228,-0.01805356703698635
0.018347132951021194,0.0008978796540759504,-0.011410272680222988,0.007089579943567514,-0.0011654176050797105,-0.018750399351119995
0.01814446784555912,0.0008987072505988181,-0.01225404255092144,0.00802535843104124,-0.0011655680136755109,-0.01926560141146183
0.01837090402841568,0.0007988754659891129,-0.01174977421760559,0.008412622846662998,-0.0011258494341745973,-0.01951976865530014
0.01837090402841568,0.0007988754659891129,-0.01174977421760559,0.008412622846662998,-0.0011258494341745973,-0.01951976865530014
0.018208758905529976,0.0008088556351140141,-0.011735853739082813,0.007821573875844479,-0.001253370544873178,-0.019307034090161324
0.01835053041577339,0.0007994736079126596,-0.01207413338124752,0.007928702048957348,-0.0012772949412465096,-0.01923276111483574
0.01841418817639351,0.0008008703589439392,-0.011480703018605709,0.008657582104206085,-0.001247618580237031,-0.019558092579245567
0.018630534410476685,0.0007349417428486049,-0.012153038755059242,0.008680492639541626,-0.0014634056715294719,-0.019317176192998886
0.01881544478237629,0.0007535996846854687,-0.011465775780379772,0.00841954443603754,-0.0014935341896489263,-0.019468022510409355
0.018609561026096344,0.0007904673111625016,-0.011896799318492413,0.008824161253869534,-0.001372955972328782,-0.020033907145261765
0.01913790963590145,0.000805308111011982,-0.011427697725594044,0.007431860081851482,-0.0012795526999980211,-0.019961489364504814
0.018896445631980896,0.0007386098150163889,-0.01194938737899065,0.008511917665600777,-0.001237217104062438,-0.020717039704322815
0.018747445195913315,0.0007569033186882734,-0.011720935814082623,0.009103149175643921,-0.0012300001690164208,-0.020707961171865463
0.018996406346559525,0.0007695447420701385,-0.012167607434093952,0.008754590526223183,-0.0013315629912540317,-0.02028769813477993
0.0189963448792696,0.0008320113411173224,-0.012270807288587093,0.008070620708167553,-0.001897185342386365,-0.01989285834133625
0.019113866612315178,0.0008449124288745224,-0.011853519827127457,0.00860567670315504,-0.0018464734312146902,-0.020550601184368134
0.019093239679932594,0.00085258245235309,-0.012105080299079418,0.008597912266850471,-0.0018656706670299172,-0.020145904272794724
0.019113007932901382,0.0008583575836382806,-0.01153386477380991,0.008773131296038628,-0.0016600533854216337,-0.020206162706017494
0.019440138712525368,0.0009323896956630051,-0.011813829652965069,0.008735577575862408,-0.0015139925526455045,-0.02098153531551361
0.019580384716391563,0.0009834845550358295,-0.012278543785214424,0.008508821949362755,-0.00128538953140378,-0.02043168433010578
0.019006479531526566,0.0009712055907584727,-0.011450912803411484,0.008594280108809471,-0.0012430070200935006,-0.019674798473715782
0.019271716475486755,0.0009337083902209997,-0.011750644072890282,0.008462361991405487,-0.0014152636285871267,-0.019542740657925606
0.019432317465543747,0.0008596002589911222,-0.011355028487741947,0.008680922910571098,-0.0016443716594949365,-0.02046435885131359
0.019154170528054237,0.0008492387714795768,-0.012090828269720078,0.008871559984982014,-0.00157797837164253,-0.019683439284563065
0.019323334097862244,0.0008513458888046443,-0.011794522404670715,0.008522814139723778,-0.0016492041759192944,-0.019320985302329063
0.01952243596315384,0.0007487659459002316,-0.01200011931359768,0.008870920166373253,-0.0016314537497237325,-0.02014913409948349
0.019211774691939354,0.0007656412781216204,-0.012029735371470451,0.009001514874398708,-0.0014734434662386775,-0.021261636167764664
0.0194779671728611,0.000777452893089503,-0.011109689250588417,0.008755831979215145,-0.0015217431355267763,-0.02074943110346794
0.01990300416946411,0.0007667095051147044,-0.012141305953264236,0.009370222687721252,-0.0014322004280984402,-0.021036725491285324
0.019694799557328224,0.0007691201753914356,-0.011623048223555088,0.009322340600192547,-0.001533819129690528,-0.021365368738770485
0.019496694207191467,0.0007095230976119637,-0.011548787355422974,0.009133688174188137,-0.001555012771859765,-0.02142050862312317
0.019962888211011887,0.0007305765175260603,-0.011963889002799988,0.008848489262163639,-0.0016901073977351189,-0.021204406395554543
0.019962888211011887,0.0007305765175260603,-0.011963889002799988,0.008848489262163639,-0.0016901073977351189,-0.021204406395554543
0.01983620598912239,0.0007168160518631339,-0.011125789023935795,0.009034652262926102,-0.0017600764986127615,-0.020862890407443047
0.01976514235138893,0.0006828164332546294,-0.012175161391496658,0.0090993233025074,-0.00164874829351902,-0.020641766488552094
0.02029791660606861,0.0007076075999066234,-0.01135684922337532,0.008940405212342739,-0.0017463443800807,-0.02131539210677147
0.02019510604441166,0.0007336214766837656,-0.011193819344043732,0.00928604044020176,-0.0016586054116487503,-0.02177654206752777
0.019999919459223747,0.0006741201505064964,-0.01171320304274559,0.008841808885335922,-0.0016789017245173454,-0.021579604595899582
0.020968766883015633,0.0006923861219547689,-0.012458394281566143,0.009302441030740738,-0.0014632848324254155,-0.02168748900294304
0.020856795832514763,0.0006373131764121354,-0.011404288932681084,0.009575899690389633,-0.0015039194840937853,-0.021979864686727524
0.02016305923461914,0.0006443267338909209,-0.011465293355286121,0.00952333677560091,-0.0014355909079313278,-0.022187739610671997
0.020149342715740204,0.0006727672298438847,-0.011837826110422611,0.00960708037018776,-0.0016400412423536181,-0.021974120289087296
0.020114658400416374,0.0006900544976815581,-0.011800697073340416,0.009364455938339233,-0.0016108090057969093,-0.02209245041012764
0.020151130855083466,0.0007110362639650702,-0.01208717841655016,0.008961130864918232,-0.0018061549635604024,-0.02231234312057495
0.02113458700478077,0.0006572651909664273,-0.011769510805606842,0.009323887526988983,-0.0016158249927684665,-0.022523649036884308
0.020769445225596428,0.0007549296133220196,-0.011535109020769596,0.00954387802630663,-0.0014693725388497114,-0.02240423671901226
0.020499469712376595,0.0007728397031314671,-0.012105441652238369,0.008913065306842327,-0.001277912175282836,-0.022586485370993614
0.020802194252610207,0.0006803440628573298,-0.011517957784235477,0.008984913118183613,-0.0012397527461871505,-0.023286176845431328
0.02159861847758293,0.0007034115842543542,-0.012102828361093998,0.009414567612111568,-0.0015540646854788065,-0.022830363363027573
0.021103689447045326,0.0007134525221772492,-0.011370326392352581,0.009772424586117268,-0.001770373317413032,-0.02284785732626915
0.0220425296574831,0.0006581023917533457,-0.011700465343892574,0.00924941897392273,-0.0022004626225680113,-0.022388936951756477
0.0220425296574831,0.0006581023917533457,-0.011700465343892574,0.00924941897392273,-0.0022004626225680113,-0.022388936951756477
0.020354246720671654,0.0006450373330153525,-0.011909686960279942,0.009550201706588268,-0.002140894765034318,-0.023214859887957573
0.02034379169344902,0.0005701940972357988,-0.011173716746270657,0.009549071080982685,-0.0018767743604257703,-0.02340088225901127
0.020881203934550285,0.000594907149206847,-0.012060442008078098,0.009374050423502922,-0.0017181552248075604,-0.02378992922604084
0.02087513543665409,0.0005457382067106664,-0.011907190084457397,0.00951441377401352,-0.0015751688042655587,-0.02323297969996929
0.021495003253221512,0.0005495930090546608,-0.01158409658819437,0.009548860602080822,-0.0014498732052743435,-0.023486629128456116
0.021604202687740326,0.0005293494905345142,-0.011883975006639957,0.009549361653625965,-0.0013583196559920907,-0.023671159520745277
0.021056784316897392,0.0005500224651768804,-0.011573012918233871,0.009839293546974659,-0.0013922462239861488,-0.023978492245078087
0.02111225388944149,0.0005181233282200992,-0.012250073254108429,0.009751715697348118,-0.0015331964241340756,-0.023803554475307465
0.02150706946849823,0.0005226536304689944,-0.011839269660413265,0.00964704155921936,-0.001770112430676818,-0.02374180220067501
0.02167549915611744,0.00047388902748934925,-0.012570292688906193,0.009876972995698452,-0.002116333693265915,-0.024052346125245094
0.021247634664177895,0.0005207718932069838,-0.01202781405299902,0.009727410972118378,-0.0019175591878592968,-0.024234049022197723
0.021695496514439583,0.0005038268282078207,-0.01267174817621708,0.010500947944819927,-0.0017644783947616816,-0.02414736896753311
0.021995900198817253,0.000532537407707423,-0.012049658223986626,0.009895235300064087,-0.0016234907088801265,-0.024700503796339035
0.02176816388964653,0.0006922921747900546,-0.012670939788222313,0.009487500414252281,-0.0016254667425528169,-0.02520926110446453
0.02150345779955387,0.0007240753620862961,-0.01231357455253601,0.009869729168713093,-0.0017246004426851869,-0.02487087808549404
0.021835342049598694,0.0007120950613170862,-0.013220231980085373,0.0094850342720747,-0.0017612508963793516,-0.024654434993863106
0.02223333530128002,0.0006694760522805154,-0.01213035173714161,0.009012272581458092,-0.0019014747813344002,-0.025179598480463028
0.022057268768548965,0.0006883679889142513,-0.011979086324572563,0.009261762723326683,-0.0019009103998541832,-0.025395240634679794
0.021449722349643707,0.0006312940386123955,-0.012697807513177395,0.009602329693734646,-0.0018128339434042573,-0.02567865327000618
0.021915998309850693,0.0006741367978975177,-0.012073712423443794,0.009439820423722267,-0.0016544065438210964,-0.025402992963790894
0.021998103708028793,0.000590431212913245,-0.012580200098454952,0.0097516980022192,-0.0015736996429041028,-0.02523590810596943
0.02190641313791275,0.0006247668643482029,-0.012113495729863644,0.00966691691428423,-0.0016048845136538148,-0.025718562304973602
0.021880682557821274,0.0005611960077658296,-0.012877922505140305,0.009504409506917,-0.0015274464385583997,-0.025668656453490257
0.02211582474410534,0.0005894881905987859,-0.012542303651571274,0.010846505872905254,-0.0016754220705479383,-0.025699719786643982
0.022503158077597618,0.0005419870722107589,-0.012122842483222485,0.010676397010684013,-0.0017272676341235638,-0.026602357625961304
0.022422710433602333,0.0005617782007902861,-0.01268704142421484,0.010446269996464252,-0.0018007837934419513,-0.02685547061264515
0.02209101989865303,0.000528385688085109,-0.01240395288914442,0.010453682392835617,-0.0016937647014856339,-0.026924539357423782
0.02209101989865303,0.000528385688085109,-0.01240395288914442,0.010453682392835617,-0.0016937647014856339,-0.026924539357423782
0.02239249460399151,0.0004923521191813052,-0.01281070802360773,0.010119324550032616,-0.001623776857741177,-0.02652989700436592
0.022067703306674957,0.00041794305434450507,-0.013301098719239235,0.010823993012309074,-0.002021938329562545,-0.025345854461193085
0.022067703306674957,0.00041794305434450507,-0.013301098719239235,0.010823993012309074,-0.002021938329562545,-0.025345854461193085
0.022033708170056343,0.00042282495996914804,-0.012805355712771416,0.010867641307413578,-0.0022618495859205723,-0.02613436058163643
0.022821540012955666,0.00045664265053346753,-0.013344984501600266,0.01094611082226038,-0.002082431921735406,-0.02613026089966297
0.022821540012955666,0.00045664265053346753,-0.013344984501600266,0.01094611082226038,-0.002082431921735406,-0.02613026089966297
0.02327324077486992,0.0004265853203833103,-0.01275938656181097,0.009996265172958374,-0.0017107075545936823,-0.02648632787168026
0.023266421630978584,0.0004542517999652773,-0.012826604768633842,0.01031911838799715,-0.0016761885490268469,-0.02717955783009529
0.022133374586701393,0.00042934995144605637,-0.01240970753133297,0.010126437060534954,-0.0018780574901029468,-0.026831641793251038
0.021860627457499504,0.00040521170012652874,-0.012960120104253292,0.009604398161172867,-0.0019684170838445425,-0.026635145768523216
0.022421175613999367,0.00045402348041534424,-0.012396035715937614,0.010769604705274105,-0.0021611922420561314,-0.025789912790060043
0.02284403145313263,0.0004354564880486578,-0.013252499513328075,0.009772680699825287,-0.001757345860823989,-0.02717769704759121
0.02284403145313263,0.0004354564880486578,-0.013252499513328075,0.009772680699825287,-0.001757345860823989,-0.02717769704759121
0.02267582155764103,0.0003946659271605313,-0.012865721248090267,0.010389500297605991,-0.0017285103676840663,-0.027137091383337975
0.023776018992066383,0.0004281995934434235,-0.012903702445328236,0.010009050369262695,-0.0018261399818584323,-0.02713480032980442
0.023125287145376205,0.00040170486317947507,-0.01321212574839592,0.01052852813154459,-0.002206660807132721,-0.02721056155860424
0.02276187762618065,0.00041293574031442404,-0.012951652519404888,0.0101362569257617,-0.0023043265100568533,-0.027105387300252914
0.022061709314584732,0.00040692128823138773,-0.013883432373404503,0.010654404759407043,-0.0025326109025627375,-0.027028314769268036
0.02215493842959404,0.0003853716771118343,-0.012935250997543335,0.010297432541847229,-0.002266600262373686,-0.027223320677876472
0.022687047719955444,0.00036802617250941694,-0.01343610044568777,0.009923510253429413,-0.0021311091259121895,-0.02712063305079937
0.023327674716711044,0.0003887031052727252,-0.013420062139630318,0.010437983088195324,-0.0018584757344797254,-0.027153154835104942
0.023029474541544914,0.0003584417572710663,-0.014350665733218193,0.010130077600479126,-0.0016415724530816078,-0.02762533910572529
0.023386379703879356,0.0003319982497487217,-0.013126568868756294,0.010450468398630619,-0.0014920164830982685,-0.027721934020519257
0.02314493991434574,0.0003636003821156919,-0.014066246338188648,0.010181162506341934,-0.0016459557227790356,-0.027569344267249107
0.022910146042704582,0.00034706323640421033,-0.013223560526967049,0.010093596763908863,-0.0017640740843489766,-0.026974260807037354
0.023261040449142456,0.00032618705881759524,-0.01374024897813797,0.01046816911548376,-0.002380850724875927,-0.02806302346289158
0.023317309096455574,0.0003527581866364926,-0.01377490721642971,0.01087467186152935,-0.0022332610096782446,-0.02917136810719967
0.02337696962058544,0.00033944688038900495,-0.014198566786944866,0.011000731959939003,-0.0022273887880146503,-0.02912505716085434
0.023191971704363823,0.0003221641236450523,-0.013812904246151447,0.010324629954993725,-0.0020489017479121685,-0.02768096514046192
0.023494942113757133,0.00012576808512676507,-0.013938366435468197,0.01089355256408453,-0.002079152036458254,-0.026766113936901093
0.023494942113757133,0.00012576808512676507,-0.013938366435468197,0.01089355256408453,-0.002079152036458254,-0.026766113936901093
0.023482652381062508,1.3911585483583622e-07,-0.014270046725869179,0.011315414682030678,-0.00233865762129426,-0.028881067410111427
0.023482652381062508,1.3911585483583622e-07,-0.014270046725869179,0.011315414682030678,-0.00233865762129426,-0.028881067410111427
0.023608101531863213,1.8664167988902136e-09,-0.013912498019635677,0.011285984888672829,-0.002443436998873949,-0.02906375750899315
0.023431498557329178,2.504036214490135e-11,-0.013540432788431644,0.011180931702256203,-0.0021851416677236557,-0.029451243579387665
0.023432230576872826,3.359483643963074e-13,-0.014094273559749126,0.01132757868617773,-0.002080399775877595,-0.03000435046851635
0.023790182545781136,4.507176238271538e-15,-0.013878383673727512,0.010987933725118637,-0.0018622379284352064,-0.029132720082998276
0.02377031370997429,6.046951666836199e-17,-0.014316972345113754,0.009158876724541187,-0.0017853763420134783,-0.028272585943341255
0.023633677512407303,8.112756871324346e-19,-0.013998688198626041,0.010983148589730263,-0.0017903329571709037,-0.028240881860256195
0.023623820394277573,1.0884299378327027e-20,-0.014421157538890839,0.0116482675075531,-0.0020565129816532135,-0.029735025018453598
0.023581108078360558,1.4602677422838154e-22,-0.014187034219503403,0.011637730523943901,-0.0021370791364461184,-0.029825592413544655
0.024007588624954224,2.6284303020091774e-26,-0.013779045082628727,0.011178312823176384,-0.0022455391008406878,-0.029804734513163567
0.024031776934862137,3.5263748392781123e-28,-0.014266814105212688,0.01172345969825983,-0.002269825665280223,-0.029925648123025894
0.0240232702344656,4.731081891099125e-30,-0.014407013542950153,0.01159626618027687,-0.002742658369243145,-0.0288253016769886
0.024350538849830627,6.347349759976929e-32,-0.014435865916311741,0.011280369013547897,-0.0025583761744201183,-0.030485795810818672
0.024421922862529755,8.515779744100789e-34,-0.013600648380815983,0.011218814179301262,-0.002443694043904543,-0.030937068164348602
0.024423765018582344,1.1425005834190135e-35,-0.014240020886063576,0.011087065562605858,-0.002135312184691429,-0.030645597726106644
0.024119146168231964,1.5328104373055783e-37,-0.014024295844137669,0.011634315364062786,-0.0020957819651812315,-0.030104389414191246
0.02421385422348976,2.0564601470367777e-39,-0.013996394351124763,0.011529460549354553,-0.002234748098999262,-0.030548442155122757
0.024814549833536148,2.7590165464091323e-41,-0.014511202462017536,0.011361784301698208,-0.0023609288036823273,-0.03099997155368328
0.024773502722382545,3.699427945817517e-43,-0.014899144880473614,0.011119419708848,-0.002390122739598155,-0.03099670819938183
0.02448432520031929,5.605193857299268e-45,-0.01438439916819334,0.010861516930162907,-0.0022835428826510906,-0.03094194270670414
0.025137223303318024,0.0,-0.014511771500110626,0.011491041630506516,-0.0021577514708042145,-0.03107871115207672
0.024430647492408752,0.0,-0.014306586235761642,0.011685480363667011,-0.001980425324290991,-0.031593937426805496
0.024655653163790703,0.0,-0.014861867763102055,0.011389128863811493,-0.0019247221061959863,-0.032089363783597946
0.025088805705308914,0.0,-0.014534972608089447,0.011542660184204578,-0.0018473267555236816,-0.031571824103593826
0.025088805705308914,0.0,-0.014534972608089447,0.011542660184204578,-0.0018473267555236816,-0.031571824103593826
0.025246568024158478,0.0,-0.014927457086741924,0.011591983027756214,-0.0019124681130051613,-0.031386468559503555
0.024721788242459297,0.0,-0.01454106904566288,0.011572218500077724,-0.0024350939784199,-0.03164613991975784
0.024736907333135605,0.0,-0.014874710701406002,0.011317888274788857,-0.0027797003276646137,-0.031690776348114014
0.025448661297559738,0.0,-0.014392921701073647,0.011013378389179707,-0.0025674535427242517,-0.03202037885785103
0.025611206889152527,0.0,-0.014890498481690884,0.011055112816393375,-0.002537002321332693,-0.03227619081735611
0.02565697394311428,0.0,-0.015021135099232197,0.01084775011986494,-0.002358289435505867,-0.032467715442180634
0.02516397461295128,0.0,-0.015205973759293556,0.011182094924151897,-0.0023002622183412313,-0.03258443623781204
0.024920189753174782,0.0,-0.015069629065692425,0.01145436242222786,-0.002404730301350355,-0.033047374337911606
0.025437673553824425,0.0,-0.015206142328679562,0.012463944964110851,-0.0020656567066907883,-0.03254574537277222
0.025437673553824425,0.0,-0.015206142328679562,0.012463944964110851,-0.0020656567066907883,-0.03254574537277222
0.025609750300645828,0.0,-0.015275875106453896,0.012149726040661335,-0.002147950930520892,-0.032548658549785614
0.025983966886997223,0.0,-0.01460596825927496,0.011754048056900501,-0.002194381086155772,-0.034486256539821625
0.025679653510451317,0.0,-0.014922257512807846,0.011449395678937435,-0.002209161873906851,-0.03428291529417038
0.02615351788699627,0.0,-0.014616947621107101,0.011678464710712433,-0.0025399320293217897,-0.032955050468444824
0.026331400498747826,0.0,-0.015421678312122822,0.011160208843648434,-0.0028201760724186897,-0.032246287912130356
0.026196332648396492,-5.4388201533583924e-05,-0.01478448323905468,0.012279968708753586,-0.002796934451907873,-0.033668674528598785
0.02607433870434761,-4.5460707042366266e-05,-0.015202942304313183,0.011816629208624363,-0.0026311196852475405,-0.03299183398485184
0.026372047141194344,-4.424191502039321e-05,-0.014643860049545765,0.011237944476306438,-0.0024342676624655724,-0.03454123064875603
0.026571927592158318,-4.317927596275695e-05,-0.015274878591299057,0.011531663127243519,-0.0022515757009387016,-0.03546053171157837
0.026518166065216064,-4.216776869725436e-05,-0.01480818074196577,0.011696414090692997,-0.002135850954800844,-0.03421536460518837
0.026425812393426895,-4.1202543798135594e-05,-0.015359772369265556,0.012079262174665928,-0.001969916746020317,-0.03300457075238228
0.02630854770541191,-4.028052353532985e-05,-0.014651847071945667,0.011815078556537628,-0.0020954583305865526,-0.03367245942354202
0.026365406811237335,-3.9398844819515944e-05,-0.015196469612419605,0.011547056026756763,-0.0020943956915289164,-0.034162331372499466
0.026722067967057228,-5.123578375787474e-05,-0.015321550890803337,0.012033957056701183,-0.0021511975210160017,-0.034491728991270065
0.026722067967057228,-5.123578375787474e-05,-0.015321550890803337,0.012033957056701183,-0.0021511975210160017,-0.034491728991270065
0.0267398189753294,-5.653113839798607e-05,-0.01544161606580019,0.011752530001103878,-0.00248353136703372,-0.0348610021173954
0.026669511571526527,-5.545550448005088e-05,-0.015266462229192257,0.012435582466423512,-0.0025611708406358957,-0.03472932055592537
0.026934431865811348,-5.434057311504148e-05,-0.015348868444561958,0.012626898474991322,-0.002607785863801837,-0.03461478650569916
0.02689444273710251,-5.326847895048559e-05,-0.01569097675383091,0.012545082718133926,-0.002793175633996725,-0.035029422491788864
0.027228521183133125,-5.223788321018219e-05,-0.015635862946510315,0.01280148234218359,-0.002841794863343239,-0.034909937530756
0.026483586058020592,-5.1246475777588785e-05,-0.015735775232315063,0.012482527643442154,-0.0027784465346485376,-0.034577857702970505
0.027127308771014214,-5.029190288041718e-05,-0.015248480252921581,0.012962862849235535,-0.0026278337463736534,-0.03475909307599068
0.02818358689546585,-6.517187284771353e-05,-0.015825506299734116,0.012624377384781837,-0.0027264326345175505,-0.03505245968699455
0.0277576707303524,-6.463876343332231e-05,-0.015340415760874748,0.013023301027715206,-0.0026636796537786722,-0.03562411293387413
0.026780614629387856,-6.350698095047846e-05,-0.015602054074406624,0.012872191146016121,-0.0025787660852074623,-0.03525884449481964
0.027566328644752502,-7.488697156077251e-05,-0.016021382063627243,0.012992283329367638,-0.002512501087039709,-0.03688548877835274
0.027821842581033707,-7.536987686762586e-05,-0.01540043018758297,0.01272992417216301,-0.002438998781144619,-0.03606247529387474
0.026644451543688774,-7.415132131427526e-05,-0.016275187954306602,0.013025671243667603,-0.0026409649290144444,-0.03475823625922203
0.027458053082227707,-7.294953684322536e-05,-0.01668679155409336,0.012497995980083942,-0.0028194442857056856,-0.03437942638993263
0.027481885626912117,-7.178586383815855e-05,-0.01617075875401497,0.012565402314066887,-0.002809518948197365,-0.03609342500567436
0.02780044451355934,-7.065867976052687e-05,-0.01675749383866787,0.01251400075852871,-0.0026410152204334736,-0.03689670190215111
0.027398481965065002,-6.956637662369758e-05,-0.015975182875990868,0.013218818232417107,-0.002468107035383582,-0.03796011209487915
0.026450905948877335,-0.00015508002252317965,-0.01660296693444252,0.012873711995780468,-0.0022025241050869226,-0.03599433973431587
0.02706068754196167,-0.000160644092829898,-0.016310954466462135,0.012833897024393082,-0.002037204336374998,-0.03471583500504494
0.02815222553908825,-0.0001552507746964693,-0.016357433050870895,0.012521862052381039,-0.0020115261431783438,-0.036706749349832535
0.028089528903365135,-0.0001500751677667722,-0.01619666814804077,0.012802653014659882,-0.002225174568593502,-0.037367403507232666
0.027804085984826088,-0.00017310398106928915,-0.016437724232673645,0.012775836512446404,-0.0025974547024816275,-0.03722917288541794
0.027556994929909706,-0.00016881311603356153,-0.01732546091079712,0.012514892965555191,-0.002732290420681238,-0.03690868616104126
0.028163282200694084,-0.00016371031233575195,-0.01649307645857334,0.013081668876111507,-0.002619932172819972,-0.036722101271152496
0.028410406783223152,-0.00015889333735685796,-0.01703847572207451,0.01279221661388874,-0.002359414240345359,-0.037536147981882095
0.028410406783223152,-0.00015889333735685796,-0.01703847572207451,0.01279221661388874,-0.002359414240345359,-0.037536147981882095
0.027952762320637703,-0.00015435152454301715,-0.01596776582300663,0.01336868479847908,-0.002251498168334365,-0.03720104694366455
0.028490763157606125,-0.00017029937589541078,-0.017326969653367996,0.012918260879814625,-0.00238640233874321,-0.0373297818005085
0.028490763157606125,-0.00017029937589541078,-0.017326969653367996,0.012918260879814625,-0.00238640233874321,-0.0373297818005085
0.028337795287370682,-0.00016585385310463607,-0.016906697303056717,0.012884966097772121,-0.002344911452382803,-0.03746147081255913
0.02868642657995224,-0.00018197686586063355,-0.01648370549082756,0.012876269407570362,-0.0025128491688519716,-0.0377129502594471
0.028699219226837158,-0.0001800304016796872,-0.01619865372776985,0.01323769986629486,-0.0024017654359340668,-0.0376473069190979
0.02811364084482193,-0.00017567301983945072,-0.016879523172974586,0.012718867510557175,-0.0024645591620355844,-0.037875719368457794
0.028425445780158043,-0.00017148934421129525,-0.01659877598285675,0.013152017258107662,-0.002681354759261012,-0.03729145601391792
0.028613420203328133,-0.00023673025134485215,-0.016609184443950653,0.012475266121327877,-0.002832625759765506,-0.03849262371659279
0.028559943661093712,-0.000257860345300287,-0.016455279663205147,0.012921188957989216,-0.002708295825868845,-0.03847759962081909
0.0287505891174078,-0.00023174735542852432,-0.017210058867931366,0.01381467841565609,-0.002580584492534399,-0.038628969341516495
0.028749119490385056,-0.00026267170323990285,-0.016443965956568718,0.012949896045029163,-0.002399371238425374,-0.03883196413516998
0.029184773564338684,-0.00025210241437889636,-0.01632392592728138,0.012927995063364506,-0.0026047450955957174,-0.0382017157971859
0.029146742075681686,-0.0002408787840977311,-0.01608632318675518,0.012983172200620174,-0.0029663133900612593,-0.038061175495386124
0.028890002518892288,-0.0002305925590917468,-0.016230033710598946,0.013140624389052391,-0.0029186129104346037,-0.03789167478680611
0.029191333800554276,-0.0002453303604852408,-0.01648663356900215,0.01313294842839241,-0.0028527998365461826,-0.03805443271994591
0.029363948851823807,-0.00024768567527644336,-0.016292715445160866,0.013349228538572788,-0.002695368602871895,-0.03869393467903137
0.02842835895717144,-0.00023847137345001101,-0.01666148565709591,0.0138627327978611,-0.002470990177243948,-0.03974642604589462
0.02924627810716629,-0.0002621431485749781,-0.016000844538211823,0.01374260988086462,-0.002600048203021288,-0.03909783437848091
0.029867911711335182,-0.0002533530932851136,-0.01652565784752369,0.013923441991209984,-0.002600695239380002,-0.0373748280107975
0.029971066862344742,-0.0002447471197228879,-0.016281113028526306,0.01357381884008646,-0.0024242731742560863,-0.03807150945067406
0.030139772221446037,-0.0002369287540204823,-0.016386572271585464,0.013712472282350063,-0.0025072775315493345,-0.03860662132501602
0.029258279129862785,-0.000295886246021837,-0.0165012925863266,0.01319208461791277,-0.0026820283383131027,-0.03931647911667824
0.02889811433851719,-0.0003276251663919538,-0.016220280900597572,0.01348836813122034,-0.0028265570290386677,-0.040595583617687225
0.02992868237197399,-0.00031472137197852135,-0.016643203794956207,0.013139384798705578,-0.0027553162071853876,-0.03892911598086357
0.02986728586256504,-0.00029746521613560617,-0.01569731906056404,0.013661650009453297,-0.0028383678290992975,-0.03855285421013832
0.029662493616342545,-0.0003282579127699137,-0.016469260677695274,0.013764576055109501,-0.0026961127296090126,-0.0395403690636158
0.029662493616342545,-0.0003282579127699137,-0.016469260677695274,0.013764576055109501,-0.0026961127296090126,-0.0395403690636158
0.030674995854496956,-0.0003125928051304072,-0.016163913533091545,0.013895225711166859,-0.0025784396566450596,-0.03950411453843117
0.030348215252161026,-0.00032571106567047536,-0.01637781411409378,0.013881324790418148,-0.0026556956581771374,-0.039857760071754456
0.03013516031205654,-0.0003248063731007278,-0.016430264338850975,0.012750104069709778,-0.0028270401526242495,-0.0401029959321022
0.029510999098420143,-0.00048009553574956954,-0.01632998324930668,0.013397703878581524,-0.003242324572056532,-0.040427159518003464
0.029553936794400215,-0.000512905593495816,-0.016833743080496788,0.01398967020213604,-0.0031615595798939466,-0.04037318751215935
0.030239829793572426,-0.000494559935759753,-0.016267305240035057,0.013939866796135902,-0.003016719128936529,-0.0403541699051857
0.03010636940598488,-0.0005257935263216496,-0.017215678468346596,0.013756783679127693,-0.002920620609074831,-0.04114089161157608
0.030075250193476677,-0.0005492624477483332,-0.01637330651283264,0.013947722502052784,-0.0027788192965090275,-0.04080367460846901
0.030153978615999222,-0.0005174896214157343,-0.016486598178744316,0.013317382894456387,-0.002514864318072796,-0.0412093810737133
0.029752565547823906,-0.0006834244704805315,-0.01686469279229641,0.013496101833879948,-0.0026197917759418488,-0.04006081447005272
0.030143730342388153,-0.000635921664070338,-0.016901817172765732,0.013861400075256824,-0.003114876104518771,-0.042063839733600616
0.0301206111907959,-0.0006526129436679184,-0.01638818345963955,0.013821561820805073,-0.00344199244864285,-0.04286547005176544
0.029818184673786163,-0.0006006970070302486,-0.017416365444660187,0.01439419575035572,-0.0029270572122186422,-0.04118775948882103
0.029908888041973114,-0.0006257204222492874,-0.017417563125491142,0.014189518056809902,-0.0027172965928912163,-0.04067922756075859
0.029753975570201874,-0.0006619082414545119,-0.016517112031579018,0.014773444272577763,-0.0024512254167348146,-0.04151448234915733
0.030537473037838936,-0.0006921167369000614,-0.017392974346876144,0.014354967512190342,-0.0023660664446651936,-0.042276524007320404
0.028562044724822044,-0.0007158766966313124,-0.016995064914226532,0.014420924708247185,-0.002730684820562601,-0.043476637452840805
0.03128901496529579,-0.0007274295203387737,-0.018053218722343445,0.01402744185179472,-0.0028793856035917997,-0.04181662201881409
0.03085050918161869,-0.0008554033120162785,-0.01744040474295616,0.014623024500906467,-0.002818767447024584,-0.041051868349313736
0.0303642675280571,-0.0009354455978609622,-0.016738468781113625,0.013966511003673077,-0.0028948995750397444,-0.04311925172805786
0.030422503128647804,-0.0009310983004979789,-0.017791440710425377,0.014316520653665066,-0.003074878826737404,-0.04312799498438835
0.03019954264163971,-0.0009002262377180159,-0.01664239913225174,0.014281462877988815,-0.0034197031054645777,-0.04191980138421059
0.03087981417775154,-0.0008409324800595641,-0.017528695985674858,0.015031526796519756,-0.003566174302250147,-0.04356841370463371
0.03156116232275963,-0.0009752038167789578,-0.01738283969461918,0.014851534739136696,-0.0034297837410122156,-0.043782223016023636
0.031053515151143074,-0.0009982867632061243,-0.01722501963376999,0.015314482152462006,-0.002692445879802108,-0.04324185848236084
0.029223930090665817,-0.000995190697722137,-0.016973089426755905,0.014739560894668102,-0.0024438900873064995,-0.042596485465765
0.029223930090665817,-0.000995190697722137,-0.016973089426755905,0.014739560894668102,-0.0024438900873064995,-0.042596485465765
0.030368860810995102,-0.0012537715956568718,-0.017573583871126175,0.015378673560917377,-0.002664530649781227,-0.04309620335698128
0.03132377192378044,-0.001236488576978445,-0.017931878566741943,0.014937374740839005,-0.0029462026432156563,-0.04363493248820305
0.030893545597791672,-0.0014924644492566586,-0.017741456627845764,0.015237400308251381,-0.002716354327276349,-0.043642815202474594
0.031464170664548874,-0.0016319967107847333,-0.01710999570786953,0.015299251303076744,-0.002676003845408559,-0.04421204701066017
0.03195656090974808,-0.0015529613010585308,-0.017540574073791504,0.01514444500207901,-0.002590327523648739,-0.04429202526807785
0.03201279416680336,-0.001650021062232554,-0.017127782106399536,0.015326566062867641,-0.002725242869928479,-0.04462646320462227
0.030977414920926094,-0.001685908529907465,-0.017476599663496017,0.015761064365506172,-0.0032483339309692383,-0.044734518975019455
0.03095313347876072,-0.0017921172548085451,-0.017999978736042976,0.015671271830797195,-0.0032783965580165386,-0.04480328783392906
0.03208094835281372,-0.0018015551613643765,-0.01755351573228836,0.014764564111828804,-0.003279011230915785,-0.04539906978607178
0.032157689332962036,-0.0020210840739309788,-0.01743730530142784,0.014408968389034271,-0.0027074706740677357,-0.04449104890227318
0.03182677552103996,-0.002519711386412382,-0.017845725640654564,0.015734007582068443,-0.0025677678640931845,-0.04511198773980141
0.03181269019842148,-0.002507982309907675,-0.01806134730577469,0.015955066308379173,-0.002816955093294382,-0.046472616493701935
0.03229479119181633,-0.0023772791028022766,-0.01712963916361332,0.0158500075340271,-0.0030050924979150295,-0.045133911073207855
0.03197162598371506,-0.0022904910147190094,-0.01804620586335659,0.015047191642224789,-0.0030445537995547056,-0.04405728727579117
0.03310173749923706,-0.00245250528678298,-0.018026359379291534,0.01589447632431984,-0.002852204954251647,-0.04540415108203888
0.03256252035498619,-0.0023814269807189703,-0.01750311441719532,0.01499861292541027,-0.0028709275647997856,-0.046608902513980865
0.03230491653084755,-0.0029242150485515594,-0.017989877611398697,0.015018812380731106,-0.003100238274782896,-0.04731107875704765
0.03226129710674286,-0.003087416058406234,-0.017849717289209366,0.014526613056659698,-0.0032937845680862665,-0.04458475485444069
0.03264984115958214,-0.003043305827304721,-0.01808162033557892,0.0153086818754673,-0.0033181537874042988,-0.046449754387140274
0.03281956538558006,-0.0026685367338359356,-0.0181102491915226,0.015807611867785454,-0.003171253949403763,-0.04747222736477852
0.033284787088632584,-0.002616594545543194,-0.01748790591955185,0.01549498550593853,-0.0030483331065624952,-0.04690805822610855
0.0332905612885952,-0.0023353537544608116,-0.018491076305508614,0.01507234200835228,-0.00302128866314888,-0.04683907702565193
0.0333678275346756,-0.002532563405111432,-0.018153956159949303,0.014993509277701378,-0.0031125261448323727,-0.04702434316277504
0.03319048136472702,-0.002783506875857711,-0.01799476332962513,0.015656383708119392,-0.0030639818869531155,-0.04741935431957245
0.033474016934633255,-0.002901870757341385,-0.018511764705181122,0.01539895124733448,-0.0030171459075063467,-0.048028454184532166
0.03362147510051727,-0.002751600928604603,-0.01835065707564354,0.01568051613867283,-0.003278474323451519,-0.048040781170129776
0.0339801162481308,-0.002528298879042268,-0.01857047528028488,0.015308835543692112,-0.0033307895064353943,-0.047717396169900894
0.034172482788562775,-0.002450579544529319,-0.018246697261929512,0.01585066132247448,-0.0033547694329172373,-0.046587131917476654
0.03449000045657158,-0.0022693262435495853,-0.017582522705197334,0.015720276162028313,-0.003364423057064414,-0.048422884196043015
0.03449000045657158,-0.0022693262435495853,-0.017582522705197334,0.015720276162028313,-0.003364423057064414,-0.048422884196043015
0.034259192645549774,-0.0025724361184984446,-0.01848701387643814,0.015960758551955223,-0.003290883731096983,-0.04772106185555458
0.03400687128305435,-0.0029254828114062548,-0.01862315647304058,0.015371979214251041,-0.00329734873957932,-0.04900846257805824
0.034539613872766495,-0.002737271599471569,-0.018019603565335274,0.015620779246091843,-0.003305660095065832,-0.04924336448311806
0.03609098866581917,-0.0027300657238811255,-0.01846950873732567,0.015766149386763573,-0.0031055116560310125,-0.0468207523226738
0.035832926630973816,-0.002512672683224082,-0.01818380504846573,0.015924252569675446,-0.0030163992196321487,-0.04723764955997467
0.032181426882743835,-0.002342045772820711,-0.018186163157224655,0.016076495870947838,-0.0031725591979920864,-0.04850103333592415
0.0345664843916893,-0.0024201294872909784,-0.018739240244030952,0.01565142348408699,-0.0034434341359883547,-0.05033644661307335
0.03596499562263489,-0.0026403963565826416,-0.01842569373548031,0.015861406922340393,-0.003497813828289509,-0.048646219074726105
0.03522311896085739,-0.003058240283280611,-0.018386278301477432,0.01540440134704113,-0.0031349712517112494,-0.0475907102227211
0.036085519939661026,-0.0030389989260584116,-0.0184321291744709,0.01627107709646225,-0.0031686134170740843,-0.049594540148973465
0.03458535298705101,-0.002990730106830597,-0.01867580972611904,0.016458919271826744,-0.003595407120883465,-0.04949299991130829
0.03494842350482941,-0.002578272484242916,-0.018705423921346664,0.01625177636742592,-0.0033195160795003176,-0.04882196709513664
0.03649409860372543,-0.0025959794875234365,-0.018389683216810226,0.01635638065636158,-0.0032337827142328024,-0.04900900274515152
0.03587714210152626,-0.0027469119522720575,-0.019047312438488007,0.016674412414431572,-0.0029232578817754984,-0.04920418560504913
0.03587774187326431,-0.003004783997312188,-0.01931079290807247,0.016127033159136772,-0.002573426114395261,-0.04886823520064354
0.03634514659643173,-0.0033652205020189285,-0.018486907705664635,0.016567863523960114,-0.002677912823855877,-0.04900723323225975
0.03588773310184479,-0.003024617675691843,-0.01914474554359913,0.01674143597483635,-0.003247987013310194,-0.049090735614299774
0.03598841652274132,-0.0030412008054554462,-0.019376037642359734,0.017100119963288307,-0.004194413777440786,-0.049060262739658356
0.03624238446354866,-0.0029678160790354013,-0.01887952722609043,0.01733926311135292,-0.004068333655595779,-0.04921760782599449
0.03604311868548393,-0.0030186448711901903,-0.01930181123316288,0.01665828563272953,-0.0029038575012236834,-0.05040377378463745
0.036232177168130875,-0.003367889439687133,-0.019818544387817383,0.016733329743146896,-0.002586344024166465,-0.05018879100680351
0.035898707807064056,-0.003120556939393282,-0.01977727934718132,0.016218814998865128,-0.0025392635725438595,-0.05014506354928017
0.036207202821969986,-0.0032043850515037775,-0.01978364773094654,0.016966406255960464,-0.003217439167201519,-0.0494435578584671
0.03625208139419556,-0.003270499175414443,-0.019913213327527046,0.017066510394215584,-0.0037509107496589422,-0.05089818313717842
0.03625208139419556,-0.003270499175414443,-0.019913213327527046,0.017066510394215584,-0.0037509107496589422,-0.05089818313717842
0.03625694662332535,-0.0035466046538203955,-0.019487502053380013,0.016923323273658752,-0.003574688220396638,-0.0489024817943573
0.03625694662332535,-0.0035466046538203955,-0.019487502053380013,0.016923323273658752,-0.003574688220396638,-0.0489024817943573
0.03781367838382721,-0.0034128776751458645,-0.019907154142856598,0.016168495640158653,-0.0036676914896816015,-0.05028162896633148
0.0376630499958992,-0.0035217157565057278,-0.019778382033109665,0.015986206009984016,-0.003795153461396694,-0.05159127712249756
0.03556813672184944,-0.0036579985171556473,-0.020302673801779747,0.016153434291481972,-0.003452804172411561,-0.05281321704387665
0.0362032949924469,-0.0037108957767486572,-0.019931089133024216,0.01691162772476673,-0.0034549713600426912,-0.05100453272461891
0.03737865760922432,-0.0037337741814553738,-0.017669910565018654,0.016651486977934837,-0.003335540881380439,-0.05137406662106514
0.037018999457359314,-0.003177210921421647,-0.020455732941627502,0.01687016151845455,-0.003324583638459444,-0.05156302824616432
0.03750326856970787,-0.0030963870231062174,-0.021650077775120735,0.017026040703058243,-0.00338340038433671,-0.051680754870176315
0.03810563310980797,-0.0034507024101912975,-0.020827308297157288,0.016705987975001335,-0.0031078674364835024,-0.052310630679130554
0.036764077842235565,-0.003750830190256238,-0.019915200769901276,0.017026564106345177,-0.002776913810521364,-0.05226965993642807
0.03742795065045357,-0.0037618796341121197,-0.019945921376347542,0.01688041165471077,-0.003658048575744033,-0.052953314036130905
0.03754608333110809,-0.0037736946251243353,-0.01963495835661888,0.016584517434239388,-0.003851323388516903,-0.05216506868600845
0.03749539703130722,-0.0038399642799049616,-0.020513348281383514,0.01578831672668457,-0.0034451084211468697,-0.05211818963289261
0.03708631545305252,-0.003915357403457165,-0.021168746054172516,0.01590508408844471,-0.0030652363784611225,-0.05385025963187218
0.037537384778261185,-0.0034451980609446764,-0.020376842468976974,0.016110679134726524,-0.0027787296567112207,-0.05325645953416824
0.03758412227034569,-0.0040794298984110355,-0.01991274394094944,0.01719818264245987,-0.0029506366699934006,-0.05198492854833603
0.0372733399271965,-0.004169541411101818,-0.020612716674804688,0.017517512664198875,-0.003223997540771961,-0.05389924719929695
0.03772462531924248,-0.004029709380120039,-0.021114947274327278,0.017269037663936615,-0.003559418022632599,-0.053286805748939514
0.038179103285074234,-0.00388368871062994,-0.020760996267199516,0.016951147466897964,-0.00337994284927845,-0.05156055465340614
0.03810608386993408,-0.0038984648417681456,-0.020829923450946808,0.016690833494067192,-0.0032469434663653374,-0.052905574440956116
0.03762667998671532,-0.0038546035066246986,-0.02099205181002617,0.01683170720934868,-0.003171235555782914,-0.05509680137038231
0.038391657173633575,-0.0037840406876057386,-0.020695148035883904,0.01656324602663517,-0.0030620538163930178,-0.05384565517306328
0.03817300498485565,-0.0037331285420805216,-0.0202100221067667,0.017245778813958168,-0.003298554103821516,-0.05090193822979927
0.03813404217362404,-0.003995862789452076,-0.021320054307579994,0.017192097380757332,-0.0036823756527155638,-0.053895458579063416
0.03832947090268135,-0.003939107060432434,-0.02124546840786934,0.016953278332948685,-0.0039493548683822155,-0.054279081523418427
0.03820798546075821,-0.003801382379606366,-0.021087655797600746,0.016896527260541916,-0.0034840325824916363,-0.05419157072901726
0.03820798546075821,-0.003801382379606366,-0.021087655797600746,0.016896527260541916,-0.0034840325824916363,-0.05419157072901726
0.038795582950115204,-0.003763367421925068,-0.020895065739750862,0.016173969954252243,-0.0032326222863048315,-0.054290544241666794
0.038827985525131226,-0.0034201822709292173,-0.021255971863865852,0.016980763524770737,-0.0031923684291541576,-0.05442149564623833
0.0386742539703846,-0.0024278813507407904,-0.02141176350414753,0.017015056684613228,-0.003430787241086364,-0.05422123894095421
0.0391928069293499,-0.001517062308266759,-0.02127065323293209,0.01736852154135704,-0.0037699751555919647,-0.05456412583589554
0.039057325571775436,-0.001542889280244708,-0.021219225600361824,0.017217356711626053,-0.003847407875582576,-0.05487855151295662
0.03853846713900566,-0.001738722319714725,-0.021502438932657242,0.016609609127044678,-0.003691308666020632,-0.05474851652979851
0.038981035351753235,-0.0018989555537700653,-0.021634003147482872,0.017641983926296234,-0.0036033063661307096,-0.05474231764674187
0.04039190337061882,-0.003095039865002036,-0.021634835749864578,0.016774004325270653,-0.0036444938741624355,-0.05324416235089302
0.03972286358475685,-0.0033463016152381897,-0.021444566547870636,0.016689883545041084,-0.003589683212339878,-0.05539820343255997
0.03814288228750229,-0.002656081458553672,-0.020945312455296516,0.01681523583829403,-0.0035112116020172834,-0.055296074599027634
0.039492882788181305,-0.002136987866833806,-0.020618367940187454,0.01710042916238308,-0.003327171318233013,-0.05715970695018768
0.039621513336896896,-0.0018301220843568444,-0.020660724490880966,0.01699097827076912,-0.0034343949519097805,-0.05559888109564781
0.03939511626958847,-0.002570701064541936,-0.02147654816508293,0.018092282116413116,-0.003845544531941414,-0.05557485297322273
0.038672447204589844,-0.0024221818894147873,-0.021372796967625618,0.01824813522398472,-0.0035164514556527138,-0.05735372006893158
0.038526106625795364,-0.002502999035641551,-0.02077963761985302,0.018038196489214897,-0.0035070027224719524,-0.054523929953575134
0.04002479463815689,-0.002218398731201887,-0.021779844537377357,0.018395425751805305,-0.0036819789092987776,-0.055671002715826035
0.03810868039727211,-0.002166601363569498,-0.02218548394739628,0.018791215494275093,-0.0034038140438497066,-0.0565025769174099
0.03990015760064125,-0.00208050524815917,-0.02191345952451229,0.018220800906419754,-0.0034103998914361,-0.05601970851421356
0.040237993001937866,-0.0020845753606408834,-0.021099252626299858,0.01837918534874916,-0.003092686180025339,-0.055519185960292816
0.0395442359149456,-0.0022266774903982878,-0.021764608100056648,0.018494192510843277,-0.0033461851999163628,-0.0565878227353096
0.0398070402443409,-0.0024368863087147474,-0.02165854163467884,0.018479591235518456,-0.0037524288054555655,-0.056208912283182144
0.03927791118621826,-0.0023354811128228903,-0.021379318088293076,0.01894429698586464,-0.004221730399876833,-0.0563516765832901
0.039726004004478455,-0.0021981329191476107,-0.021974800154566765,0.018224244937300682,-0.00404293742030859,-0.056131474673748016
0.04013732820749283,-0.0021568338852375746,-0.02226526476442814,0.017453650012612343,-0.0035973137710243464,-0.05616597458720207
0.04013732820749283,-0.0021568338852375746,-0.02226526476442814,0.017453650012612343,-0.0035973137710243464,-0.05616597458720207
0.03980686143040657,-0.002482782118022442,-0.021798670291900635,0.01736973598599434,-0.0031878752633929253,-0.05589742958545685
0.04119487851858139,-0.002481120405718684,-0.021864693611860275,0.017765391618013382,-0.0034577304031699896,-0.05604090541601181
0.04135172441601753,-0.0027673826552927494,-0.022186031565070152,0.017963115125894547,-0.0038043190725147724,-0.05752435699105263
0.0389341376721859,-0.002871347824111581,-0.022704144939780235,0.01749604381620884,-0.003883670549839735,-0.05566072836518288
0.0389341376721859,-0.002871347824111581,-0.022704144939780235,0.01749604381620884,-0.003883670549839735,-0.05566072836518288
0.04048263281583786,-0.0029126149602234364,-0.022684236988425255,0.017749859020113945,-0.003880708711221814,-0.05558454245328903
0.040228936821222305,-0.002667700406163931,-0.021692171692848206,0.017284465953707695,-0.003910521045327187,-0.05668574199080467
0.04137067496776581,-0.0026946822181344032,-0.02191370725631714,0.01749930903315544,-0.0039688958786427975,-0.05884357541799545
0.04164706543087959,-0.002825635252520442,-0.02251330018043518,0.017608627676963806,-0.003994735889136791,-0.056062839925289154
0.040386900305747986,-0.0031703326385468245,-0.022574713453650475,0.017679011449217796,-0.003936681896448135,-0.05585354566574097
0.03969913348555565,-0.0029522604309022427,-0.022033099085092545,0.01840263605117798,-0.003825871739536524,-0.057798366993665695
0.04093662276864052,-0.003109891898930073,-0.021912241354584694,0.018647655844688416,-0.003463051514700055,-0.0581858791410923
