davideferrari95/blind_handover_controller/data/Test 189 - [2024-02-08 -- 11-27-51]/joint_states_data.csv
shoulder_pan_joint,shoulder_lift_joint,elbow_joint,wrist_1_joint,wrist_2_joint,wrist_3_joint
-0.003690963378176093,-0.01110770646482706,-0.00821111910045147,0.01760329306125641,0.0,-0.004436992108821869
-0.003911147825419903,-0.011088731698691845,-0.008040901273488998,0.0175697673112154,0.0,-0.004546244163066149
-0.003911147825419903,-0.011088731698691845,-0.008040901273488998,0.0175697673112154,0.0,-0.004546244163066149
-0.0034649402368813753,-0.011315464973449707,-0.00828512478619814,0.017681870609521866,0.0,-0.004241336602717638
-0.003618357703089714,-0.011870709247887135,-0.008361504413187504,0.017464738339185715,0.0,-0.00442365650087595
-0.0035920212976634502,-0.011186979711055756,-0.00813722237944603,0.017442850396037102,0.0,-0.0043761227279901505
-0.003761520842090249,-0.011195066384971142,-0.008544220589101315,0.01722860150039196,0.0,-0.00403091823682189
-0.0038166618905961514,-0.011543899774551392,-0.008086537010967731,0.01767103560268879,0.0,-0.00424957275390625
-0.003357982961460948,-0.011041756719350815,-0.008242892101407051,0.017404969781637192,0.0,-0.004137706011533737
-0.003355132881551981,-0.011373761110007763,-0.008083801716566086,0.01724081113934517,0.0,-0.004246947821229696
-0.0034011024981737137,-0.011228235438466072,-0.0087065314874053,0.01702883467078209,0.0,-0.0040826513431966305
-0.003396436804905534,-0.010718177072703838,-0.008788356557488441,0.01665235310792923,0.0,-0.004035069141536951
-0.003610890358686447,-0.010976389050483704,-0.008037805557250977,0.017375294119119644,0.0,-0.0042219338938593864
-0.0033579475712031126,-0.010691020637750626,-0.008360444568097591,0.01730644889175892,0.0,-0.004218823276460171
-0.0033579475712031126,-0.010691020637750626,-0.008360444568097591,0.01730644889175892,0.0,-0.004218823276460171
-0.003258083015680313,-0.011491320095956326,-0.008006884716451168,0.017164379358291626,0.0,-0.004130335059016943
-0.003258083015680313,-0.011491320095956326,-0.008006884716451168,0.017164379358291626,0.0,-0.004130335059016943
-0.0031383559107780457,-0.010608146898448467,-0.008279664441943169,0.01681509055197239,0.0,-0.0038395412266254425
-0.0031787275802344084,-0.01061242911964655,-0.0081021161749959,0.017015298828482628,0.0,-0.003569137305021286
-0.0033043986186385155,-0.01123273465782404,-0.007798381149768829,0.01655009388923645,0.0,-0.0034432606771588326
-0.003068050602450967,-0.010441272519528866,-0.007423577830195427,0.01712779328227043,0.0,-0.004148206673562527
-0.00276739033870399,-0.011093642562627792,-0.007938790135085583,0.01818258874118328,0.0,-0.004139983560889959
-0.0032269523944705725,-0.010947204194962978,-0.008128900080919266,0.017377112060785294,0.0,-0.0042692990973591805
-0.0030277417972683907,-0.01113046519458294,-0.008092919364571571,0.017437336966395378,0.0,-0.0041299983859062195
-0.003185237292200327,-0.011123860254883766,-0.007932141423225403,0.017138991504907608,0.0,-0.0038615046069025993
-0.003321356140077114,-0.010416360571980476,-0.008131127804517746,0.0176153015345335,0.0,-0.0037574416492134333
-0.0031814787071198225,-0.010599891655147076,-0.00831889733672142,0.017644193023443222,0.0,-0.0037574402522295713
-0.003405072260648012,-0.010954512283205986,-0.0077710277400910854,0.01740339770913124,0.0,-0.004196622408926487
-0.003243517130613327,-0.010411453433334827,-0.008297547698020935,0.017742324620485306,0.0,-0.004067645408213139
-0.0034602677915245295,-0.010290997102856636,-0.008646287955343723,0.01698080450296402,0.0,-0.003922631498426199
-0.0031399582512676716,-0.010326936841011047,-0.007984785363078117,0.017172247171401978,0.0,-0.003882226999849081
-0.0031540868803858757,-0.010113133117556572,-0.006872870028018951,0.017399583011865616,0.0,-0.003908445127308369
-0.0035815208684653044,-0.010718867182731628,-0.008157861419022083,0.017861876636743546,0.0,-0.004251717124134302
-0.0035815208684653044,-0.010718867182731628,-0.008157861419022083,0.017861876636743546,0.0,-0.004251717124134302
-0.003540207166224718,-0.01108505018055439,-0.006436288356781006,0.01746867410838604,0.0,-0.0041122231632471085
-0.0032741958275437355,-0.010764908976852894,-0.006648882292211056,0.017124513164162636,0.0,-0.0036072046495974064
-0.0034190856385976076,-0.010762126184999943,-0.007596426643431187,0.016619212925434113,0.0,-0.003977564163506031
-0.0036354735493659973,-0.010132528841495514,-0.007285008206963539,0.01726791262626648,0.0,-0.004875384736806154
-0.0031103622168302536,-0.010094749741256237,-0.006769264582544565,0.017609983682632446,0.0,-0.004473074339330196
-0.003089257748797536,-0.01046756748110056,-0.00658934423699975,0.018377654254436493,0.0,-0.003958291839808226
-0.0030782290268689394,-0.010689454153180122,-0.007362440228462219,0.018180619925260544,0.0,-0.0037497933954000473
-0.0031813783571124077,-0.010129707865417004,-0.007143832743167877,0.017416520044207573,0.0,-0.003841131692752242
-0.0033708889968693256,-0.010644757188856602,-0.006308114156126976,0.017592282965779305,0.0,-0.004234322812408209
-0.0033708889968693256,-0.010644757188856602,-0.006308114156126976,0.017592282965779305,0.0,-0.004234322812408209
-0.0031512659043073654,-0.009973783046007156,-0.007023516111075878,0.017378591001033783,0.0,-0.00424255570396781
-0.003006438259035349,-0.010013471357524395,-0.006992676295340061,0.017990900203585625,0.0,-0.004480966832488775
-0.0028571132570505142,-0.010663659311830997,-0.0072967675514519215,0.017877712845802307,0.0,-0.004414391238242388
-0.0030129861552268267,-0.010762042365968227,-0.006746141705662012,0.01687818020582199,0.0,-0.0042656222358345985
-0.003277568146586418,-0.010246633552014828,-0.006622298154979944,0.017620911821722984,0.0,-0.003865024307742715
-0.0030186264775693417,-0.010397079400718212,-0.006907899398356676,0.016788233071565628,0.0,-0.0037135903257876635
-0.0029932933393865824,-0.00998694822192192,-0.007203974295407534,0.017123514786362648,0.0,-0.003816210897639394
-0.0029044600669294596,-0.010091305710375309,-0.007192504126578569,0.01724444329738617,0.0,-0.0038671372458338737
-0.002914618933573365,-0.010976835153996944,-0.006915486883372068,0.01674901694059372,0.0,-0.0038292808458209038
-0.0030096934642642736,-0.009951956570148468,-0.007396773435175419,0.017797471955418587,0.0,-0.00423941807821393
-0.0030403356067836285,-0.00975676067173481,-0.007783074397593737,0.01724294200539589,0.0,-0.004149580840021372
-0.0031502670608460903,-0.010318686254322529,-0.006922770757228136,0.017126640304923058,0.0,-0.0037037020083516836
-0.00305424933321774,-0.009847977198660374,-0.006717002484947443,0.01742921583354473,0.0,-0.0034683323465287685
-0.0030066308099776506,-0.010071874596178532,-0.006718099117279053,0.01731998659670353,0.0,-0.0036043799482285976
-0.0028006532229483128,-0.009780536405742168,-0.007473830133676529,0.017540382221341133,0.0,-0.004211430437862873
-0.002984213177114725,-0.009897533804178238,-0.007031367160379887,0.016658980399370193,0.0,-0.004331192933022976
-0.002936183474957943,-0.010348552837967873,-0.007153759710490704,0.017026400193572044,0.0,-0.004289077594876289
-0.0026294069830328226,-0.00975150428712368,-0.0075877346098423,0.017034661024808884,0.0,-0.003979475703090429
-0.002744324505329132,-0.010170521214604378,-0.007624165620654821,0.017297646030783653,0.0,-0.003967743832617998
-0.0028339149430394173,-0.00955587811768055,-0.00693084578961134,0.016749108210206032,0.0,-0.0034928841050714254
-0.00325296213850379,-0.009565925225615501,-0.0066726477816700935,0.018640587106347084,0.0,-0.0035777310840785503
-0.002931855386123061,-0.010890685953199863,-0.006938489153981209,0.01702500507235527,0.0,-0.0037209917791187763
-0.0030743961688131094,-0.009927351959049702,-0.007352252956479788,0.016341226175427437,0.0,-0.003766797948628664
-0.0030445437878370285,-0.009352821856737137,-0.007144052069634199,0.016753021627664566,0.0,-0.0038767806254327297
-0.003018750110641122,-0.010766478255391121,-0.00709065655246377,0.016618236899375916,0.0,-0.0039027815219014883
-0.002795944921672344,-0.009764065966010094,-0.007320786826312542,0.017042865976691246,0.0,-0.0038290584925562143
-0.0029714899137616158,-0.009459356777369976,-0.007391668856143951,0.017011618241667747,0.0,-0.003711458994075656
-0.0030177177395671606,-0.009622071869671345,-0.007127734832465649,0.01666734553873539,0.0,-0.0036764766555279493
-0.0030177177395671606,-0.009622071869671345,-0.007127734832465649,0.01666734553873539,0.0,-0.0036764766555279493
-0.0033572206739336252,-0.009519094601273537,-0.007159112486988306,0.01668289117515087,0.0,-0.0037935914006084204
-0.002828893717378378,-0.009296353906393051,-0.007149728015065193,0.016098545864224434,0.0,-0.003550764871761203
-0.0028637866489589214,-0.009613724425435066,-0.00744920689612627,0.016723979264497757,0.0,-0.003424827940762043
-0.0030565373599529266,-0.009636909700930119,-0.007359168957918882,0.016377581283450127,0.0,-0.0034598070196807384
-0.003495927434414625,-0.009050861932337284,-0.007378558162599802,0.01643195189535618,0.0,-0.003622008953243494
-0.003298331517726183,-0.009577911347150803,-0.0075224475003778934,0.016531627625226974,0.0,-0.0035883113741874695
-0.0030331620946526527,-0.010213014669716358,-0.007688914425671101,0.01664283312857151,0.0,-0.0035377005115151405
-0.00328077026642859,-0.009100384078919888,-0.0070409951731562614,0.017265480011701584,0.0,-0.003646442200988531
-0.00297363568097353,-0.00970393791794777,-0.007418807130306959,0.01633947528898716,0.0,-0.0038934717886149883
-0.003100905567407608,-0.010138272307813168,-0.007637070957571268,0.016794292256236076,0.0,-0.0035640858113765717
-0.002959084464237094,-0.009613367728888988,-0.007763438858091831,0.016516607254743576,0.0,-0.0038541320245712996
-0.002973712980747223,-0.009651772677898407,-0.006892872508615255,0.016535291448235512,0.0,-0.004154079593718052
-0.002932495903223753,-0.010005457326769829,-0.006845457945019007,0.01641390472650528,0.0,-0.003721719840541482
-0.002931942231953144,-0.009234555065631866,-0.006883769761770964,0.016568994149565697,3.2557020404055947e-06,-0.003550737863406539
-0.002758491551503539,-0.009215544909238815,-0.007763436995446682,0.01677282527089119,2.1257406501717924e-07,-0.003638993948698044
-0.002720685675740242,-0.009437601082026958,-0.0073619419708848,0.01703377068042755,1.3879567717367536e-08,-0.003781585954129696
-0.0025368439964950085,-0.009575777687132359,-0.0067436229437589645,0.016933897510170937,9.062366412848633e-10,-0.003884968813508749
-0.0027323795948177576,-0.009881077334284782,-0.007942184805870056,0.016794750466942787,3.863428674200087e-12,-0.003230918198823929
-0.0027005751617252827,-0.008965907618403435,-0.007446935400366783,0.017097145318984985,2.5225429926313547e-13,-0.0031894156709313393
-0.0027028832118958235,-0.0090147964656353,-0.0068924142979085445,0.017013587057590485,1.6470403193429364e-14,-0.0034282284323126078
-0.0026957772206515074,-0.009420513175427914,-0.007257326506078243,0.01716085895895958,1.0753994884602825e-15,-0.0036141378805041313
-0.002460250398144126,-0.00950084812939167,-0.00788202416151762,0.016283096745610237,7.02159012759436e-17,-0.0033955504186451435
-0.0025266201701015234,-0.008963857777416706,-0.007122444454580545,0.01627761870622635,4.584596432696565e-18,-0.003514994168654084
-0.0026289590168744326,-0.009665637277066708,-0.007164245005697012,0.015876656398177147,2.9934138669100263e-19,-0.003775048768147826
-0.0027722883969545364,-0.008975083008408546,-0.006714514456689358,0.01587531901896,1.9544854542363085e-20,-0.003937433008104563
-0.0027722883969545364,-0.008975083008408546,-0.006714514456689358,0.01587531901896,1.9544854542363085e-20,-0.003937433008104563
-0.0025934227742254734,-0.008918763138353825,-0.0073174284771084785,0.01598224602639675,1.2761394533389149e-21,-0.003761868691071868
-0.002590328687801957,-0.009102831594645977,-0.007930571213364601,0.016561338678002357,8.332278940347071e-23,-0.0035130963660776615
-0.0026536118239164352,-0.009765813127160072,-0.00752353947609663,0.017521051689982414,5.4403827827307814e-24,-0.0032038597855716944
-0.0024918774142861366,-0.008582724258303642,-0.006608525291085243,0.01755278930068016,3.5521812451232917e-25,-0.0033804266713559628
-0.00262371264398098,-0.008829422295093536,-0.006793803535401821,0.017329806461930275,2.3193205489021682e-26,-0.003729397663846612
-0.0027745473198592663,-0.00915338471531868,-0.00743935676291585,0.016803814098238945,1.5143507226624143e-27,-0.0034508982207626104
-0.0026153407525271177,-0.008756561204791069,-0.006857675034552813,0.016335727646946907,9.887627436133742e-29,-0.00340152601711452
-0.002734929556027055,-0.00880969874560833,-0.006806318648159504,0.016578683629631996,6.45591428047876e-30,-0.003298385301604867
-0.0024278536438941956,-0.009227153845131397,-0.007211092859506607,0.01636141538619995,0.00015957027790136635,-0.003509122645482421
-0.002306601731106639,-0.009124132804572582,-0.007801166269928217,0.016816463321447372,0.00019734301895368844,-0.003444811562076211
-0.0023584177251905203,-0.008751747198402882,-0.007291846442967653,0.01653997413814068,0.0001918551861308515,-0.0034929849207401276
-0.0023381405044347048,-0.009064938873052597,-0.00709968525916338,0.016501080244779587,0.00018419185653328896,-0.003615304362028837
-0.002562562469393015,-0.008662705309689045,-0.007019077893346548,0.016273323446512222,0.00020764126384165138,-0.0033263659570366144
-0.002690584398806095,-0.008714571595191956,-0.00817093439400196,0.015769902616739273,0.00020400946959853172,-0.0031308867037296295
-0.0023822677321732044,-0.009250578470528126,-0.007213981822133064,0.01598142832517624,0.00019684714789036661,-0.0031135212630033493
-0.0023979092948138714,-0.008707528933882713,-0.007177569903433323,0.015747826546430588,0.0002173966495320201,-0.0032259144354611635
-0.0022043350618332624,-0.008524742908775806,-0.006699827499687672,0.01662246696650982,0.00021379337704274803,-0.0031649379525333643
-0.002203325042501092,-0.008887776173651218,-0.008145350962877274,0.017214467748999596,0.00022151424491312355,-0.003441189881414175
-0.002688534092158079,-0.009173043072223663,-0.007814900949597359,0.01620006002485752,0.00022809364600107074,-0.003270139219239354
-0.002653278410434723,-0.009187485091388226,-0.006811210885643959,0.015529252588748932,0.00022232116316445172,-0.003367217257618904
-0.002300865249708295,-0.008781833574175835,-0.0072044567205011845,0.015621121972799301,0.0003387427132111043,-0.0030425209552049637
-0.002051926450803876,-0.008990857750177383,-0.007345919497311115,0.015266547910869122,0.000362029968528077,-0.0031573486048728228
-0.0019982089288532734,-0.008471629582345486,-0.007060746196657419,0.015656622126698494,0.00035285972990095615,-0.003256127703934908
-0.0020457347854971886,-0.009015854448080063,-0.006989040412008762,0.01555845607072115,0.000332098628859967,-0.002809493336826563
-0.00227167084813118,-0.008776200003921986,-0.007510034367442131,0.01563086546957493,0.0003614443994592875,-0.0027066576294600964
-0.0023745980579406023,-0.009359689429402351,-0.0073222084902226925,0.015320399776101112,0.00034482372575439513,-0.0026492506731301546
-0.0022400098387151957,-0.008032617159187794,-0.006897117011249065,0.015787217766046524,0.00032712100073695183,-0.0027666371315717697
-0.0023105563595891,-0.008208167739212513,-0.007150240242481232,0.01519249938428402,0.00034376687835901976,-0.0030468173790723085
-0.0020586964674293995,-0.00859866477549076,-0.0076630618423223495,0.01553318277001381,0.0003379257977940142,-0.003172509139403701
-0.0020525429863482714,-0.008588862605392933,-0.00752096064388752,0.015337391756474972,0.0003656732151284814,-0.0031596894841641188
-0.0020595525857061148,-0.009253940545022488,-0.00725638447329402,0.015597743913531303,0.0003767747257370502,-0.003155813552439213
-0.0022472627460956573,-0.008901141583919525,-0.007207029033452272,0.015465576201677322,0.0004106371197849512,-0.0032679971773177385
-0.0022472627460956573,-0.008901141583919525,-0.007207029033452272,0.015465576201677322,0.0004106371197849512,-0.0032679971773177385
-0.002263248898088932,-0.008146445266902447,-0.007920542731881142,0.015390503220260143,0.00038942479295656085,-0.003150559961795807
-0.0021475236862897873,-0.009225232526659966,-0.007569354493170977,0.01581418886780739,0.00041610965854488313,-0.0029173404909670353
-0.0020631742663681507,-0.009020417928695679,-0.007174458354711533,0.01566924899816513,0.0003970589896198362,-0.002936046104878187
-0.0020601307041943073,-0.008544450625777245,-0.007049201056361198,0.01580718159675598,0.00041330617386847734,-0.0029236667323857546
-0.002087956527248025,-0.008655378594994545,-0.007825033739209175,0.015355630777776241,0.0004025305970571935,-0.0029668137431144714
-0.0020148144103586674,-0.008857864886522293,-0.007660201285034418,0.015608713962137699,0.0003819756384473294,-0.003290425753220916
-0.001969733973965049,-0.00879722647368908,-0.007257268764078617,0.01495084073394537,0.0003627760452218354,-0.0031428318470716476
-0.0019282465800642967,-0.008395565673708916,-0.007034445647150278,0.01585288532078266,0.000433514011092484,-0.0031528002582490444
-0.002125897677615285,-0.00856075994670391,-0.007539030164480209,0.01595235988497734,0.0004079566278960556,-0.003299424657598138
-0.001938714412972331,-0.00904414989054203,-0.007443325128406286,0.016271134838461876,0.00037484505446627736,-0.0032063841354101896
-0.00188045809045434,-0.00840636808425188,-0.007367213722318411,0.01571745239198208,0.00034605420660227537,-0.0030480145942419767
-0.0018382550915703177,-0.00802021473646164,-0.007143000606447458,0.015157656744122505,0.00038107403088361025,-0.0028440963942557573
-0.001791863702237606,-0.008357886224985123,-0.007938905619084835,0.015059755183756351,0.000359583820682019,-0.0029087697621434927
-0.0017435731133446097,-0.008674435317516327,-0.007682493422180414,0.01501303818076849,0.00033736220211721957,-0.0027201937045902014
-0.001809641718864441,-0.008559642359614372,-0.007384622469544411,0.015351833775639534,0.00031753245275467634,-0.002674899995326996
-0.0016788681969046593,-0.008511855266988277,-0.008477655239403248,0.01563078723847866,0.00032819490297697484,-0.003065194934606552
-0.0017586702015250921,-0.008337856270372868,-0.007702725939452648,0.015341506339609623,0.0003146719536744058,-0.0028403927572071552
-0.0016225589206442237,-0.008414803072810173,-0.008108111098408699,0.015338128432631493,0.0002998783893417567,-0.002538741333410144
-0.001795960240997374,-0.007992005906999111,-0.00785010401159525,0.014822672121226788,0.00028626053244806826,-0.002339376136660576
-0.001647797878831625,-0.008614067919552326,-0.007979837246239185,0.015370501205325127,0.0002738165494520217,-0.0024617158342152834
-0.001741644344292581,-0.00839573796838522,-0.007584631908684969,0.014984726905822754,0.0002624094486236572,-0.0024474847596138716
-0.0017036242643371224,-0.008481573313474655,-0.007509388495236635,0.015122558921575546,0.000269524723989889,-0.002561439760029316
-0.001559054246172309,-0.008384695276618004,-0.00754838902503252,0.014806924387812614,0.00027563085313886404,-0.0024012720678001642
-0.0015916533302515745,-0.008083774708211422,-0.00799048226326704,0.015019363723695278,0.00026650092331692576,-0.0024580825120210648
-0.0014979783445596695,-0.007889142259955406,-0.0075059314258396626,0.01445796899497509,0.0002570544311311096,-0.00255559547804296
-0.0015516759594902396,-0.008726398460566998,-0.0071739754639565945,0.01475410908460617,0.00024819705868139863,-0.0024465727619826794
-0.0015516759594902396,-0.008726398460566998,-0.0071739754639565945,0.01475410908460617,0.00024819705868139863,-0.0024465727619826794
-0.0014739874750375748,-0.00853689108043909,-0.007547577377408743,0.01492406614124775,0.000239925691857934,-0.002655584365129471
-0.0013651797780767083,-0.007940549403429031,-0.007596760522574186,0.015350902453064919,0.00021144680795259774,-0.0030669942498207092
-0.0013888158136978745,-0.007668588310480118,-0.006867836229503155,0.015166256576776505,0.0001995045313378796,-0.003037720685824752
-0.0013336408883333206,-0.007651172578334808,-0.006949423346668482,0.014967945404350758,0.00019087220425717533,-0.0026429109275341034
-0.0012573190033435822,-0.008101220242679119,-0.007584935519844294,0.014959179796278477,0.0001830936234910041,-0.0025985033717006445
-0.0011630095541477203,-0.008259966969490051,-0.007777216378599405,0.014664330519735813,0.00020194920944049954,-0.002461495343595743
-0.0012407376198098063,-0.008142555132508278,-0.0075573087669909,0.014084391295909882,0.00020257638243492693,-0.002386833541095257
-0.001219530706293881,-0.008566781878471375,-0.006926282774657011,0.01403751689940691,0.00019576751219574362,-0.0025462147314101458
-0.0012628580443561077,-0.0077441115863621235,-0.006680234335362911,0.014591747894883156,0.00021831282356288284,-0.002721552737057209
-0.0013401013566181064,-0.008022631518542767,-0.007986621931195259,0.014840818010270596,0.000212853352422826,-0.0025848562363535166
-0.00126167805865407,-0.008259737864136696,-0.007050008978694677,0.015334412455558777,0.00022044763318262994,-0.0026434219907969236
-0.0011242334730923176,-0.00779322162270546,-0.006781124044209719,0.015514003112912178,0.00022702159185428172,-0.0024587546940892935
-0.0010213605128228664,-0.007556345779448748,-0.0069478037767112255,0.015202394686639309,0.00022100636851973832,-0.0022835389245301485
-0.000997808645479381,-0.007472772616893053,-0.007516057230532169,0.014550391584634781,0.0003457574639469385,-0.002291324781253934
-0.0009823305299505591,-0.007680713664740324,-0.007025911007076502,0.014690280891954899,0.0003617488546296954,-0.0022262048441916704
-0.0009710979647934437,-0.007895125076174736,-0.006792755331844091,0.014715076424181461,0.00036708664265461266,-0.0023658836726099253
-0.0009009112254716456,-0.00743740051984787,-0.0072214072570204735,0.014998997561633587,0.0003879521391354501,-0.0025682414416223764
-0.0008911386248655617,-0.0076204161159694195,-0.0073170713149011135,0.014795324765145779,0.00040163061930797994,-0.0025897675659507513
-0.0008664820343255997,-0.007632670924067497,-0.006586509291082621,0.014154989272356033,0.00038683827733621,-0.0024216820020228624
-0.0008063744753599167,-0.008115964010357857,-0.006494941655546427,0.014330368489027023,0.0005627185455523431,-0.002254155930131674
-0.0008098046528175473,-0.008449125103652477,-0.007047068793326616,0.013780651614069939,0.0005132610094733536,-0.00227329577319324
-0.0008232604595832527,-0.008028973825275898,-0.007302566431462765,0.015285990200936794,0.0005471109761856496,-0.002208160702139139
-0.0007932008593343198,-0.007791417185217142,-0.006467243656516075,0.013688413426280022,0.0005018666270188987,-0.0023354245349764824
-0.0007368475198745728,-0.0074485247023403645,-0.00626487797126174,0.013659870252013206,0.0005306079401634634,-0.0022600290831178427
-0.0007368475198745728,-0.0074485247023403645,-0.00626487797126174,0.013659870252013206,0.0005306079401634634,-0.0022600290831178427
-0.0006815470405854285,-0.007924037985503674,-0.007497900631278753,0.014301561750471592,0.0005211116513237357,-0.0024632648564875126
-0.0006815470405854285,-0.007924037985503674,-0.007497900631278753,0.014301561750471592,0.0005211116513237357,-0.0024632648564875126
-0.0005691781989298761,-0.007260428741574287,-0.006636442616581917,0.014071178622543812,0.0004813670238945633,-0.002412381349131465
-0.0005058111855760217,-0.0077640763483941555,-0.006695768795907497,0.014210216701030731,0.00045749140554107726,-0.002135230228304863
-0.0005058111855760217,-0.0077640763483941555,-0.006695768795907497,0.014210216701030731,0.00045749140554107726,-0.002135230228304863
-0.0005492909112945199,-0.007464510854333639,-0.007741051726043224,0.01419321820139885,0.0005129423225298524,-0.0020873849280178547
-0.0005492909112945199,-0.007464510854333639,-0.007741051726043224,0.01419321820139885,0.0005129423225298524,-0.0020873849280178547
-0.0005291209672577679,-0.008021106012165546,-0.006347456946969032,0.014045318588614464,0.0005249762907624245,-0.002033314434811473
-0.0005552960792556405,-0.007721735630184412,-0.006429663859307766,0.014159038662910461,0.0005193569813854992,-0.002221508650109172
-0.0005193440592847764,-0.00814827997237444,-0.007073682267218828,0.013984793797135353,0.000598842860199511,-0.0021714232861995697
-0.0005981207941658795,-0.007830752991139889,-0.0075570764020085335,0.01384107768535614,0.0006221404182724655,-0.0021703478414565325
-0.0005296817398630083,-0.007134695071727037,-0.006666627712547779,0.01334213837981224,0.0006550177349708974,-0.002024277811869979
-0.0005646147183142602,-0.00726856105029583,-0.0068108756095170975,0.013579748570919037,0.0006377457757480443,-0.0021282148081809282
-0.0005144082242622972,-0.007486586458981037,-0.007326508406549692,0.01353964488953352,0.0006180276977829635,-0.0021417494863271713
-0.00046969950199127197,-0.00802681501954794,-0.007604221347719431,0.01373678632080555,0.000565329275559634,-0.002154251793399453
-0.0004321012238506228,-0.0071638645604252815,-0.007443372160196304,0.01359623484313488,0.0005877605290152133,-0.002164636505767703
-0.00045873556518927217,-0.007994997315108776,-0.006932237185537815,0.013934538699686527,0.0005480203544721007,-0.002131887711584568
-0.000434447341831401,-0.007890106178820133,-0.007184081245213747,0.01369926705956459,0.0005453883204609156,-0.0021324255503714085
-0.0004065088287461549,-0.0073766931891441345,-0.007532073650509119,0.014124533161520958,0.0005372098530642688,-0.0019348915666341782
-0.0003818661789409816,-0.00729837641119957,-0.007532371208071709,0.013506117276847363,0.0005272625712677836,-0.00182196288369596
-0.0003600407508201897,-0.00726736057549715,-0.006949881557375193,0.013627942651510239,0.0005522242863662541,-0.0018175843870267272
-0.0003231051960028708,-0.007075443863868713,-0.0074900072067976,0.013067753985524178,0.000541403132956475,-0.0018171148840337992
-0.00030734165920875967,-0.0074838269501924515,-0.007361672818660736,0.012674758210778236,0.0005074084619991481,-0.0018460846040397882
-0.00029304486815817654,-0.007749243639409542,-0.007139486726373434,0.012909641489386559,0.0005622574244625866,-0.0017143880249932408
-0.00031839022994972765,-0.007719351444393396,-0.0069744824431836605,0.013109710067510605,0.000587993476074189,-0.0017065124120563269
-0.00030638003954663873,-0.007551527116447687,-0.007315727882087231,0.012442836537957191,0.0005961813731119037,-0.0017963596619665623
-0.0002586512709967792,-0.007077609188854694,-0.007165063172578812,0.012458382174372673,0.0005825678235851228,-0.0016871957341209054
-0.000247092277277261,-0.007403645198792219,-0.007162366062402725,0.012446778826415539,0.0006017130799591541,-0.0018297448987141252
-0.00027123867766931653,-0.007439345587044954,-0.007057492155581713,0.013181949965655804,0.0007325195474550128,-0.0017412803135812283
-0.00027123867766931653,-0.007439345587044954,-0.007057492155581713,0.013181949965655804,0.0007325195474550128,-0.0017412803135812283
-0.00025264269788749516,-0.007635175716131926,-0.007376568857580423,0.013604397885501385,0.0007117181085050106,-0.0017998056719079614
-0.00021480249415617436,-0.007075744215399027,-0.0075364126823842525,0.013265954330563545,0.0007072663283906877,-0.0018129523377865553
-0.00021480249415617436,-0.007075744215399027,-0.0075364126823842525,0.013265954330563545,0.0007072663283906877,-0.0018129523377865553
-9.0689369244501e-05,-0.006955661345273256,-0.007015318144112825,0.012678207829594612,0.0006569930701516569,-0.0017508456949144602
-4.058601552969776e-05,-0.006881657987833023,-0.007353967987000942,0.012983756139874458,0.0006753374473191798,-0.0017153449589386582
-3.477757491054945e-05,-0.006687285844236612,-0.0075907777063548565,0.012603148818016052,0.0006884817266836762,-0.001603015000000596
-5.5373297072947025e-05,-0.0070011308416724205,-0.007416314445436001,0.01291506364941597,0.0007103094249032438,-0.0015274308389052749
-6.430764915421605e-05,-0.006940243300050497,-0.00678799906745553,0.012159887701272964,0.0007057045586407185,-0.0014466940192505717
-3.237362398067489e-05,-0.007171007804572582,-0.007353709079325199,0.01288558728992939,0.0007249941700138152,-0.0014073540223762393
-3.009349893545732e-05,-0.006427894812077284,-0.007284149061888456,0.012611313723027706,0.0007066914695315063,-0.0014359544729813933
-2.910420880652964e-05,-0.006563127040863037,-0.0071427421644330025,0.013066345825791359,0.0009004484163597226,-0.0015225537354126573
-2.8192262107040733e-05,-0.006730183493345976,-0.00708203436806798,0.012732510454952717,0.0009465537732467055,-0.001663809991441667
-2.7336032871971838e-05,-0.007171568926423788,-0.007639576215296984,0.01269260048866272,0.0009433752275072038,-0.0016389477532356977
-3.667477415092435e-07,-0.006906577851623297,-0.007588982582092285,0.0123372171074152,0.0008655103156343102,-0.001506958855316043
-4.920388985141244e-09,-0.006413517519831657,-0.007315292023122311,0.01213040016591549,0.0008954236982390285,-0.0014188278000801802
-6.601329899380559e-11,-0.006507599260658026,-0.007278051692992449,0.012871005572378635,0.0008974855882115662,-0.0013627533335238695
-8.856526081089944e-13,-0.006897075567394495,-0.007691015489399433,0.012389161624014378,0.0008888787706382573,-0.0013029065448790789
-1.1882160396391433e-14,-0.006573094986379147,-0.007755557540804148,0.01274289470165968,0.000874898221809417,-0.0013749401550740004
-1.594143535303379e-16,-0.0061972676776349545,-0.0071062673814594746,0.013002430088818073,0.0008040358079597354,-0.0014220038428902626
-2.138747024878839e-18,-0.006357427220791578,-0.006576774176210165,0.012326689437031746,0.0007632529595866799,-0.0015079252189025283
-2.869401980123796e-20,-0.006650568451732397,-0.007256131153553724,0.012204994447529316,0.0007702641887590289,-0.0015450905775651336
-3.8496689853824014e-22,-0.00713958777487278,-0.007527431473135948,0.011969277635216713,0.0007710254867561162,-0.0014685852220281959
-5.164822230053956e-24,-0.006193101871758699,-0.0069258082658052444,0.012563431635499,0.0007846442749723792,-0.001323545933701098
-6.929268526097441e-26,-0.006029981188476086,-0.006483325269073248,0.011953984387218952,0.0008221352472901344,-0.0013334082905203104
-1.2472437424258572e-29,-0.00711069768294692,-0.0072203390300273895,0.011866268701851368,0.0010253870859742165,-0.0014107648748904467
-1.6733367795466657e-31,-0.006500114221125841,-0.007452983874827623,0.011786773800849915,0.0010117649799212813,-0.0014001913368701935
-2.2449949270439063e-33,-0.006233962252736092,-0.007122828159481287,0.012260397896170616,0.0012014403473585844,-0.0013511527795344591
-3.011946847606944e-35,-0.0057638539001345634,-0.0075984192080795765,0.011938555166125298,0.0012307260185480118,-0.001531688030809164
-4.040911153315972e-37,-0.006130783353000879,-0.007945419289171696,0.012680653482675552,0.0011808817507699132,-0.0015690233558416367
-5.421398149419961e-39,-0.006635389756411314,-0.007156246807426214,0.012168558314442635,0.0011155263055115938,-0.0014777256874367595
-7.273439679077963e-41,-0.00612422451376915,-0.006635953672230244,0.011889216490089893,0.001019381219521165,-0.001379075925797224
-9.753037311700727e-43,-0.005767990369349718,-0.006764483172446489,0.011926391161978245,0.0008536566165275872,-0.0012824636651203036
-1.2611686178923354e-44,-0.006124105770140886,-0.007476327940821648,0.01150488294661045,0.000851153745315969,-0.0012166164815425873
-1.2611686178923354e-44,-0.006124105770140886,-0.007476327940821648,0.01150488294661045,0.000851153745315969,-0.0012166164815425873
0.000331305549480021,-0.006095237098634243,-0.007197651546448469,0.011823694221675396,0.0008486208389513195,-0.0010229821782559156
0.0003776756057050079,-0.0062545426189899445,-0.006847046315670013,0.011573673225939274,0.0008542115101590753,-0.000958056712988764
0.00035385871888138354,-0.0062068370170891285,-0.006872386205941439,0.011745186522603035,0.0007854217546992004,-0.0008441397221758962
0.0003808393666986376,-0.005745625123381615,-0.0076457057148218155,0.011854516342282295,0.0007482024957425892,-0.000844577036332339
0.0003649170103017241,-0.006135193631052971,-0.007242387626320124,0.01105108018964529,0.0007665278972126544,-0.0008294179569929838
0.0003450122312642634,-0.0058068507350981236,-0.0067046284675598145,0.011983713135123253,0.0007752528763376176,-0.0007687862380407751
0.00037316480302251875,-0.00598381320014596,-0.007020976860076189,0.011418054811656475,0.0007884176447987556,-0.0006848943885415792
0.0003560505574569106,-0.0061869570054113865,-0.00753468694165349,0.0111342528834939,0.00084460194921121,-0.0006982611957937479
0.0005148357595317066,-0.005519213620573282,-0.007473890203982592,0.011227321811020374,0.0008601252920925617,-0.0006305226706899703
0.0005558833945542574,-0.005432773381471634,-0.006487627979367971,0.011042587459087372,0.0008663855260238051,-0.0006526745273731649
0.0005880786338821054,-0.005785089451819658,-0.007117125205695629,0.011334369890391827,0.0008706341031938791,-0.0006376811652444303
0.0006065604975447059,-0.006490603554993868,-0.00788525678217411,0.011149059049785137,0.0008008269942365587,-0.0006202711374498904
0.000568899093195796,-0.0058242022059857845,-0.007129444740712643,0.010738199576735497,0.0008248279336839914,-0.0006112949922680855
0.0007552613969892263,-0.005281033925712109,-0.006727398838847876,0.011259525083005428,0.0008352878503501415,-0.0005730015109293163
0.0007778849685564637,-0.005357060115784407,-0.006819301284849644,0.010924273170530796,0.0008280707988888025,-0.0005594794638454914
0.0007900562486611307,-0.005430727731436491,-0.007145775482058525,0.010981702245771885,0.0007567924913018942,-0.0005468039307743311
0.0007942881202325225,-0.005527846980839968,-0.007242394145578146,0.01107286661863327,0.0007668488542549312,-0.0005600242293439806
0.0007577453507110476,-0.00513888243585825,-0.006747133564203978,0.011628097854554653,0.0007827781955711544,-0.0005520397680811584
0.0007781560998409986,-0.004942299798130989,-0.007543559186160564,0.011596967466175556,0.0007983145187608898,-0.0005690190591849387
0.0007934788591228426,-0.004975561983883381,-0.007828385569155216,0.011381370015442371,0.0007706893375143409,-0.000550413562450558
0.0008110123453661799,-0.005296278744935989,-0.006934227421879768,0.010574213229119778,0.0007371383253484964,-0.0005781575455330312
0.001043575699441135,-0.005515745375305414,-0.006410176400095224,0.01047632284462452,0.0007775414269417524,-0.0005756017635576427
0.0010349660879001021,-0.0054699573665857315,-0.00685118930414319,0.010869444347918034,0.0007975753396749496,-0.0005635034758597612
0.0010195953072980046,-0.005402339622378349,-0.0075294217094779015,0.010568843223154545,0.0007813837728463113,-0.0005836035124957561
0.0013199896784499288,-0.004989109467715025,-0.007128986995667219,0.01025941502302885,0.0007932792650535703,-0.000548040377907455
0.0013199896784499288,-0.004989109467715025,-0.007128986995667219,0.01025941502302885,0.0007932792650535703,-0.000548040377907455
0.001378526329062879,-0.004744882695376873,-0.006696439813822508,0.010737517848610878,0.0007682187715545297,-0.0006010141223669052
0.0014320970512926579,-0.00497918576002121,-0.00736581813544035,0.010815001092851162,0.0009290835587307811,-0.0005596387200057507
0.001605796511285007,-0.005317803472280502,-0.0077887726947665215,0.010252365842461586,0.0009339314419776201,-0.0004996070056222379
0.0015256053302437067,-0.005076406989246607,-0.0076089343056082726,0.010653194040060043,0.000945794687140733,-0.0004497361369431019
0.0018212973373010755,-0.004721762612462044,-0.006628889124840498,0.010756771080195904,0.0010782363824546337,-0.00044829302350990474
0.001722521847113967,-0.004730072803795338,-0.006738847587257624,0.011012549512088299,0.0011560949496924877,-0.00044693643576465547
0.0019310874631628394,-0.004498760681599379,-0.00718338880687952,0.010587449185550213,0.0011208707001060247,-0.0004149181768298149
0.00202923733741045,-0.0046056280843913555,-0.007336131297051907,0.00989100243896246,0.0010367464274168015,-0.000385436462238431
0.0022636244539171457,-0.004702236503362656,-0.007051666267216206,0.010262071155011654,0.001080151880159974,-0.0003597509930841625
0.0026237235870212317,-0.00496275769546628,-0.0069807423278689384,0.010220643132925034,0.0010932048317044973,-0.0003372701467014849
0.0024578175507485867,-0.004971824586391449,-0.007078893482685089,0.009713909588754177,0.0010665489826351404,-0.00031743597355671227
0.002518730005249381,-0.004327457398176193,-0.007587900385260582,0.010067627765238285,0.0010907570831477642,-0.0002998026611749083
0.002681097714230418,-0.004025006201118231,-0.0075506893917918205,0.010041956789791584,0.001082605100236833,-0.000284028792520985
0.0029210797511041164,-0.004244246054440737,-0.007559196092188358,0.009301351383328438,0.0010532564483582973,-0.0002698314201552421
0.0028243164997547865,-0.005019299685955048,-0.00708585511893034,0.009235785342752934,0.0010308813070878386,-0.00025698644458316267
0.003160267136991024,-0.004946037195622921,-0.00736548425629735,0.009905691258609295,0.0011237289290875196,-0.0002453089982736856
0.0033491335343569517,-0.004496023058891296,-0.00739314965903759,0.009142870083451271,0.0011417703935876489,-0.00023464680998586118
0.0030625234358012676,-0.004187623504549265,-0.007580257952213287,0.009442657232284546,0.0011071914341300726,-0.00022487386013381183
0.003279137657955289,-0.004552190192043781,-0.008105945773422718,0.009320743381977081,0.0011205561459064484,-0.0002075818192679435
0.003279137657955289,-0.004552190192043781,-0.008105945773422718,0.009320743381977081,0.0011205561459064484,-0.0002075818192679435
0.0033562732860445976,-0.0043359072878956795,-0.007018886040896177,0.00949140265583992,0.0010662515414878726,-0.0001927600969793275
0.003372772131115198,-0.004676732234656811,-0.006865764036774635,0.009047006256878376,0.00101354974322021,-0.00018611531413625926
0.0035155066289007664,-0.004535518120974302,-0.007545584347099066,0.009343263693153858,0.0009653098531998694,-0.00017991433560382575
0.0036913815420120955,-0.004301708657294512,-0.00803367979824543,0.009558696299791336,0.0009178213658742607,-0.00017411235603503883
0.004234859719872475,-0.003913441672921181,-0.007037709467113018,0.008924350142478943,0.0008544855518266559,-0.00016867349040694535
0.004234859719872475,-0.003913441672921181,-0.007037709467113018,0.008924350142478943,0.0008544855518266559,-0.00016867349040694535
0.004016862250864506,-0.0038464083336293697,-0.00876697525382042,0.009485731832683086,0.0007914667949080467,-0.00015875496319495142
0.004016862250864506,-0.0038464083336293697,-0.00876697525382042,0.009485731832683086,0.0007914667949080467,-0.00015875496319495142
0.004013861529529095,-0.004364689812064171,-0.008031049743294716,0.009932814165949821,0.0007588888402096927,-0.00015422087744809687
0.004051514435559511,-0.004189643543213606,-0.007111911661922932,0.009031001478433609,0.0008045902359299362,-0.00014993826334830374
0.004100214224308729,-0.004013023804873228,-0.0073469351045787334,0.009532375261187553,0.0008177067502401769,-0.00014588717021979392
0.0040360186249017715,-0.0039553530514240265,-0.008146164938807487,0.008598987013101578,0.0009696936467662454,-0.0001420493790647015
0.004410017281770706,-0.0038666159380227327,-0.00775659317150712,0.008616720326244831,0.0010216791415587068,-0.00013840841711498797
0.004268522374331951,-0.0041829850524663925,-0.007394461426883936,0.009226702153682709,0.0010061240755021572,-0.00013494931044988334
0.004492077510803938,-0.004242126829922199,-0.007728706579655409,0.009674562141299248,0.0009828769834712148,-0.00013165920972824097
0.004420239012688398,-0.004067900124937296,-0.007972360588610172,0.009082572534680367,0.001000198069959879,-0.00012852539657615125
0.0042702509090304375,-0.004034698009490967,-0.007533455733209848,0.008760119788348675,0.0009950367966666818,-0.00012553717533592135
0.004879856016486883,-0.004013341385871172,-0.007160974200814962,0.0096531817689538,0.0010479012271389365,-0.0001226851891260594
0.004890744574368,-0.004349042195826769,-0.007809414528310299,0.009432148188352585,0.0010730399517342448,-0.00010773460235213861
0.004850816447287798,-0.004091189242899418,-0.008127323351800442,0.00925292819738388,0.0010900900233536959,-9.636289905756712e-05
0.005320976488292217,-0.0035133734345436096,-0.007842919789254665,0.00947035662829876,0.001082746428437531,-9.376271918881685e-05
0.005075282417237759,-0.0034916410222649574,-0.007947506383061409,0.008413798175752163,0.0012735911877825856,-9.181101631838828e-05
0.005481530912220478,-0.0037111996207386255,-0.009007764048874378,0.008711621165275574,0.0012585582444444299,-8.997284021461383e-05
0.005266091786324978,-0.0038417354226112366,-0.008284966461360455,0.009180900640785694,0.0012005195021629333,-7.287983316928148e-05
0.005266091786324978,-0.0038417354226112366,-0.008284966461360455,0.009180900640785694,0.0012005195021629333,-7.287983316928148e-05
0.005485811270773411,-0.003848861437290907,-0.007069878280162811,0.008891335688531399,0.001116379862651229,-6.936148565728217e-05
0.0057428437285125256,-0.003732515498995781,-0.007900704629719257,0.009104091674089432,0.0010836401488631964,-6.7914865212515e-05
0.005191083066165447,-0.003719987813383341,-0.007902559824287891,0.008659112267196178,0.0010524435201659799,-5.109495759825222e-05
0.00514950742945075,-0.0037651006132364273,-0.008083346299827099,0.008388811722397804,0.001029861974529922,-4.914970486424863e-05
0.005132667720317841,-0.00392087223008275,-0.007224743720144033,0.008798117749392986,0.0010301698930561543,-4.8205947678070515e-05
0.005906563717871904,-0.003921252675354481,-0.00806361809372902,0.008970910683274269,0.0011200072476640344,-4.743163663079031e-05
0.005724969319999218,-0.00388055806979537,-0.0076425643637776375,0.008813045918941498,0.0011477910447865725,2.9690552764805034e-05
0.005652225110679865,-0.0035214063245803118,-0.007730225566774607,0.008847342804074287,0.0012890140060335398,3.4099350159522146e-05
0.005563504062592983,-0.003443331690505147,-0.007388795726001263,0.00941228587180376,0.0013335224939510226,3.3783999242587015e-05
0.006304347421973944,-0.0036504878662526608,-0.007724471390247345,0.009067187085747719,0.001302914461120963,4.8670706746634096e-05
0.0067610894329845905,-0.0032839966006577015,-0.008025305345654488,0.008585586212575436,0.0011585470056161284,5.682113260263577e-05
0.006390788126736879,-0.003390900557860732,-0.008364208042621613,0.008526471443474293,0.0011273103300482035,6.346288864733651e-05
0.006303063593804836,-0.003555095987394452,-0.007981737144291401,0.008614258840680122,0.001109360484406352,7.753168029012159e-05
0.006678431294858456,-0.003640279872342944,-0.007991326041519642,0.007896135561168194,0.001089333789423108,0.00043360970448702574
0.006931906100362539,-0.0034213420003652573,-0.007573193870484829,0.0077545298263430595,0.0012204411905258894,0.0005697685410268605
0.006889620795845985,-0.003430546261370182,-0.008025651797652245,0.007701838854700327,0.0012371874181553721,0.0005423646653071046
0.006770268548280001,-0.003236594144254923,-0.007762736640870571,0.008127582259476185,0.0011962068965658545,0.0004945952096022666
0.006656699813902378,-0.003589796833693981,-0.007704961579293013,0.008194847963750362,0.0012773089110851288,0.0004896932514384389
0.006954818032681942,-0.0033578479196876287,-0.007811499759554863,0.007969101890921593,0.0012670408468693495,0.0004851931007578969
0.0074722436256706715,-0.0032066148705780506,-0.007585649378597736,0.008279316127300262,0.0013650346081703901,0.00048293700092472136
0.007019012235105038,-0.0030539038125425577,-0.007626109290868044,0.007772127166390419,0.001456776517443359,0.0006045235204510391
0.00712967524304986,-0.0032565221190452576,-0.007367244455963373,0.007950805127620697,0.0016289217164739966,0.0006407604087144136
0.007751614321023226,-0.0032719161827117205,-0.0072967298328876495,0.008223715238273144,0.001614410663023591,0.0006660266080871224
0.006956355180591345,-0.003468579612672329,-0.007857159711420536,0.008195544593036175,0.00150120269972831,0.0006288366857916117
0.006956355180591345,-0.003468579612672329,-0.007857159711420536,0.008195544593036175,0.00150120269972831,0.0006288366857916117
0.007027825340628624,-0.003204729873687029,-0.007661659736186266,0.007875559851527214,0.0014712187694385648,0.0008624637848697603
0.007079745642840862,-0.002978013828396797,-0.007158069871366024,0.00777216674759984,0.0013788574142381549,0.0007617796654812992
0.007411333732306957,-0.002864304231479764,-0.0072881621308624744,0.007513801567256451,0.0012928973883390427,0.0007485049427486956
0.007096861954778433,-0.003203299595043063,-0.008183248341083527,0.007842042483389378,0.001268248655833304,0.0007371438550762832
0.0072484128177165985,-0.003246889915317297,-0.007617656607180834,0.008222506381571293,0.0012741690734401345,0.0007788071525283158
0.0076727597042918205,-0.003091389313340187,-0.007277853321284056,0.008416990749537945,0.001418941654264927,0.0007817534497007728
0.0077731432393193245,-0.0029500301461666822,-0.007716530468314886,0.008343024179339409,0.0015641279751434922,0.0009154884610325098
0.008116581477224827,-0.00302285049110651,-0.00801457092165947,0.00797072984278202,0.0015279001090675592,0.0009368280880153179
0.008259100839495659,-0.002910479437559843,-0.007903259247541428,0.0071108401753008366,0.0016412165714427829,0.0013802169123664498
0.008003870956599712,-0.0028217404615134,-0.007687519304454327,0.007454322651028633,0.0015225776005536318,0.0013851877301931381
0.007937463000416756,-0.002660090336576104,-0.006993688177317381,0.007368370890617371,0.0015101288445293903,0.0013015116564929485
0.007793176919221878,-0.002761018695309758,-0.0071951113641262054,0.007401537150144577,0.0014399363426491618,0.0011622983729466796
0.00795822311192751,-0.002764215227216482,-0.008043332025408745,0.007202029228210449,0.0014814079040661454,0.0009617349714972079
0.008104897104203701,-0.0028193327598273754,-0.007646622136235237,0.007352916523814201,0.001549149164929986,0.0009405394666828215
0.008721196092665195,-0.002533797174692154,-0.006665441673249006,0.007437435910105705,0.001530374982394278,0.0009975899010896683
0.008374584838747978,-0.002584243193268776,-0.00717397965490818,0.00805587787181139,0.0015724499244242907,0.0012078002328053117
0.007891426794230938,-0.0024660713970661163,-0.007562083657830954,0.007853890769183636,0.0016503632068634033,0.0013773104874417186
0.007899477146565914,-0.0026490469463169575,-0.007054321933537722,0.007641447242349386,0.0015766703290864825,0.002531719394028187
0.008961875922977924,-0.002732569118961692,-0.006726584862917662,0.007379679474979639,0.0016252895584329963,0.0024710814468562603
0.008254019543528557,-0.002749944105744362,-0.006903147324919701,0.007253113202750683,0.0016222329577431083,0.0022915333975106478
0.008495495654642582,-0.002503422787413001,-0.007176334969699383,0.007436556275933981,0.00161668099462986,0.0014517187373712659
0.008495495654642582,-0.002503422787413001,-0.007176334969699383,0.007436556275933981,0.00161668099462986,0.0014517187373712659
0.00609175069257617,-0.0023736741859465837,-0.00703442795202136,0.0070212287828326225,0.0013322130544111133,0.0013808917719870806
0.007002984173595905,-0.0023036187049001455,-0.0073629324324429035,0.006666379980742931,0.0014047885779291391,0.0015965544153004885
0.00781665276736021,-0.0022429118398576975,-0.00742259481921792,0.0067915040999650955,0.001368154538795352,0.002355216071009636
0.007094990462064743,-0.00238197878934443,-0.0067093390971422195,0.006654152646660805,0.0016595071647316217,0.002535241423174739
0.006471490953117609,-0.0025668093003332615,-0.006930558942258358,0.006692233495414257,0.0018658952321857214,0.0024129124358296394
0.006471490953117609,-0.0025668093003332615,-0.006930558942258358,0.006692233495414257,0.0018658952321857214,0.0024129124358296394
0.006530079059302807,-0.0023885625414550304,-0.007628687657415867,0.006578614003956318,0.0020161427091807127,0.0022217927034944296
0.006950662471354008,-0.002158411080017686,-0.007154596969485283,0.006617689039558172,0.0018368340097367764,0.0020253232214599848
0.007113933097571135,-0.002060149796307087,-0.00675739161670208,0.006376791279762983,0.0016982366796582937,0.002209234284237027
0.007306419778615236,-0.0024156866129487753,-0.00712948152795434,0.006454322021454573,0.0015382685232907534,0.0022569315042346716
0.007583244703710079,-0.0023725901264697313,-0.007614633999764919,0.006419688928872347,0.0014263470657169819,0.0022001119796186686
0.0070846304297447205,-0.0024811187759041786,-0.007203386630862951,0.006199852097779512,0.0011634211987257004,0.0024521686136722565
0.007308434695005417,-0.0023035246413201094,-0.007007938344031572,0.006530688609927893,0.0011859211372211576,0.0024045007303357124
0.007493337616324425,-0.002157620619982481,-0.007413907907903194,0.006462628487497568,0.001180461491458118,0.0026123300194740295
0.007397445850074291,-0.0019835650455206633,-0.00767466239631176,0.006313562858849764,0.0011412033345550299,0.0026120066177099943
0.007254986558109522,-0.0019353111274540424,-0.007488449104130268,0.006089597474783659,0.0012586954981088638,0.0024377412628382444
0.008366091176867485,-0.0019997369963675737,-0.006790101062506437,0.0061191716231405735,0.0012383228167891502,0.002499123103916645
0.008506683632731438,-0.001964517403393984,-0.007146195508539677,0.005849582143127918,0.0015621478669345379,0.002589490730315447
0.007708276621997356,-0.001987562980502844,-0.008255924098193645,0.006268947385251522,0.001631273073144257,0.0024208787363022566
0.008289218880236149,-0.0019496794557198882,-0.007841466926038265,0.005917129572480917,0.001968162599951029,0.0024998444132506847
0.008577343076467514,-0.0019199951784685254,-0.0075021409429609776,0.006070550065487623,0.0018045427277684212,0.00262343417853117
0.008047613315284252,-0.001738482154905796,-0.006952190306037664,0.006508930120617151,0.0017435750924050808,0.0028118854388594627
0.007996952161192894,-0.0016177126672118902,-0.008126151748001575,0.006274115759879351,0.001750576077029109,0.003384261392056942
0.008190177381038666,-0.001670710276812315,-0.007869010791182518,0.006028089206665754,0.0018077330896630883,0.0031544347293674946
0.008836779743432999,-0.0015853388467803597,-0.006950583308935165,0.005964010022580624,0.0018389428732916713,0.002887879265472293
0.008364168927073479,-0.0017215715488418937,-0.007908208295702934,0.00570598104968667,0.001807631691917777,0.0030077777337282896
0.008717882446944714,-0.0017117676325142384,-0.007970676757395267,0.005649599712342024,0.001678616856224835,0.002998044015839696
0.008439401164650917,-0.0015781198162585497,-0.006887833122164011,0.005591311026364565,0.0015956528950482607,0.003210978349670768
0.008172892034053802,-0.0014797726180404425,-0.0065659950487315655,0.0053177447989583015,0.0015541418688371778,0.00321572320535779
0.008309570141136646,-0.001482309540733695,-0.007133956532925367,0.005632341373711824,0.0014325762167572975,0.003039164002984762
0.009007503278553486,-0.0014993365621194243,-0.00738133629783988,0.00574323209002614,0.0013494857121258974,0.0029784454964101315
0.009007503278553486,-0.0014993365621194243,-0.00738133629783988,0.00574323209002614,0.0013494857121258974,0.0029784454964101315
0.008100460283458233,-0.0014265436911955476,-0.006926076952368021,0.006551662925630808,0.0013593739131465554,0.0032474463805556297
0.008560926653444767,-0.0014988089678809047,-0.006479011848568916,0.006443745922297239,0.0012971799587830901,0.0030737563502043486
0.00925127137452364,-0.0014283066848292947,-0.007797977887094021,0.005576703697443008,0.001426989445462823,0.003274011192843318
0.00875084474682808,-0.0015500476583838463,-0.00797099620103836,0.005363450385630131,0.0013863453641533852,0.003347592893987894
0.008996019139885902,-0.0014569167979061604,-0.007315410301089287,0.0057427240535616875,0.0017332646530121565,0.003506876528263092
0.009120533242821693,-0.0013704905286431313,-0.0072418092750012875,0.0062439534813165665,0.0017065090360119939,0.003456367179751396
0.009181532077491283,-0.0013842075131833553,-0.007716394495218992,0.00569557910785079,0.0020198985002934933,0.0034175445325672626
0.008527043275535107,-0.0012854004744440317,-0.007881796918809414,0.005638161674141884,0.0019954938907176256,0.003184553934261203
0.00902285985648632,-0.0012538725277408957,-0.00755432341247797,0.005365526303648949,0.002020942745730281,0.0033315299078822136
0.009137199260294437,-0.0011071693152189255,-0.006962861865758896,0.004576097242534161,0.001880673342384398,0.0036088922061026096
0.008524512872099876,-0.0010557956993579865,-0.007190987002104521,0.004489867016673088,0.001796517288312316,0.0038020622450858355
0.009768038988113403,-0.0009292105678468943,-0.008167400024831295,0.005045581609010696,0.0016931165009737015,0.003886334365233779
0.009738757275044918,-0.0009234064491465688,-0.007621970493346453,0.0052280365489423275,0.0016892894636839628,0.0034894682466983795
0.009069406427443027,-0.0009203040390275419,-0.007383692543953657,0.0050530279986560345,0.0017223715549334884,0.003473730757832527
0.009468823671340942,-0.0008727030362933874,-0.007536351680755615,0.004722033627331257,0.0018270794535055757,0.003528169821947813
0.009569613263010979,-0.0008799169445410371,-0.007695094682276249,0.004317754413932562,0.0017640144797042012,0.0035930583253502846
0.009337073192000389,-0.0009054110269062221,-0.007346027530729771,0.004722670651972294,0.0015960218152031302,0.003542357822880149
0.00963798351585865,-0.0011553762014955282,-0.007510052062571049,0.005193768069148064,0.00154457229655236,0.003389341989532113
0.00957018043845892,-0.001126195420511067,-0.007649627048522234,0.005053469445556402,0.0016528281848877668,0.0039597852155566216
0.009391700848937035,-0.001095752464607358,-0.007742704823613167,0.0048055220395326614,0.0016608214937150478,0.00420678686350584
0.009391700848937035,-0.001095752464607358,-0.007742704823613167,0.0048055220395326614,0.0016608214937150478,0.00420678686350584
0.009558570571243763,-0.001044767675921321,-0.007398051209747791,0.004724797792732716,0.0017711535328999162,0.004011424724012613
0.009435510262846947,-0.0008842244278639555,-0.007436666637659073,0.004539391957223415,0.0017990029882639647,0.0034614363685250282
0.009717956185340881,-0.000884807319380343,-0.00754635501652956,0.004789318889379501,0.001907740137539804,0.0035094753839075565
0.009729461744427681,-0.0008831989835016429,-0.007454915437847376,0.004822930321097374,0.0019052524585276842,0.003724333131685853
0.009744016453623772,-0.0008762808283790946,-0.007422293536365032,0.00471434835344553,0.0019795869011431932,0.0042730169370770454
0.010074399411678314,-0.0007919204654172063,-0.008090760558843613,0.004644920118153095,0.0019550786819308996,0.004440996330231428
0.010438291355967522,-0.0007084140670485795,-0.008139037527143955,0.004254970699548721,0.0019610519520938396,0.004252089653164148
0.010831726714968681,-0.0007199126994237304,-0.007609356660395861,0.004384394269436598,0.0018697871128097177,0.004325282294303179
0.010323047637939453,-0.0006467968341894448,-0.007783549837768078,0.004244951065629721,0.001787130837328732,0.004008561838418245
0.010298224166035652,-0.0006725666462443769,-0.00799474399536848,0.004363007843494415,0.0017935975920408964,0.0038165634032338858
0.010018627159297466,-0.0006113463896326721,-0.00780267920345068,0.004223864991217852,0.0019066383829340339,0.004074408672749996
0.010334346443414688,-6.528884114231914e-05,-0.007373467553406954,0.0042784023098647594,0.0019286153838038445,0.004266439005732536
0.01069130003452301,-8.759331535657111e-07,-0.00749216927215457,0.003686256241053343,0.001982688205316663,0.004321264568716288
0.010994384065270424,-1.1751762230005625e-08,-0.00894223153591156,0.0034112909343093634,0.001973247155547142,0.004308255389332771
0.011309812776744366,-1.5766489502855308e-10,-0.008038446307182312,0.0034703174605965614,0.0019662133418023586,0.00432944530621171
0.010495890863239765,-2.115275836434005e-12,-0.007543787360191345,0.003804407548159361,0.002033292083069682,0.004244722425937653
0.01062055118381977,-2.837912739007964e-14,-0.00783432088792324,0.004301605746150017,0.002074750605970621,0.004252846352756023
0.010913580656051636,-3.8074220976331446e-16,-0.008681933395564556,0.004066470544785261,0.0019361873855814338,0.004183974117040634
0.010835745371878147,-5.108142617028834e-18,-0.00820120144635439,0.003813571762293577,0.001845926744863391,0.004880895838141441
0.01069393940269947,-6.853225625449073e-20,-0.008248564787209034,0.003762028645724058,0.0018417229875922203,0.004658299032598734
0.01075899600982666,-9.194477025373987e-22,-0.008182347752153873,0.003824799321591854,0.0023030561860650778,0.004541345406323671
0.010721128433942795,-1.2335564703069333e-23,-0.008581790141761303,0.004312981851398945,0.0021993599366396666,0.004576779901981354
0.010950937867164612,-2.22035802537939e-27,-0.008188379928469658,0.0035623512230813503,0.0021457679104059935,0.004802229814231396
0.01031129527837038,-2.978893923808623e-29,-0.008584793657064438,0.0035236235707998276,0.0020191471558064222,0.004846102558076382
0.010776699520647526,-3.996566064547137e-31,-0.008154109120368958,0.0036477961111813784,0.0020738542079925537,0.004888547118753195
0.010616662912070751,-5.361903237918644e-33,-0.007720459718257189,0.0039949240162968636,0.0020944427233189344,0.004513110034167767
0.010392281226813793,-7.193677600090701e-35,-0.00796310044825077,0.0036493130028247833,0.0021952141541987658,0.004623936023563147
0.010857402347028255,-9.651236229279966e-37,-0.008454425260424614,0.003601229516789317,0.002191054867580533,0.004732979461550713
0.010649279691278934,-1.2948364950558963e-38,-0.0083820391446352,0.0036811656318604946,0.0022712061181664467,0.00496795866638422
0.010751702822744846,-1.7371897062234757e-40,-0.007656028959900141,0.003439076477661729,0.002137608826160431,0.004984970670193434
0.010828718543052673,0.00011174583778483793,-0.008286680094897747,0.0032805493101477623,0.002122764242812991,0.0048653786070644855
0.010828718543052673,0.00011174583778483793,-0.008286680094897747,0.0032805493101477623,0.002122764242812991,0.0048653786070644855
0.010555451735854149,0.00010515870962990448,-0.008514770306646824,0.0031993223819881678,0.0021328735165297985,0.004730984102934599
0.010918219573795795,9.935277194017544e-05,-0.00799565576016903,0.003480861196294427,0.0020647691562771797,0.004767758306115866
0.011009681038558483,9.415511885890737e-05,-0.008172614499926567,0.0034655597992241383,0.0020399356726557016,0.004781393334269524
0.011264435015618801,8.94750701263547e-05,-0.008697819896042347,0.003475690260529518,0.002089429646730423,0.004687606822699308
0.010517984628677368,0.00011317503958707675,-0.007907839491963387,0.0032176629174500704,0.002305421745404601,0.004859524313360453
0.010785404592752457,0.000121877841593232,-0.008067840710282326,0.0029949003364890814,0.0022541081998497248,0.004865692462772131
0.010975902900099754,0.00011679132148856297,-0.008429648354649544,0.0028223833069205284,0.002190731931477785,0.004655846394598484
0.010967859998345375,0.00011195139086339623,-0.00830258708447218,0.0025880986358970404,0.0022232220508158207,0.0050482721999287605
0.010559270158410072,0.00014282457414083183,-0.008203177712857723,0.0023955993819981813,0.0021315226331353188,0.005523864645510912
0.010937999933958054,0.00013783057511318475,-0.008757218718528748,0.0025983157102018595,0.0022007126826792955,0.00536684226244688
0.011034658178687096,0.00013275437231641263,-0.008593136444687843,0.002853616140782833,0.002112672431394458,0.005061673000454903
0.010557373985648155,0.0001490479480708018,-0.008322215639054775,0.0029506792780011892,0.00200783833861351,0.004894144367426634
0.01152518019080162,0.00015439713024534285,-0.008363500237464905,0.0027873017825186253,0.0019511241698637605,0.005134405102580786
0.011081078089773655,0.00014947094314265996,-0.00877052266150713,0.0026295932475477457,0.002007982460781932,0.00539405969902873
0.011096036061644554,0.00028959562769159675,-0.00810606312006712,0.0023134357761591673,0.001974754733964801,0.005419312510639429
0.012025554664433002,0.00027398005477152765,-0.00799612794071436,0.002088742796331644,0.002148138824850321,0.0057832119055092335
0.010612421669065952,0.0003037739370483905,-0.00811835192143917,0.0020495278295129538,0.002061952603980899,0.005547874141484499
0.011544323526322842,0.00030837292433716357,-0.008522099815309048,0.0019377904245629907,0.002717218827456236,0.005520112346857786
0.011363563127815723,0.0003082570619881153,-0.007984064519405365,0.002069614827632904,0.002550502773374319,0.005841981153935194
0.011620069853961468,0.0003343617427162826,-0.007714425679296255,0.0021309468429535627,0.0026062519755214453,0.005647387355566025
0.011148804798722267,0.0003214630705770105,-0.008320537395775318,0.002188184065744281,0.002458265284076333,0.00584393460303545
0.011303791776299477,0.0005032866611145437,-0.008155387826263905,0.00243189325556159,0.0024724577087908983,0.005690233316272497
0.01152331754565239,0.0005424751434475183,-0.008223671466112137,0.002529391786083579,0.0025195409543812275,0.005716798361390829
0.01152331754565239,0.0005424751434475183,-0.008223671466112137,0.002529391786083579,0.0025195409543812275,0.005716798361390829
0.011912859044969082,0.0004961300874128938,-0.00870350282639265,0.0024587216321378946,0.0024682744406163692,0.005650932434946299
0.011640098877251148,0.0005290362751111388,-0.008050334639847279,0.0024766933638602495,0.002309150295332074,0.005772702861577272
0.011204793117940426,0.0005345666431821883,-0.007629222236573696,0.002230774611234665,0.0023214879911392927,0.00604613684117794
0.011588877998292446,0.0005182543536648154,-0.008037901483476162,0.002199969021603465,0.00212250673212111,0.0055394964292645454
0.010401662439107895,0.0006430431385524571,-0.008639468811452389,0.0019774066749960184,0.0020607742480933666,0.005860527977347374
0.012127663008868694,0.0006689054425805807,-0.008622288703918457,0.001929443096742034,0.002022541593760252,0.005651296582072973
0.012103584595024586,0.0006718034856021404,-0.007983343675732613,0.0017913898918777704,0.0022006153594702482,0.005876527167856693
0.01135767437517643,0.0006354757933877409,-0.008265608921647072,0.0017205222975462675,0.002606275025755167,0.005782255902886391
0.011961120180785656,0.000656630436424166,-0.008456115610897541,0.0017415386391803622,0.0027826018631458282,0.006049903109669685
0.01193070039153099,0.0007716757245361805,-0.008198888972401619,0.0017721856711432338,0.00266815023496747,0.0059027583338320255
0.012018918991088867,0.0008083672728389502,-0.00836936291307211,0.0016683832509443164,0.002523074857890606,0.005901746917515993
0.011996254324913025,0.0008111241040751338,-0.008319796063005924,0.0015942469472065568,0.0022754105739295483,0.006051691249012947
0.012200001627206802,0.0007975821499712765,-0.00827926117926836,0.001473718322813511,0.0022369311191141605,0.00554734468460083
0.012573666870594025,0.0007471651770174503,-0.00790028739720583,0.001457407372072339,0.0023943318519741297,0.005765527952462435
0.012290789745748043,0.0008146241307258606,-0.008217904716730118,0.0013071964494884014,0.002469659550115466,0.005967804696410894
0.011927819810807705,0.0009223299566656351,-0.008655796758830547,0.001268282881937921,0.0027346722781658173,0.006157212890684605
0.01206236518919468,0.0009207607363350689,-0.008350738324224949,0.0012226210674270988,0.002603540662676096,0.0060989148914813995
0.011506549082696438,0.0008617035928182304,-0.007791578769683838,0.0012017926201224327,0.002388081979006529,0.005503758322447538
0.012538648210465908,0.0010928181000053883,-0.008984879590570927,0.0013002445921301842,0.0023505103308707476,0.0058005801402032375
0.012219945900142193,0.0010634510545060039,-0.00800558365881443,0.0012083940673619509,0.002436425071209669,0.0055376277305185795
0.012384367175400257,0.0013006223598495126,-0.008294661529362202,0.001229850109666586,0.0025575943291187286,0.005404853727668524
0.012333299033343792,0.0012397845275700092,-0.009072539396584034,0.001084643416106701,0.0024791371542960405,0.005766898859292269
0.012365683913230896,0.0011899421224370599,-0.008019646629691124,0.0010372578399255872,0.002585591049864888,0.004746778402477503
0.012749427929520607,0.0013308868510648608,-0.007731842342764139,0.0010163000551983714,0.0023100555408746004,0.005392990540713072
0.012749427929520607,0.0013308868510648608,-0.007731842342764139,0.0010163000551983714,0.0023100555408746004,0.005392990540713072
0.013644520193338394,0.0012618728214874864,-0.008031398057937622,0.0009163549402728677,0.002245828276500106,0.005842722486704588
0.013281216844916344,0.0014140254352241755,-0.008594377897679806,0.0008570021600462496,0.002226427895948291,0.0059717269614338875
0.014121060259640217,0.0015365289291366935,-0.008514952845871449,0.0007962991949170828,0.0025249237660318613,0.005592838395386934
0.013511301018297672,0.0015050757210701704,-0.007859209552407265,0.0007820745231583714,0.0025541221257299185,0.005540258251130581
0.013619717210531235,0.001862556324340403,-0.008327142335474491,0.0007187419687397778,0.002521440852433443,0.005683266092091799
0.013418943621218204,0.001968102529644966,-0.008215628564357758,0.0007260310230776668,0.00229853019118309,0.006095855496823788
0.014319995418190956,0.0022063334472477436,-0.008029221557080746,0.0006693510222248733,0.002281896071508527,0.006484756246209145
0.013809029012918472,0.0023147743195295334,-0.008212384767830372,0.000623373023699969,0.0021012083161622286,0.0061646923422813416
0.013817274011671543,0.002264445647597313,-0.008466624654829502,0.0005604730104096234,0.002219501882791519,0.005758367013186216
0.0139227956533432,0.0023800141643732786,-0.008231140673160553,0.000571994052734226,0.002526296302676201,0.005572807043790817
0.013955063186585903,0.002146406564861536,-0.008050144650042057,0.0005374013562686741,0.0031995787285268307,0.005689478944987059
0.013660433702170849,0.002233821665868163,-0.008311283774673939,0.0004900524509139359,0.0028852729592472315,0.005959616973996162
0.014011715538799763,0.0024224973749369383,-0.008213408291339874,0.0005188827053643763,0.0027668499387800694,0.0061247521080076694
0.013836105354130268,0.0023910494055598974,-0.008172904141247272,0.0004835712315980345,0.002311529591679573,0.0062410286627709866
0.014149944297969341,0.00275044166482985,-0.00822001975029707,0.00044935557525604963,0.0022230714093893766,0.006001601926982403
0.014170117676258087,0.0029231037478893995,-0.008410069160163403,0.0004194381181150675,0.0021159641910344362,0.006216589827090502
0.014323742128908634,0.0030098757706582546,-0.008250116370618343,0.00039324318640865386,0.0021125394850969315,0.0062040421180427074
0.014281662181019783,0.0028533712029457092,-0.008748635649681091,0.00037012825487181544,0.0024740949738770723,0.0060808598063886166
0.013939540833234787,0.0029479560907930136,-0.009007247164845467,0.0003495833370834589,0.0025707099121063948,0.005992358084768057
0.014544505625963211,0.0032527155708521605,-0.00888895895332098,0.0003311971959192306,0.00253225932829082,0.006176994647830725
0.014600366353988647,0.003579380689188838,-0.008802910335361958,0.0003146516974084079,0.0024488966446369886,0.006273062899708748
0.0144327562302351,0.0033709804993122816,-0.00841074250638485,0.0002996792027261108,0.0023714806884527206,0.006837683729827404
0.014415276236832142,0.0036606371868401766,-0.008623904548585415,0.0002736406459007412,0.0028938117902725935,0.006020020693540573
0.014289632439613342,0.003865371225401759,-0.007893308065831661,0.00026224710745736957,0.002949441084638238,0.006165502592921257
0.014623637311160564,0.0034345092717558146,-0.008650937117636204,0.0002517651009839028,0.0027531967498362064,0.006515683606266975
0.014789598062634468,0.0035021728835999966,-0.008263680152595043,0.00024208852846641093,0.0027027903124690056,0.006435380782932043
0.014526044018566608,0.0037161551881581545,-0.008154461160302162,0.00023312936536967754,0.0027993088588118553,0.006397077348083258
0.014526044018566608,0.0037161551881581545,-0.008154461160302162,0.00023312936536967754,0.0027993088588118553,0.006397077348083258
0.014417771250009537,0.003983131144195795,-0.00846395455300808,0.00022480897314380854,0.0027719216886907816,0.006702891550958157
0.014588411897420883,0.004058742895722389,-0.00871366634964943,0.00021706274128518999,0.0028137380722910166,0.006673003081232309
0.014889986254274845,0.003621368668973446,-0.008426607586443424,0.0002098319964716211,0.0027270959690213203,0.006568750366568565
0.014643292874097824,0.0035662492737174034,-0.008085353299975395,0.00020306777150835842,0.0029594809748232365,0.006349293515086174
0.014556634239852428,0.004193575121462345,-0.008764507248997688,0.0001967261196114123,0.002739792689681053,0.006524088326841593
0.014538922347128391,0.0046716053038835526,-0.00845410767942667,0.00019076860917266458,0.0025940672494471073,0.00668805418536067
0.014916772022843361,0.004778082016855478,-0.008165668696165085,0.00018516136333346367,0.0026382734067738056,0.0066689676605165005
0.015043532475829124,0.004786153323948383,-0.008522630669176579,0.0001798742450773716,0.0027302680537104607,0.006859701592475176
0.015026334673166275,0.005217876750975847,-0.008783133700489998,0.00017488076991867274,0.002885277848690748,0.006857796106487513
0.014876069501042366,0.0050125704146921635,-0.008443912491202354,0.0001703507441561669,0.0029468280263245106,0.006949744187295437
0.013590678572654724,0.004615984857082367,-0.008289407938718796,6.510705861728638e-05,0.0030804399866610765,0.00693487748503685
0.015780869871377945,0.005057601258158684,-0.008952025324106216,5.65571099286899e-05,0.0029635962564498186,0.007358906324952841
0.015844974666833878,0.005510890856385231,-0.008753561414778233,5.442169640446082e-05,0.0030545105691999197,0.007099430542439222
0.015201971866190434,0.005713815800845623,-0.009134181775152683,5.279742254060693e-05,0.0027520456351339817,0.007207465823739767
0.01586976833641529,0.005761498119682074,-0.009162507019937038,5.129101555212401e-05,0.002680837409570813,0.006741594523191452
0.01561710238456726,0.005528530105948448,-0.008730349130928516,2.6609344786265865e-05,0.0024840973783284426,0.007130644284188747
0.01615910790860653,0.005714635830372572,-0.008435053750872612,2.4371953259105794e-05,0.002835845574736595,0.007287390064448118
0.015888746827840805,0.0056805056519806385,-0.008812502026557922,2.363279963901732e-05,0.0028363519813865423,0.007193579338490963
0.016292089596390724,0.005921419709920883,-0.009087817743420601,3.032310814887751e-06,0.0032532433979213238,0.007065949961543083
0.01594076305627823,0.006612230092287064,-0.008868664503097534,1.979882284786072e-07,0.003379605244845152,0.007276515942066908
0.015819769352674484,0.006171784829348326,-0.008568339981138706,1.2927216630487237e-08,0.0032103643752634525,0.0076779210940003395
0.016530750319361687,0.005982744973152876,-0.008888018317520618,8.440549370547501e-10,0.0029280351009219885,0.007545025087893009
0.01679202914237976,0.006607066374272108,-0.008778718300163746,5.5110752766873716e-11,0.0027185813523828983,0.007489928975701332
0.01638632081449032,0.006398491561412811,-0.009294087067246437,2.3494582473103376e-13,0.0029713984113186598,0.007941453717648983
0.017096078023314476,0.0063302586786448956,-0.0091937817633152,1.534028167080731e-14,0.0028825311455875635,0.007006672210991383
0.016714993864297867,0.006406755652278662,-0.008593502454459667,1.0016108485349346e-15,0.0029065331909805536,0.00697223749011755
0.015767361968755722,0.006325403228402138,-0.008681664243340492,-0.0008499517571181059,0.0029611303471028805,0.007423811126500368
0.017099399119615555,0.0067873308435082436,-0.008934510871767998,-0.0009888223139569163,0.0031157115008682013,0.007546580862253904
0.016975337639451027,0.0064935749396681786,-0.008766861632466316,-0.0012836350360885262,0.0031472514383494854,0.00737137021496892
0.016975337639451027,0.0064935749396681786,-0.008766861632466316,-0.0012836350360885262,0.0031472514383494854,0.00737137021496892
0.01713203452527523,0.006947170477360487,-0.00909267645329237,-0.0016251489287242293,0.0030497394036501646,0.007319440133869648
0.016969595104455948,0.006880744360387325,-0.00894583947956562,-0.0017884449334815145,0.002947689965367317,0.007494980003684759
0.01664908230304718,0.007351431529968977,-0.009592737071216106,-0.002101730788126588,0.002942121820524335,0.008087758906185627
0.017090575769543648,0.007392704952508211,-0.008866168558597565,-0.0025435243733227253,0.0031242542900145054,0.007948638871312141
0.017279494553804398,0.007397744804620743,-0.00912008248269558,-0.0028624259866774082,0.0031239523086696863,0.007736056111752987
0.018325848504900932,0.006647988688200712,-0.00886707566678524,-0.0034438224975019693,0.0030180371832102537,0.007869534194469452
0.018118886277079582,0.007214718498289585,-0.008689004927873611,-0.0037716904189437628,0.0028169709257781506,0.0077219633385539055
0.017752867192029953,0.007452492602169514,-0.008830612525343895,-0.0039153313264250755,0.0029917913489043713,0.007566495798528194
0.018729012459516525,0.007164529524743557,-0.009317293763160706,-0.003970475401729345,0.003076063236221671,0.007930578663945198
0.01775398664176464,0.007324483245611191,-0.009168598800897598,-0.0040058558806777,0.0033788196742534637,0.008110271766781807
0.017670921981334686,0.008310495875775814,-0.009091218933463097,-0.00453941198065877,0.0036572501994669437,0.00849948450922966
0.01809096708893776,0.008451409637928009,-0.009224110282957554,-0.004764661192893982,0.003757289843633771,0.008478431031107903
0.01829906553030014,0.007941655814647675,-0.009289002977311611,-0.005205495748668909,0.0033662100322544575,0.008003699593245983
0.01890127919614315,0.007765904534608126,-0.009280422702431679,-0.005445242393761873,0.0032149872276932,0.008172334171831608
0.018701011314988136,0.007883491925895214,-0.009820884093642235,-0.005516079254448414,0.003247449640184641,0.008202158845961094
0.01812886632978916,0.007954866625368595,-0.009460395202040672,-0.005648626014590263,0.0034790115896612406,0.008296099491417408
0.019003216177225113,0.007890338078141212,-0.009188354946672916,-0.005302466917783022,0.00359059264883399,0.007823123596608639
0.019066955894231796,0.007661676034331322,-0.009606784209609032,-0.0053259218111634254,0.0034108716063201427,0.00887954980134964
0.018664659932255745,0.008680621162056923,-0.00932155828922987,-0.005624767392873764,0.0033930912613868713,0.009347842074930668
0.018965352326631546,0.007832539267838001,-0.009818809106945992,-0.0062356432899832726,0.0032658050768077374,0.008778187446296215
0.01874333620071411,0.00788975227624178,-0.009800545871257782,-0.005716332234442234,0.0033972475212067366,0.008281610906124115
0.019486457109451294,0.00866593886166811,-0.008837861008942127,-0.005337069742381573,0.0034720562398433685,0.00805305503308773
0.01851687580347061,0.008518652059137821,-0.009581215679645538,-0.005955188535153866,0.0036320306826382875,0.008394652977585793
0.020050140097737312,0.008186785504221916,-0.009875372983515263,-0.005768761038780212,0.003659169189631939,0.008304034359753132
0.01989598013460636,0.008610297925770283,-0.009434863924980164,-0.005936715751886368,0.003662021365016699,0.008253837935626507
0.0193425714969635,0.008158140815794468,-0.00976887159049511,-0.0054472158662974834,0.0032424419187009335,0.00823933631181717
0.0193425714969635,0.008158140815794468,-0.00976887159049511,-0.0054472158662974834,0.0032424419187009335,0.00823933631181717
0.01939786598086357,0.008194079622626305,-0.009233180433511734,-0.0055734687484800816,0.003188980743288994,0.00835144892334938
0.01996704190969467,0.008261599577963352,-0.008896782994270325,-0.00555123807862401,0.0030098366551101208,0.007893097586929798
0.019823474809527397,0.008297816850244999,-0.00995401106774807,-0.0058791376650333405,0.002836619969457388,0.008384613320231438
0.01965024136006832,0.008329051546752453,-0.009470655582845211,-0.006213941145688295,0.0031865022610872984,0.009067456237971783
0.019961677491664886,0.008436918258666992,-0.008955751545727253,-0.005681139882653952,0.00311424327082932,0.008487083949148655
0.020000873133540154,0.008362457156181335,-0.009523939341306686,-0.0057932352647185326,0.0033546367194503546,0.008595680817961693
0.019912928342819214,0.006726061925292015,-0.009528596885502338,-0.0056892684660851955,0.0033387786243110895,0.008967090398073196
0.020333854481577873,0.006464633159339428,-0.00918586179614067,-0.0059051536954939365,0.003473504912108183,0.008600295521318913
0.020054005086421967,0.006296324077993631,-0.010059370659291744,-0.005828137509524822,0.003624043194577098,0.00867313239723444
0.019531629979610443,0.007172192446887493,-0.009814553894102573,-0.005997941829264164,0.0037335404194891453,0.008871902711689472
0.020004432648420334,0.00693026976659894,-0.008889207616448402,-0.005567122250795364,0.0037462818436324596,0.008803322911262512
0.0204420518130064,0.006840935908257961,-0.009252777323126793,-0.005865086335688829,0.0037945378571748734,0.009020451456308365
0.020446540787816048,0.006991717033088207,-0.01027905847877264,-0.006389202084392309,0.003806673688814044,0.008700195699930191
0.01952444389462471,0.007226474117487669,-0.009232837706804276,-0.006625418551266193,0.003427684074267745,0.008833441883325577
0.020348092541098595,0.007716728374361992,-0.009756510145962238,-0.006481445860117674,0.0034908398520201445,0.008599885739386082
0.02056376077234745,0.007145799696445465,-0.009615020826458931,-0.006747126579284668,0.003702753921970725,0.00868928525596857
0.020364969968795776,0.007186105940490961,-0.009076707065105438,-0.00697792274877429,0.0038885322865098715,0.00884852185845375
0.020555295050144196,0.007715887390077114,-0.009310679510235786,-0.006865951232612133,0.003984127193689346,0.009038379415869713
0.020707961171865463,0.007825342938303947,-0.009939207695424557,-0.006589377764612436,0.003522754879668355,0.008861657232046127
0.020548395812511444,0.007102270610630512,-0.00926860049366951,-0.0065246266312897205,0.003243889892473817,0.008789433166384697
0.020972752943634987,0.006877962965518236,-0.009534389711916447,-0.0071349130012094975,0.003434286219999194,0.009088659659028053
0.021185778081417084,0.008098722435534,-0.00947020947933197,-0.0069977715611457825,0.0037043725606054068,0.008962685242295265
0.021146731451153755,0.007853212766349316,-0.009673322550952435,-0.006819062866270542,0.0038190933410078287,0.009319665841758251
0.02111854963004589,0.007637463044375181,-0.010687248781323433,-0.007305793464183807,0.003748090472072363,0.00930653978139162
0.02147705666720867,0.007672226056456566,-0.009259832091629505,-0.007732666563242674,0.0034908156376332045,0.009143928065896034
0.02176838554441929,0.00819232314825058,-0.009616604074835777,-0.007903862744569778,0.003804899752140045,0.009155691601336002
0.02206525392830372,0.00811060518026352,-0.009917114861309528,-0.0078115807846188545,0.0040568201802670956,0.009236750192940235
0.02219909243285656,0.008030873723328114,-0.009609601460397243,-0.007032611407339573,0.003810867201536894,0.009469611570239067
0.021885648369789124,0.008547643199563026,-0.010271994397044182,-0.007210080977529287,0.003644266864284873,0.009431151673197746
0.021885648369789124,0.008547643199563026,-0.010271994397044182,-0.007210080977529287,0.003644266864284873,0.009431151673197746
0.021732939407229424,0.008446155115962029,-0.009934854693710804,-0.00816560722887516,0.0034871019888669252,0.009681709110736847
0.021412741392850876,0.007817568257451057,-0.009206371381878853,-0.008231987245380878,0.0039865863509476185,0.009554965421557426
0.022059006616473198,0.008419499732553959,-0.009133093059062958,-0.007705704774707556,0.004533517640084028,0.009408929385244846
0.02228843979537487,0.009235306642949581,-0.009951742365956306,-0.008096346631646156,0.004584833048284054,0.009990253485739231
0.022473642602562904,0.008663345128297806,-0.009877923876047134,-0.00832896213978529,0.004373503848910332,0.009659255854785442
0.022194979712367058,0.008541451767086983,-0.011513744480907917,-0.008196393959224224,0.004015486687421799,0.009350365027785301
0.022681357339024544,0.009042586199939251,-0.01004865113645792,-0.008306336589157581,0.0035500030498951674,0.009621034376323223
0.023115791380405426,0.008854023180902004,-0.008567512966692448,-0.008234228938817978,0.0034049460664391518,0.00967591442167759
0.023301785811781883,0.008984124287962914,-0.008985158056020737,-0.008414636366069317,0.0036229053512215614,0.010162457823753357
0.023173479363322258,0.008967118337750435,-0.010605758987367153,-0.009032879956066608,0.0038475338369607925,0.009854263626039028
0.022412395104765892,0.009634502232074738,-0.010209238156676292,-0.008672031573951244,0.003938956651836634,0.009384136646986008
0.022299423813819885,0.009166463278234005,-0.009524483233690262,-0.008271163329482079,0.003951604478061199,0.009580378420650959
0.023406406864523888,0.00972814206033945,-0.0100726168602705,-0.007700326386839151,0.003936443477869034,0.010502600111067295
0.02343696914613247,0.009654873982071877,-0.009844103828072548,-0.008220283314585686,0.00430852547287941,0.010172734968364239
0.022891195490956306,0.009080680087208748,-0.010314533486962318,-0.007944276556372643,0.004112938418984413,0.009757492691278458
0.023304680362343788,0.009916115552186966,-0.010301298461854458,-0.008102028630673885,0.003585882717743516,0.009386667050421238
0.02330237627029419,0.010030769743025303,-0.009912812151014805,-0.007816234603524208,0.003567524254322052,0.010145514272153378
0.023271499201655388,0.009788994677364826,-0.009742546826601028,-0.008574320934712887,0.0036961378064006567,0.010698908939957619
0.023302368819713593,0.0098628094419837,-0.010304443538188934,-0.008502277545630932,0.004150262102484703,0.010116547346115112
0.023885436356067657,0.009734424762427807,-0.009967310354113579,-0.008430824615061283,0.004054094199091196,0.010609692893922329
0.023385584354400635,0.009930750355124474,-0.010363969020545483,-0.00882759504020214,0.004285392817109823,0.010389212518930435
0.023020684719085693,0.010115738958120346,-0.009887656196951866,-0.00852876529097557,0.004219531547278166,0.00997865293174982
0.023769015446305275,0.010395797900855541,-0.009626581333577633,-0.00822092592716217,0.004100525286048651,0.010429240763187408
0.024180429056286812,0.011256706900894642,-0.009899910539388657,-0.008713249117136002,0.00397414481267333,0.010261566378176212
0.023734480142593384,0.010152382776141167,-0.009801549836993217,-0.008696732111275196,0.004019720014184713,0.01030853483825922
0.023853866383433342,0.009798450395464897,-0.010795747861266136,-0.008304299786686897,0.0042509157210588455,0.010930935852229595
0.023936092853546143,0.01043324451893568,-0.00981974322348833,-0.00846518948674202,0.004190387669950724,0.010300875641405582
0.023936092853546143,0.01043324451893568,-0.00981974322348833,-0.00846518948674202,0.004190387669950724,0.010300875641405582
0.023870430886745453,0.010339640080928802,-0.009206091053783894,-0.008996503427624702,0.003947143908590078,0.009962723590433598
0.023980271071195602,0.010686129331588745,-0.009078931994736195,-0.008659204468131065,0.004181179217994213,0.010128576308488846
0.023991864174604416,0.011073564179241657,-0.010117555968463421,-0.008542859926819801,0.003634978551417589,0.010366986505687237
0.023969678208231926,0.010201492346823215,-0.009923674166202545,-0.008706090040504932,0.003356922883540392,0.010783001780509949
0.023231936618685722,0.010276934131979942,-0.009511539712548256,-0.008495117537677288,0.003266255371272564,0.010411988012492657
0.025073830038309097,0.010423566214740276,-0.00949290581047535,-0.00824354775249958,0.0035548731684684753,0.010157386772334576
0.02451794221997261,0.010279031470417976,-0.009195119142532349,-0.008354034274816513,0.004147784318774939,0.010335969738662243
0.025244949385523796,0.010437481105327606,-0.009644735604524612,-0.008702706545591354,0.00490632513538003,0.01053773332387209
0.024925073608756065,0.010806308127939701,-0.010031532496213913,-0.008781873621046543,0.004534636624157429,0.010644877329468727
0.02421431802213192,0.010398824699223042,-0.009785926900804043,-0.008707213215529919,0.004016195423901081,0.010664718225598335
0.024585016071796417,0.011291910894215107,-0.00942558329552412,-0.008271734230220318,0.0037537848111242056,0.010593079030513763
0.024675406515598297,0.010894563049077988,-0.009643688797950745,-0.00866659265011549,0.0033465195447206497,0.009973233565688133
0.02533118613064289,0.010938575491309166,-0.009573198854923248,-0.00850918609648943,0.003851063549518585,0.01016426831483841
0.024534160271286964,0.01159615907818079,-0.009742592461407185,-0.008893826976418495,0.0045167310163378716,0.010669402778148651
0.024771107360720634,0.010767359286546707,-0.010243406519293785,-0.00981213990598917,0.00478029390797019,0.010749375447630882
0.02570432983338833,0.011164475232362747,-0.010129508562386036,-0.00905067753046751,0.005387125536799431,0.011012875474989414
0.025577330961823463,0.010877314954996109,-0.009913140907883644,-0.00982921663671732,0.003875227877870202,0.010883591137826443
0.0246871430426836,0.01132606528699398,-0.010379847139120102,-0.009330215863883495,0.0033262325450778008,0.010626612231135368
0.02452055923640728,0.010932927019894123,-0.009942627511918545,-0.009812090545892715,0.0033677686005830765,0.01060638576745987
0.02499527484178543,0.01084795594215393,-0.009759409353137016,-0.009723096154630184,0.004552601836621761,0.010463316924870014
0.024867119267582893,0.011628120206296444,-0.010038756765425205,-0.009451333433389664,0.004853575024753809,0.010552776977419853
0.02496827393770218,0.011100401170551777,-0.009910195134580135,-0.009142416529357433,0.004581344313919544,0.010683595202863216
0.025223014876246452,0.011277559213340282,-0.009759323671460152,-0.009645374491810799,0.004119789693504572,0.011043673381209373
0.025191863998770714,0.011030069552361965,-0.009883387945592403,-0.009585789404809475,0.004156235605478287,0.010967535898089409
0.025191863998770714,0.011030069552361965,-0.009883387945592403,-0.009585789404809475,0.004156235605478287,0.010967535898089409
0.02508198842406273,0.011180640198290348,-0.011149698868393898,-0.009882249869406223,0.0038705470506101847,0.011206903494894505
0.02508198842406273,0.011180640198290348,-0.011149698868393898,-0.009882249869406223,0.0038705470506101847,0.011206903494894505
0.024767709895968437,0.010968622751533985,-0.009541640989482403,-0.009617844596505165,0.0037554488517344,0.010985298082232475
0.02527938038110733,0.01089298352599144,-0.01013343594968319,-0.010170213878154755,0.004296462517231703,0.011259102262556553
0.02527938038110733,0.01089298352599144,-0.01013343594968319,-0.010170213878154755,0.004296462517231703,0.011259102262556553
0.02537529543042183,0.010771974921226501,-0.009979957714676857,-0.010090376250445843,0.004974402021616697,0.011086329817771912
0.025367071852087975,0.010994072072207928,-0.010676429606974125,-0.010414007119834423,0.00495170196518302,0.011512898840010166
0.025665368884801865,0.011779583059251308,-0.01082643587142229,-0.011010907590389252,0.00456280168145895,0.011825736612081528
0.025855449959635735,0.011259603314101696,-0.009957358241081238,-0.010305115953087807,0.004390635062009096,0.011556876823306084
0.026156887412071228,0.011512470431625843,-0.01038388442248106,-0.010454465635120869,0.004428795538842678,0.010170471854507923
0.02432246319949627,0.010918260551989079,-0.010409407317638397,-0.010608470998704433,0.004420048091560602,0.011246796697378159
0.026261737570166588,0.010975665412843227,-0.011081784032285213,-0.01049791555851698,0.004565304610878229,0.012310483492910862
0.026138385757803917,0.011143524199724197,-0.011511890217661858,-0.010971706360578537,0.004443735349923372,0.01174025610089302
0.025640005245804787,0.010661324486136436,-0.010858121328055859,-0.010833251290023327,0.004689369350671768,0.011711427941918373
0.02599886618554592,0.011136151850223541,-0.011104068718850613,-0.010647209361195564,0.004412538837641478,0.01162547804415226
0.02578943595290184,0.010892464779317379,-0.010599538683891296,-0.010818269103765488,0.004391849506646395,0.011529870331287384
0.026241367682814598,0.010718300007283688,-0.010637967847287655,-0.010687110014259815,0.00419997051358223,0.011888670735061169
0.02645130455493927,0.011615687981247902,-0.01136502530425787,-0.01107540912926197,0.004509360063821077,0.011295409873127937
0.026159565895795822,0.01088788453489542,-0.010866639204323292,-0.011098984628915787,0.004382550250738859,0.011768827214837074
0.026156339794397354,0.011137199588119984,-0.01069872546941042,-0.010242651216685772,0.0044579110108315945,0.011497272178530693
0.026480235159397125,0.011437556706368923,-0.01117232907563448,-0.010813131928443909,0.0045650070533156395,0.011311731301248074
0.026037363335490227,0.013058416545391083,-0.011267147026956081,-0.01146992389112711,0.005054393783211708,0.011691825464367867
0.026434818282723427,0.01129106990993023,-0.011713397689163685,-0.011158990673720837,0.004549172706902027,0.01171951275318861
0.02609105594456196,0.011680232360959053,-0.011530977673828602,-0.011441988870501518,0.004429241642355919,0.011966393329203129
0.0262797512114048,0.011468656361103058,-0.011539825238287449,-0.009832191281020641,0.004271842073649168,0.011475114151835442
0.026475129649043083,0.011075729504227638,-0.011204024776816368,-0.010707295499742031,0.0045142644084990025,0.01192285306751728
0.0264788456261158,0.011227610521018505,-0.011546016670763493,-0.01068672351539135,0.004718301352113485,0.011761145666241646
0.02662799134850502,0.011144766584038734,-0.011389653198421001,-0.01050896942615509,0.004540428519248962,0.011769912205636501
0.026891548186540604,0.011071227490901947,-0.010608998127281666,-0.01085237693041563,0.004259159788489342,0.01182624977082014
0.027654293924570084,0.011555696837604046,-0.010977957397699356,-0.01041292306035757,0.004705523606389761,0.011655309237539768
0.027846073731780052,0.011510818265378475,-0.01046211551874876,-0.010783450677990913,0.004547777585685253,0.011986852623522282
0.027846073731780052,0.011510818265378475,-0.01046211551874876,-0.010783450677990913,0.004547777585685253,0.011986852623522282
0.026652295142412186,0.012147006578743458,-0.010819027200341225,-0.011112329550087452,0.004505976103246212,0.011980892159044743
0.026431649923324585,0.011375061236321926,-0.011427631601691246,-0.01089479774236679,0.004645221866667271,0.01187784131616354
0.027394751086831093,0.0111326202750206,-0.010578596033155918,-0.011355784721672535,0.004791147541254759,0.011972599662840366
0.02777780406177044,0.011887852102518082,-0.011014355346560478,-0.011299632489681244,0.004772963002324104,0.011898510158061981
0.02746141143143177,0.011964297853410244,-0.010723202489316463,-0.011733682826161385,0.004857572726905346,0.012165457010269165
0.028023559600114822,0.011573366820812225,-0.01047087088227272,-0.012012746185064316,0.005070284474641085,0.01228366233408451
0.02842802368104458,0.01161021925508976,-0.011343421414494514,-0.011747421696782112,0.004858728498220444,0.012262252159416676
0.0277319997549057,0.011554472148418427,-0.011134566739201546,-0.012339071370661259,0.0044860634952783585,0.011985165998339653
0.027690717950463295,0.01188943162560463,-0.010758951306343079,-0.011606307700276375,0.004571464844048023,0.012182566337287426
0.02749827317893505,0.011591382324695587,-0.01077208761125803,-0.011973033659160137,0.004702819976955652,0.012118762359023094
0.0282555241137743,0.011916507966816425,-0.010414095595479012,-0.012178407050669193,0.005193719640374184,0.012158861383795738
0.028810476884245872,0.01178106851875782,-0.011058238334953785,-0.012049900367856026,0.00502818962559104,0.012491376139223576
0.02741522341966629,0.011483343318104744,-0.011024710722267628,-0.012346706353127956,0.005060970317572355,0.01261027529835701
0.028895113617181778,0.012030918151140213,-0.010454347357153893,-0.012000564485788345,0.004989125765860081,0.012970959767699242
0.029395056888461113,0.011712200939655304,-0.01095662359148264,-0.01236768439412117,0.004801296163350344,0.012578369118273258
0.029159855097532272,0.011944201774895191,-0.010463696904480457,-0.012038509361445904,0.004653862211853266,0.012812487781047821
0.028473570942878723,0.011620103381574154,-0.010965491645038128,-0.01233260240405798,0.004881931934505701,0.012483112514019012
0.028955232352018356,0.012470691464841366,-0.011513298377394676,-0.012271392159163952,0.0045072962529957294,0.01253950223326683
0.02913545072078705,0.011792824603617191,-0.011694775894284248,-0.01277894340455532,0.004320268984884024,0.011310022324323654
0.029359767213463783,0.01209251955151558,-0.011459721252322197,-0.012501752004027367,0.004543381277471781,0.013865595683455467
0.029711855575442314,0.011584832333028316,-0.010345740243792534,-0.012978780083358288,0.004478507209569216,0.013699611648917198
0.029962019994854927,0.011925194412469864,-0.01100713200867176,-0.012869350612163544,0.004396649077534676,0.013124793767929077
0.02974262274801731,0.012193595059216022,-0.011010040529072285,-0.012886235490441322,0.004811499267816544,0.01254547480493784
0.029959654435515404,0.012120061554014683,-0.01054137758910656,-0.01276747789233923,0.004894409328699112,0.012654378078877926
0.030061613768339157,0.012655775994062424,-0.010499140247702599,-0.012602708302438259,0.004439813084900379,0.01235176995396614
0.030061613768339157,0.012655775994062424,-0.010499140247702599,-0.012602708302438259,0.004439813084900379,0.01235176995396614
0.03138544410467148,0.012380210682749748,-0.010372663848102093,-0.012866523116827011,0.004291628021746874,0.012522563338279724
0.03172915428876877,0.012522553093731403,-0.010538318194448948,-0.012897340580821037,0.004658655729144812,0.013034488074481487
0.0299609936773777,0.012454129755496979,-0.010706169530749321,-0.01284621749073267,0.004782244563102722,0.012889097444713116
0.03028082102537155,0.012335510924458504,-0.010504514910280704,-0.01237737387418747,0.004822460003197193,0.01357646007090807
0.031585175544023514,0.012817717157304287,-0.010966985486447811,-0.013178924098610878,0.005042415577918291,0.013373313471674919
0.03112063743174076,0.012446526437997818,-0.01064271666109562,-0.012926764786243439,0.004910837858915329,0.013799739070236683
0.030869295820593834,0.013063370250165462,-0.01041952334344387,-0.012700610794126987,0.004668475594371557,0.012905184179544449
0.03164290264248848,0.012116475962102413,-0.011125988326966763,-0.013004210777580738,0.004691960755735636,0.013074476271867752
0.03176424652338028,0.012651554308831692,-0.01104002445936203,-0.013310400769114494,0.004732117988169193,0.01317409984767437
0.031010836362838745,0.012911881320178509,-0.010187448933720589,-0.013372338376939297,0.004706434905529022,0.013314828276634216
0.030654916539788246,0.013030154630541801,-0.010752836242318153,-0.01353294588625431,0.004781098570674658,0.013970842584967613
0.03239590674638748,0.012959830462932587,-0.0105698611587286,-0.013609673827886581,0.005215207114815712,0.013316817581653595
0.03251690790057182,0.013047817163169384,-0.010358435101807117,-0.013286484405398369,0.005038309842348099,0.012862791307270527
0.032208312302827835,0.013204324059188366,-0.010635663755238056,-0.013976853340864182,0.004906781949102879,0.012960401363670826
0.032068345695734024,0.012466134503483772,-0.010103967040777206,-0.013738949783146381,0.005152132362127304,0.013283216394484043
0.03219937905669212,0.013469039462506771,-0.010313360020518303,-0.013931944966316223,0.0052604698576033115,0.013302062638103962
0.03203514963388443,0.012628545053303242,-0.0099873598664999,-0.01345607079565525,0.00497984467074275,0.013553759083151817
0.03200063109397888,0.013111819513142109,-0.010173030197620392,-0.014074673876166344,0.004896338097751141,0.013353529386222363
0.032060183584690094,0.01345253735780716,-0.010271831415593624,-0.01399974524974823,0.005182367749512196,0.013639100827276707
0.0321163572371006,0.013143470510840416,-0.009783958084881306,-0.013811339624226093,0.005311577580869198,0.01439737994223833
0.03246420621871948,0.013899387791752815,-0.0105146998539567,-0.014586123637855053,0.005145465023815632,0.014064428396522999
0.032709572464227676,0.013508669100701809,-0.009954594075679779,-0.014171881601214409,0.005437830928713083,0.013924908824265003
0.03266499191522598,0.014114375226199627,-0.01007983461022377,-0.014779009856283665,0.004725624341517687,0.013461456634104252
0.032545994967222214,0.014703124761581421,-0.010565276257693768,-0.013985690660774708,0.004615587182343006,0.013734030537307262
0.03251845762133598,0.01460758876055479,-0.010098311118781567,-0.014946258626878262,0.005032361019402742,0.013652270659804344
0.03195042908191681,0.014352656900882721,-0.010507699102163315,-0.014355235733091831,0.005293024703860283,0.013938617892563343
0.031353507190942764,0.014544081874191761,-0.010889428667724133,-0.014917491935193539,0.004991217982023954,0.013861146755516529
0.031353507190942764,0.014544081874191761,-0.010889428667724133,-0.014917491935193539,0.004991217982023954,0.013861146755516529
0.03297984227538109,0.014571495354175568,-0.0104200579226017,-0.014145869761705399,0.004937358200550079,0.013738018460571766
0.03317922353744507,0.014541180804371834,-0.011039486154913902,-0.014874989166855812,0.0052298447117209435,0.014019066467881203
0.03251655399799347,0.01496782898902893,-0.011318801902234554,-0.014560430310666561,0.00520690344274044,0.01402178592979908
0.03253819793462753,0.014964054338634014,-0.010534741915762424,-0.015154318884015083,0.005292773246765137,0.013834813609719276
0.03227610141038895,0.014355279505252838,-0.0113106993958354,-0.015055278316140175,0.005419951397925615,0.014894969761371613
0.03281990438699722,0.01528049074113369,-0.01115492545068264,-0.015314198099076748,0.005582496058195829,0.015260634943842888
0.03253798559308052,0.01497031468898058,-0.011326075531542301,-0.014889213256537914,0.005567938555032015,0.014734387397766113
0.03287177160382271,0.015580291859805584,-0.011713013984262943,-0.01523929089307785,0.005528836045414209,0.014316709712147713
0.03295964002609253,0.015877358615398407,-0.010966242291033268,-0.01511961780488491,0.0052040498703718185,0.014109796844422817
0.03270083665847778,0.015702130272984505,-0.011467032134532928,-0.01575489528477192,0.0053374283015728,0.014462277293205261
0.033018022775650024,0.015150519087910652,-0.01162157952785492,-0.015878256410360336,0.005557369906455278,0.01468281727284193
0.032318081706762314,0.01609310321509838,-0.011511026881635189,-0.015799308195710182,0.005488564260303974,0.015011889860033989
0.03322803974151611,0.014855560846626759,-0.011800792068243027,-0.01588575728237629,0.005574700888246298,0.015032744966447353
0.033720411360263824,0.015504376962780952,-0.011365500278770924,-0.015468054451048374,0.005399735644459724,0.015020131133496761
0.03302181512117386,0.015001354739069939,-0.012467865832149982,-0.015545356087386608,0.005619856528937817,0.015190787613391876
0.03222077339887619,0.015410741791129112,-0.0117009487003088,-0.015330149792134762,0.005198851693421602,0.014584284275770187
0.03290437161922455,0.015760503709316254,-0.011825177818536758,-0.01618296466767788,0.005542081315070391,0.014571912586688995
0.03279639780521393,0.015737788751721382,-0.013513749465346336,-0.016819249838590622,0.005816545803099871,0.01454914826899767
0.03320993855595589,0.015689903870224953,-0.0108964703977108,-0.016763534396886826,0.005821152590215206,0.014973829500377178
0.03406346216797829,0.015884920954704285,-0.011534360237419605,-0.016222534701228142,0.005501532927155495,0.015111176297068596
0.032495707273483276,0.015613581985235214,-0.012123450636863708,-0.016946790739893913,0.005304426420480013,0.014776831492781639
0.032496292144060135,0.016279680654406548,-0.012335827574133873,-0.016424870118498802,0.005311545915901661,0.015282227657735348
0.03389696404337883,0.01575647108256817,-0.01184298936277628,-0.01664721593260765,0.005201383493840694,0.015187549404799938
0.03381647542119026,0.016356902197003365,-0.012793228030204773,-0.016700521111488342,0.00563270878046751,0.015103890560567379
0.03356107324361801,0.016342192888259888,-0.011873085051774979,-0.01736772246658802,0.0059142932295799255,0.014866241253912449
0.0335438996553421,0.016420893371105194,-0.011689865030348301,-0.017121097072958946,0.006149815861135721,0.015240563079714775
0.0339324064552784,0.016638856381177902,-0.01181168481707573,-0.01708640530705452,0.005681054200977087,0.015150053426623344
