davideferrari95/blind_handover_controller/data/Test 194 - [2024-02-08 -- 11-30-44]/joint_states_data.csv
shoulder_pan_joint,shoulder_lift_joint,elbow_joint,wrist_1_joint,wrist_2_joint,wrist_3_joint
-0.004133821930736303,-0.003124192589893937,-2.759112111960088e-13,0.0010862556518986821,-0.0,-0.003730667755007744
-0.004133821930736303,-0.003124192589893937,-2.759112111960088e-13,0.0010862556518986821,-0.0,-0.003730667755007744
-0.004358204547315836,-0.0027275162283331156,-3.7017008449919016e-15,0.001037914538756013,-0.0,-0.004168596584349871
-0.00406492268666625,-0.0024834058713167906,-4.9663043857512025e-17,0.001014276989735663,-0.0,-0.003700698958709836
-0.004320167470723391,-0.002752938773483038,-6.66293104532063e-19,0.000989372725598514,-0.0,-0.003442839253693819
-0.004292863421142101,-0.0031052343547344208,-8.939172051005078e-21,0.0009219535277225077,-0.0,-0.0033762112725526094
-0.0040793041698634624,-0.003565481398254633,-1.199303972030056e-22,0.000918589998036623,-0.0,-0.0033391329925507307
-0.004098258446902037,-0.0033119162544608116,-1.6090192752109883e-24,0.0009158049942925572,-0.0,-0.003550140652805567
-0.004117114003747702,-0.003005220787599683,-2.1587046167392814e-26,0.0009257105994038284,-0.0,-0.003979198634624481
-0.004034796729683876,-0.0030913311056792736,-2.896177579924311e-28,0.001176115358248353,-0.0,-0.003738221013918519
-0.004280291497707367,-0.0027446558233350515,-5.21301710709021e-32,0.0015810657059773803,-0.0,-0.003602626034989953
-0.004139133729040623,-0.0019139166688546538,-6.993928278696118e-34,0.0015750384191051126,-0.0,-0.003925071097910404
-0.003916426561772823,-0.0016433821292594075,-9.3832473371243e-36,0.0014833601890131831,-0.0,-0.003952517174184322
-0.003802004735916853,-0.0014674040721729398,-0.0003147381357848644,0.0014437331119552255,-0.0,-0.003815404372289777
-0.003848126856610179,-0.0010160916717723012,-0.0003031094674952328,0.0013354195980355144,-0.0,-0.0037728219758719206
-0.0038846235256642103,-0.001111209043301642,-0.000284098758129403,0.0012965481728315353,-0.0,-0.0035396087914705276
-0.004071772564202547,-0.0015746814897283912,-0.0002672268310561776,0.0011913460912182927,-0.0,-0.003590855747461319
-0.003909911960363388,-0.0020218645222485065,-0.00025224575074389577,0.0011494638165459037,-0.0,-0.0037803277373313904
-0.003653863212093711,-0.0022172159515321255,-0.00023885542759671807,0.0012210645945742726,-0.0,-0.003901583142578602
-0.003653863212093711,-0.0022172159515321255,-0.00023885542759671807,0.0012210645945742726,-0.0,-0.003901583142578602
-0.0035356052685528994,-0.0019487421959638596,-0.00022681504196953028,0.0013798738364130259,-0.0,-0.004123552702367306
-0.003605144564062357,-0.0017001767409965396,-0.00021592997654806823,0.00141541613265872,-0.0,-0.0037378445267677307
-0.0036197337321937084,-0.0013883046340197325,-0.0002060428523691371,0.0015516463899984956,-0.0,-0.0032859514467418194
-0.0036270879209041595,-0.0009888242930173874,-0.00019702129065990448,0.0017487824661657214,-0.0,-0.0032339515164494514
-0.0033943841699510813,-0.0011096515227109194,-0.00018875634123105556,0.0016417589504271746,-0.0,-0.0036166917998343706
-0.003415106562897563,-0.0011024214327335358,-0.0002168815553886816,0.0016099086496978998,-0.0,-0.0038251911755651236
-0.0036802603863179684,-0.001515231211669743,-0.0002089688350679353,0.0014803239610046148,-0.0,-0.003834386356174946
-0.003392102662473917,-0.0014594235690310597,-0.0002011891338042915,0.0013817974831908941,-0.0,-0.0037102303467690945
-0.003519770223647356,-0.001758904429152608,-0.00019396243442315608,0.001162332366220653,-0.0,-0.0036487914621829987
-0.0036606229841709137,-0.0015772541519254446,-0.00018723748507909477,0.001189622562378645,-0.0,-0.003629144513979554
-0.0033226453233510256,-0.0014408132992684841,-0.00018096233543474227,0.001145456568337977,-0.0,-0.004069184884428978
-0.00322445435449481,-0.0011700213653966784,-0.00019426234939601272,0.0011240715393796563,-0.0,-0.0037511021364480257
-0.003206815803423524,-0.0011062419507652521,-0.00019772679661400616,0.0011403310345485806,-0.0,-0.003563334932550788
-0.0031230354215949774,-0.0012095990823581815,-0.0001918344642035663,0.001188522670418024,-0.0,-0.003227204317227006
-0.003277308540418744,-0.001507198205217719,-0.00018616695888340473,0.0012500742450356483,-0.0,-0.0033734776079654694
-0.0031971989665180445,-0.0015827113529667258,-0.00020561477867886424,0.0012975465506315231,-0.0,-0.0031632150057703257
-0.003116170410066843,-0.0016591626917943358,-0.00019571391749195755,0.0012077752035111189,-0.0,-0.004187391605228186
-0.0032465315889567137,-0.0014991157222539186,-0.00018655673193279654,0.0012294029584154487,-0.0,-0.004039051476866007
-0.003281935350969434,-0.0012411904754117131,-0.0001791168615454808,0.0011717029847204685,-0.0,-0.0038573341444134712
-0.0034613602329045534,-0.0011406235862523317,-0.00017226031923200935,0.0011470410972833633,-0.0,-0.003334296867251396
-0.0033361250534653664,-0.0012133674463257194,-0.00019774510292336345,0.0012210634304210544,-0.0,-0.0031766111496835947
-0.0032574355136603117,-0.0013328640488907695,-0.00019199310918338597,0.00124442670494318,-0.0,-0.0033286709804087877
-0.0033616251312196255,-0.0014507246669381857,-0.00020571031200233847,0.0012040826259180903,-0.0,-0.0036453893408179283
-0.0033616251312196255,-0.0014507246669381857,-0.00020571031200233847,0.0012040826259180903,-0.0,-0.0036453893408179283
-0.003155989572405815,-0.0013913825387135148,-0.0002089971530949697,0.0013665768783539534,-0.0,-0.003842896083369851
-0.0031790961511433125,-0.0015515326522290707,-0.0002024178538704291,0.0013090814463794231,-0.0,-0.0034815515391528606
-0.00320440880022943,-0.0014242931501939893,-0.00019611837342381477,0.0012730176094919443,-0.0,-0.0035215793177485466
-0.003513692645356059,-0.0013270191848278046,-0.0001901973009807989,0.0013879217440262437,-0.0,-0.003314980771392584
-0.0033582679461687803,-0.0012656631879508495,-0.00018462339357938617,0.0014481592224910855,-0.0,-0.0034247199073433876
-0.003509367350488901,-0.001235999632626772,-0.00017936767835635692,0.0014209914952516556,-0.0,-0.003331154817715287
-0.003259553574025631,-0.0011927904561161995,-0.0001989726588362828,0.0015116318827494979,-0.0,-0.003296556416898966
-0.0034605697728693485,-0.001410523895174265,-0.0001939428475452587,0.0014265826903283596,-0.0,-0.0033847393933683634
-0.003090697107836604,-0.0013280418934300542,-0.0001888597762444988,0.001518199685961008,-0.0,-0.003385743824765086
-0.0031257958617061377,-0.001466250978410244,-0.00018403258582111448,0.0013917183969169855,-0.0,-0.0032485947012901306
-0.003357355948537588,-0.001415842561982572,-0.00023539667017757893,0.001322355354204774,-0.0,-0.0032748214434832335
-0.0032182924915105104,-0.001478270161896944,-0.00028318085242062807,0.0012960947351530194,-0.0,-0.0031635654158890247
-0.0031439606100320816,-0.001340703689493239,-0.0002847784198820591,0.0012719017686322331,-0.0,-0.003484005108475685
-0.003274318063631654,-0.001258564181625843,-0.00027072252123616636,0.0012384944129735231,-0.0,-0.003306153928861022
-0.0029009294230490923,-0.001189816859550774,-0.0002990102511830628,0.001410192809998989,-0.0,-0.0034209012519568205
-0.003036257578060031,-0.0011548360344022512,-0.00028703801217488945,0.001342675182968378,-0.0,-0.003523844527080655
-0.003054902656003833,-0.0011814016615971923,-0.0003091272956226021,0.0013962819939479232,-0.0,-0.0035528200678527355
-0.0030552612151950598,-0.0011712531559169292,-0.0003006051410920918,0.0013780369190499187,-0.0,-0.003427575109526515
-0.0034902533516287804,-0.001156399492174387,-0.0005338602932170033,0.0013860526960343122,-0.0,-0.0031355421524494886
-0.0031124770175665617,-0.0013372610555961728,-0.00043917278526350856,0.0014226182829588652,-0.0,-0.0034145808313041925
-0.0029970945324748755,-0.001264912192709744,-0.00047042773803696036,0.0014067296870052814,-0.0,-0.0034862228203564882
-0.003032284788787365,-0.0012748031876981258,-0.00044078505015932024,0.0016089704586192966,-0.0,-0.0036322823725640774
-0.003233120311051607,-0.0012452959781512618,-0.00045199788291938603,0.0016313637606799603,-0.0,-0.0037614398170262575
-0.0028759371489286423,-0.0012002835283055902,-0.00044185781734995544,0.0015207668766379356,-0.0,-0.0034133903682231903
-0.0028759371489286423,-0.0012002835283055902,-0.00044185781734995544,0.0015207668766379356,-0.0,-0.0034133903682231903
-0.003058325033634901,-0.0013420009054243565,-0.0004131646128371358,0.0015776597429066896,-0.0,-0.0033850385807454586
-0.00310232350602746,-0.0013020304031670094,-0.0003877354320138693,0.0014750839909538627,-0.0,-0.003486136207357049
-0.0034880670718848705,-0.001245515188202262,-0.00041527964640408754,0.0014303463976830244,-0.0,-0.003359954571351409
-0.003302604192867875,-0.0013886542292311788,-0.0003946060605812818,0.0014043559785932302,-0.0,-0.0030964172910898924
-0.00305170938372612,-0.0013374764239415526,-0.0003816487151198089,0.0014953309437260032,-0.0,-0.0034074359573423862
-0.0029443278908729553,-0.0012734135380014777,-0.00035336901783011854,0.0016123313689604402,-0.0,-0.0032819982152432203
-0.0028366558253765106,-0.0012032404774799943,-0.0003277456562500447,0.0015496838605031371,-0.0,-0.003812090028077364
-0.002903230022639036,-0.0012662064982578158,-0.0003591819549910724,0.0015466723125427961,-0.0,-0.0041817366145551205
-0.003333419794216752,-0.0012400978012010455,-0.00034319309634156525,0.0014690518146380782,-0.0,-0.003633745713159442
-0.0029828394763171673,-0.0013727478217333555,-0.0003757108061108738,0.0014127454487606883,-0.0,-0.003517142031341791
-0.003063285956159234,-0.0013375928392633796,-0.0003999343025498092,0.00145532691385597,-0.0,-0.0031283751595765352
-0.0027439543046057224,-0.0012738645309582353,-0.0003843165177386254,0.0014511841582134366,-0.0,-0.003116538282483816
-0.0026744138449430466,-0.0014763388317078352,-0.000364913692465052,0.0014627377968281507,-0.0,-0.0029825365636497736
-0.002775387605652213,-0.001354224281385541,-0.0004730875662062317,0.0014919629320502281,-0.0,-0.00324816582724452
-0.003135645529255271,-0.0012858007103204727,-0.000508965749759227,0.001451946096494794,-0.0,-0.003294050693511963
-0.003092872677370906,-0.001307464437559247,-0.0004739939176943153,0.0015254472382366657,-0.0,-0.0035705023910850286
-0.0029666456393897533,-0.0012711469316855073,-0.0005074352957308292,0.0014331063721328974,-0.0,-0.0035730034578591585
-0.0028317251708358526,-0.0012209598207846284,-0.0004704982857219875,0.001373198931105435,-0.0,-0.0035797576420009136
-0.002870686585083604,-0.0013963441597297788,-0.00047868789988569915,0.0015282934764400125,-0.0,-0.003148631891235709
-0.002830835757777095,-0.0013161847600713372,-0.0004675422387663275,0.0014748541871085763,-0.0,-0.0030312591698020697
-0.0027818609960377216,-0.0014575025998055935,-0.00044011889258399606,0.001679654116742313,-0.0,-0.0029905415140092373
-0.002933513605967164,-0.0014298862079158425,-0.00045887616579420865,0.0014702831394970417,-0.0,-0.0033060696441680193
-0.0031986653339117765,-0.0013302074512466788,-0.0004984663100913167,0.0014271074905991554,-0.0,-0.0031038853339850903
-0.003129279240965843,-0.0012546342331916094,-0.000506893265992403,0.001345116295851767,-0.0,-0.0031001626048237085
-0.0030469009652733803,-0.001201055245473981,-0.0004915523459203541,0.0013654818758368492,-0.0,-0.003333348548039794
-0.0030469009652733803,-0.001201055245473981,-0.0004915523459203541,0.0013654818758368492,-0.0,-0.003333348548039794
-0.0027712585870176554,-0.0011526200687512755,-0.0004987157299183309,0.0014373341109603643,-0.0,-0.003328274469822645
-0.0029425225220620632,-0.0012080846354365349,-0.00048592823441140354,0.0014237717259675264,-0.0,-0.0030783433467149734
-0.0030321369413286448,-0.001207483815960586,-0.000455464149126783,0.0016393298283219337,-0.0,-0.0029879077337682247
-0.0029700167942792177,-0.0011819811770692468,-0.00047707141493447125,0.0016497322358191013,-0.0,-0.0030214048456400633
-0.002677331445738673,-0.001381037523970008,-0.0005124117014929652,0.0015627472894266248,-0.0,-0.0031120250932872295
-0.002531924517825246,-0.0014200739096850157,-0.0005478629027493298,0.0015525493072345853,-0.0,-0.0033231081906706095
-0.002729276427999139,-0.0013862688792869449,-0.0005283604259602726,0.0014719116734340787,-0.0,-0.00335069396533072
-0.002591085387393832,-0.0013327740598469973,-0.000533294107299298,0.00132196513004601,-0.0,-0.003144636517390609
-0.002712904242798686,-0.0013674228684976697,-0.0005170883378013968,0.0013448495883494616,-0.0,-0.0031050320249050856
-0.0027559155132621527,-0.001311735832132399,-0.00048497362877242267,0.001310720108449459,-0.0,-0.0033327951095998287
-0.002605219604447484,-0.0014023631811141968,-0.0006148114334791899,0.0012693037278950214,-0.0,-0.0032291379757225513
-0.0027245914097875357,-0.0013487725518643856,-0.000650206464342773,0.0013223838759586215,-0.0,-0.0031881926115602255
-0.0027952201198786497,-0.001306413672864437,-0.0006666806875728071,0.0012945035705342889,-0.0,-0.0031800270080566406
-0.0025254033971577883,-0.001367597607895732,-0.0006124088540673256,0.0014132801443338394,-0.0,-0.0030431568156927824
-0.002578645246103406,-0.0013349271612241864,-0.0006283401162363589,0.0013782457681372762,-0.0,-0.0029716999270021915
-0.002432264154776931,-0.001508994260802865,-0.0005896366783417761,0.0013257001992315054,-0.0,-0.0028459925670176744
-0.0023562235292047262,-0.001399234402924776,-0.0007268821937032044,0.0014449561713263392,-0.0,-0.002980633871629834
-0.0023383430670946836,-0.001340876566246152,-0.00067675526952371,0.0014599193818867207,-6.778423994546756e-06,-0.0032470941077917814
-0.0024079347494989634,-0.0013956028269603848,-0.0006978293531574309,0.0014146619942039251,-4.425826602982852e-07,-0.0032233870588243008
-0.0023428075946867466,-0.001430351985618472,-0.0006316489889286458,0.0014863710384815931,-2.8897485293555292e-08,-0.0035111047327518463
-0.0025204431731253862,-0.001467859372496605,-0.0007306805928237736,0.0015357520896941423,-1.2319451014874971e-10,-0.0029341867193579674
-0.0024074558168649673,-0.001404682989232242,-0.0007673453073948622,0.0014993548393249512,-8.043721071160359e-12,-0.0029502531979233027
-0.0024891095235943794,-0.0013655921211466193,-0.0007841071346774697,0.0015339470701292157,-5.251975070119652e-13,-0.0029903738759458065
-0.0023930540774017572,-0.0014158521080389619,-0.0007890219567343593,0.0014795114984735847,-3.429164775487631e-14,-0.0029598716646432877
-0.0023930540774017572,-0.0014158521080389619,-0.0007890219567343593,0.0014795114984735847,-3.429164775487631e-14,-0.0029598716646432877
-0.0025842413306236267,-0.001319195027463138,-0.0007255781092680991,0.0015146899968385696,-2.2389994589269713e-15,-0.0028773366939276457
-0.0026318554300814867,-0.0011858795769512653,-0.0009110842947848141,0.0013959205243736506,-1.4619066044626098e-16,-0.002886101370677352
-0.0022797826677560806,-0.0011661427561193705,-0.0009430594509467483,0.0014678462175652385,-9.545206010802585e-18,-0.0028304439038038254
-0.0021754682529717684,-0.0011319108307361603,-0.0009378570830449462,0.001391889527440071,-6.232337007577323e-19,-0.0029987108428031206
-0.001983877271413803,-0.001115364022552967,-0.0010220863623544574,0.0014244465855881572,-4.069270433249724e-20,-0.0031891600228846073
-0.002076346892863512,-0.0012892979430034757,-0.0010221287375316024,0.0013783641625195742,-2.656942497714755e-21,-0.0030753721948713064
-0.0023899846710264683,-0.0012304321862757206,-0.0009048545616678894,0.0013158518122509122,-1.7347936092201345e-22,-0.003213682910427451
-0.0023203114978969097,-0.0011761984787881374,-0.000902706291526556,0.0013165820855647326,-1.1326962648394482e-23,-0.0032545295543968678
-0.002416217001155019,-0.001104698283597827,-0.000902272411622107,0.0012895880499854684,-7.395696711153755e-25,-0.003076501190662384
-0.0021457106340676546,-0.001072228653356433,-0.0009632894652895629,0.0012247181730344892,-4.828861654700366e-26,-0.002967131556943059
-0.002118984004482627,-0.0010478476760908961,-0.0009560083271935582,0.0011545018060132861,-3.152901778543445e-27,-0.0027203247882425785
-0.002101724501699209,-0.0010394623968750238,-0.0009767351439222693,0.001203784253448248,-2.058619776800711e-28,-0.0027074352838099003
-0.0022902179043740034,-0.001198568381369114,-0.0010534364264458418,0.0012080187443643808,-1.344131635555095e-29,-0.0027723941020667553
-0.0026227061171084642,-0.001159567036665976,-0.0011038511293008924,0.0013979746727272868,-8.776219194143143e-31,-0.002765256678685546
-0.0024444209411740303,-0.0011231305543333292,-0.0010744481114670634,0.001534421113319695,-5.730244025406823e-32,-0.002902451204136014
-0.0022965078242123127,-0.0012600288027897477,-0.0010489075211808085,0.0016418718732893467,-3.74143982692998e-33,-0.003083193674683571
-0.002026146976277232,-0.0012371259508654475,-0.001054271007888019,0.0017167521873489022,-2.4428930744246847e-34,-0.003002945799380541
-0.001895001158118248,-0.0012060184963047504,-0.0010249587940052152,0.0015522772446274757,-1.5950349140056408e-35,-0.0029530583415180445
-0.0018881746800616384,-0.001292405417189002,-0.0010118805803358555,0.0012370217591524124,-6.799884876044034e-38,-0.0028524829540401697
-0.001987721072509885,-0.0012252646265551448,-0.0011448919540271163,0.0011723709758371115,-4.439839021905142e-39,-0.002501938957720995
-0.0022379793226718903,-0.0011392742162570357,-0.001210528425872326,0.0011384800309315324,-2.8988941591180356e-40,-0.002399149350821972
-0.0019116598414257169,-0.0010941944783553481,-0.001096170861274004,0.0011514935176819563,-1.8927338357635304e-41,-0.0026632724329829216
-0.0018688900163397193,-0.001159103587269783,-0.001296086236834526,0.001157134072855115,-1.2359452455344887e-42,-0.002917305566370487
-0.0017960619879886508,-0.0011510455515235662,-0.0012212855508551002,0.0011401567608118057,-8.127531093083939e-44,-0.0031236722134053707
-0.0017960619879886508,-0.0011510455515235662,-0.0012212855508551002,0.0011401567608118057,-8.127531093083939e-44,-0.0031236722134053707
-0.0018241520738229156,-0.0011370036518201232,-0.0011683376505970955,0.0013145296834409237,-5.605193857299268e-45,-0.003030047519132495
-0.0018172295531257987,-0.0011132418876513839,-0.0010781396413221955,0.0012899202993139625,-0.0,-0.0028545029927045107
-0.0018744185799732804,-0.0010983675019815564,-0.0010501057840883732,0.0012460242724046111,-0.0,-0.0024191320408135653
-0.0017046049470081925,-0.0012796520022675395,-0.0010374883422628045,0.0011268936796113849,-0.0,-0.002287348033860326
-0.0018656065221875906,-0.00120861129835248,-0.0010449925903230906,0.0010342965833842754,-0.0,-0.002418575808405876
-0.0017250460805371404,-0.0011581790167838335,-0.0013737481785938144,0.0009340505348518491,-0.0,-0.002605644753202796
-0.0017544686561450362,-0.0010979020735248923,-0.0013337427517399192,0.0009236176265403628,-0.0,-0.0026385399978607893
-0.0017135872039943933,-0.0010668815812096,-0.001399553962983191,0.0009200825006701052,-0.0,-0.0028692791238427162
-0.0015044870087876916,-0.0010391478426754475,-0.0014518979005515575,0.0009424640447832644,-0.0,-0.0029311960097402334
-0.0013736471300944686,-0.0010089344577863812,-0.0013462939532473683,0.0009776122169569135,-0.0,-0.002895499113947153
-0.001442256267182529,-0.0009739884408190846,-0.0012142949271947145,0.0009860530262812972,-0.0,-0.002745585283264518
-0.0013340892037376761,-0.0009932436514645815,-0.0012903402093797922,0.0011041156249120831,-0.0,-0.0027449289336800575
-0.0014327089302241802,-0.0009790256153792143,-0.0012643939116969705,0.0012174908770248294,-0.0,-0.002575143240392208
-0.0016230900073423982,-0.0009682857198640704,-0.0013673665234819055,0.0012117237783968449,-0.0,-0.002355980919674039
-0.001713803387247026,-0.0009800625266507268,-0.0014312983257696033,0.0012131519615650177,-0.0,-0.0022715097293257713
-0.0015990971587598324,-0.0009640891221351922,-0.0013709778431802988,0.0011891900794580579,-0.0,-0.0022701227571815252
-0.0013865454820916057,-0.000861316395457834,-0.001446157693862915,0.0011387420818209648,-0.0,-0.0025659475941210985
-0.0012755048228427768,-0.0008617484127171338,-0.001405782881192863,0.0011037777876481414,-0.0,-0.002520123263821006
-0.0013192627811804414,-0.0008327649557031691,-0.0013407992664724588,0.0011080024996772408,-0.0,-0.0024323570542037487
-0.0012495320988819003,-0.0007764946203678846,-0.0014733981806784868,0.0010728947818279266,-0.0,-0.002369769150391221
-0.0013153618201613426,-0.0007103049429133534,-0.0015448987251147628,0.0010461333440616727,-0.0,-0.002374172443524003
-0.0012796983355656266,-0.0007324459729716182,-0.0016505036037415266,0.0009789785835891962,-0.0,-0.0022727723699063063
-0.001409784541465342,-0.0007683347794227302,-0.0014379528583958745,0.0010064317611977458,-0.0,-0.002285897731781006
-0.0013314508832991123,-0.0009335994836874306,-0.0014296808512881398,0.0009910250082612038,-0.0,-0.002376965945586562
-0.0014087905874475837,-0.0009534392738714814,-0.001315170549787581,0.000923934334423393,-0.0,-0.002374734729528427
-0.0013504716334864497,-0.0009346490842290223,-0.0012775997165590525,0.0008985777385532856,-0.0,-0.0023267422802746296
-0.0013504716334864497,-0.0009346490842290223,-0.0012775997165590525,0.0008985777385532856,-0.0,-0.0023267422802746296
-0.0011511368211358786,-0.0008346099057234824,-0.0014504132559522986,0.0008772641886025667,-0.0,-0.0021228690166026354
-0.0010610099416226149,-0.0007976268534548581,-0.0019443692872300744,0.0008500619442202151,0.00041928482824005187,-0.00214228848926723
-0.0010328387143090367,-0.0006996478768996894,-0.001704556168988347,0.0008083278662525117,0.0005035236827097833,-0.002103610197082162
-0.0010328387143090367,-0.0006996478768996894,-0.001704556168988347,0.0008083278662525117,0.0005035236827097833,-0.002103610197082162
-0.001026335172355175,-0.00042762115481309593,-0.0014245640486478806,0.0008614317630417645,0.0004887748509645462,-0.0024348446168005466
-0.001026335172355175,-0.00042762115481309593,-0.0014245640486478806,0.0008614317630417645,0.0004887748509645462,-0.0024348446168005466
-0.000998789444565773,-0.00034591974690556526,-0.0014196672709658742,0.0008174813119694591,0.0004677960532717407,-0.002035291399806738
-0.000998789444565773,-0.00034591974690556526,-0.0014196672709658742,0.0008174813119694591,0.0004677960532717407,-0.002035291399806738
-0.0009851920185610652,-0.0001459026534575969,-0.0015048087807372212,0.0008271256228908896,0.0004654432414099574,-0.001973023870959878
-0.0010137812932953238,-0.00012381644046399742,-0.0014426310081034899,0.0008818461210466921,0.0005527677130885422,-0.002074215328320861
-0.0009411746868863702,-0.00021595282305497676,-0.0014992034994065762,0.0007915395544841886,0.0005781925865449011,-0.0024857905227690935
-0.0008433461771346629,-0.0001941046502906829,-0.0014350104611366987,0.0007991741877049208,0.0005655917339026928,-0.0027644620276987553
-0.0008496614173054695,-0.00017521969857625663,-0.0015246204566210508,0.0007899764459580183,0.0005944104050286114,-0.002596253529191017
-0.0008440192323178053,-0.00015967022045515478,-0.0016008095117285848,0.0007327904459089041,0.0006155825103633106,-0.002178131602704525
-0.000772742263507098,-0.00014665578783024102,-0.0015052187955006957,0.0007030938868410885,0.000696711300406605,-0.001935059204697609
-0.000665471248794347,-0.00013560403021983802,-0.0013910230481997132,0.0007285334286279976,0.0007036189781501889,-0.001784284831956029
-0.0006939065060578287,-0.0001261018478544429,-0.0014809027779847383,0.000735071545932442,0.0007287303451448679,-0.0018276756163686514
-0.0007173711783252656,-0.00011784426897065714,-0.0014124031877145171,0.0007277249824255705,0.0007007684325799346,-0.0017704267520457506
-0.0007360488525591791,-0.00011060175893362612,-0.0015419633127748966,0.0007071550935506821,0.0006726126885041595,-0.0021046984475106
-0.000668884429614991,-0.00010419845057185739,-0.0015363311395049095,0.0008827103301882744,0.00065246393205598,-0.0020029658917337656
-0.0007428826647810638,-9.849578782450408e-05,-0.0013484550872817636,0.0008950490155257285,0.0006332029588520527,-0.0019296789541840553
-0.0005628271028399467,-8.877884829416871e-05,-0.001409165095537901,0.0008460950339213014,0.0006481020827777684,-0.0015935564879328012
-0.0005987570038996637,-8.460565004497766e-05,-0.0017017461359500885,0.0008629590156488121,0.0006752582266926765,-0.0014873940963298082
-0.0005401621456257999,-8.080720726866275e-05,-0.0017375163733959198,0.0007570849265903234,0.0006859510322101414,-0.0013745840406045318
-0.0005401621456257999,-8.080720726866275e-05,-0.0017375163733959198,0.0007570849265903234,0.0006859510322101414,-0.0013745840406045318
-0.0005250639514997602,-7.414926221827045e-05,-0.0017018013168126345,0.0007351089734584093,0.0007907008985057473,-0.001420606509782374
-0.0005529373302124441,-7.121532689779997e-05,-0.0015823550056666136,0.0007018836331553757,0.000813786406069994,-0.0018444680608808994
-0.0004656801465898752,-6.599326297873631e-05,-0.001506953383795917,0.0006557084270752966,0.0008265631040558219,-0.0019875732250511646
-0.0004656801465898752,-6.599326297873631e-05,-0.001506953383795917,0.0006557084270752966,0.0008265631040558219,-0.0019875732250511646
-0.00042202809709124267,-6.365918670780957e-05,-0.0016595374327152967,0.0006033093086443841,0.0008661413448862731,-0.001845216378569603
-0.0004618607053998858,-6.148457759991288e-05,-0.0017001639353111386,0.0005363824893720448,0.0008941165870055556,-0.0016510849818587303
-0.0004264090966898948,-5.945377051830292e-05,-0.0017685143975540996,0.00047585356514900923,0.0009054298279806972,-0.0014193181414157152
-0.0004264090966898948,-5.945377051830292e-05,-0.0017685143975540996,0.00047585356514900923,0.0009054298279806972,-0.0014193181414157152
-0.00046012012171559036,-5.755271195084788e-05,-0.0017946583684533834,0.0005098580732010305,0.0009053266840055585,-0.001470003044232726
-0.00042961188592016697,-5.576971307164058e-05,-0.0020196049008518457,0.00047058198833838105,0.0010825872886925936,-0.0017022573156282306
-0.0004021921777166426,-5.409359800978564e-05,-0.001990093383938074,0.00048611368401907384,0.0010752668604254723,-0.0018830816261470318
-0.0004256107204128057,-5.2515413699438795e-05,-0.0019221542170271277,0.00046654706238768995,0.0010496019385755062,-0.0023332415148615837
-0.00040751139749772847,-5.102668364997953e-05,-0.0017191380029544234,0.0004811075341422111,0.000979560543783009,-0.0021118842996656895
-0.0003857578558381647,-4.962007369613275e-05,-0.001617893110960722,0.0004643831925932318,0.0010358542203903198,-0.0018386481096968055
-0.0003661389055196196,-4.828892269870266e-05,-0.0016553153982385993,0.000505440984852612,0.0010170593159273267,-0.001629308913834393
-0.0003484198241494596,-4.702728983829729e-05,-0.0015755754429847002,0.0004767692880704999,0.0009361027623526752,-0.0014776415191590786
-0.00033233698923140764,-4.5830038288841024e-05,-0.0016968665877357125,0.0005070053739473224,0.0009270304581150413,-0.001291707856580615
-0.00031767261680215597,-4.469204577617347e-05,-0.0016719005070626736,0.00047279917635023594,0.0009915761183947325,-0.0013623818522319198
-0.0003042477183043957,-4.360931779956445e-05,-0.001704001217149198,0.0004885612870566547,0.0009875306859612465,-0.0016440318431705236
-0.00029191194334998727,-2.3784235963830724e-05,-0.00159308104775846,0.0004687445471063256,0.0010083366651088,-0.0018141139298677444
-0.0002805375261232257,-2.0830444555031136e-05,-0.001665650517679751,0.0004676033859141171,0.0009204185917042196,-0.0020772889256477356
-0.0002700172772165388,-2.03276958927745e-05,-0.0017681944882497191,0.0004652655916288495,0.0009397524991072714,-0.0020421198569238186
-0.0002602562599349767,-1.9878303646692075e-05,-0.001608247752301395,0.0004387300868984312,0.0010574925690889359,-0.0019632282201200724
-0.0002511768543627113,-1.944872383319307e-05,-0.0015951950335875154,0.00044653209624812007,0.0009369105682708323,-0.001844360725954175
-0.00024270960420835763,-1.9037368474528193e-05,-0.0016416410217061639,0.0004367375804577023,0.0009175375453196466,-0.00159726373385638
-0.0002347945119254291,-1.8643022485775873e-05,-0.001793511095456779,0.0004000756598543376,0.0009011196088977158,-0.0014317831955850124
-0.00022041889315005392,-1.7901413229992613e-05,-0.0019939651247113943,0.0004052247095387429,0.0007828552043065429,-0.0013806179631501436
-0.00021387137530837208,-1.7552300050738268e-05,-0.0019521350041031837,0.0003789003530982882,0.000793570710811764,-0.001461697742342949
-0.00020770150877069682,-1.7216527339769527e-05,-0.0018465896137058735,0.00040907718357630074,0.0007983933901414275,-0.001387575757689774
-0.00020187825430184603,-1.6893378415261395e-05,-0.0018317876383662224,0.00038749768282286823,0.0007964161923155189,-0.0014278750168159604
-0.00019637194054666907,-1.6582152966293506e-05,-0.0019681998528540134,0.0003906686033587903,0.0007509964634664357,-0.0013812145916745067
-0.00016822457837406546,-1.628216887183953e-05,-0.0018798555247485638,0.000392820656998083,0.0007648085011169314,-0.001295864931307733
-7.186275615822524e-05,-1.5992829503375106e-05,-0.0019067118410021067,0.0003739501698873937,0.0007747055497020483,-0.001174607197754085
-3.02156313409796e-05,-6.276807198446477e-07,-0.0017343312501907349,0.00037906249053776264,0.0007463290821760893,-0.0012217041803523898
-3.02156313409796e-05,-6.276807198446477e-07,-0.0017343312501907349,0.00037906249053776264,0.0007463290821760893,-0.0012217041803523898
-2.8005271815345623e-05,-8.42113845322956e-09,-0.0019195416243746877,0.00037127689574845135,0.00071189075242728,-0.0012116637080907822
-5.319202318787575e-05,-1.1298031260542629e-10,-0.001941109192557633,0.0003443848399911076,0.0007276178803294897,-0.001251009525731206
-2.5952465875889175e-05,-2.0336059970856545e-14,-0.0020465466659516096,0.0003426847397349775,0.0007594170165248215,-0.0013003334170207381
-2.5952465875889175e-05,-2.0336059970856545e-14,-0.0020465466659516096,0.0003426847397349775,0.0007594170165248215,-0.0013003334170207381
-2.4895925889723003e-05,-2.7283418275005685e-16,-0.001958667766302824,0.00033512114896439016,0.0007776429993100464,-0.0012881431030109525
-9.745382385517587e-07,-3.660418967154344e-18,-0.0019219216192141175,0.00031637580832466483,0.0008043113630264997,-0.0013979296199977398
-1.3074673788082691e-08,-4.910919274821614e-20,-0.002051352523267269,0.0002989154600072652,0.0011478342348709702,-0.0013391888933256269
-1.7541344765614753e-10,-6.588625350310474e-22,-0.0020052797626703978,0.00028323440346866846,0.0011236307909712195,-0.0012865656754001975
-2.353395039608741e-12,-8.839482265840895e-24,-0.002020229585468769,0.00026911552413366735,0.0010899032931774855,-0.001216299133375287
-3.157379685394396e-14,-1.185929234742867e-25,-0.0019655621144920588,0.0002563367015682161,0.0010485273087397218,-0.0011461692629382014
-4.236027915784313e-16,-1.5910753420079297e-27,-0.0018809930188581347,0.00028004872729070485,0.001051784143783152,-0.0010881071211770177
-5.683171695505791e-18,-2.1346306344717744e-29,-0.0018630122067406774,0.00027276697801426053,0.0010282027069479227,-0.0009840489365160465
-7.624700147390629e-20,-2.863879691498745e-31,-0.001975382212549448,0.0002617492282297462,0.0010096966288983822,-0.0008907865267246962
-1.0229508981154054e-21,-3.8422597733481e-33,-0.0019366800552234054,0.00025132574955932796,0.001040743081830442,-0.0008870732272043824
-1.3724190243642638e-23,-5.154881945719664e-35,-0.0021384190768003464,0.00024168399977497756,0.0010412060655653477,-0.0008885484421625733
-1.8412754317552225e-25,-6.915932119172507e-37,-0.001991834957152605,0.00023275385319720954,0.0010195745853707194,-0.000973423128016293
-2.4703059839339433e-27,-9.278605295828131e-39,-0.00218376936390996,0.00022446007642429322,0.0010113711468875408,-0.001208248664624989
-3.3142305262676986e-29,-1.2448434907829512e-40,-0.0023842230439186096,0.00021673706942237914,0.0010110714938491583,-0.0015238110208883882
-4.446463487635092e-31,-1.670347769475182e-42,-0.0022975201718509197,0.00020952812337782234,0.0010020246263593435,-0.0017414223402738571
-5.9654975465468106e-33,-2.2420775429197073e-44,-0.0021569214295595884,0.0002027827431447804,0.0009765089489519596,-0.00158490682952106
-8.003476691521507e-35,-0.0,-0.002058367943391204,0.00019645862630568445,0.0009493097313679755,-0.0013746992917731404
-1.4405977396269601e-38,0.0,-0.0026236672420054674,0.00018492470553610474,0.000873180921189487,-0.0009979171445593238
-1.932740906920004e-40,0.0,-0.0024773089680820704,0.0001796506840037182,0.0009109753300435841,-0.0008866993011906743
-2.5924021590009116e-42,0.0,-0.0022097539622336626,0.0001746696070767939,0.0009118457091972232,-0.0007090840954333544
-3.5032461608120427e-44,0.0,-0.0020917928777635098,0.0001699574786471203,0.0009648351115174592,-0.0007488776464015245
0.0003217536141164601,0.0,-0.002186504192650318,0.0001654925144976005,0.0010547697311267257,-0.000780036672949791
0.00037114720907993615,0.0,-0.002648431109264493,0.00016125672846101224,0.0011552716605365276,-0.0012635060120373964
0.00034380806027911603,0.0,-0.002597958780825138,0.00015723181422799826,0.0012867143377661705,-0.0012451543007045984
0.0003194123273715377,0.0,-0.00236299354583025,0.00015340300160460174,0.0013770859222859144,-0.0012008626945316792
0.0003194123273715377,0.0,-0.00236299354583025,0.00015340300160460174,0.0013770859222859144,-0.0012008626945316792
0.000298238213872537,0.0,-0.002235060790553689,0.00014975634985603392,0.0013401968171820045,-0.001038100803270936
0.00033483735751360655,0.0,-0.002157522365450859,0.00014627919881604612,0.001271864864975214,-0.0009075949201360345
0.0004023724468424916,0.0,-0.002465437864884734,0.00014295992150437087,0.001221730257384479,-0.0007839075988158584
0.0005358596099540591,0.0,-0.0024244561791419983,0.00013978763308841735,0.0011632071109488606,-0.0006684137042611837
0.0006429183413274586,0.0002128150808857754,-0.002561654429882765,0.00013675331138074398,0.0011117045069113374,-0.0005818126373924315
0.0006713554612360895,0.00022484430519398302,-0.0022594532929360867,0.00013384773046709597,0.0009916236158460379,-0.0005150691722519696
0.0006935091805644333,0.0002144344907719642,-0.0021890795323997736,0.00013106316328048706,0.0008331970893777907,-0.0005415598279796541
0.0008958177058957517,0.00024395031505264342,-0.0023727763909846544,0.00012839218834415078,0.0008338986081071198,-0.0005019514355808496
0.0009609104599803686,0.0002349114220123738,-0.0022912591230124235,0.0001258277625311166,0.0008337663020938635,-0.0005259402678348124
0.0009522442705929279,0.00022513847216032445,-0.0022192460019141436,0.00012336386134847999,0.000841045577544719,-0.000493730534799397
0.0009453677339479327,0.00021612811542581767,-0.002182117197662592,0.00012099460582248867,0.0008604287286289036,-0.00045837322250008583
0.0008832296007312834,0.0002410391316516325,-0.002298552542924881,0.00011871459719259292,0.001002451521344483,-0.0004840687906835228
0.001003470504656434,0.00023344172223005444,-0.0024624750949442387,0.00011651885870378464,0.001022509066388011,-0.00044713629176840186
0.0010004888754338026,0.00022511820134241134,-0.002402856480330229,0.00011440285015851259,0.0015930633526295424,-0.00040095107397064567
0.0010099081555381417,0.0002471450134180486,-0.002465724479407072,0.00011236251884838566,0.0014944067224860191,-0.0004360461898613721
0.0013142118696123362,0.00024032282817643136,-0.0024901803117245436,0.00011058176460210234,0.0013114489847794175,-0.00045747144031338394
0.0012418966507539153,0.0003568473330233246,-0.002428777050226927,4.285592876840383e-05,0.001151226693764329,-0.00044122268445789814
0.0011968404287472367,0.00039601034950464964,-0.0028527562972158194,3.7694764614570886e-05,0.001086438656784594,-0.00041329741361550987
0.001241338555701077,0.0003713407786563039,-0.00299310265108943,3.6648700188379735e-05,0.0009948635706678033,-0.0004394630959723145
0.0012163801584392786,0.00040299000102095306,-0.0025550113059580326,3.5899571230402216e-05,0.0009146269294433296,-0.0005180464941076934
0.0012120534665882587,0.00038084498373791575,-0.0025382330641150475,3.5196389944758266e-05,0.0009082130272872746,-0.0006028986535966396
0.0015499588334932923,0.00039275220478884876,-0.0024435538798570633,3.452127566561103e-05,0.0007949339342303574,-0.0005906529258936644
0.0018504608888179064,0.0003880916046909988,-0.002955885836854577,3.3871663617901504e-05,0.0007762277382425964,-0.0005355372559279203
0.001974170096218586,0.0005698567838408053,-0.002787137171253562,2.460978430463001e-05,0.0008028645534068346,-0.00044700148282572627
0.0019214546773582697,0.0005445148563012481,-0.002611840143799782,1.6571995729464106e-05,0.0008828272693790495,-0.00041280052391812205
0.0018143804045394063,0.0005740238120779395,-0.002360016806051135,1.578561386850197e-05,0.0009731693426147103,-0.0003834641247522086
0.002020142273977399,0.0005289643886499107,-0.0025622029788792133,1.548169348097872e-05,0.0009314336930401623,-0.0003580237098503858
0.0021454328671097755,0.0005493301432579756,-0.003282697405666113,1.5217803593259305e-05,0.0009561885381117463,-0.0003357512759976089
0.002160626230761409,0.000517514068633318,-0.003255600342527032,1.4964625734137371e-05,0.0010068907868117094,-0.0003160877095069736
0.002160626230761409,0.000517514068633318,-0.003255600342527032,1.4964625734137371e-05,0.0010068907868117094,-0.0003160877095069736
0.002482054056599736,0.0005713864811696112,-0.0028768216725438833,9.77083118414157e-07,0.001110099139623344,-0.0002986015169881284
0.002713576192036271,0.0006173350266180933,-0.002617390127852559,6.379654138299884e-08,0.001139948726631701,-0.0002829489530995488
0.0025322868023067713,0.0006481556338258088,-0.0023375260643661022,4.1654586446782105e-09,0.0013947354163974524,-0.00026885722763836384
0.0023900025989860296,0.0006155266310088336,-0.002506116172298789,2.7197466501149847e-10,0.0013767890632152557,-0.0002561026194598526
0.002469434170052409,0.0006400724523700774,-0.0030580281745642424,1.775800340109157e-11,0.0012938542058691382,-0.0002445036079734564
0.0024499983992427588,0.0008439678931608796,-0.002856970764696598,1.1594707399059656e-12,0.001157725346274674,-0.00023390958085656166
0.002937391633167863,0.0008584512979723513,-0.002671400550752878,7.570515530653035e-14,0.001088828081265092,-0.0002241962356492877
0.0033315587788820267,0.0008258739253506064,-0.0026492432225495577,4.943006029852924e-15,0.0010547685669735074,-0.0002152573288185522
0.0032106449361890554,0.0007635920192115009,-0.0027724523097276688,3.2274297865883593e-16,0.0010491701541468501,-0.00020700387540273368
0.00306814257055521,0.0007773448014631867,-0.0029654891695827246,2.107280826223138e-17,0.0010294525418430567,-0.00019936020544264466
0.0028946800157427788,0.0007935778121463954,-0.0030896817333996296,1.3759036931895732e-18,0.0010325952898710966,-0.00019226119911763817
0.003228017594665289,0.0008125266758725047,-0.0030449209734797478,8.983668713405463e-20,0.001012597233057022,-0.00021248956909403205
0.003455866128206253,0.0009003952727653086,-0.002441962482407689,-0.0006147347157821059,0.0009881334844976664,-0.00020912470063194633
0.003387157805263996,0.001058716094121337,-0.0023509052116423845,-0.0007116033229976892,0.0009363171411678195,-0.00020263870828785002
0.0035334471613168716,0.0011282898485660553,-0.002496324246749282,-0.0007888642139732838,0.0009625499369576573,-0.00019633832562249154
0.003660393413156271,0.0010898184264078736,-0.0029608896002173424,-0.0009724490228109062,0.0010307624470442533,-0.00019040494225919247
0.00396397989243269,0.001065399730578065,-0.0028354800306260586,-0.0011350014247000217,0.0011470169993117452,-0.0001848190149758011
0.004043130204081535,0.0011995313689112663,-0.002611020114272833,-0.0011920658871531487,0.001409961492754519,-0.00017955084331333637
0.004426348954439163,0.0011890928726643324,-0.002509946934878826,-0.001238125842064619,0.0013563305838033557,-0.00017457515059504658
0.004622003994882107,0.0011548766633495688,-0.0025704659055918455,-0.0013922195648774505,0.0014979476109147072,-0.00016986778064165264
0.004311264958232641,0.0013471439015120268,-0.002796063432469964,-0.0014006290584802628,0.0013924272498115897,-0.0001654075604164973
0.004622432868927717,0.0012828592443838716,-0.003163236426189542,-0.0017072006594389677,0.0011594559764489532,-5.771600262960419e-05
0.005158514250069857,0.0015821570996195078,-0.003042517928406596,-0.0019310001516714692,0.0009802218992263079,-5.285822771838866e-05
0.005144673399627209,0.001509241876192391,-0.002995365299284458,-0.0018455241806805134,0.0009579177713021636,-5.1149268983863294e-05
0.0049170744605362415,0.001709340256638825,-0.0027397535741329193,-0.002020027954131365,0.0010133420582860708,-4.972273745806888e-05
0.0049170744605362415,0.001709340256638825,-0.0027397535741329193,-0.002020027954131365,0.0010133420582860708,-4.972273745806888e-05
0.005165338050574064,0.0017819823697209358,-0.0030591392423957586,-0.0023118657991290092,0.0012537463335320354,-4.711845758720301e-05
0.005165338050574064,0.0017819823697209358,-0.0030591392423957586,-0.0023118657991290092,0.0012537463335320354,-4.711845758720301e-05
0.004980659112334251,0.0017877857899293303,-0.0030382254626601934,-0.0025167774874716997,0.001256115036085248,-4.591644392348826e-05
0.005219979677349329,0.0018945420160889626,-0.0028282329440116882,-0.0023516265209764242,0.0013356049312278628,-4.477420952753164e-05
0.005440715700387955,0.0018886973848566413,-0.0029803987126797438,-0.002454973990097642,0.0014073880156502128,-4.3687483412213624e-05
0.005546444561332464,0.0019339867867529392,-0.0029554609209299088,-0.002633589319884777,0.0013191014295443892,-4.2652212869143113e-05
0.0052847061306238174,0.0019127201521769166,-0.0029724217019975185,-0.002789366291835904,0.0011873462935909629,-4.166490907664411e-05
0.005605106242001057,0.0019276683451607823,-0.0027836256194859743,-0.0027374769560992718,0.0010258936090394855,-4.072220326634124e-05
0.005353009328246117,0.001908382517285645,-0.002954255323857069,-0.0028193332254886627,0.0009952087420970201,-2.5055163860088214e-05
0.006092742085456848,0.0020834601018577814,-0.003370580729097128,-0.0029229300562292337,0.0010465056402608752,-1.981560308195185e-05
0.0062382956966757774,0.002032969845458865,-0.003263114718720317,-0.002930279355496168,0.0010551954619586468,-1.9088905901298858e-05
0.006344800349324942,0.002297178143635392,-0.003088567405939102,-0.002764221513643861,0.0010904941009357572,-1.867283026513178e-05
0.006225212011486292,0.002042645588517189,-0.0027987193316221237,-0.0028916108421981335,0.0011460318928584456,-1.82919975486584e-05
0.00618761358782649,0.002092017326503992,-0.0028728146571666002,-0.003034664550796151,0.0012223352678120136,-2.350819841012708e-06
0.006342606153339148,0.0019068530527874827,-0.0031159475911408663,-0.0033227151725441217,0.0012843336444348097,-1.5349172599599115e-07
0.0069442386738955975,0.0020026834681630135,-0.003387201577425003,-0.003141990164294839,0.001217368640936911,-1.0021912189017712e-08
0.0067983511835336685,0.0018776986980810761,-0.003644081996753812,-0.0028637712821364403,0.0011755524901673198,-6.543592334651294e-10
0.007155232131481171,0.0022539468482136726,-0.003285966580733657,-0.002730586100369692,0.0011731188278645277,-4.27249798040652e-11
0.007038560230284929,0.0027603376656770706,-0.002917921170592308,-0.002587759168818593,0.0011737447930499911,-2.7896359267726156e-12
0.007770126219838858,0.0031440381426364183,-0.0028912355192005634,-0.0027255015447735786,0.0011518651153892279,-1.8214326802466069e-13
0.007118068635463715,0.0033081371802836657,-0.0033592251129448414,-0.002908207941800356,0.0013642588164657354,-1.1892653440542019e-14
0.007007172796875238,0.0029012414161115885,-0.003795128082856536,-0.0031389512587338686,0.0014161404687911272,-7.765052782967631e-16
0.007165195886045694,0.0027831208426505327,-0.0033736773766577244,-0.0034145438112318516,0.0014711541589349508,-5.0700242318869816e-17
0.007963815703988075,0.00314066163264215,-0.0027486199978739023,-0.0030569478403776884,0.0015479293651878834,0.0007001376361586154
0.0077853333204984665,0.0031936774030327797,-0.00308202113956213,-0.002790838247165084,0.0014975318918004632,0.0006591330165974796
0.006954383570700884,0.0032610828056931496,-0.0036025072913616896,-0.002944903215393424,0.0014285581419244409,0.0006371636409312487
0.008088365197181702,0.003392348298802972,-0.003630606923252344,-0.003476336132735014,0.0013634819770231843,0.0006172450957819819
0.008395537734031677,0.003373414510861039,-0.003147831652313471,-0.0033281201031059027,0.0015991238178685308,0.0006036190316081047
0.008025753311812878,0.003454778343439102,-0.0031507331877946854,-0.0030822772532701492,0.0015329684829339385,0.0005936468951404095
0.008025753311812878,0.003454778343439102,-0.0031507331877946854,-0.0030822772532701492,0.0015329684829339385,0.0005936468951404095
0.007985342293977737,0.003246777690947056,-0.0031772020738571882,-0.002782669384032488,0.0017624010797590017,0.0007168957963585854
0.009139874950051308,0.0038597045931965113,-0.0035209530033171177,-0.0029017121996730566,0.0018028528429567814,0.0008125672466121614
0.008368671871721745,0.004235643427819014,-0.0036648588720709085,-0.0031673654448240995,0.001598274800926447,0.0014378192136064172
0.00843533594161272,0.004102382808923721,-0.0033146131318062544,-0.003359501715749502,0.0016172360628843307,0.001560927601531148
0.008677362464368343,0.004061125218868256,-0.0031759017147123814,-0.0031972904689610004,0.0014774814480915666,0.001455611316487193
0.008558793924748898,0.0040227803401649,-0.003227818990126252,-0.0030107044149190187,0.0013939195778220892,0.0013084515230730176
0.00869301613420248,0.0036555221304297447,-0.0035003328230232,-0.0030654603615403175,0.0013439614558592439,0.0010477385949343443
0.009242295287549496,0.0039856284856796265,-0.003673757426440716,-0.003257799195125699,0.0012912284582853317,0.0010077152401208878
0.009380307979881763,0.0041447775438427925,-0.0036756491754204035,-0.0035310126841068268,0.0014742090133950114,0.001057174988090992
0.00909915380179882,0.004182978067547083,-0.003641739021986723,-0.003665303811430931,0.0015228240517899394,0.0009919359581544995
0.009134024381637573,0.00412130169570446,-0.0032465190161019564,-0.0033234350848942995,0.0017861248925328255,0.0011015578638762236
0.009273640811443329,0.004492903593927622,-0.0034242882393300533,-0.0031679824460297823,0.001748924027197063,0.0014618780696764588
0.009289724752306938,0.004277664702385664,-0.0038638475816696882,-0.0032432551961392164,0.0016410818789154291,0.0017275678692385554
0.008977935649454594,0.004374586045742035,-0.004107966087758541,-0.0035415864549577236,0.0016085432143881917,0.0016895491862669587
0.009479046799242496,0.004274184815585613,-0.003508569672703743,-0.0037213570903986692,0.0015132997650653124,0.0018708687275648117
0.009510453790426254,0.004530631005764008,-0.0035007339902222157,-0.0033881948329508305,0.0014710408868268132,0.0017767411191016436
0.009749366901814938,0.004365561064332724,-0.0031786849722266197,-0.003298725001513958,0.0015320556703954935,0.0019355680560693145
0.009795064106583595,0.004270859062671661,-0.0041470034047961235,-0.0034570135176181793,0.0014961290871724486,0.0017741284100338817
0.009563288651406765,0.004938462749123573,-0.004095075652003288,-0.0034832903183996677,0.0016409908421337605,0.0017845846014097333
0.010142594575881958,0.004840515088289976,-0.0032218697015196085,-0.0037873818073421717,0.0017764793010428548,0.0018813781207427382
0.009699733927845955,0.0046738432720303535,-0.003339980496093631,-0.0038858770858496428,0.001663054572418332,0.0019170314772054553
0.007804505992680788,0.005101125221699476,-0.0037273159250617027,-0.003478695871308446,0.0016206830041483045,0.00236510275863111
0.007354606408625841,0.004976058378815651,-0.003810871858149767,-0.003506756853312254,0.0015352522023022175,0.002564965980127454
0.008027455769479275,0.005505450069904327,-0.0036559158470481634,-0.003486900357529521,0.001479321508668363,0.002494371496140957
0.008326957002282143,0.00533737987279892,-0.003446271875873208,-0.0033766303677111864,0.00163451605476439,0.00218593911267817
0.008142231963574886,0.005067918449640274,-0.0035867278929799795,-0.003013057867065072,0.0015894522657617927,0.0021084549371153116
0.008161265403032303,0.005143158603459597,-0.003359516616910696,-0.003057165304198861,0.0018937478307634592,0.0019071196438744664
0.008161265403032303,0.005143158603459597,-0.003359516616910696,-0.003057165304198861,0.0018937478307634592,0.0019071196438744664
0.00791743490844965,0.0052909692749381065,-0.003537422977387905,-0.0034193615429103374,0.0020623530726879835,0.0018699660431593657
0.007712251972407103,0.005432864185422659,-0.004178481642156839,-0.003772126277908683,0.0023343765642493963,0.00203002174384892
0.007544824853539467,0.005251067224889994,-0.004195655230432749,-0.0038791571278125048,0.0019781244918704033,0.0021642392966896296
0.008368438109755516,0.005883766803890467,-0.0034778944682329893,-0.003411779645830393,0.0018397215753793716,0.0024362928234040737
0.00852974783629179,0.005400017835199833,-0.003069560742005706,-0.0030916971154510975,0.001677636755630374,0.0022497267927974463
0.007654009386897087,0.0049698930233716965,-0.0038229054771363735,-0.0034018082078546286,0.0013930548448115587,0.0022236143704503775
0.00797246117144823,0.0052808853797614574,-0.0043434868566691875,-0.003793887095525861,0.0012329563032835722,0.0025810138322412968
0.008219137787818909,0.005151265300810337,-0.0045545753091573715,-0.00387394311837852,0.0011883263941854239,0.0029427893459796906
0.00829432625323534,0.005917237605899572,-0.0036146363709121943,-0.003742020344361663,0.0011606300249695778,0.003490966744720936
0.008337793871760368,0.005450953729450703,-0.0035287917125970125,-0.0036616879515349865,0.001252629328519106,0.0032813777215778828
0.00851022731512785,0.0058660018257796764,-0.0037923608906567097,-0.003763269865885377,0.00135723315179348,0.0028963549993932247
0.008829289115965366,0.005494559649378061,-0.003901036689057946,-0.0038562724366784096,0.0019217369845137,0.0025703799910843372
0.00851215235888958,0.005862317979335785,-0.00384238688275218,-0.003487067297101021,0.0020938273519277573,0.002565226051956415
0.008617066778242588,0.006097407080233097,-0.004266714211553335,-0.0034059227909892797,0.0021910483483225107,0.002521585440263152
0.009460076689720154,0.006126732565462589,-0.0041369288228452206,-0.0035489005967974663,0.001927704201079905,0.002946279477328062
0.009402789175510406,0.00617558229714632,-0.00395604083314538,-0.0037237857468426228,0.0017152263317257166,0.0033164925407618284
0.009268095716834068,0.005718451924622059,-0.003962636459618807,-0.004232813138514757,0.0017239240696653724,0.0032726202625781298
0.008866256102919579,0.005866247694939375,-0.004057637415826321,-0.004534299019724131,0.0017784337978810072,0.003024215344339609
0.00945820938795805,0.005834667477756739,-0.004115482792258263,-0.004656174220144749,0.0017992998473346233,0.0028864340856671333
0.009258769452571869,0.005814726464450359,-0.003957437351346016,-0.0041825976222753525,0.0019071605056524277,0.0031685486901551485
0.00937508326023817,0.005784337874501944,-0.0037892668042331934,-0.0036352642346173525,0.0017864665715023875,0.003187292953953147
0.00911142211407423,0.005266503430902958,-0.0037567673716694117,-0.003111054887995124,0.0016645182622596622,0.0030418068636208773
0.00959425512701273,0.005767305381596088,-0.003785384353250265,-0.002984260208904743,0.0015798411332070827,0.002884815214201808
0.009646180085837841,0.0056493827141821384,-0.003868547733873129,-0.0029935373459011316,0.001575774746015668,0.00285725318826735
0.009556523524224758,0.005899650044739246,-0.004403828643262386,-0.0034415223635733128,0.0015295632183551788,0.0028238403610885143
0.009905563667416573,0.005640875082463026,-0.004057557322084904,-0.004213934298604727,0.0016653160564601421,0.00329024251550436
0.009744424372911453,0.005680304951965809,-0.003771966090425849,-0.004511007107794285,0.0016626236028969288,0.003407967509701848
0.00947471521794796,0.006147952750325203,-0.0037412778474390507,-0.003928972873836756,0.0017410269938409328,0.003335700137540698
0.009853211231529713,0.006239449605345726,-0.004252525977790356,-0.0032792554702609777,0.0018491214141249657,0.0029930707532912493
0.010403946973383427,0.006035885773599148,-0.004629247356206179,-0.0031701556872576475,0.0021934520918875933,0.003045789198949933
0.010403946973383427,0.006035885773599148,-0.004629247356206179,-0.0031701556872576475,0.0021934520918875933,0.003045789198949933
0.00998006109148264,0.006136205047369003,-0.004407662432640791,-0.0035470896400511265,0.002283537993207574,0.0033633336424827576
0.010208730585873127,0.005650889594107866,-0.004217580892145634,-0.0038934338372200727,0.0022825580090284348,0.003479561535641551
0.010164478793740273,0.004173215012997389,-0.004112709779292345,-0.003941741306334734,0.0020349586848169565,0.0034411121159791946
0.011015032418072224,0.0031010375823825598,-0.003934509586542845,-0.0043374584056437016,0.0019514979794621468,0.0031735862139612436
0.011355796828866005,0.0032769085373729467,-0.004370409529656172,-0.004495059140026569,0.002077332930639386,0.003314490430057049
0.010355771519243717,0.004288668744266033,-0.004251405596733093,-0.004421527963131666,0.002092197770252824,0.0030891841743141413
0.010750217363238335,0.004697344731539488,-0.004414789378643036,-0.004437642637640238,0.002077968791127205,0.003313657594844699
0.010964036919176579,0.004611174110323191,-0.004233914893120527,-0.004049284849315882,0.0021206692326813936,0.0035408579278737307
0.010162721388041973,0.004130734130740166,-0.004450468346476555,-0.0037167437840253115,0.002083850558847189,0.0034762276336550713
0.010838904418051243,0.003887317841872573,-0.004472638480365276,-0.003463071770966053,0.002065791981294751,0.003593017579987645
0.010791399516165257,0.004424921236932278,-0.00427687494084239,-0.0039726863615214825,0.002148690400645137,0.0036458096001297235
0.010281771421432495,0.0046871500089764595,-0.004368090536445379,-0.004646317567676306,0.001978212734684348,0.004105791449546814
0.010616011917591095,0.004488630685955286,-0.004571828991174698,-0.00466200103983283,0.002034861361607909,0.0042684501968324184
0.010732419788837433,0.004254783503711224,-0.004566590767353773,-0.0046700104139745235,0.002042696112766862,0.004258900415152311
0.010967959649860859,0.004440913908183575,-0.004203078802675009,-0.004588901996612549,0.0022322533186525106,0.004427915904670954
0.011300701647996902,0.004109950736165047,-0.0043942867778241634,-0.0043733930215239525,0.002069678157567978,0.004186016973108053
0.011121745221316814,0.004409510176628828,-0.005213980097323656,-0.004417393356561661,0.0019882230553776026,0.00438346341252327
0.011222931556403637,0.004672607406973839,-0.004937412217259407,-0.004640000406652689,0.0017890820745378733,0.004637350328266621
0.011402672156691551,0.0049820877611637115,-0.0040815663523972034,-0.004630943760275841,0.0016068639233708382,0.004361646715551615
0.01129941176623106,0.005549920257180929,-0.00427537877112627,-0.004673462361097336,0.0019319466082379222,0.004109475761651993
0.011495227925479412,0.004474907647818327,-0.005193145014345646,-0.004634649958461523,0.0021441273856908083,0.004290563520044088
0.011508014053106308,0.004329467657953501,-0.005177371669560671,-0.004618549253791571,0.002505993703380227,0.004606390371918678
0.011696812696754932,0.004751547705382109,-0.004754229914397001,-0.004712721332907677,0.00260523846372962,0.004612479824572802
0.010961961932480335,0.004933380987495184,-0.0046343025751411915,-0.0049171485006809235,0.0024110209196805954,0.00427666213363409
0.011311790905892849,0.00489596975967288,-0.004785248544067144,-0.004878512118011713,0.0022600311785936356,0.003963722847402096
0.011566934175789356,0.005005275830626488,-0.0050599644891917706,-0.004439874552190304,0.002011452801525593,0.003814938711002469
0.011566934175789356,0.005005275830626488,-0.0050599644891917706,-0.004439874552190304,0.002011452801525593,0.003814938711002469
0.012525955215096474,0.004912923090159893,-0.004923222120851278,-0.0044261254370212555,0.0019420668249949813,0.003932769410312176
0.011758367531001568,0.004837135784327984,-0.005324786063283682,-0.0045397584326565266,0.0020914257038384676,0.0041478644125163555
0.01042755413800478,0.005228044465184212,-0.005023294128477573,-0.004648696165531874,0.0021964076440781355,0.004356323275715113
0.01114739291369915,0.005464860703796148,-0.004480735864490271,-0.00470231007784605,0.002514756051823497,0.004236188251525164
0.011622367426753044,0.005184895824640989,-0.004530442878603935,-0.004828807897865772,0.0023218595888465643,0.004465417005121708
0.011128952726721764,0.005364842247217894,-0.004978974349796772,-0.005178062245249748,0.0021786245051771402,0.00451258011162281
0.011106951162219048,0.005194633733481169,-0.004971337970346212,-0.004955485928803682,0.001977913547307253,0.00438515841960907
0.010736336000263691,0.005051821935921907,-0.005280583631247282,-0.004638694692403078,0.0019234383944422007,0.004438177682459354
0.011114433407783508,0.005751781165599823,-0.004841858055442572,-0.004512215964496136,0.0018507817294448614,0.004736543167382479
0.01109430193901062,0.005634651519358158,-0.004650591406971216,-0.0050883847288787365,0.0018925359472632408,0.005158179439604282
0.010791491717100143,0.005678801331669092,-0.004715724382549524,-0.005368814803659916,0.0018786296714097261,0.004947333130985498
0.011263481341302395,0.0053188432939350605,-0.005227195098996162,-0.005921890027821064,0.0019478168105706573,0.0048720939084887505
0.011051706969738007,0.005338788498193026,-0.005365221761167049,-0.005700947251170874,0.0017740880139172077,0.004751790780574083
0.010595912113785744,0.005544960033148527,-0.005617751739919186,-0.005622918251901865,0.0018407946918159723,0.004777064081281424
0.011329898610711098,0.006228162907063961,-0.005127089563757181,-0.005143286194652319,0.001945630880072713,0.0048376452177762985
0.010903437621891499,0.006214698776602745,-0.004866742063313723,-0.005249561741948128,0.0022396459244191647,0.005027660168707371
0.011135706678032875,0.005594317335635424,-0.005198054946959019,-0.005238499958068132,0.00262743653729558,0.00516195222735405
0.011589059606194496,0.005970451049506664,-0.005265389569103718,-0.005722035188227892,0.002537802094593644,0.004933565389364958
0.01199658215045929,0.00651460001245141,-0.005431627854704857,-0.005566742271184921,0.0026815934106707573,0.005384999327361584
0.011232145130634308,0.006552965380251408,-0.0058053540997207165,-0.005239373538643122,0.002396823139861226,0.005552728194743395
0.011121097020804882,0.006063207983970642,-0.005360173061490059,-0.0057712094858288765,0.002413635142147541,0.005666815210133791
0.011335964314639568,0.006057589780539274,-0.005045593250542879,-0.005537869408726692,0.0023178597912192345,0.005167811643332243
0.010904228314757347,0.006761986296623945,-0.005150027107447386,-0.005415362771600485,0.002192856278270483,0.004785740282386541
0.011091676540672779,0.0070549072697758675,-0.005121263675391674,-0.005422533955425024,0.0023383970838040113,0.004613935481756926
0.011168765835464,0.0063243224285542965,-0.0057400427758693695,-0.0054021249525249004,0.002163755474612117,0.004712370224297047
0.011302351020276546,0.006384521257132292,-0.005368428770452738,-0.005771759897470474,0.0021797220688313246,0.005690989084541798
0.011302351020276546,0.006384521257132292,-0.005368428770452738,-0.005771759897470474,0.0021797220688313246,0.005690989084541798
0.011866241693496704,0.006425731349736452,-0.005040532443672419,-0.005544750019907951,0.0021221009083092213,0.005503747146576643
0.010850782506167889,0.006556883454322815,-0.00521492725238204,-0.00569439772516489,0.0022697001695632935,0.005059700924903154
0.011164585128426552,0.007106041070073843,-0.005265454761683941,-0.005456751678138971,0.0023568174801766872,0.005034849047660828
0.012036330997943878,0.006544478237628937,-0.005658761132508516,-0.005299294833093882,0.002332398435100913,0.005052172113209963
0.01163580734282732,0.006580124609172344,-0.0055556101724505424,-0.005567499902099371,0.0025627082213759422,0.005025418475270271
0.01148705929517746,0.006877026986330748,-0.005619697272777557,-0.006001222878694534,0.0027482721488922834,0.005749996285885572
0.01112911757081747,0.007070590741932392,-0.005280675832182169,-0.005876083392649889,0.002785681514069438,0.005869043990969658
0.011379643343389034,0.007353766355663538,-0.00596656883135438,-0.005803474225103855,0.0026589243207126856,0.005775085650384426
0.01172587275505066,0.00702083483338356,-0.005634716246277094,-0.005963983945548534,0.0026250146329402924,0.0055178008042275906
0.011170944198966026,0.0074446555227041245,-0.0065356092527508736,-0.0057250745594501495,0.002331012627109885,0.0056634023785591125
0.011797185055911541,0.006955079734325409,-0.006038108840584755,-0.005928055848926306,0.002141255186870694,0.006116076372563839
0.011982748284935951,0.00710729556158185,-0.004753942135721445,-0.006343381013721228,0.0020645225886255503,0.006049063988029957
0.011555158533155918,0.006631236057728529,-0.005547411274164915,-0.0065053305588662624,0.0022087881807237864,0.006048525683581829
0.01180163212120533,0.006711258552968502,-0.00584420096129179,-0.006598288659006357,0.002532740356400609,0.005849961657077074
0.011362402699887753,0.007122913841158152,-0.0064237103797495365,-0.006957308389246464,0.0023485750425606966,0.005833911243826151
0.011262969113886356,0.006862938869744539,-0.005578846670687199,-0.006402736995369196,0.002342627150937915,0.005766541697084904
0.012254570610821247,0.006729683838784695,-0.005156474653631449,-0.005458511877804995,0.0021518305875360966,0.005926861427724361
0.011766267009079456,0.007111054845154285,-0.005806827452033758,-0.005688582547008991,0.0023159438278526068,0.006024071481078863
0.011196102015674114,0.006832894869148731,-0.005753108765929937,-0.006254243198782206,0.002855046186596155,0.006125202402472496
0.011647919192910194,0.006769261788576841,-0.005647388286888599,-0.006099529564380646,0.0028419282753020525,0.006268028169870377
0.011647919192910194,0.006769261788576841,-0.005647388286888599,-0.006099529564380646,0.0028419282753020525,0.006268028169870377
0.011763671413064003,0.007277181837707758,-0.005061228759586811,-0.005965495947748423,0.002445839811116457,0.006150807254016399
0.012147041037678719,0.007023997139185667,-0.005279903300106525,-0.005517112091183662,0.0022484229411929846,0.006200410425662994
0.012049056589603424,0.007467221934348345,-0.005627369042485952,-0.005930669605731964,0.002155655063688755,0.006284013856202364
0.011670390143990517,0.007494769059121609,-0.006097281817346811,-0.00605117017403245,0.002139790216460824,0.005939709488302469
0.011821667663753033,0.006767807994037867,-0.005913211032748222,-0.006361080799251795,0.002310719806700945,0.006207534112036228
0.01174047403037548,0.007017660886049271,-0.005566321313381195,-0.006296094041317701,0.0022672766353935003,0.006096457596868277
0.012314447201788425,0.006857622880488634,-0.005545280408114195,-0.006005020812153816,0.002398354932665825,0.00596411619335413
0.012314447201788425,0.006857622880488634,-0.005545280408114195,-0.006005020812153816,0.002398354932665825,0.00596411619335413
0.011808987706899643,0.006839973386377096,-0.005753810983151197,-0.006729360669851303,0.0021671345457434654,0.005822336301207542
0.012275926768779755,0.006946802604943514,-0.0061626918613910675,-0.007130792830139399,0.0021331298630684614,0.006204461213201284
0.01211936492472887,0.007612602319568396,-0.005847191903740168,-0.006346731446683407,0.0023217820562422276,0.006421615369617939
0.012253252789378166,0.00707367854192853,-0.005634112749248743,-0.005868812557309866,0.002364757703617215,0.006270988378673792
0.012479657307267189,0.007283158600330353,-0.0056210667826235294,-0.006566324271261692,0.002559820655733347,0.006399375386536121
0.012367426417768002,0.007468091323971748,-0.0056615122593939304,-0.007413011975586414,0.0026570186018943787,0.005786350928246975
0.01241172756999731,0.007608727551996708,-0.005869084037840366,-0.007112452294677496,0.00259333080612123,0.005670740269124508
0.0121617978438735,0.007536621298640966,-0.006018142215907574,-0.0062392354011535645,0.00268130493350327,0.005214914213865995
0.012847652658820152,0.00753483222797513,-0.005483236163854599,-0.00600301381200552,0.002579711377620697,0.005773662123829126
0.012974872253835201,0.007544785272330046,-0.005642612464725971,-0.006514931097626686,0.0023570596240460873,0.00630645826458931
0.013073672540485859,0.007729015778750181,-0.005989454220980406,-0.007102238014340401,0.002233372302725911,0.006114700809121132
0.01278881635516882,0.007500751875340939,-0.006034976337105036,-0.00687605794519186,0.002131799701601267,0.00622761994600296
0.013541442342102528,0.007587558124214411,-0.006200894713401794,-0.0062393127009272575,0.002238454297184944,0.00574716879054904
0.012814975343644619,0.0077985855750739574,-0.006104171741753817,-0.0065142023377120495,0.0024199816398322582,0.005975597072392702
0.013038507662713528,0.007546692620962858,-0.0058260224759578705,-0.007054011337459087,0.0025064810179173946,0.006302785128355026
0.012713467702269554,0.007616787683218718,-0.0061383419670164585,-0.006743434816598892,0.002630729228258133,0.006216089241206646
0.013203690759837627,0.007534011732786894,-0.006166847422719002,-0.00664449343457818,0.0026224914472550154,0.0061571490950882435
0.012862826697528362,0.0077287801541388035,-0.005917584989219904,-0.006794413551688194,0.0029469348955899477,0.0059748804196715355
0.013503270223736763,0.007891576737165451,-0.005750404205173254,-0.007225451059639454,0.002701143268495798,0.006211480125784874
0.013486560434103012,0.007486381568014622,-0.006192401982843876,-0.007039490155875683,0.0025495397858321667,0.006431597284972668
0.013486560434103012,0.007486381568014622,-0.006192401982843876,-0.007039490155875683,0.0025495397858321667,0.006431597284972668
0.01445111632347107,0.007454812992364168,-0.006926893722265959,-0.0072036669589579105,0.0024443608708679676,0.006446765270084143
0.014031700789928436,0.00866297073662281,-0.006337753497064114,-0.007611504755914211,0.002402814105153084,0.006316588260233402
0.014278381131589413,0.007961723022162914,-0.005712135694921017,-0.007135497406125069,0.0023244686890393496,0.006557739805430174
0.0142859211191535,0.007700946182012558,-0.005557097028940916,-0.007287635467946529,0.002452637068927288,0.006787315476685762
0.015036027878522873,0.007800898980349302,-0.006124140229076147,-0.006722943391650915,0.002229503821581602,0.0065985447727143764
0.014665135182440281,0.008363581262528896,-0.006661850493401289,-0.006861216388642788,0.0022845095954835415,0.006553580053150654
0.014897162094712257,0.007712955586612225,-0.006368034053593874,-0.0071012647822499275,0.002353481249883771,0.006608928553760052
0.014732680283486843,0.008181747049093246,-0.005996192805469036,-0.007153935730457306,0.0023826395627111197,0.0066755302250385284
0.015377657487988472,0.00850454531610012,-0.00561685673892498,-0.006667983252555132,0.002898270497098565,0.006376238539814949
0.01444855984300375,0.007738921791315079,-0.005847776774317026,-0.006579448468983173,0.003541621845215559,0.006514421198517084
0.014980634674429893,0.0076426975429058075,-0.006589216645807028,-0.007052927743643522,0.003686814336106181,0.006846596486866474
0.014779492281377316,0.007574752904474735,-0.006496974732726812,-0.007916832342743874,0.0035477534402161837,0.006891654338687658
0.015224747359752655,0.008116059005260468,-0.006047955714166164,-0.00738697312772274,0.003230682108551264,0.007118212059140205
0.015218296088278294,0.007561658974736929,-0.0057051777839660645,-0.0071456171572208405,0.0030396899674087763,0.006630537565797567
0.014107227325439453,0.007380010560154915,-0.00576489744707942,-0.007369960658252239,0.0027693421579897404,0.006625821813941002
0.015261003747582436,0.008162127807736397,-0.006407734006643295,-0.00745378015562892,0.0027392541524022818,0.006906647700816393
0.01566947065293789,0.008313742466270924,-0.00658743642270565,-0.007374116685241461,0.0026207861956208944,0.006567331030964851
0.01531199924647808,0.007777884602546692,-0.005746626760810614,-0.007937012240290642,0.0025885358918458223,0.006926039699465036
0.015271894633769989,0.00742590706795454,-0.005899817682802677,-0.007772490382194519,0.002752998610958457,0.006748099811375141
0.015065205283463001,0.008518746122717857,-0.0065861414186656475,-0.007167973089963198,0.00243553938344121,0.006649471819400787
0.015501023270189762,0.007889927364885807,-0.0061976248398423195,-0.007516908925026655,0.0024289663415402174,0.006766324397176504
0.015393750742077827,0.008222846314311028,-0.005581112578511238,-0.007745949551463127,0.002609918126836419,0.006836265791207552
0.015393750742077827,0.008222846314311028,-0.005581112578511238,-0.007745949551463127,0.002609918126836419,0.006836265791207552
0.01558847725391388,0.008704550564289093,-0.005740190390497446,-0.007743579335510731,0.0029769951943308115,0.007304556202143431
0.015232925303280354,0.007855639792978764,-0.006111449096351862,-0.007000671699643135,0.002882997505366802,0.00752588827162981
0.015890222042798996,0.007566976826637983,-0.006382209714502096,-0.007112566847354174,0.0028217157814651728,0.006787393242120743
0.015636520460247993,0.007840859703719616,-0.0059564439579844475,-0.007689358200877905,0.002619151957333088,0.006108440458774567
0.015927987173199654,0.008535592816770077,-0.00594294210895896,-0.007947828620672226,0.002449107589200139,0.006862007547169924
0.016002479940652847,0.008335930295288563,-0.005939592607319355,-0.007400346454232931,0.0024710847064852715,0.007506845984607935
0.0156303308904171,0.007953435182571411,-0.0064918650314211845,-0.007556753698736429,0.0026183875743299723,0.00717784371227026
0.015884630382061005,0.00826203916221857,-0.006846081931143999,-0.00777570903301239,0.0026774234138429165,0.0069155399687588215
0.01597549207508564,0.008454346098005772,-0.006374295800924301,-0.0082378089427948,0.0030746746342629194,0.007132178638130426
0.01623372547328472,0.008383149281144142,-0.006160962861031294,-0.007693995255976915,0.0032881025690585375,0.007356902118772268
0.016007332131266594,0.008259376510977745,-0.006358925718814135,-0.00801729317754507,0.0034369484055787325,0.007746560964733362
0.016431350260972977,0.008596133440732956,-0.006964093539863825,-0.008444931358098984,0.0032714256085455418,0.007668400648981333
0.016023537144064903,0.008806946687400341,-0.006926246918737888,-0.00809029582887888,0.0027836032677441835,0.007451973389834166
0.01630553789436817,0.008030620403587818,-0.006205386482179165,-0.007944213226437569,0.0027900119312107563,0.007265183143317699
0.01604212075471878,0.008470608852803707,-0.005994679871946573,-0.008037107065320015,0.00303376535885036,0.007502233609557152
0.016211360692977905,0.009371533989906311,-0.0065544829703867435,-0.008106941357254982,0.003418103326112032,0.007654233369976282
0.01671232283115387,0.008355335332453251,-0.0073006609454751015,-0.007395285181701183,0.0034986217506229877,0.007868947461247444
0.01657635159790516,0.008381879888474941,-0.006834662985056639,-0.008468234911561012,0.003424549475312233,0.007567714899778366
0.016885582357645035,0.009360493160784245,-0.006230334285646677,-0.009294005110859871,0.0033938123378902674,0.007478809449821711
0.01700582168996334,0.008472028188407421,-0.00696555245667696,-0.00780005007982254,0.003046997357159853,0.007703600451350212
0.01691783219575882,0.009215312078595161,-0.006845484487712383,-0.007873889058828354,0.003058292670175433,0.007984871044754982
0.016621345654129982,0.008836452849209309,-0.006270238198339939,-0.008344215340912342,0.003380883950740099,0.007851643487811089
0.016841575503349304,0.008581920526921749,-0.006294308230280876,-0.007948830723762512,0.0032948858570307493,0.0077970982529222965
0.016462024301290512,0.008862834423780441,-0.006747711915522814,-0.008093095384538174,0.0031196298077702522,0.007884304039180279
0.016462024301290512,0.008862834423780441,-0.006747711915522814,-0.008093095384538174,0.0031196298077702522,0.007884304039180279
0.01698140799999237,0.009046301245689392,-0.0067682648077607155,-0.008485124446451664,0.002986552659422159,0.0077030896209180355
0.017228420823812485,0.008417249657213688,-0.0065079047344625,-0.008873977698385715,0.003140569431707263,0.008021284826099873
0.01727459393441677,0.008394249714910984,-0.006534198764711618,-0.008827433921396732,0.0032527523580938578,0.008358510211110115
0.01710692048072815,0.009094429202377796,-0.006573720835149288,-0.008679991587996483,0.0034440236631780863,0.007636480964720249
0.016772909089922905,0.009038985706865788,-0.007056055124849081,-0.00863688625395298,0.003255598247051239,0.00794344861060381
0.017408568412065506,0.008967498317360878,-0.0074847061187028885,-0.008620748296380043,0.003063345327973366,0.008375853300094604
0.017268255352973938,0.009437582455575466,-0.007754076272249222,-0.008805520832538605,0.0027757463976740837,0.00843360647559166
0.017162401229143143,0.009708954952657223,-0.00716183939948678,-0.009369011968374252,0.002867296105250716,0.00819789245724678
0.017399927601218224,0.008512735366821289,-0.007252023555338383,-0.008622857742011547,0.002987104468047619,0.0081772580742836
0.017512314021587372,0.009121892042458057,-0.0071398476138710976,-0.008024369366466999,0.0029613394290208817,0.008361210115253925
0.01801574043929577,0.009488550946116447,-0.007378199137747288,-0.00861275102943182,0.0032857160549610853,0.00827704556286335
0.017611104995012283,0.009199043735861778,-0.007429502904415131,-0.008807681500911713,0.0036649354733526707,0.008309093303978443
0.01779439114034176,0.009236713871359825,-0.007492050062865019,-0.008662811480462551,0.003518925979733467,0.008428605273365974
0.01741238869726658,0.00956250261515379,-0.007421522866934538,-0.008477297611534595,0.003320174291729927,0.008382019586861134
0.017187954857945442,0.009040498174726963,-0.007431078236550093,-0.008862977847456932,0.0031369405332952738,0.008236532099545002
0.018087299540638924,0.008973953314125538,-0.007421511225402355,-0.009046187624335289,0.0030387835577130318,0.00833551213145256
0.018083732575178146,0.009810655377805233,-0.007543151266872883,-0.009125931188464165,0.0033818052615970373,0.008542091585695744
0.017995310947299004,0.009526084177196026,-0.00771279726177454,-0.009688980877399445,0.0032960365060716867,0.008720611222088337
0.01810547336935997,0.0093058617785573,-0.007298659533262253,-0.009408071637153625,0.003480268642306328,0.00855880044400692
0.01826033554971218,0.009668580256402493,-0.00724692502990365,-0.009198173880577087,0.0031344308517873287,0.008713209070265293
0.01896400935947895,0.009563716128468513,-0.007544259075075388,-0.009179745800793171,0.00335648562759161,0.008990050293505192
0.01872975006699562,0.009742476046085358,-0.0074231731705367565,-0.008981977589428425,0.0033090957440435886,0.008152424357831478
0.018924055621027946,0.01005676668137312,-0.0074053178541362286,-0.009103995747864246,0.0031095684971660376,0.00844609271734953
0.01888774335384369,0.009552041999995708,-0.007814203388988972,-0.008863840252161026,0.0028779117856174707,0.008475436829030514
0.018417106941342354,0.009588108398020267,-0.007671975996345282,-0.008490798063576221,0.003071310231462121,0.008610251359641552
0.018417106941342354,0.009588108398020267,-0.007671975996345282,-0.008490798063576221,0.003071310231462121,0.008610251359641552
0.018723661080002785,0.009208742529153824,-0.007410301826894283,-0.008932909928262234,0.003270536893978715,0.008420523256063461
0.019030313938856125,0.009318198077380657,-0.007022120989859104,-0.009306451305747032,0.003561384277418256,0.00848847534507513
0.01902475766837597,0.010029569268226624,-0.007522761821746826,-0.008953227661550045,0.003689470933750272,0.00822423491626978
0.019557155668735504,0.009565118700265884,-0.007023424841463566,-0.008984352461993694,0.0038905125111341476,0.007953132502734661
0.019267834722995758,0.009309531189501286,-0.007012433372437954,-0.009252098388969898,0.003918381407856941,0.008335165679454803
0.0190238319337368,0.009754782542586327,-0.007291513029485941,-0.009195082820951939,0.0035743853077292442,0.008633644320070744
0.01940297894179821,0.009642869234085083,-0.007642918266355991,-0.009059710428118706,0.002917325822636485,0.008610982447862625
0.019660109654068947,0.009858900681138039,-0.007304144557565451,-0.008953038603067398,0.0026486788410693407,0.00870165042579174
0.01984577067196369,0.010407321155071259,-0.007298602722585201,-0.009316039271652699,0.0027640184853225946,0.008954780176281929
0.02006305567920208,0.010717093013226986,-0.007283580955117941,-0.009320840239524841,0.0031668164301663637,0.008942070417106152
0.02015627734363079,0.010245765559375286,-0.007694372907280922,-0.009598924778401852,0.0036227821838110685,0.009353394620120525
0.020023895427584648,0.010600283741950989,-0.007423406932502985,-0.009392431937158108,0.004067045170813799,0.009450926445424557
0.019965002313256264,0.00990106351673603,-0.007302045822143555,-0.008829956874251366,0.003954565152525902,0.009237471036612988
0.02048279531300068,0.010092301294207573,-0.007343648467212915,-0.009373410604894161,0.0035661666188389063,0.009027699008584023
0.020510824397206306,0.010666129179298878,-0.008139937184751034,-0.010028520599007607,0.003585753496736288,0.009763257578015327
0.020179565995931625,0.00988470483571291,-0.007719705812633038,-0.009345881640911102,0.003870690707117319,0.009225968271493912
0.020670145750045776,0.01070810854434967,-0.007335312198847532,-0.009771626442670822,0.0034740432165563107,0.009454009123146534
0.020748913288116455,0.010236326605081558,-0.007282014936208725,-0.010315344668924809,0.0035411627031862736,0.00957027729600668
0.020690856501460075,0.010090164840221405,-0.007845906540751457,-0.009897387586534023,0.0037198709324002266,0.009460670873522758
0.020786168053746223,0.010543830692768097,-0.00797180738300085,-0.01033974252641201,0.003869719337671995,0.00939988810569048
0.021206388249993324,0.010528144426643848,-0.008187067694962025,-0.010430066846311092,0.0034996948670595884,0.010120655409991741
0.021076662465929985,0.010966799221932888,-0.007903783582150936,-0.010699034668505192,0.004091637674719095,0.009718921035528183
0.021031158044934273,0.010530904866755009,-0.007950232364237309,-0.010258547030389309,0.003555376548320055,0.00972280278801918
0.021289357915520668,0.010414490476250648,-0.007639914285391569,-0.010194552130997181,0.0036270541604608297,0.009837344288825989
0.021057402715086937,0.010473380796611309,-0.007741608191281557,-0.010772757232189178,0.003448601346462965,0.01036101020872593
0.021131575107574463,0.010140357539057732,-0.008728181011974812,-0.010144021362066269,0.003358151065185666,0.010186457075178623
0.02134845219552517,0.010503244586288929,-0.007961457595229149,-0.010061731562018394,0.0034297232050448656,0.009627319872379303
0.021491939201951027,0.010742006823420525,-0.007792362943291664,-0.010097826831042767,0.0036502487491816282,0.009870561771094799
0.021491939201951027,0.010742006823420525,-0.007792362943291664,-0.010097826831042767,0.0036502487491816282,0.009870561771094799
0.02172578126192093,0.010339224711060524,-0.008260880596935749,-0.009728786535561085,0.0038031116127967834,0.010134872049093246
0.021297454833984375,0.0101979561150074,-0.008458872325718403,-0.0105680450797081,0.003832680406048894,0.01005290262401104
0.02150377817451954,0.010924166068434715,-0.008501115255057812,-0.01059323363006115,0.004364091902971268,0.009747222065925598
0.02201772853732109,0.010256854817271233,-0.008166189305484295,-0.00991203635931015,0.0041987095028162,0.010404919274151325
0.022630222141742706,0.010406176559627056,-0.00872326921671629,-0.00986237358301878,0.003849196946248412,0.00991153996437788
0.0217883437871933,0.010382084175944328,-0.00843709334731102,-0.010556796565651894,0.003285223850980401,0.009906605817377567
0.02215460315346718,0.010013093240559101,-0.008426270447671413,-0.009922870434820652,0.0033101439476013184,0.010686786845326424
0.022007985040545464,0.01078333705663681,-0.008844426833093166,-0.009908071719110012,0.0034610747825354338,0.010385209694504738
0.021513620391488075,0.010714272037148476,-0.00882122851908207,-0.010402016341686249,0.0035607407335191965,0.010428039357066154
0.02315552905201912,0.009953961707651615,-0.008436674252152443,-0.010114150121808052,0.003996312618255615,0.010739711113274097
0.022829189896583557,0.010783353820443153,-0.008715018630027771,-0.010110700502991676,0.0045689926482737064,0.010907766409218311
0.022185644134879112,0.010240837000310421,-0.008894349448382854,-0.010256035253405571,0.004168648738414049,0.010516730137169361
0.02276327833533287,0.010455450043082237,-0.008410878479480743,-0.010226860642433167,0.0037877894937992096,0.010633268393576145
0.022381873801350594,0.01054968312382698,-0.00821919459849596,-0.011041938327252865,0.0036928122863173485,0.01071738451719284
0.022839687764644623,0.010198567062616348,-0.008859791792929173,-0.01056746207177639,0.0032934003975242376,0.010648425668478012
0.02286127582192421,0.010775950737297535,-0.00847987923771143,-0.010232814587652683,0.003367045195773244,0.010609360411763191
0.023225313052535057,0.01106060016900301,-0.008390222676098347,-0.010806100443005562,0.0036525961477309465,0.010542797856032848
0.022455191239714622,0.010207414627075195,-0.008774656802415848,-0.01033634040504694,0.003877409501001239,0.010343559086322784
0.022468307986855507,0.01017464604228735,-0.00911697093397379,-0.010306980460882187,0.004251809790730476,0.010461907833814621
0.022953836247324944,0.010365881957113743,-0.00980658270418644,-0.010611004196107388,0.004098685923963785,0.010941416956484318
0.02335314266383648,0.009876562282443047,-0.00928990077227354,-0.010376897640526295,0.0039795576594769955,0.010653717443346977
0.023314880207180977,0.011040987446904182,-0.009229163639247417,-0.011203608475625515,0.0033693863078951836,0.011056246235966682
0.02318190038204193,0.010310386307537556,-0.009471260011196136,-0.010511096566915512,0.0034702785778790712,0.011738897301256657
0.023091251030564308,0.010888272896409035,-0.009158403612673283,-0.010961259715259075,0.0036474931985139847,0.010596384294331074
0.02357466332614422,0.010744850151240826,-0.008685296401381493,-0.011629173532128334,0.0038012731820344925,0.010648484341800213
0.02377503179013729,0.010929259471595287,-0.008685678243637085,-0.011566615663468838,0.0038991919718682766,0.010698724538087845
0.02377503179013729,0.010929259471595287,-0.008685678243637085,-0.011566615663468838,0.0038991919718682766,0.010698724538087845
0.023593425750732422,0.010961917228996754,-0.010250359773635864,-0.01164571475237608,0.003841184079647064,0.010262168012559414
0.02374894730746746,0.010579352267086506,-0.009185504168272018,-0.011112376116216183,0.0042702616192400455,0.010697904974222183
0.023940593004226685,0.010586703196167946,-0.008755710907280445,-0.011436381377279758,0.004660428036004305,0.010498526506125927
0.023666074499487877,0.010532117448747158,-0.009183956310153008,-0.011152982711791992,0.004251806531101465,0.010261770337820053
0.024113373830914497,0.010364130139350891,-0.00920741818845272,-0.011585693806409836,0.004019380081444979,0.010680931620299816
0.02435913123190403,0.010650991462171078,-0.008888129144906998,-0.011471240781247616,0.003980997484177351,0.010939275845885277
0.024212688207626343,0.010470387525856495,-0.010082942433655262,-0.011657031252980232,0.004291715566068888,0.011096269823610783
0.023934759199619293,0.010709617286920547,-0.009813397191464901,-0.011514751240611076,0.0045230998657643795,0.010424111038446426
0.024073241278529167,0.01057810615748167,-0.00939539261162281,-0.011393148452043533,0.004835623782128096,0.010530829429626465
0.02386598289012909,0.01087193749845028,-0.00891507975757122,-0.011247118934988976,0.003950225654989481,0.010573121719062328
0.024020656943321228,0.011634895578026772,-0.00946829468011856,-0.011768907308578491,0.0034935162402689457,0.010671637952327728
0.0243214163929224,0.011529965326189995,-0.009484950453042984,-0.011576470918953419,0.003470038529485464,0.010643109679222107
0.024719806388020515,0.010596712119877338,-0.009208854287862778,-0.0113977687433362,0.004135183058679104,0.010982835665345192
0.02431853860616684,0.01109718345105648,-0.010149714536964893,-0.010556703433394432,0.004884624853730202,0.010631821118295193
0.024428971111774445,0.010752999223768711,-0.009585452266037464,-0.011517304927110672,0.005011952016502619,0.01026840414851904
0.02455323003232479,0.010755140334367752,-0.009558243677020073,-0.012777836062014103,0.004735483787953854,0.010688151232898235
0.024434469640254974,0.011639405973255634,-0.010338100604712963,-0.011982159689068794,0.004396385513246059,0.010808870196342468
0.0244656503200531,0.011264041066169739,-0.009530572220683098,-0.012109501287341118,0.004366111010313034,0.01107094157487154
0.024843545630574226,0.01126609742641449,-0.009390443563461304,-0.012192645110189915,0.004328994546085596,0.010808184742927551
0.02497035823762417,0.011012288741767406,-0.010280530899763107,-0.012271329760551453,0.004297027830034494,0.01093960553407669
0.024696869775652885,0.01103278435766697,-0.009344689548015594,-0.012188373133540154,0.004549732897430658,0.010715615935623646
0.0245225727558136,0.01088507566601038,-0.010781142860651016,-0.012418003752827644,0.004552081227302551,0.010939400643110275
0.025347379967570305,0.011009619571268559,-0.010043182410299778,-0.012246021069586277,0.00466401781886816,0.011135767214000225
0.02527233399450779,0.010966392233967781,-0.0096080731600523,-0.012294379062950611,0.004427256528288126,0.010913764126598835
0.02527233399450779,0.010966392233967781,-0.0096080731600523,-0.012294379062950611,0.004427256528288126,0.010913764126598835
0.02525070682168007,0.010882186703383923,-0.010081486776471138,-0.012187579646706581,0.004027078859508038,0.01083624642342329
0.02589142508804798,0.011389115825295448,-0.009716789238154888,-0.012617918662726879,0.0038208740297704935,0.011103089898824692
0.024870721623301506,0.011050960049033165,-0.009554107673466206,-0.012931718491017818,0.003783788997679949,0.01098686084151268
0.02476375922560692,0.010815859772264957,-0.010079864412546158,-0.012718698009848595,0.0042466758750379086,0.011353317648172379
0.024861926212906837,0.011451426893472672,-0.0099706519395113,-0.012967647053301334,0.00428214855492115,0.011625830084085464
0.025689054280519485,0.011342979036271572,-0.009603901766240597,-0.012343634851276875,0.0045393179170787334,0.011508243158459663
0.02490254119038582,0.011361266486346722,-0.009934790432453156,-0.012766101397573948,0.004452988039702177,0.011863925494253635
0.025540243834257126,0.01148699875921011,-0.009584222920238972,-0.012531540356576443,0.004073588643223047,0.012081438675522804
0.026409178972244263,0.011298456229269505,-0.00939344335347414,-0.01270933449268341,0.0035394506994634867,0.012032564729452133
0.025801878422498703,0.01178153045475483,-0.010009431280195713,-0.013150781393051147,0.0034848933573812246,0.011612328700721264
0.02628549560904503,0.013989399187266827,-0.010521871037781239,-0.013195882551372051,0.00421414989978075,0.011852195486426353
0.026108408346772194,0.012770206667482853,-0.009458743967115879,-0.013684571720659733,0.004585226532071829,0.01184120774269104
0.025979137048125267,0.012714995071291924,-0.010121036320924759,-0.01327739842236042,0.004649279173463583,0.011794274672865868
0.026086265221238136,0.012941577471792698,-0.010208831168711185,-0.013755626045167446,0.004538570065051317,0.01202336885035038
0.02655916102230549,0.013155153021216393,-0.009748568758368492,-0.013363106176257133,0.004619728308171034,0.011887396685779095
0.026219582185149193,0.01280691847205162,-0.009651938453316689,-0.013748605735599995,0.004315939731895924,0.01186665240675211
0.02594723179936409,0.013155261054635048,-0.010235220193862915,-0.01330546848475933,0.0040338169783353806,0.01130269281566143
0.026424294337630272,0.012724978849291801,-0.010052695870399475,-0.013440373353660107,0.00443862471729517,0.011842796579003334
0.026405343785881996,0.013488739728927612,-0.00984913483262062,-0.013386228121817112,0.004637871403247118,0.011713950894773006
0.02632908709347248,0.012965296395123005,-0.009950553067028522,-0.013193462044000626,0.0047482652589678764,0.01148054376244545
0.026497045531868935,0.013597731478512287,-0.009864313527941704,-0.012963811866939068,0.005099071189761162,0.011716464534401894
0.026393204927444458,0.013297956436872482,-0.009634670801460743,-0.012928299605846405,0.004675946664065123,0.011980289593338966
0.026415294036269188,0.013392209075391293,-0.00981814879924059,-0.013166370801627636,0.004300282336771488,0.012180055491626263
0.026452064514160156,0.01302368100732565,-0.009779932908713818,-0.01311012078076601,0.004728424828499556,0.01237521506845951
0.026134764775633812,0.012912142090499401,-0.009468285366892815,-0.012795613147318363,0.0045423503033816814,0.012495317496359348
0.02636389620602131,0.012670016847550869,-0.010957767255604267,-0.012981172651052475,0.0045205396600067616,0.0122896209359169
0.02615751139819622,0.013085511513054371,-0.009928942658007145,-0.012774287723004818,0.004275403916835785,0.012397756800055504
0.02615751139819622,0.013085511513054371,-0.009928942658007145,-0.012774287723004818,0.004275403916835785,0.012397756800055504
0.02660079300403595,0.012896048836410046,-0.00929291918873787,-0.013195673935115337,0.004058425314724445,0.01223690900951624
0.027095986530184746,0.0132729047909379,-0.009623358957469463,-0.013085797429084778,0.004262874834239483,0.012256433255970478
0.027008788660168648,0.013079501688480377,-0.010090133175253868,-0.01349190715700388,0.004428578540682793,0.011836952529847622
0.026917830109596252,0.013818965293467045,-0.00961386039853096,-0.013593895360827446,0.00461517833173275,0.012939765118062496
0.027096422389149666,0.013477633707225323,-0.010821061208844185,-0.01358379703015089,0.004491735715419054,0.01319677010178566
0.02684660442173481,0.013578243553638458,-0.010221842676401138,-0.013711987994611263,0.0043997010216116905,0.012374881654977798
0.027652183547616005,0.012997843325138092,-0.00966634601354599,-0.013726328499615192,0.004419227596372366,0.012656879611313343
0.0283267330378294,0.012973008677363396,-0.010068819858133793,-0.013766473159193993,0.004871961660683155,0.01233881525695324
0.02861942909657955,0.013031624257564545,-0.009661996737122536,-0.013814144767820835,0.004770658910274506,0.012442067265510559
0.027808675542473793,0.013312332332134247,-0.009453391656279564,-0.0139312157407403,0.004840980749577284,0.012680661864578724
0.027437763288617134,0.013567762449383736,-0.01019569206982851,-0.01365361362695694,0.004344819579273462,0.012480792589485645
0.027924906462430954,0.012916499748826027,-0.010825670324265957,-0.014233126305043697,0.004355657380074263,0.012644369155168533
0.028227778151631355,0.01284863892942667,-0.009454725310206413,-0.014068419113755226,0.004622490145266056,0.012604727409780025
0.028149355202913284,0.012548566795885563,-0.00993376038968563,-0.01440935954451561,0.004690519999712706,0.012591431848704815
0.02869904786348343,0.013323243707418442,-0.010277368128299713,-0.014099541120231152,0.0046523138880729675,0.012470228597521782
0.029007725417613983,0.012895659543573856,-0.009367932565510273,-0.014368581585586071,0.00442254776135087,0.012711293995380402
0.029036855325102806,0.013061528094112873,-0.009543029591441154,-0.01393485814332962,0.004314106423407793,0.012625986710190773
0.028188783675432205,0.013196377083659172,-0.010575412772595882,-0.01449872087687254,0.0040768347680568695,0.012969945557415485
0.028407800942659378,0.012924653477966785,-0.009822801686823368,-0.014316648244857788,0.004675996955484152,0.013034388422966003
0.02896910533308983,0.012710769660770893,-0.009966650977730751,-0.014513298869132996,0.004796807654201984,0.01293171476572752
0.02935224398970604,0.012715417891740799,-0.00990062952041626,-0.014046946540474892,0.0048363590613007545,0.012999719008803368
0.02892756648361683,0.013531205244362354,-0.00936171319335699,-0.014296106994152069,0.004979718942195177,0.012872016057372093
0.0291072316467762,0.012904251925647259,-0.009935581125319004,-0.01399340108036995,0.004680782090872526,0.013163474388420582
0.02908443473279476,0.013479931280016899,-0.010231041349470615,-0.01459350436925888,0.0043066516518592834,0.013150403276085854
0.029382023960351944,0.013382081873714924,-0.009868677705526352,-0.014378972351551056,0.004538460168987513,0.012995553202927113
0.02919171191751957,0.013233586214482784,-0.00984420720487833,-0.014261653646826744,0.004742500372231007,0.013334384188055992
0.030247896909713745,0.013561426661908627,-0.009331734851002693,-0.014698934741318226,0.004822492133826017,0.013120889663696289
0.030031096190214157,0.013247614726424217,-0.009441136382520199,-0.01399550586938858,0.004694156814366579,0.013336324132978916
0.030049560591578484,0.013350226916372776,-0.0093849403783679,-0.01443563960492611,0.004526559263467789,0.013210988603532314
0.030074402689933777,0.013498577289283276,-0.009594677947461605,-0.014734095893800259,0.0045495121739804745,0.012771476991474628
0.030074402689933777,0.013498577289283276,-0.009594677947461605,-0.014734095893800259,0.0045495121739804745,0.012771476991474628
0.0299899410456419,0.013242810033261776,-0.01021527498960495,-0.014980761334300041,0.004669378511607647,0.013397524133324623
0.030010612681508064,0.013259729370474815,-0.010104532353579998,-0.014569273218512535,0.004889275878667831,0.013335761614143848
0.030698105692863464,0.012736677192151546,-0.00923894252628088,-0.015015066601336002,0.0044857654720544815,0.013793319463729858
0.030286794528365135,0.013461544178426266,-0.00964816752821207,-0.014292570762336254,0.004512206185609102,0.013722974807024002
0.029819203540682793,0.013093194924294949,-0.010053837671875954,-0.014725537970662117,0.0048408727161586285,0.013752629980444908
0.030108405277132988,0.013567646965384483,-0.009547261521220207,-0.014426084235310555,0.004803153686225414,0.013710265047848225
0.02989201433956623,0.013336293399333954,-0.00977701973170042,-0.014477730728685856,0.004523479845374823,0.014047264121472836
0.03025217354297638,0.013970384374260902,-0.010140415281057358,-0.013948066160082817,0.004637668374925852,0.013587224297225475
0.030534442514181137,0.013609690591692924,-0.00962715782225132,-0.01456430647522211,0.004509842023253441,0.013499961234629154
0.0304914228618145,0.01391303539276123,-0.01053470466285944,-0.014349453151226044,0.004526766948401928,0.013404355384409428
0.03058183752000332,0.014046796597540379,-0.010185152292251587,-0.015238056890666485,0.004559781402349472,0.013642717152833939
0.03102985769510269,0.01424731221050024,-0.009685228578746319,-0.014919597655534744,0.0046295179054141045,0.014066673815250397
0.03161465749144554,0.014106927439570427,-0.010154428891837597,-0.014481095597147942,0.00475982204079628,0.014035257510840893
0.0316210500895977,0.014328538440167904,-0.01027006097137928,-0.014106367714703083,0.005021943710744381,0.013967004604637623
0.03141792491078377,0.01402201782912016,-0.009480645880103111,-0.014774613082408905,0.004689207300543785,0.013922110199928284
0.03184196352958679,0.01494776364415884,-0.010100136511027813,-0.014869633130729198,0.0051314253360033035,0.013865978457033634
0.03287453204393387,0.01448954176157713,-0.010239853523671627,-0.015373208560049534,0.005446919240057468,0.013334151357412338
0.03267224133014679,0.01475411094725132,-0.010468032211065292,-0.015130110085010529,0.005138800945132971,0.013128724880516529
0.029234465211629868,0.014455098658800125,-0.011321227997541428,-0.014988510869443417,0.005217326804995537,0.014508849009871483
0.03231421858072281,0.01476442813873291,-0.011540237814188004,-0.014497744850814342,0.005099077243357897,0.014764653518795967
0.033163510262966156,0.014649100601673126,-0.012014646083116531,-0.014977721497416496,0.004915923811495304,0.014354854822158813
0.03257177770137787,0.015051509253680706,-0.012117530219256878,-0.01427622139453888,0.005502550862729549,0.014128434471786022
0.033581044524908066,0.014797668904066086,-0.01124187745153904,-0.014040696434676647,0.005502116400748491,0.013825079426169395
0.033978793770074844,0.014981985092163086,-0.012134493328630924,-0.014564434997737408,0.005348321050405502,0.01409077923744917
0.03299146518111229,0.014529910869896412,-0.012076974846422672,-0.015323547646403313,0.005158944986760616,0.013768680393695831
0.03314049914479256,0.014876638539135456,-0.012323879636824131,-0.015198093838989735,0.004866970703005791,0.013382659293711185
0.033627673983573914,0.015213166363537312,-0.011975969187915325,-0.015601110644638538,0.005412011407315731,0.013907144777476788
0.033753734081983566,0.01478337962180376,-0.012200714088976383,-0.015642255544662476,0.005589948035776615,0.014336621388792992
0.033397749066352844,0.015114441514015198,-0.011832497082650661,-0.015906617045402527,0.005175272934138775,0.014824864454567432
0.03328908234834671,0.014869483187794685,-0.012422850355505943,-0.015603557229042053,0.005159683525562286,0.014685356989502907
0.03328908234834671,0.014869483187794685,-0.012422850355505943,-0.015603557229042053,0.005159683525562286,0.014685356989502907
0.03341726213693619,0.015162904746830463,-0.012478511780500412,-0.015998084098100662,0.005537887569516897,0.014313445426523685
0.033612605184316635,0.01499968208372593,-0.013551970943808556,-0.015439730137586594,0.00531702721491456,0.014100706204771996
0.03350787237286568,0.015374145470559597,-0.011633665300905704,-0.015574655495584011,0.005367483012378216,0.01468603778630495
0.0338309220969677,0.015114396810531616,-0.011774113401770592,-0.014477191492915154,0.005491181276738644,0.014635381288826466
0.03399574011564255,0.015052583068609238,-0.012834558263421059,-0.016581375151872635,0.00502751674503088,0.015134567394852638
0.03400599956512451,0.01524991076439619,-0.012324362993240356,-0.016490435227751732,0.005229228641837835,0.014791866764426231
0.03344428539276123,0.01518440805375576,-0.012369856238365173,-0.015512673184275627,0.005245427135378122,0.014497329480946064
0.033819522708654404,0.015202872455120087,-0.012369894422590733,-0.01546497829258442,0.005219681654125452,0.01447268296033144
0.03418157249689102,0.015378687530755997,-0.012323053553700447,-0.015312973409891129,0.00557284289970994,0.014997628517448902
0.03353520482778549,0.015838369727134705,-0.012716990895569324,-0.015678033232688904,0.005246593151241541,0.0149118946865201
0.03489610552787781,0.01554123405367136,-0.012018031440675259,-0.015426150523126125,0.005384065210819244,0.014616448432207108
0.03566631302237511,0.01604812778532505,-0.012607160955667496,-0.0161414947360754,0.005535600706934929,0.014568447135388851
0.034601036459207535,0.01574615016579628,-0.01293511688709259,-0.016286712139844894,0.005553253926336765,0.015114214271306992
0.03388497978448868,0.016206033527851105,-0.012478573247790337,-0.01697648875415325,0.0053841182962059975,0.015323293395340443
0.03517260029911995,0.015233069658279419,-0.01220290269702673,-0.016522370278835297,0.005801739636808634,0.015330260619521141
0.0352710485458374,0.015607529319822788,-0.01195039413869381,-0.015486068092286587,0.0053690518252551556,0.015189549885690212
0.035169970244169235,0.015898531302809715,-0.012307863682508469,-0.015323174186050892,0.005449272692203522,0.015127499587833881
0.035498544573783875,0.016115589067339897,-0.012047798372805119,-0.014791656285524368,0.005833000876009464,0.015152820385992527
0.036010321229696274,0.016297252848744392,-0.012237186543643475,-0.015792613849043846,0.005986058618873358,0.015036290511488914
0.034693874418735504,0.016550922766327858,-0.011615991592407227,-0.015501330606639385,0.0053949421271681786,0.01483622845262289
0.03431243076920509,0.016451267525553703,-0.012022481299936771,-0.01599474623799324,0.005318992305546999,0.015065675601363182
0.034641802310943604,0.015729136765003204,-0.012296516448259354,-0.016091594472527504,0.005660668481141329,0.015242279507219791
0.03507588058710098,0.01658700406551361,-0.011538281105458736,-0.016207555308938026,0.0055505260825157166,0.014898519963026047
0.035557519644498825,0.016046518459916115,-0.012556090019643307,-0.01594388671219349,0.005575789138674736,0.014501411467790604
0.034209731966257095,0.01668299362063408,-0.012266464531421661,-0.016455335542559624,0.005563733633607626,0.015905842185020447
0.03458305448293686,0.016154590994119644,-0.012201613746583462,-0.01651221327483654,0.005235801916569471,0.01572931930422783
