davideferrari95/blind_handover_controller/data/Test 292 - [2024-02-08 -- 14-00-04]/joint_states_data.csv
shoulder_pan_joint,shoulder_lift_joint,elbow_joint,wrist_1_joint,wrist_2_joint,wrist_3_joint
0.0064158570021390915,0.008564144372940063,-0.01098883617669344,0.0032685163896530867,-2.114060870176946e-35,0.007076452951878309
0.0064158570021390915,0.008564144372940063,-0.01098883617669344,0.0032685163896530867,-2.114060870176946e-35,0.007076452951878309
0.006666476838290691,0.009472968988120556,-0.010665412060916424,0.00314533244818449,-1.3803307345096354e-36,0.007175358012318611
0.006409232504665852,0.00868484191596508,-0.011448529548943043,0.003344812663272023,-9.01257326653115e-38,0.006726142019033432
0.006672452669590712,0.008977236226201057,-0.010631837882101536,0.0032417031470686197,-5.884566528236314e-39,0.0070198904722929
0.006411536131054163,0.008718003518879414,-0.01056871097534895,0.0030785261187702417,-3.842206246347573e-40,0.007329830899834633
0.006530290003865957,0.0089039858430624,-0.012046064250171185,0.0028233074117451906,-2.50874464068072e-41,0.007381673902273178
0.0061835795640945435,0.008245877921581268,-0.010581012815237045,0.0031221939716488123,-1.064986832886861e-43,0.006978626362979412
0.005976390093564987,0.008842537179589272,-0.010918560437858105,0.003141992259770632,-7.006492321624085e-45,0.006969185080379248
0.00594354746863246,0.008594554848968983,-0.01041461806744337,0.0028952567372471094,-0.0,0.0068428232334554195
0.006287788040935993,0.00853264331817627,-0.010890486650168896,0.0027307949494570494,-0.0,0.007175049744546413
0.006684427615255117,0.008063926361501217,-0.010837255045771599,0.0025274755898863077,-0.0,0.007406462449580431
0.006049858406186104,0.008244439959526062,-0.01035295519977808,0.0024349824525415897,-0.0,0.007491849362850189
0.005936758127063513,0.007956310175359249,-0.011040628887712955,0.0025927643291652203,-0.0,0.007520951796323061
0.006142169702798128,0.007638877723366022,-0.010649765841662884,0.0028379957657307386,-0.0,0.007144778035581112
0.0065210177563130856,0.008780309930443764,-0.010363122448325157,0.0029032991733402014,-0.0,0.006886552087962627
0.006454060785472393,0.008070144802331924,-0.011056331917643547,0.0029141814447939396,-0.0,0.006827265955507755
0.006305137649178505,0.007678397931158543,-0.010337768122553825,0.002949910704046488,-0.0,0.007094005588442087
0.006533305160701275,0.00746738538146019,-0.010919961147010326,0.0030876831151545048,-0.0,0.007024756632745266
0.006533305160701275,0.00746738538146019,-0.010919961147010326,0.0030876831151545048,-0.0,0.007024756632745266
0.006611290387809277,0.008329490199685097,-0.010144266299903393,0.0030318940989673138,-0.0,0.0069727771915495396
0.006611290387809277,0.008329490199685097,-0.010144266299903393,0.0030318940989673138,-0.0,0.0069727771915495396
0.0068979146890342236,0.008348570205271244,-0.011030051857233047,0.002807399956509471,-0.0,0.00725128035992384
0.006247467827051878,0.007994948886334896,-0.010825607925653458,0.002788175828754902,-0.0,0.006835784763097763
0.006315852049738169,0.008226793259382248,-0.009803702123463154,0.002669509034603834,-0.0,0.007081782445311546
0.006620560772716999,0.007995959371328354,-0.010400532744824886,0.0029605827294290066,-0.0,0.007429851219058037
0.006390388589352369,0.007551681715995073,-0.010531854815781116,0.0028934357687830925,-0.0,0.007291420828551054
0.006450483109802008,0.009073068387806416,-0.010111350566148758,0.0032437280751764774,-0.0,0.006822498515248299
0.006136431358754635,0.008209696970880032,-0.010522554628551006,0.003380734706297517,-0.0,0.0070109618827700615
0.00641852430999279,0.00792158953845501,-0.010047421790659428,0.0035328564699739218,-0.0,0.008197110146284103
0.006831465754657984,0.00783903431147337,-0.010772301815450191,0.0032831053249537945,-0.0,0.00664942990988493
0.006367997266352177,0.00868416577577591,-0.010541466996073723,0.0032310669776052237,-0.0,0.006196797359734774
0.006339689251035452,0.008636757731437683,-0.009773354046046734,0.003264433005824685,-0.0,0.006822976749390364
0.006223173346370459,0.00797256175428629,-0.010900950990617275,0.003002566285431385,-0.0,0.007456773426383734
0.006043819710612297,0.008182325400412083,-0.010431915521621704,0.003033116227015853,-0.0,0.007538126315921545
0.006611193530261517,0.008432667702436447,-0.010391497053205967,0.0029546350706368685,-0.0,0.0072085065767169
0.006401801481842995,0.00808182917535305,-0.010072826407849789,0.0028771881479769945,-0.0,0.00695577310398221
0.0060042752884328365,0.008614013902842999,-0.00975397601723671,0.002905947156250477,-0.0,0.0074513861909508705
0.006481009069830179,0.007957718335092068,-0.01086356583982706,0.0027467759791761637,-0.0,0.007140866480767727
0.006652372889220715,0.008122176863253117,-0.011032897979021072,0.002471187384799123,-0.0,0.0073846615850925446
0.00655257236212492,0.008268303237855434,-0.011172479949891567,0.002504985546693206,-0.0,0.0070589384995400906
0.006388068664819002,0.00818873941898346,-0.01055541168898344,0.0027155037969350815,-0.0,0.007305030710995197
0.006571028381586075,0.007888583466410637,-0.010386121459305286,0.002744533121585846,-0.0,0.007292634341865778
0.00671977736055851,0.007679627742618322,-0.009866975247859955,0.002599222119897604,-0.0,0.007362728472799063
0.006752190180122852,0.008932193741202354,-0.010151796974241734,0.0025325906462967396,-2.2188671209733002e-05,0.0067599196918308735
0.006752190180122852,0.008932193741202354,-0.010151796974241734,0.0025325906462967396,-2.2188671209733002e-05,0.0067599196918308735
0.006690756417810917,0.008101267740130424,-0.009866180829703808,0.0023464944679290056,-1.4487617363556637e-06,0.006691605783998966
0.00623733177781105,0.00802735984325409,-0.010227455757558346,0.002450771164149046,-9.459378702558752e-08,0.006940951570868492
0.0064549753442406654,0.008091104216873646,-0.010352524928748608,0.0026806832756847143,-6.176298583682183e-09,0.007080413866788149
0.00678776390850544,0.008344188332557678,-0.009834986180067062,0.002835047198459506,-4.0326814110258624e-10,0.007000001147389412
0.00674418592825532,0.008387291803956032,-0.010551334358751774,0.0032376849558204412,-2.6330528035689582e-11,0.0068334005773067474
0.006338352803140879,0.00819386262446642,-0.010160968638956547,0.0030718299094587564,-1.7191953156220352e-12,0.007068721577525139
0.0060562025755643845,0.008501267991960049,-0.009600401856005192,0.003079778980463743,-1.1225117108612861e-13,0.006755467504262924
0.006890073884278536,0.008979186415672302,-0.01021130383014679,0.0029412980657070875,-7.329199909738432e-15,0.006764132063835859
0.006962335202842951,0.008052305318415165,-0.009807572700083256,0.0028659352101385593,-4.785443396224402e-16,0.006714941468089819
0.007232130970805883,0.007709977682679892,-0.009274309501051903,0.0026593601796776056,-3.124552672060649e-17,0.007107507903128862
0.0064997002482414246,0.008558014407753944,-0.009642860852181911,0.002618507482111454,-2.040109872734953e-18,0.006519033573567867
0.0065077017061412334,0.00843736995011568,-0.010328076779842377,0.0023971954360604286,-1.332045905027764e-19,0.006925107911229134
0.006924810353666544,0.007784873712807894,-0.009841730818152428,0.002510003512725234,-8.697308963538548e-21,0.006730830296874046
0.00620849896222353,0.008330222219228745,-0.009856589138507843,0.0030810770113021135,-3.7077992935543684e-23,0.007272285874933004
0.006195706780999899,0.008097341284155846,-0.009442354552447796,0.0030848970636725426,-2.420928132284616e-24,0.0069671254605054855
0.0070177111774683,0.00835704430937767,-0.009822703897953033,0.002845581853762269,-1.5806931043453451e-25,0.007013655733317137
0.00663607195019722,0.00868423655629158,-0.01061877142637968,0.002626755740493536,-1.0320795875126783e-26,0.007292239926755428
0.007116957567632198,0.008107216097414494,-0.0096399812027812,0.0023535487707704306,-6.738741727080955e-28,0.007165940478444099
0.00656268373131752,0.008041045628488064,-0.00954936072230339,0.00219380552880466,-4.3999166572973326e-29,0.006942920386791229
0.006708493456244469,0.008065068162977695,-0.009753404185175896,0.0022320777643471956,-2.8728310809802567e-30,0.007108096033334732
0.006982545834034681,0.008841099217534065,-0.009468656033277512,0.0022120322100818157,-1.875753262725776e-31,0.007454975973814726
0.007085906341671944,0.007984431460499763,-0.010111972689628601,0.002435630187392235,-1.2247328704423561e-32,0.007591397501528263
0.007064145989716053,0.007619641255587339,-0.010325360111892223,0.0021924609318375587,-7.99663092925478e-34,0.006940391380339861
0.007058958988636732,0.008098188787698746,-0.009530048817396164,0.002105043502524495,-5.221228499919005e-35,0.006765211001038551
0.007559364195913076,0.008732867427170277,-0.009859456680715084,0.0019728278275579214,-3.409088948516807e-36,0.006915271747857332
0.0069785695523023605,0.007934965193271637,-0.010230198502540588,0.0022293401416391134,-2.2258915367218614e-37,0.007330296095460653
0.0069785695523023605,0.007934965193271637,-0.010230198502540588,0.0022293401416391134,-2.2258915367218614e-37,0.007330296095460653
0.006385270971804857,0.007571517024189234,-0.009784779511392117,0.0022960728965699673,-1.4533480142240052e-38,0.0072609009221196175
0.00681895250454545,0.008196807466447353,-0.01020172331482172,0.0024058783892542124,-9.48932695369944e-40,0.007191589567810297
0.007349218241870403,0.008019527420401573,-0.010219813324511051,0.0026691919192671776,-6.195841160012179e-41,0.00723604392260313
0.007100380957126617,0.00789650622755289,-0.00993826799094677,0.002799258567392826,-4.045548666505747e-42,0.008050885982811451
0.007243933621793985,0.007694316562265158,-0.009847705252468586,0.0028491010889410973,-2.634441112930656e-43,0.007754101417958736
0.007561592385172844,0.008341221138834953,-0.009445239789783955,0.00266855931840837,-1.6815581571897805e-44,0.007163249421864748
0.007899479940533638,0.007751253433525562,-0.009145155549049377,0.002301697852090001,-1.401298464324817e-45,0.007009903434664011
0.007825225591659546,0.008100492879748344,-0.010015036910772324,0.0021497532725334167,-0.0,0.00737333670258522
0.007129447069019079,0.007815135642886162,-0.00983605906367302,0.002009183866903186,-0.0,0.00730150705203414
0.006692646071314812,0.008179396390914917,-0.009569547139108181,0.0019667567685246468,-0.0,0.007294876966625452
0.007804274559020996,0.007879271171987057,-0.010427718050777912,0.0021381049882620573,-0.0,0.007298790384083986
0.0071452101692557335,0.007551082409918308,-0.010195921175181866,0.002388974651694298,-0.0,0.007489076815545559
0.0070669930428266525,0.008254647254943848,-0.010493692941963673,0.002918604761362076,-0.0,0.006722969468683004
0.007153387181460857,0.008064491674304008,-0.009721925482153893,0.002842756686732173,-0.0,0.007075618952512741
0.007738933898508549,0.008095333352684975,-0.009298209100961685,0.0025310469791293144,-0.0,0.007531988900154829
0.007508379407227039,0.008657252416014671,-0.010576710104942322,0.0023329234682023525,-0.0,0.007790481671690941
0.007146365474909544,0.008456909097731113,-0.010094460099935532,0.002292293356731534,-0.0,0.00736238481476903
0.007097047753632069,0.007753272075206041,-0.00950795691460371,0.0021693878807127476,-0.0,0.006986141204833984
0.007378342095762491,0.008106025867164135,-0.010652651078999043,0.0022044479846954346,-0.0,0.007278012577444315
0.00757391145452857,0.008188686333596706,-0.010155150666832924,0.002205462660640478,-0.0,0.007405952550470829
0.00699562719091773,0.007495181169360876,-0.010791081935167313,0.0023378676269203424,-0.0,0.007385430857539177
0.00699562719091773,0.007495181169360876,-0.010791081935167313,0.0023378676269203424,-0.0,0.007385430857539177
0.007453617639839649,0.0088578462600708,-0.010031667537987232,0.002057494828477502,-0.0,0.007292259018868208
0.007814200595021248,0.008126537315547466,-0.009648884646594524,0.0024661661591380835,-0.0,0.007458693813532591
0.007814200595021248,0.008126537315547466,-0.009648884646594524,0.0024661661591380835,-0.0,0.007458693813532591
0.007483719382435083,0.007884720340371132,-0.010488263331353664,0.0026788758113980293,-0.0,0.007342030294239521
0.007437942083925009,0.007747223600745201,-0.010047346353530884,0.0025032591074705124,-0.0,0.007349523715674877
0.007406484801322222,0.008070382289588451,-0.010386785492300987,0.002401601290330291,-0.0,0.007769209332764149
0.007391025312244892,0.008175346069037914,-0.010225586593151093,0.0022307608742266893,-0.0,0.0070748887956142426
0.007071221712976694,0.00765392929315567,-0.010262980125844479,0.0022746045142412186,-0.0,0.0069754705764353275
0.00718673737719655,0.008073066361248493,-0.010780134238302708,0.0022264341823756695,-0.0,0.006854604929685593
0.00727981049567461,0.00819751899689436,-0.010246007703244686,0.0021345436107367277,-0.0,0.007979398593306541
0.007333066314458847,0.007974382489919662,-0.010712244547903538,0.0023337833117693663,-0.0,0.0069685098715126514
0.00721717020496726,0.0075290026143193245,-0.010393631644546986,0.002202846109867096,-0.0,0.005962778814136982
0.007155557628720999,0.007783493027091026,-0.00995099637657404,0.00248318281956017,-0.0,0.00663344282656908
0.007415040861815214,0.007981795817613602,-0.009886449202895164,0.002344920299947262,-0.0,0.007322816643863916
0.007863463833928108,0.008113178424537182,-0.010607481002807617,0.0020644201431423426,-0.0,0.007638346869498491
0.007402576040476561,0.007817903533577919,-0.010480728931725025,0.0018369609024375677,-0.0,0.00744059169664979
0.007747560273855925,0.007831882685422897,-0.009584587067365646,0.001955364365130663,-0.0,0.007381419651210308
0.0076911672949790955,0.00787566788494587,-0.010181828401982784,0.0021856382954865694,-0.0,0.007307080551981926
0.007498397491872311,0.00761155690997839,-0.009878079406917095,0.002470017410814762,-0.0,0.007452214136719704
0.008173558861017227,0.007949556224048138,-0.00954421516507864,0.002456382382661104,-0.0,0.007349551189690828
0.008312946185469627,0.007584152743220329,-0.010108664631843567,0.002299407497048378,-0.0,0.007410960737615824
0.008026435039937496,0.007308430969715118,-0.010259472765028477,0.0023641411680728197,-0.0,0.008014446124434471
0.007839640602469444,0.007380169350653887,-0.009819225408136845,0.002492241095751524,-0.0,0.007799435406923294
0.007884269580245018,0.008311418816447258,-0.009704542346298695,0.002462549600750208,-0.0,0.007544528227299452
0.007666870020329952,0.007817655801773071,-0.0098809152841568,0.0025797460693866014,-0.0,0.0074709877371788025
0.007837777957320213,0.00746530294418335,-0.010383582673966885,0.0025534548331052065,-0.0,0.008049576543271542
0.00759903946891427,0.008010520599782467,-0.009763337671756744,0.0024297013878822327,-0.0,0.0077641610987484455
0.00759903946891427,0.008010520599782467,-0.009763337671756744,0.0024297013878822327,-0.0,0.0077641610987484455
0.00801526103168726,0.007466801442205906,-0.011101696640253067,0.0023219243157655,-0.0,0.007151628378778696
0.00801526103168726,0.007466801442205906,-0.011101696640253067,0.0023219243157655,-0.0,0.007151628378778696
0.008205560967326164,0.007497794460505247,-0.009901804849505424,0.0024414814542979,-0.0,0.00797825213521719
0.008436469361186028,0.007577180862426758,-0.009834891185164452,0.00240350142121315,-0.0,0.0077255102805793285
0.00800706259906292,0.00751127814874053,-0.009958475828170776,0.002362640108913183,-0.0,0.007210953626781702
0.007978256791830063,0.007222045678645372,-0.009800747968256474,0.002490506274625659,-0.0,0.0076861875131726265
0.007545342668890953,0.0071397265419363976,-0.010330275632441044,0.0024768791627138853,-0.0,0.0079100476577878
0.007951634004712105,0.007429924793541431,-0.009851480834186077,0.0024300971999764442,-0.0,0.007706133648753166
0.008240102790296078,0.007561315316706896,-0.009921778924763203,0.0026259231381118298,-0.0,0.007198402192443609
0.008275399915874004,0.007044138852506876,-0.010140795260667801,0.0027821995317935944,-0.0,0.007758337538689375
0.007674890570342541,0.0068071442656219006,-0.009791066870093346,0.002532182028517127,-0.0,0.007969551719725132
0.008128522895276546,0.007452829275280237,-0.00987932551652193,0.0025479658506810665,-0.0,0.0076760477386415005
0.008181008510291576,0.007859992794692516,-0.010082981549203396,0.0026163377333432436,-0.0,0.007330252323299646
0.00864732638001442,0.006806569639593363,-0.009686160832643509,0.002493541454896331,-0.0,0.007349538151174784
0.008154796436429024,0.006674541626125574,-0.009968465194106102,0.002665728097781539,-0.0,0.007899182848632336
0.008235210552811623,0.0070680431090295315,-0.01016275119036436,0.0028076900634914637,-0.0,0.007706112693995237
0.00817907601594925,0.00736741628497839,-0.009958775714039803,0.002803137991577387,-0.0,0.007422167342156172
0.008107579313218594,0.0070745134726166725,-0.00950661115348339,0.00265744561329484,-0.0,0.007468953728675842
0.008748565800487995,0.00712987408041954,-0.010020583868026733,0.0024054250679910183,-0.0,0.007954549975693226
0.008220534771680832,0.007067911326885223,-0.009581389836966991,0.002228691941127181,-0.0,0.007991762831807137
0.008262686431407928,0.007292140740901232,-0.01021471805870533,0.002183806151151657,-0.0,0.007948162965476513
0.008488538675010204,0.006760244257748127,-0.010310212150216103,0.002168599981814623,-0.0,0.00810234434902668
0.008370524272322655,0.0063993725925683975,-0.009582028724253178,0.0023372999858111143,-0.0,0.007843959145247936
0.008266163058578968,0.006927337497472763,-0.010114735923707485,0.0024354024790227413,-0.0,0.0074648167937994
0.00868645217269659,0.007437789812684059,-0.009930935688316822,0.0025113283190876245,-0.0,0.007639826741069555
0.00868645217269659,0.007437789812684059,-0.009930935688316822,0.0025113283190876245,-0.0,0.007639826741069555
0.008334421552717686,0.007041566539555788,-0.009924023412168026,0.002750104060396552,-0.0,0.007893589325249195
0.008214881643652916,0.0069321077316999435,-0.010334804654121399,0.00256519322283566,-0.0,0.007926260121166706
0.00835760124027729,0.007501344662159681,-0.00984518975019455,0.002463117940351367,-0.0,0.007636386435478926
0.008535021916031837,0.007755533326417208,-0.009886319749057293,0.0025756394024938345,-0.0,0.008144502528011799
0.008550495840609074,0.007111703045666218,-0.010876438580453396,0.0027607930824160576,-0.0,0.008209952153265476
0.008546666242182255,0.007613316643983126,-0.009934517554938793,0.002569971140474081,-0.0,0.007990006357431412
0.008765963837504387,0.007022513076663017,-0.009310451336205006,0.002609159331768751,-0.0,0.007720825262367725
0.009061640128493309,0.007313178386539221,-0.010571643710136414,0.00262656481936574,-0.0,0.007659561466425657
0.008576986379921436,0.007285394240170717,-0.009427436627447605,0.0023838705383241177,-0.0,0.00802210345864296
0.008599154651165009,0.007042507641017437,-0.009570877999067307,0.002492269966751337,-0.0,0.008014535531401634
0.008152872323989868,0.006994163617491722,-0.010040990076959133,0.002688447944819927,-0.0,0.007733356673270464
0.008692603558301926,0.0074388994835317135,-0.009556175209581852,0.0024488831404596567,-0.0,0.007973947562277317
0.007954972796142101,0.0074209971353411674,-0.009491970762610435,0.002575339050963521,-0.0,0.008146198466420174
0.0088596036657691,0.007221661042422056,-0.009609499014914036,0.0027794353663921356,-0.0,0.0076089883223176
0.00818006694316864,0.007307826075702906,-0.009109936654567719,0.0028387969359755516,-0.0,0.007949687540531158
0.008103245869278908,0.0077524445950984955,-0.00902426429092884,0.002724770223721862,-0.0,0.007573578506708145
0.008067600429058075,0.00804506428539753,-0.009791304357349873,0.0026383311487734318,-0.0,0.00794212520122528
0.008290035650134087,0.007849500514566898,-0.00967868510633707,0.0025442896876484156,-0.0,0.007698446977883577
0.008485458791255951,0.00790330022573471,-0.009814770892262459,0.0027838656678795815,-0.0,0.0077839926816523075
0.008089248090982437,0.007668777368962765,-0.009641418233513832,0.0029710365924984217,-0.0,0.007602546364068985
0.008684257045388222,0.007497573737055063,-0.008957689628005028,0.002935550408437848,-0.0,0.008069437928497791
0.008561260998249054,0.007505512330681086,-0.010043899528682232,0.003084211377426982,-0.0,0.008462048135697842
0.008479700423777103,0.007376446388661861,-0.009192250669002533,0.0029129208996891975,-0.0,0.008165517821907997
0.008690391667187214,0.007191868033260107,-0.009452858939766884,0.0030217431485652924,-0.0,0.0073086293414235115
0.00843209121376276,0.0074265445582568645,-0.010054477490484715,0.0027150625828653574,-0.0,0.007522068452090025
0.008261694572865963,0.007759538479149342,-0.009694639593362808,0.002642040839418769,-0.0,0.007706877775490284
0.009145322255790234,0.00719919428229332,-0.009641781449317932,0.0026680834125727415,-0.0,0.007848161272704601
0.009145322255790234,0.00719919428229332,-0.009641781449317932,0.0026680834125727415,-0.0,0.007848161272704601
0.009529736824333668,0.006867258343845606,-0.010198797099292278,0.0027421677950769663,-0.0,0.007802728563547134
0.008453878574073315,0.007096957415342331,-0.01015777513384819,0.0027280189096927643,-0.0,0.00885285809636116
0.00845926720649004,0.0074974605813622475,-0.009518049657344818,0.002599046565592289,-0.0,0.008205719292163849
0.008907873183488846,0.007711953483521938,-0.010306592099368572,0.00256861443631351,-0.0,0.007583082187920809
0.00893169641494751,0.00718904472887516,-0.00978014525026083,0.00240247487090528,-0.0,0.007932272739708424
0.008340593427419662,0.00675974041223526,-0.009728715755045414,0.0024759825319051743,-0.0,0.008474178612232208
0.009732527658343315,0.0070609524846076965,-0.010528622195124626,0.0026623057201504707,-0.0,0.008229181170463562
0.009021204896271229,0.007467994000762701,-0.009855116717517376,0.0027907409239560366,-0.0,0.007764609530568123
0.008140591904520988,0.0070059215649962425,-0.009530826471745968,0.002702123485505581,-0.0,0.00812245812267065
0.008481038734316826,0.006982273422181606,-0.010654515586793423,0.0028312148060649633,-0.0,0.008491632528603077
0.008867899887263775,0.007597401738166809,-0.009916380047798157,0.002857701387256384,-1.8352086499362485e-06,0.008362838998436928
0.009119058959186077,0.007857659831643105,-0.009669512510299683,0.0028525202069431543,-1.1982601222371159e-07,0.008344602771103382
0.008672092109918594,0.0076433527283370495,-0.010803352110087872,0.002810806268826127,-7.823782510740784e-09,0.008593187667429447
0.008437867276370525,0.0077170622535049915,-0.010207436047494411,0.0029116999357938766,-5.108370393358541e-10,0.008145739324390888
0.008709002286195755,0.007144300267100334,-0.010254522785544395,0.0028209034353494644,-3.3354013995179344e-11,0.008144870400428772
0.008827812038362026,0.007549690082669258,-0.010079414583742619,0.0028055075090378523,-2.177778573794753e-12,0.00827268697321415
0.00996087584644556,0.00741294352337718,-0.009952288120985031,0.0026706813368946314,-1.4219337241948987e-13,0.008470078930258751
0.008736575953662395,0.007315158843994141,-0.010839617811143398,0.002949982648715377,-9.284211244307665e-15,0.008276904001832008
0.009144395589828491,0.007114187814295292,-0.010216059163212776,0.002994655864313245,-3.958004637145809e-17,0.008773304522037506
0.0090705044567585,0.007492365315556526,-0.01090107299387455,0.0029784461949020624,-2.58429421335042e-18,0.008621873334050179
0.008825689554214478,0.007071998436003923,-0.010610608384013176,0.003123193047940731,-1.687359527692327e-19,0.008396899327635765
0.009361363016068935,0.0068971230648458,-0.009745976887643337,0.0031910238321870565,-1.101725169813002e-20,0.008761126548051834
0.009253415279090405,0.007057102397084236,-0.010766790248453617,0.0030240588821470737,-7.193477444303846e-22,0.008884557522833347
0.009177565574645996,0.007186548318713903,-0.010179306380450726,0.0026175680104643106,-4.696826395954884e-23,0.009259132668375969
0.009177565574645996,0.007186548318713903,-0.010179306380450726,0.0026175680104643106,-4.696826395954884e-23,0.009259132668375969
0.009304963983595371,0.0068677677772939205,-0.010728261433541775,0.0027739282231777906,-2.002330630019825e-25,0.009016536176204681
0.009304963983595371,0.0068677677772939205,-0.010728261433541775,0.0027739282231777906,-2.002330630019825e-25,0.009016536176204681
0.0087149478495121,0.007615129463374615,-0.010126659646630287,0.0036249812692403793,-8.53624825536402e-28,0.008246328681707382
0.009480079635977745,0.0070261419750750065,-0.01125514879822731,0.003339373739436269,-5.573560610740239e-29,0.008164609782397747
0.009480079635977745,0.0070261419750750065,-0.01125514879822731,0.003339373739436269,-5.573560610740239e-29,0.008164609782397747
0.009440961293876171,0.007234281860291958,-0.010164485312998295,0.0030521354638040066,-3.6391367886767866e-30,0.008009498007595539
0.009410787373781204,0.006981991231441498,-0.010214623063802719,0.0029399096965789795,-1.5514209706983075e-32,0.008109319023787975
0.009410787373781204,0.006981991231441498,-0.010214623063802719,0.0029399096965789795,-1.5514209706983075e-32,0.008109319023787975
0.009173089638352394,0.007036678493022919,-0.010922004468739033,0.003217666409909725,-1.012967012128744e-33,0.008473527617752552
0.009047671221196651,0.00671692518517375,-0.009719300083816051,0.003127545351162553,-6.613951107325256e-35,0.008682510815560818
0.009283142164349556,0.00664340378716588,-0.010503621771931648,0.002976526040583849,-4.3184379330223195e-36,0.008577926084399223
0.009504429996013641,0.00723521551117301,-0.010788033716380596,0.0030257413163781166,-2.819631561197475e-37,0.008637984283268452
0.009251927025616169,0.007417547050863504,-0.01082606241106987,0.003261232515797019,-1.841017935028698e-38,0.008980975486338139
0.01029644999653101,0.007463939022272825,-0.009960828348994255,0.0032664183527231216,-1.2020534408763286e-39,0.009216245263814926
0.00948451180011034,0.006969969253987074,-0.01010552141815424,0.00342336087487638,-7.848532568836868e-41,0.008679557591676712
0.009347203187644482,0.007470188662409782,-0.010173078626394272,0.003219181438907981,-5.124548484035856e-42,0.00915511790663004
0.009613868780434132,0.007574138231575489,-0.00984204187989235,0.003031577216461301,-3.3491033297363128e-43,0.008640488609671593
0.009898022748529911,0.0069018779322505,-0.010276286862790585,0.0028767201583832502,-2.2420775429197073e-44,0.00887864176183939
0.009663018397986889,0.007339674048125744,-0.009853946976363659,0.003229184541851282,-0.0,0.009168103337287903
0.009969225153326988,0.007441406603902578,-0.01109335757791996,0.0031546070240437984,-0.0,0.008985722437500954
0.009909712709486485,0.007087378762662411,-0.010331432335078716,0.002961886115372181,-7.060431380523369e-05,0.0084034763276577
0.01021580770611763,0.006786375772207975,-0.009641962125897408,0.0032429334241896868,-0.000116467330371961,0.009308334439992905
0.010078387334942818,0.007056722417473793,-0.01016713585704565,0.0036288746632635593,-0.0001165641297120601,0.009118336252868176
0.010070359334349632,0.007049867417663336,-0.010294626466929913,0.00377909978851676,-0.00011381916556274518,0.008724873885512352
0.01004245039075613,0.007333334535360336,-0.009674486704170704,0.0037509214598685503,-0.00011102412827312946,0.008905865252017975
0.0100608104839921,0.0069952672347426414,-0.010185815393924713,0.0037235103081911802,-0.00010835158172994852,0.00872962735593319
0.0100608104839921,0.0069952672347426414,-0.010185815393924713,0.0037235103081911802,-0.00010835158172994852,0.00872962735593319
0.009714597836136818,0.00724453991279006,-0.010209762491285801,0.0035180177073925734,-0.00010580392699921504,0.009248704649508
0.010244637727737427,0.007714062463492155,-0.009958687238395214,0.0035819963086396456,-0.00010337333515053615,0.009716234169900417
0.010299250483512878,0.0067604887299239635,-0.010023180395364761,0.0037453551776707172,-0.00010105191176990047,0.008661583065986633
0.009891476482152939,0.00659128837287426,-0.01000780239701271,0.00353653309866786,-9.883240272756666e-05,0.007607537787407637
0.010983843356370926,0.0069082267582416534,-0.010110201314091682,0.003497398691251874,-0.00011475940846139565,0.00863898079842329
0.010265947319567204,0.007447515614330769,-0.010701059363782406,0.00365786743350327,-0.00011352419096510857,0.00920476857572794
0.009720543399453163,0.007091873325407505,-0.010285917669534683,0.0033638004679232836,-0.0001112619720515795,0.009463461115956306
0.010158962570130825,0.00732628908008337,-0.010672537609934807,0.0035212754737585783,-0.00010902065696427599,0.009451935067772865
0.010441618040204048,0.007398552261292934,-0.011357505805790424,0.0037799787241965532,-0.00010686349560273811,0.009496448561549187
0.009871641173958778,0.007502557244151831,-0.010181479156017303,0.0038499990478157997,-0.00010478970216354355,0.00938590057194233
0.010464360006153584,0.007391125895082951,-0.009961697272956371,0.003441972192376852,-0.00010279492562403902,0.009531008079648018
0.010034771636128426,0.007374183740466833,-0.010603715665638447,0.0033414980862289667,-0.00010087461851071566,0.009677612222731113
0.010083856992423534,0.007450624369084835,-0.009924137033522129,0.003497851314023137,-9.902476449497044e-05,0.009841258637607098
0.01083418633788824,0.007615601643919945,-0.010260344482958317,0.0036269284319132566,-9.724149276735261e-05,0.009567723609507084
0.010294703766703606,0.0074659124948084354,-0.010661693289875984,0.003465130692347884,-9.552138362778351e-05,0.009628066793084145
0.009927905164659023,0.0068983519449830055,-0.010468767024576664,0.0033549589570611715,-0.00010547204146860167,0.009539300575852394
0.010520595125854015,0.007568701636046171,-0.010384908877313137,0.004040592350065708,-0.00010580844536889344,0.010024693794548512
0.010317748412489891,0.006795014254748821,-0.010030779056251049,0.004190967883914709,-0.00010407627269160002,0.009665132500231266
0.010540413670241833,0.006612388417124748,-0.011011537164449692,0.003998307511210442,-0.00010238577669952065,0.009392717853188515
0.009978877380490303,0.006587150506675243,-0.011171601712703705,0.0038928596768528223,-0.00010074850433738902,0.009822506457567215
0.010766814462840557,0.0069070677272975445,-0.0101647162809968,0.003919608425348997,-9.916270937537774e-05,0.009638946503400803
0.011387305334210396,0.007401184178888798,-0.010959037579596043,0.0041465251706540585,-9.762608533492312e-05,0.009543687105178833
0.01021847315132618,0.006807681173086166,-0.010650437325239182,0.0041731069795787334,-9.61363548412919e-05,0.009831944480538368
0.01021847315132618,0.006807681173086166,-0.010650437325239182,0.0041731069795787334,-9.61363548412919e-05,0.009831944480538368
0.01004632655531168,0.007300395984202623,-0.010248462669551373,0.0043556648306548595,-9.469137148698792e-05,0.009336410090327263
0.010418032296001911,0.006838866509497166,-0.010688988491892815,0.0040788473561406136,-9.328919259132817e-05,0.009697532281279564
0.010151859372854233,0.007189363706856966,-0.01037443894892931,0.003876992966979742,-9.192797733703628e-05,0.009432886727154255
0.011061753146350384,0.0070678419433534145,-0.010479716584086418,0.00418849615380168,-0.00010185940482188016,0.009415782056748867
0.010316867381334305,0.0067186253145337105,-0.010594901628792286,0.004307249560952187,-0.00010197108349530026,0.009516417048871517
0.01048951130360365,0.006887739058583975,-0.010412794537842274,0.003995440900325775,-0.00010064714297186583,0.00975570548325777
0.010470038279891014,0.007335127796977758,-0.010819144546985626,0.003822240512818098,-9.926615166477859e-05,0.009481111541390419
0.010309597477316856,0.0071150460280478,-0.010772863402962685,0.0040198578499257565,-9.791665797820315e-05,0.009028364904224873
0.010506778955459595,0.006916739512234926,-0.011201312765479088,0.004226724151521921,-9.660292562330142e-05,0.009308268316090107
0.010717909783124924,0.007348429877310991,-0.011477193795144558,0.00407303124666214,-0.00010999468213412911,0.009465677663683891
0.010276883840560913,0.0077454405836761,-0.010352661833167076,0.003975558560341597,-0.00011206658382434398,0.0095182154327631
0.010652177035808563,0.006869147531688213,-0.010617622174322605,0.004005334340035915,-0.00010965006367769092,0.009731026366353035
0.011036484502255917,0.00676093902438879,-0.0109696164727211,0.004321686923503876,-0.00010706180182751268,0.00988003145903349
0.011376363225281239,0.006688003893941641,-0.010205941274762154,0.004221499431878328,-0.00010457502503413707,0.009766136296093464
0.010575583204627037,0.0069650765508413315,-0.010764078237116337,0.00393661530688405,-0.00010219996329396963,0.010342279449105263
0.010721009224653244,0.007375666871666908,-0.010531770996749401,0.00414776336401701,-9.993036655941978e-05,0.010202111676335335
0.011205091141164303,0.006887819617986679,-0.010405106469988823,0.004171465523540974,-9.775937360245734e-05,0.009884016588330269
0.010482976213097572,0.0064438567496836185,-0.010598895139992237,0.004194098059087992,-9.368854080094025e-05,0.010203723795711994
0.011114085093140602,0.006972524803131819,-0.010707546956837177,0.004724389407783747,-9.177772153634578e-05,0.009849853813648224
0.010656309314072132,0.007010751403868198,-0.011069802567362785,0.004517740104347467,-8.994329982670024e-05,0.010466289706528187
0.010851308703422546,0.006462553981691599,-0.01085832342505455,0.004259498789906502,-8.818073547445238e-05,0.010045706294476986
0.010849312879145145,0.007093999534845352,-0.011184588074684143,0.004058455117046833,-9.499691077508032e-05,0.01000902894884348
0.01067106518894434,0.006931800860911608,-0.011227872222661972,0.004334800411015749,-0.00010125242988578975,0.010743780992925167
0.010862327180802822,0.007079397328197956,-0.010630236938595772,0.004985482431948185,-9.99040057649836e-05,0.010094776749610901
0.011153152212500572,0.006931861862540245,-0.011246265843510628,0.005153633654117584,-9.812291682465002e-05,0.00972680002450943
0.010689572431147099,0.00651340838521719,-0.010641863569617271,0.00484963646158576,-9.637398034101352e-05,0.010278798639774323
0.011157708242535591,0.006415591575205326,-0.010698283091187477,0.00473991222679615,-9.468426287639886e-05,0.010087755508720875
0.010997559875249863,0.007153522223234177,-0.011221703141927719,0.004720857832580805,-9.305264393333346e-05,0.011523813009262085
0.010997559875249863,0.007153522223234177,-0.011221703141927719,0.004720857832580805,-9.305264393333346e-05,0.011523813009262085
0.010384771041572094,0.00654798885807395,-0.010736262425780296,0.0044044130481779575,-9.147626406047493e-05,0.010171663947403431
0.011010373011231422,0.006514180451631546,-0.011370106600224972,0.0044395653530955315,-8.995251846499741e-05,0.00984147284179926
0.01080580148845911,0.006854630541056395,-0.011403638869524002,0.005073796957731247,-8.84786422830075e-05,0.009929890744388103
0.011511587537825108,0.007015455514192581,-0.010722443461418152,0.0052306875586509705,-8.705224900040776e-05,0.010334024205803871
0.011361757293343544,0.0073039778508245945,-0.011648651212453842,0.005079315043985844,-9.627194231143221e-05,0.010204191319644451
0.011791146360337734,0.006326829548925161,-0.011266779154539108,0.005124491173774004,-9.814860095502809e-05,0.010195501148700714
0.011505801230669022,0.006153466645628214,-0.012219727970659733,0.004877617582678795,-9.686014527687803e-05,0.01057393103837967
0.011685146950185299,0.00671809259802103,-0.011549999006092548,0.004659901838749647,-9.540768951410428e-05,0.009943148121237755
0.011277228593826294,0.006982509978115559,-0.011127918027341366,0.0047312453389167786,-9.398529073223472e-05,0.010010676458477974
0.011415833607316017,0.006300828885287046,-0.011643030680716038,0.004826835356652737,-9.260389197152108e-05,0.010392739437520504
0.011463905684649944,0.006142769940197468,-0.011231816373765469,0.005085976794362068,-9.12623800104484e-05,0.010037779808044434
0.012230929918587208,0.006464006379246712,-0.011108441278338432,0.005040865857154131,-9.629075066186488e-05,0.01053273119032383
0.011146443895995617,0.007198278792202473,-0.011697191745042801,0.004855958744883537,-0.00010093743912875652,0.010876950807869434
0.011274748481810093,0.006767094600945711,-0.011557054705917835,0.0047017536126077175,-9.992817649617791e-05,0.010276822373270988
0.011915693059563637,0.006230171304196119,-0.011845030821859837,0.004743456840515137,-9.858550765784457e-05,0.01077323593199253
0.012136516161262989,0.006892681587487459,-0.010886396281421185,0.005126087926328182,-9.595941810403019e-05,0.010222646407783031
0.012338435277342796,0.007025619503110647,-0.011278233490884304,0.005154126323759556,-9.469735960010439e-05,0.010633733123540878
0.013303865678608418,0.006725198123604059,-0.011457987129688263,0.004926552064716816,-9.346801380161196e-05,0.010616614483296871
0.013190994039177895,0.006417575292289257,-0.012127243913710117,0.0048278989270329475,-9.228219278156757e-05,0.010190186090767384
0.012835287488996983,0.006456105038523674,-0.0120553495362401,0.005085185170173645,-0.00010997676872648299,0.010735563933849335
0.013376248069107533,0.007193788420408964,-0.012381469830870628,0.005245795473456383,-0.00010862486669793725,0.010966440662741661
0.012525931000709534,0.007027185056358576,-0.011855175718665123,0.005213226191699505,-0.00010614770144456998,0.010994235053658485
0.013428841717541218,0.006902162451297045,-0.011405524797737598,0.0052988589741289616,-0.00011908627493539825,0.010930105112493038
0.0129490215331316,0.006477119401097298,-0.012396881356835365,0.0054168784990906715,-0.00012129497190471739,0.010878526605665684
0.013113738037645817,0.00719399144873023,-0.012058687396347523,0.005514817778021097,-0.00011894217459484935,0.01100137084722519
0.013335228897631168,0.006684409454464912,-0.011972426436841488,0.0053391233086586,-0.00012593893916346133,0.01069104764610529
0.013335228897631168,0.006684409454464912,-0.011972426436841488,0.0053391233086586,-0.00012593893916346133,0.01069104764610529
0.013545213267207146,0.006525183562189341,-0.011949211359024048,0.005375502165406942,-0.00013229134492576122,0.01080630999058485
0.013386731967329979,0.006769468076527119,-0.011385174468159676,0.005587077233940363,-0.0001301459560636431,0.011054043658077717
0.013156418688595295,0.00698282103985548,-0.012266109697520733,0.005452632904052734,-0.00012754938506986946,0.011050991714000702
0.013411633670330048,0.006842745468020439,-0.011602170765399933,0.005508034490048885,-0.00012502059689722955,0.011294392868876457
0.013122938573360443,0.007138141430914402,-0.01210545189678669,0.004834306892007589,-0.0001225880696438253,0.011049973778426647
0.013848105445504189,0.0066498578526079655,-0.012626457959413528,0.005499609746038914,-0.00012024820171063766,0.011177847161889076
0.01336032897233963,0.006600991822779179,-0.011945787817239761,0.005450500641018152,-0.00012629102275241166,0.011688831262290478
0.013799822889268398,0.007034619804471731,-0.012082983739674091,0.005444654263556004,-0.00013181417307350785,0.011541077867150307
0.013260121457278728,0.006876175757497549,-0.011456984095275402,0.005729962605983019,-0.00012994684220757335,0.011901617050170898
0.013607869856059551,0.006367787718772888,-0.011827893555164337,0.005302931182086468,-0.00012767592852469534,0.011424960568547249
0.013417953625321388,0.006196214351803064,-0.012782393954694271,0.005117383319884539,-0.00021919071150477976,0.011044078506529331
0.013223579153418541,0.006646309979259968,-0.012056214734911919,0.00535616185516119,-0.0002376875199843198,0.011126825585961342
0.013092719949781895,0.006717061623930931,-0.011772086843848228,0.005633957218378782,-0.00022762939624954015,0.011364876292645931
0.013448079116642475,0.006828804966062307,-0.011403835378587246,0.0055346437729895115,-0.0002571736404206604,0.011430533602833748
0.013120969757437706,0.006855326239019632,-0.01218037586659193,0.00516797648742795,-0.0002480025577824563,0.011615580879151821
0.013332410715520382,0.006420816294848919,-0.011612235568463802,0.005158822052180767,-0.00025660754181444645,0.011536017060279846
0.013466312550008297,0.0066912127658724785,-0.011780868284404278,0.005270498339086771,-0.0002638600126374513,0.011900313198566437
0.013927056454122066,0.006464057136327028,-0.011359176598489285,0.005489461589604616,-0.0002445806749165058,0.011075509712100029
0.013927056454122066,0.006464057136327028,-0.011359176598489285,0.005489461589604616,-0.0002445806749165058,0.011075509712100029
0.0136188305914402,0.006494605913758278,-0.011502756737172604,0.005355994217097759,-0.0002428430743748322,0.011622230522334576
0.013300278224050999,0.006708916276693344,-0.011848485097289085,0.005584659054875374,-0.0002492830972187221,0.011897096410393715
0.01379635650664568,0.006581389810889959,-0.011939800344407558,0.0060666087083518505,-0.00024187812232412398,0.01228435430675745
0.01320352777838707,0.006241886876523495,-0.011730555444955826,0.006184904836118221,-0.00023407697153743356,0.01229190081357956
0.013719236478209496,0.006338092498481274,-0.011768593452870846,0.00605813879519701,-0.0002267099334858358,0.012097964994609356
0.01311640813946724,0.00699556153267622,-0.011367710307240486,0.005608920939266682,-0.0002204451448051259,0.012047396041452885
0.01338102575391531,0.006846071686595678,-0.012054422870278358,0.006154004950076342,-0.00026955315843224525,0.012442518025636673
0.01338102575391531,0.006846071686595678,-0.012054422870278358,0.006154004950076342,-0.00026955315843224525,0.012442518025636673
0.013273286633193493,0.006256032269448042,-0.011868266388773918,0.006016744300723076,-0.00025816334527917206,0.012398061342537403
0.013521900400519371,0.0064545804634690285,-0.011578507721424103,0.0059760394506156445,-0.00028991326689720154,0.012763460166752338
0.013376694172620773,0.006496087647974491,-0.012015820480883121,0.005626814905554056,-0.0002779710339382291,0.012296454980969429
0.013523237779736519,0.0065359193831682205,-0.011584503576159477,0.0055359117686748505,-0.0002645447675604373,0.011770685203373432
0.013651774264872074,0.006549201440066099,-0.012253482826054096,0.005524821579456329,-0.0002886043512262404,0.011577429249882698
0.013854734599590302,0.006399571429938078,-0.012058471329510212,0.0059102559462189674,-0.00028073322027921677,0.011574837379157543
0.014077660627663136,0.0065057468600571156,-0.01217207033187151,0.005640754476189613,-0.0002690671244636178,0.012082859873771667
0.013756885193288326,0.006812247447669506,-0.012043640948832035,0.005537254270166159,-0.000285312911728397,0.01232212595641613
0.013619101606309414,0.0067084976471960545,-0.011376810260117054,0.005265922285616398,-0.0002826964482665062,0.01240125484764576
0.013405254110693932,0.006401154212653637,-0.012466571293771267,0.005656891036778688,-0.0002725553058553487,0.012777479365468025
0.013408747501671314,0.006252028048038483,-0.011628829874098301,0.006333130411803722,-0.00034508545650169253,0.0125212287530303
0.013059522025287151,0.007073188666254282,-0.012013272382318974,0.005878143943846226,-0.00034588336711749434,0.01252379547804594
0.013930526562035084,0.006644237786531448,-0.01194311399012804,0.005714398808777332,-0.0003228454734198749,0.012261530384421349
0.013814299367368221,0.006380225066095591,-0.012286538258194923,0.005314422771334648,-0.0003534014103934169,0.012592969462275505
0.014136239886283875,0.006365871522575617,-0.012373239733278751,0.00579845393076539,-0.0003383647126611322,0.012630254961550236
0.013577555306255817,0.006025294307619333,-0.01166249718517065,0.006118347868323326,-0.0003188424452673644,0.012757645919919014
0.014119714498519897,0.006287402473390102,-0.012378732673823833,0.006499261129647493,-0.0003477983991615474,0.01314789243042469
0.013568026013672352,0.006531394552439451,-0.012305120006203651,0.006246709730476141,-0.00033248617546632886,0.012967647053301334
0.013118850067257881,0.006333335302770138,-0.0124379126355052,0.005658927373588085,-0.00034931435948237777,0.012517830356955528
0.013493838720023632,0.006457683630287647,-0.011698615737259388,0.006041586399078369,-0.00032864577951841056,0.012519045732915401
0.013730001635849476,0.006655935198068619,-0.012465469539165497,0.006170164793729782,-0.0003894104156643152,0.012492533773183823
0.013794561848044395,0.006491872947663069,-0.01145890448242426,0.006309754680842161,-0.00036376973730511963,0.012555778957903385
0.013919027522206306,0.006250109989196062,-0.012041882611811161,0.0061892434023320675,-0.00039505871245637536,0.012196172960102558
0.013590383343398571,0.006603633053600788,-0.01232018694281578,0.006153617054224014,-0.0003755265206564218,0.012339538894593716
0.01339035015553236,0.006824780721217394,-0.011979999020695686,0.005898682866245508,-0.0003800674749072641,0.012527584098279476
0.013299142010509968,0.006460596341639757,-0.012401310727000237,0.006161442957818508,-0.000383165868697688,0.01251761894673109
0.013969328254461288,0.006383483298122883,-0.01194154191762209,0.006542613729834557,-0.0004010133270639926,0.012735119089484215
0.013550357893109322,0.00689276959747076,-0.012336145155131817,0.006835574749857187,-0.00039128310163505375,0.012622774578630924
0.014302096329629421,0.006910744123160839,-0.012114636600017548,0.006779206916689873,-0.0004896204336546361,0.0138736292719841
0.013526316732168198,0.006860379129648209,-0.011857058852910995,0.006819720380008221,-0.0004580405366141349,0.012609337456524372
0.013783755712211132,0.00672173360362649,-0.012362775392830372,0.0066075981594622135,-0.0004941422957926989,0.012368046678602695
0.013834279030561447,0.006544038653373718,-0.0125079695135355,0.006404077168554068,-0.00045738383778370917,0.01263782661408186
0.014655930921435356,0.006808325182646513,-0.012664157897233963,0.0063937087543308735,-0.00042194873094558716,0.012849865481257439
0.014655930921435356,0.006808325182646513,-0.012664157897233963,0.0063937087543308735,-0.00042194873094558716,0.012849865481257439
0.013620119541883469,0.005859320517629385,-0.011958489194512367,0.006095794029533863,-0.00044768184307031333,0.012984235771000385
0.014037499204277992,0.005645577795803547,-0.012806328013539314,0.008005538024008274,-0.0004251372010912746,0.012809050269424915
0.013876496814191341,0.005177442450076342,-0.012164036743342876,0.007206375245004892,-0.00039871950866654515,0.01323678158223629
0.014188986271619797,0.005744272377341986,-0.01284589059650898,0.006368167232722044,-0.00037500663893297315,0.013046951964497566
0.013872266747057438,0.005559845827519894,-0.012505668215453625,0.006772537250071764,-0.0003911993990186602,0.013182115741074085
0.014272825792431831,0.005966003518551588,-0.012223766185343266,0.006992287468165159,-0.0003821026475634426,0.013241361826658249
0.013460425660014153,0.0057205455377697945,-0.01269055251032114,0.0067014810629189014,-0.00036530496436171234,0.013507082127034664
0.014932429417967796,0.005530666094273329,-0.012404220178723335,0.006265838630497456,-0.0003555206349119544,0.013319836929440498
0.01442640833556652,0.005219138693064451,-0.012593928724527359,0.006575569044798613,-0.0003627106489147991,0.013475801795721054
0.014111100696027279,0.005907321348786354,-0.012592381797730923,0.007243145722895861,-0.00036745614488609135,0.013386469334363937
0.01392997708171606,0.0056153167970478535,-0.012818889692425728,0.007267329376190901,-0.00034584032255224884,0.01335581298917532
0.014165692962706089,0.005921395495533943,-0.01269407570362091,0.00692491652444005,-0.00037555742892436683,0.013652466237545013
0.014172488823533058,0.005340284202247858,-0.012268162332475185,0.00686165364459157,-0.0003575337177608162,0.01331950444728136
0.014420035295188427,0.005399766378104687,-0.012786193750798702,0.007335135713219643,-0.0003385302552487701,0.0131096625700593
0.01547685544937849,0.005407551769167185,-0.013284721411764622,0.006391915958374739,-0.00034856487764045596,0.01369535829871893
0.015130773186683655,0.005562702193856239,-0.012986687943339348,0.0061928629875183105,-0.0003331289335619658,0.013772808946669102
0.015475448220968246,0.005492758471518755,-0.013345852494239807,0.006944611668586731,-0.0003184374363627285,0.013911407440900803
0.014872812665998936,0.005775599740445614,-0.01302160881459713,0.007085932418704033,-0.00030601705657318234,0.01334861945360899
0.015575756318867207,0.005163600668311119,-0.012914913706481457,0.006475292611867189,-0.00034345738822594285,0.013271460309624672
0.015634948387742043,0.005449053831398487,-0.013103137724101543,0.006125174928456545,-0.0003227960260119289,0.013446052558720112
0.015614152885973454,0.005345833022147417,-0.01251993328332901,0.0057435049675405025,-0.00035749044036492705,0.013227127492427826
0.015190882608294487,0.005870485678315163,-0.013464802876114845,0.006546231918036938,-0.00036621076287701726,0.013215083628892899
0.015248719602823257,0.005866273306310177,-0.012848010286688805,0.00714501366019249,-0.00037022228934802115,0.013676372356712818
0.015563877299427986,0.005476169288158417,-0.013723021373152733,0.006677771918475628,-0.0003512460389174521,0.013571668416261673
0.01586150750517845,0.005294498987495899,-0.013294709846377373,0.006622249726206064,-0.0003327945014461875,0.01415384840220213
0.01586150750517845,0.005294498987495899,-0.013294709846377373,0.006622249726206064,-0.0003327945014461875,0.01415384840220213
0.01581759750843048,0.00563060212880373,-0.013418965972959995,0.006759069859981537,-0.00031609725556336343,0.014088569208979607
0.015501387417316437,0.005460016895085573,-0.012781492434442043,0.00796632282435894,-0.0003327328304294497,0.013703570701181889
0.015585996210575104,0.006534010637551546,-0.013607754372060299,0.007309028413146734,-0.0003275660565122962,0.013797814026474953
0.015655728057026863,0.005969690624624491,-0.01337821688503027,0.006535633467137814,-0.0003139327163808048,0.01461094431579113
0.016290076076984406,0.005606929771602154,-0.013300206512212753,0.006555866450071335,-0.0003008548228535801,0.013559488579630852
0.015832101926207542,0.005367398727685213,-0.013133706524968147,0.007427692413330078,-0.0002887879963964224,0.013061603531241417
0.01606927253305912,0.005961235146969557,-0.012983416207134724,0.007540181279182434,-0.00027764958213083446,0.014841487631201744
0.015981508418917656,0.00608686450868845,-0.013229981064796448,0.007196986582130194,-0.0002964766463264823,0.013661135919392109
0.01608126051723957,0.005850943736732006,-0.01272926852107048,0.006994413677603006,-0.00028259592363610864,0.01388271152973175
0.016024848446249962,0.005446537397801876,-0.013661921955645084,0.007285343483090401,-0.0002661826438270509,0.014201891608536243
0.016199057921767235,0.005627878941595554,-0.013188931159675121,0.006929658818989992,-0.0002513298823032528,0.01451379805803299
0.016475988551974297,0.005591723136603832,-0.01373166125267744,0.0070598735474050045,-0.00023803192016202956,0.014135020785033703
0.01591375470161438,0.005948961246758699,-0.01298488862812519,0.006901118904352188,-0.0002260694745928049,0.014630596153438091
0.016647182404994965,0.006431106477975845,-0.013339770026504993,0.007365182973444462,-0.0002152526576537639,0.014619562774896622
0.016356470063328743,0.005702404771000147,-0.012990032322704792,0.0075965765863657,-0.0002357643679715693,0.014763355255126953
0.01637030392885208,0.005752775818109512,-0.013691465370357037,0.007664137054234743,-0.00023504250566475093,0.01476874016225338
0.01642562262713909,0.005948396399617195,-0.013208061456680298,0.007096303626894951,-0.00022583466488867998,0.014418847858905792
0.01684514246881008,0.0064445133320987225,-0.013538520783185959,0.00792037695646286,-0.00022544532839674503,0.014836469665169716
0.01628856174647808,0.005907826125621796,-0.013310035690665245,0.007784477435052395,-0.00023298193991649896,0.014430063776671886
0.016862928867340088,0.005856454838067293,-0.013494729995727539,0.00733973179012537,-0.00022567289124708623,0.01441032625734806
0.01667950674891472,0.005665495991706848,-0.013174370862543583,0.007914434187114239,-0.0002409712178632617,0.014531200751662254
0.016908302903175354,0.006235718727111816,-0.013803287409245968,0.008254732005298138,-0.00024021377612370998,0.015225759707391262
0.017112474888563156,0.006571069359779358,-0.013106828555464745,0.007934152148663998,-0.00023291847901418805,0.015186252072453499
0.01681436412036419,0.006349594332277775,-0.013791398145258427,0.007750421296805143,-0.0002510441408958286,0.015597479417920113
0.017378496006131172,0.005574018228799105,-0.013269579038023949,0.007738727610558271,-0.00024154430138878524,0.0153065649792552
0.017217125743627548,0.005944366566836834,-0.01370110921561718,0.008020889014005661,-0.0002633472322486341,0.015406143851578236
0.017430508509278297,0.006075136363506317,-0.013066066429018974,0.0078011928126215935,-0.0002612480311654508,0.01532921101897955
0.017035312950611115,0.006292869336903095,-0.01357249915599823,0.0076582650654017925,-0.0002498532412573695,0.014963437803089619
0.01663598045706749,0.0062963212840259075,-0.013197346590459347,0.007999246940016747,-0.00026824980159290135,0.015001937747001648
0.01663598045706749,0.0062963212840259075,-0.013197346590459347,0.007999246940016747,-0.00026824980159290135,0.015001937747001648
0.017693854868412018,0.005697172600775957,-0.0137438690289855,0.008017042651772499,-0.0002661714388523251,0.015033354051411152
0.01721532829105854,0.005833829753100872,-0.013571060262620449,0.007561893668025732,-0.0002738531620707363,0.015246343798935413
0.01765880174934864,0.007020051125437021,-0.013339531607925892,0.007518273778259754,-0.00027992730611003935,0.015508156269788742
0.01766127161681652,0.006490060593932867,-0.01325201615691185,0.008378211408853531,-0.00043516175355762243,0.015199598856270313
0.01700158789753914,0.006416886113584042,-0.013215754181146622,0.00795762613415718,-0.000480411370517686,0.014881709590554237
0.017924586310982704,0.006352469325065613,-0.013745088130235672,0.008070562966167927,-0.00046005661715753376,0.015256211161613464
0.017878001555800438,0.006063445005565882,-0.013365967199206352,0.007888717576861382,-0.00048630067612975836,0.015164606273174286
0.018036840483546257,0.0064539252780377865,-0.013539438135921955,0.007775121368467808,-0.0004911149153485894,0.015063556842505932
0.018066737800836563,0.0067074913531541824,-0.012863287702202797,0.007723253685981035,-0.000487558456370607,0.014860047027468681
0.017657658085227013,0.006031503900885582,-0.013471143320202827,0.007650032639503479,-0.0004584459529723972,0.015037482604384422
0.01812959834933281,0.005918681155890226,-0.013214253820478916,0.008217507973313332,-0.00056432094424963,0.01521329116076231
0.017747290432453156,0.0062145390547811985,-0.013451452367007732,0.008387994952499866,-0.0005202593747526407,0.015718262642621994
0.017210641875863075,0.0063354214653372765,-0.01319419126957655,0.008216029033064842,-0.000535834114998579,0.014479231089353561
0.018095936626195908,0.00625598942860961,-0.013777312822639942,0.007858633995056152,-0.0005066123558208346,0.014822126366198063
0.018656834959983826,0.006283897440880537,-0.013393496163189411,0.00838463008403778,-0.0004643845895770937,0.015227391384541988
0.018394066020846367,0.00603858707472682,-0.01348502840846777,0.008601872250437737,-0.00046217418275773525,0.01566435396671295
0.018127333372831345,0.006344078574329615,-0.013161874376237392,0.008225847966969013,-0.00045990291982889175,0.015603719279170036
0.018139421939849854,0.0068268729373812675,-0.013226570561528206,0.008217202499508858,-0.00046039815060794353,0.015705719590187073
0.01844583824276924,0.006034298799932003,-0.013866530731320381,0.008553347550332546,-0.0004586143768392503,0.015780145302414894
0.018570972606539726,0.005993637256324291,-0.013320138677954674,0.008799931034445763,-0.0004600543179549277,0.015535050071775913
0.01854897476732731,0.006121641490608454,-0.013118204660713673,0.008651262149214745,-0.00046663882676512003,0.015492462553083897
0.018511200323700905,0.006304715760052204,-0.01347830705344677,0.008714036084711552,-0.0004986868589185178,0.015792034566402435
0.018539082258939743,0.0063437107019126415,-0.013189297169446945,0.008636461570858955,-0.0005152532830834389,0.01581602916121483
0.018849097192287445,0.0057090758346021175,-0.014153631404042244,0.008594430051743984,-0.000495313317514956,0.01590636372566223
0.01852850615978241,0.005796640645712614,-0.013255252502858639,0.008683552965521812,-0.0006781331030651927,0.015896106138825417
0.01833454519510269,0.006092995870858431,-0.01381604466587305,0.008648919872939587,-0.0006180079653859138,0.016160031780600548
0.01917499303817749,0.0060501410625875,-0.013287072069942951,0.008480164222419262,-0.0006461240700446069,0.01618734560906887
0.01906891167163849,0.006137004587799311,-0.013988337479531765,0.008889070712029934,-0.0005830062436871231,0.015808796510100365
0.01906891167163849,0.006137004587799311,-0.013988337479531765,0.008889070712029934,-0.0005830062436871231,0.015808796510100365
0.0187788438051939,0.005465965252369642,-0.014058679342269897,0.00906293373554945,-0.0006020416039973497,0.01582355611026287
0.019057275727391243,0.0054594832472503185,-0.0146139245480299,0.008159437216818333,-0.0005588672938756645,0.01598905771970749
0.01913018338382244,0.005894153844565153,-0.013679329305887222,0.008812682703137398,-0.0005139097920618951,0.016148410737514496
0.01921120285987854,0.005949098151177168,-0.014131030067801476,0.009202790446579456,-0.0005337437614798546,0.01606757752597332
0.019333552569150925,0.0056343404576182365,-0.01289699412882328,0.008783072233200073,-0.0005043247365392745,0.016114961355924606
0.0190269872546196,0.005497512873262167,-0.014179649762809277,0.008808932267129421,-0.00047178275417536497,0.016029536724090576
0.01895022578537464,0.005057813134044409,-0.01462796051055193,0.009003869257867336,-0.0004427865205798298,0.01609422266483307
0.019502870738506317,0.005118751432746649,-0.014272588305175304,0.0090330233797431,-0.00041868066182360053,0.016147326678037643
0.01925782486796379,0.005548423621803522,-0.013817264698445797,0.008811743929982185,-0.000356089643901214,0.015986954793334007
0.019276227802038193,0.0054290639236569405,-0.014921472407877445,0.009317700751125813,-0.0003281639947090298,0.01657171919941902
0.01957279071211815,0.0053868540562689304,-0.014585405588150024,0.00879280362278223,-0.00030572619289159775,0.016415374353528023
0.019301356747746468,0.005096164532005787,-0.014781222678720951,0.00897334236651659,-0.00031409645453095436,0.016362523660063744
0.019086042419075966,0.005259818863123655,-0.014084157533943653,0.009249401278793812,-0.00032103367266245186,0.016341369599103928
0.01958967000246048,0.005100011359900236,-0.014430412091314793,0.009103315882384777,-0.000304595596389845,0.016790516674518585
0.019516753032803535,0.00520665617659688,-0.01424428354948759,0.009103012271225452,-0.00028843031032010913,0.01687806285917759
0.01938435062766075,0.004843638278543949,-0.014459376223385334,0.009165438823401928,-0.0002982008154504001,0.01685081422328949
0.019664360210299492,0.005053349770605564,-0.015133073553442955,0.009318122640252113,-0.0002896421938203275,0.015935692936182022
0.01931127719581127,0.005194762721657753,-0.014401677064597607,0.009354826994240284,-0.00027723092352971435,0.01639692112803459
0.020231015980243683,0.004956117831170559,-0.014837460592389107,0.009730590507388115,-0.00030091573717072606,0.016723191365599632
0.02012650854885578,0.005459705367684364,-0.014276906847953796,0.008977699093520641,-0.0002913095522671938,0.016690781340003014
0.01987963542342186,0.00526617793366313,-0.014895351603627205,0.009143202565610409,-0.0003207156260032207,0.016944384202361107
0.01934909261763096,0.00490282429382205,-0.014157479628920555,0.009156152606010437,-0.00030244028312154114,0.0169360488653183
0.019411277025938034,0.00535281328484416,-0.014891752041876316,0.009662231430411339,-0.0003326150181237608,0.01717558316886425
0.020288769155740738,0.005066228564828634,-0.014827864244580269,0.009226872585713863,-0.000319633079925552,0.01684032566845417
0.020403197035193443,0.005083148833364248,-0.014938635751605034,0.00964816752821207,-0.00030217887251637876,0.01698221080005169
0.019857723265886307,0.0053150849416852,-0.014483998529613018,0.009396928362548351,-0.0003094466228503734,0.016488753259181976
0.01935429871082306,0.00505100516602397,-0.014583743177354336,0.009232055395841599,-0.0003154811274725944,0.016211610287427902
0.01935429871082306,0.00505100516602397,-0.014583743177354336,0.009232055395841599,-0.0003154811274725944,0.016211610287427902
0.0202176496386528,0.00529067125171423,-0.013612132519483566,0.009542496874928474,-0.0003017746494151652,0.016995808109641075
0.020319296047091484,0.004999272525310516,-0.014400014653801918,0.009329291060566902,-0.00031845495686866343,0.017394788563251495
0.0204514991492033,0.004893501754850149,-0.014338263310492039,0.00901885237544775,-0.0003141221823170781,0.01776711456477642
0.0202981885522604,0.0056623839773237705,-0.01487277913838625,0.009588073007762432,-0.00030158754088915884,0.01798594556748867
0.020513484254479408,0.005332266911864281,-0.014112576842308044,0.009865634143352509,-0.0002894997305702418,0.01741894893348217
0.020040709525346756,0.004968943540006876,-0.014813979156315327,0.010445961728692055,-0.00027830959879793227,0.017804138362407684
0.01967785134911537,0.005064918659627438,-0.014381498098373413,0.010430900380015373,-0.00026836676988750696,0.017759952694177628
0.02034899964928627,0.004979263059794903,-0.01483030803501606,0.010483160614967346,-0.0003007056948263198,0.018044987693428993
0.021041113883256912,0.005332928616553545,-0.014254004694521427,0.009686929173767567,-0.00028495138394646347,0.018202193081378937
0.020825272426009178,0.005561795551329851,-0.014744791202247143,0.010366092436015606,-0.00026817742036655545,0.01773451641201973
0.020770719274878502,0.005084336269646883,-0.014476077631115913,0.009434742853045464,-0.00025310146156698465,0.0174156054854393
0.020698504522442818,0.0054461159743368626,-0.014937281608581543,0.009448522701859474,-0.00023961919941939414,0.016919979825615883
0.02041817270219326,0.00534227816388011,-0.014493823982775211,0.009820917621254921,-0.0002275010774610564,0.0172981396317482
0.02011129818856716,0.005127370823174715,-0.015315775759518147,0.009258116595447063,-0.00021654994634445757,0.017620179802179337
0.020845923572778702,0.005608703941106796,-0.014526265673339367,0.009153468534350395,-0.00020660478912759572,0.017492542043328285
0.020626164972782135,0.005752682685852051,-0.015109371393918991,0.009734991006553173,-0.00023176259128376842,0.01803060621023178
0.02094506286084652,0.0051775225438177586,-0.015156466513872147,0.009713913314044476,-0.00021788285812363029,0.018043313175439835
0.02094506286084652,0.0051775225438177586,-0.015156466513872147,0.009713913314044476,-0.00021788285812363029,0.018043313175439835
0.02120543085038662,0.0054826391860842705,-0.0152574572712183,0.009843535721302032,-0.00020162960572633892,0.017517821863293648
0.021127277985215187,0.006312279496341944,-0.0150308758020401,0.009800055995583534,-0.00019437108130659908,0.017798570916056633
0.02133258990943432,0.005558985751122236,-0.015103365294635296,0.010739111341536045,-0.00018761699902825058,0.018247850239276886
0.021602312102913857,0.005257604643702507,-0.014762407168745995,0.01061900146305561,-0.00018131628166884184,0.018171723932027817
0.021569717675447464,0.005116881802678108,-0.014905063435435295,0.010173691436648369,-0.00018976126739289612,0.01775195077061653
0.02111821062862873,0.005091453902423382,-0.0155858239158988,0.010165785439312458,-0.00019724993035197258,0.018042851239442825
0.021579379215836525,0.005642901640385389,-0.015418878756463528,0.009672307409346104,-0.000192112143849954,0.018094083294272423
0.021902423352003098,0.0057561821304261684,-0.015404552221298218,0.010120872408151627,-0.00018648210971150547,0.017936021089553833
0.021902423352003098,0.0057561821304261684,-0.015404552221298218,0.010120872408151627,-0.00018648210971150547,0.017936021089553833
0.021619219332933426,0.005716374143958092,-0.014918013475835323,0.01027962937951088,-0.00018112412362825125,0.017917312681674957
0.021447081118822098,0.005203215405344963,-0.015332954004406929,0.01002548635005951,-0.0001760622690198943,0.01864318735897541
0.021828018128871918,0.005142869893461466,-0.014978420920670033,0.010451002046465874,-0.0001894047309178859,0.019111044704914093
0.02224142663180828,0.005369212478399277,-0.015746090561151505,0.010704909451305866,-0.00019014847930520773,0.01856289990246296
0.02186726965010166,0.006121849175542593,-0.015023079700767994,0.010124766267836094,-0.00018593593267723918,0.01851741224527359
0.021795088425278664,0.00564331840723753,-0.01545904390513897,0.010552644729614258,-0.00017456698697060347,0.018875518813729286
0.02196626551449299,0.005371522158384323,-0.014702369458973408,0.010234885849058628,-0.00018421639106236398,0.01853032410144806
0.02255392260849476,0.005453635007143021,-0.015499317087233067,0.009858082048594952,-0.0001929653953993693,0.01860394887626171
0.022200778126716614,0.006043762434273958,-0.015159264206886292,0.010497256182134151,-0.00020257561118341982,0.018673500046133995
0.022217001765966415,0.0058106426149606705,-0.015866249799728394,0.010751756839454174,-0.00021019784617237747,0.018824640661478043
0.022153278812766075,0.006007981952279806,-0.015932422131299973,0.01003747433423996,-0.00022965243260841817,0.01885068416595459
0.022202003747224808,0.005374937318265438,-0.01547885499894619,0.009171754121780396,-0.00022656160581391305,0.018649796023964882
0.022429103031754494,0.00564544228836894,-0.015874464064836502,0.010512647219002247,-0.0005445500719361007,0.01876087673008442
0.02278449945151806,0.005535684991627932,-0.015992050990462303,0.010725514963269234,-0.0005547283799387515,0.019167253747582436
0.022229062393307686,0.0059118205681443214,-0.01582351326942444,0.010681603103876114,-0.0005439429660327733,0.019857140257954597
0.022830501198768616,0.0055639659985899925,-0.015264192596077919,0.009920146316289902,-0.0004968148423358798,0.019822606816887856
0.023041700944304466,0.005587292369455099,-0.015780173242092133,0.009782079607248306,-0.0004917668411508203,0.01965843327343464
0.023219216614961624,0.00554911931976676,-0.015326141379773617,0.010532043874263763,-0.00048709468683227897,0.01877325214445591
0.02313462644815445,0.0055694542825222015,-0.015896379947662354,0.010648555122315884,-0.00042372566531412303,0.018724381923675537
0.02215026319026947,0.0058296737261116505,-0.016018198803067207,0.010620195418596268,-0.0004497809277381748,0.018978748470544815
0.02285831794142723,0.005903908982872963,-0.016440389677882195,0.010078676976263523,-0.00042656558798626065,0.01985146291553974
0.02331232838332653,0.005418139044195414,-0.016640380024909973,0.010479339398443699,-0.00040872907266020775,0.019816825166344643
0.023143641650676727,0.005828006658703089,-0.016805250197649002,0.010678344406187534,-0.00037800188874825835,0.01916230097413063
0.02303730882704258,0.005474496632814407,-0.016555484384298325,0.010835736989974976,-0.000413750356528908,0.01920352317392826
0.02374381385743618,0.005754627753049135,-0.017095575109124184,0.010923119261860847,-0.00044414980220608413,0.019514050334692
0.02374381385743618,0.005754627753049135,-0.017095575109124184,0.010923119261860847,-0.00044414980220608413,0.019514050334692
0.024720167741179466,0.00556187704205513,-0.01655367761850357,0.010904515162110329,-0.0004516162443906069,0.020059259608387947
0.023507896810770035,0.005573874805122614,-0.016768556088209152,0.010444886982440948,-0.0004507959820330143,0.019383536651730537
0.02315809763967991,0.005319617222994566,-0.016790812835097313,0.010662329383194447,-0.0005545442691072822,0.019169168546795845
0.02325652539730072,0.005922229494899511,-0.016654079779982567,0.01072392612695694,-0.0006013750680722296,0.01886771246790886
0.02338668890297413,0.0054938835091888905,-0.017408860847353935,0.011115807108581066,-0.0006370660266838968,0.019645093008875847
0.02345992997288704,0.005462721921503544,-0.01676044799387455,0.011153725907206535,-0.0006462087039835751,0.018739497289061546
0.024003008380532265,0.005494237411767244,-0.017108989879488945,0.011093170382082462,-0.0006059936713427305,0.01916043646633625
0.02385685406625271,0.005198604892939329,-0.016937902197241783,0.011868765577673912,-0.0006120864418335259,0.01974051259458065
0.023980841040611267,0.005652059335261583,-0.017127525061368942,0.011443929746747017,-0.0005807183333672583,0.020402776077389717
0.023616552352905273,0.005264892242848873,-0.0173343438655138,0.011349567212164402,-0.0006162951467558742,0.0202244333922863
0.023849019780755043,0.005304788239300251,-0.01644223742187023,0.011395100504159927,-0.0006570513360202312,0.019917067140340805
0.02439958043396473,0.005053783301264048,-0.01672600954771042,0.011403771117329597,-0.0006646207184530795,0.019846869632601738
0.02451314590871334,0.004826016258448362,-0.01656155101954937,0.012323291040956974,-0.0006216014735400677,0.020122654736042023
0.02410658821463585,0.005253361538052559,-0.016919588670134544,0.012123038992285728,-0.0006422835867851973,0.019785448908805847
0.024516429752111435,0.00516835693269968,-0.01711956597864628,0.01262911967933178,-0.0005942361312918365,0.019780077040195465
0.02425840124487877,0.005425351206213236,-0.01652543805539608,0.012187537737190723,-0.0006554275169037282,0.02014179341495037
0.023929545655846596,0.005716121289879084,-0.017090214416384697,0.011717473156750202,-0.0005881814868189394,0.02006649784743786
0.02438502013683319,0.004715329501777887,-0.016894549131393433,0.011795192956924438,-0.0005569061613641679,0.020421652123332024
0.024836204946041107,0.00515893567353487,-0.016644716262817383,0.011629043146967888,-0.000569378025829792,0.020691828802227974
0.025023087859153748,0.005057509057223797,-0.016736004501581192,0.011645633727312088,-0.0005398468929342926,0.020904172211885452
0.023746179416775703,0.005446416791528463,-0.01689559780061245,0.011710084043443203,-0.0005645318306051195,0.020827222615480423
0.025178760290145874,0.005274313502013683,-0.016637688502669334,0.012085428461432457,-0.0005566667532548308,0.020902501419186592
0.025382349267601967,0.005083232186734676,-0.01728147640824318,0.012026084586977959,-0.0005749017582274973,0.02099854312837124
0.02496531419456005,0.00490578031167388,-0.016798358410596848,0.01262278575450182,-0.0005622752360068262,0.021102163940668106
0.024856405332684517,0.004810148850083351,-0.017264612019062042,0.012398965656757355,-0.0005912272026762366,0.020960360765457153
0.025252003222703934,0.0052006980404257774,-0.01752552017569542,0.012793085537850857,-0.0006125741056166589,0.021281663328409195
0.025252003222703934,0.0052006980404257774,-0.01752552017569542,0.012793085537850857,-0.0006125741056166589,0.021281663328409195
0.02552802674472332,0.005295365117490292,-0.017313187941908836,0.012268627993762493,-0.0008511653286404908,0.02095428854227066
0.02637980692088604,0.004810316022485495,-0.017404960468411446,0.01232169196009636,-0.0007675954257138073,0.021268941462039948
0.02637980692088604,0.004810316022485495,-0.017404960468411446,0.01232169196009636,-0.0007675954257138073,0.021268941462039948
0.025496402755379677,0.004612971097230911,-0.01751033216714859,0.01185655314475298,-0.000674039067234844,0.02144472859799862
0.025821685791015625,0.004631517920643091,-0.017698127776384354,0.012819723226130009,-0.0005992451915517449,0.021161792799830437
0.024129802361130714,0.004877808038145304,-0.01708799973130226,0.012704231776297092,-0.0006166346720419824,0.02139178290963173
0.02569606527686119,0.0056439414620399475,-0.01754946820437908,0.01313841249793768,-0.0005711686098948121,0.02132146991789341
0.026292996481060982,0.005273295100778341,-0.017100438475608826,0.012503189966082573,-0.0005242768093012273,0.021403418853878975
0.02592446468770504,0.004807488061487675,-0.017081156373023987,0.012104388326406479,-0.00048400770174339414,0.021297214552760124
0.025767527520656586,0.004776444751769304,-0.01774103380739689,0.012577320449054241,-0.0004494528111536056,0.02147439494729042
0.026310328394174576,0.004764839541167021,-0.017567552626132965,0.011961209587752819,-0.0004486209945753217,0.021680284291505814
0.027000077068805695,0.004769931547343731,-0.017608756199479103,0.01253501046448946,-0.0004474747402127832,0.022002844139933586
0.02645435370504856,0.005057432223111391,-0.016745494678616524,0.011669064871966839,-0.000422930927015841,0.02139999344944954
0.025764193385839462,0.005434801802039146,-0.01731709949672222,0.01211619470268488,-0.0003686016134452075,0.02172597125172615
0.025963306427001953,0.005424773320555687,-0.01794417016208172,0.01269146241247654,-0.0003143934009131044,0.02197165973484516
0.026105543598532677,0.005102237686514854,-0.01738748885691166,0.012829586863517761,-0.00032048902357928455,0.022055676206946373
0.026756590232253075,0.00480272900313139,-0.017463570460677147,0.013209052383899689,-0.00032704934710636735,0.022039096802473068
0.0268545001745224,0.005342192016541958,-0.017626555636525154,0.01327600609511137,-0.00034122978104278445,0.021754665300250053
0.02700740098953247,0.005168383475393057,-0.01840607449412346,0.013165023177862167,-0.0003676041087601334,0.021400313824415207
0.02691601775586605,0.00504693016409874,-0.01707974448800087,0.013574476353824139,-0.000479646900203079,0.021511932834982872
0.02721313387155533,0.004919316619634628,-0.0173870250582695,0.013319815509021282,-0.0005408967845141888,0.022273829206824303
0.02683260478079319,0.004799999296665192,-0.01737542822957039,0.013529551215469837,-0.0005806919652968645,0.022558297961950302
0.026564402505755424,0.004709512460976839,-0.01744496449828148,0.013416777364909649,-0.000530082150362432,0.021947190165519714
0.028346898034214973,0.00518165435642004,-0.018214572221040726,0.013745465315878391,-0.00048303056973963976,0.02140052802860737
0.02767902985215187,0.005103233270347118,-0.017613161355257034,0.013325580395758152,-0.0005119930719956756,0.022071244195103645
0.027241654694080353,0.005472348537296057,-0.017437966540455818,0.01352918054908514,-0.00047763073234818876,0.023026131093502045
0.027362115681171417,0.005174762103706598,-0.018006589263677597,0.013571918942034245,-0.0004990286543034017,0.0229115579277277
0.027362115681171417,0.005174762103706598,-0.018006589263677597,0.013571918942034245,-0.0004990286543034017,0.0229115579277277
0.02748231217265129,0.004861145280301571,-0.018219497054815292,0.013429178856313229,-0.0004741406883113086,0.022524632513523102
0.027402956038713455,0.004714277572929859,-0.018658386543393135,0.013890186324715614,-0.0004883504589088261,0.02241639792919159
0.027364199981093407,0.0052892849780619144,-0.01790846697986126,0.0132765406742692,-0.0004872279241681099,0.02377437986433506
0.027911171317100525,0.005570318549871445,-0.017681319266557693,0.013406183570623398,-0.00048259261529892683,0.023218566551804543
0.02740686945617199,0.005498796235769987,-0.018282106146216393,0.013026228174567223,-0.00048123771557584405,0.02238844893872738
0.027581583708524704,0.00493716960772872,-0.017864668741822243,0.013450173661112785,-0.00047760692541487515,0.021936850622296333
0.028141772374510765,0.0048728869296610355,-0.018413471058011055,0.012886679731309414,-0.0005051838234066963,0.022060228511691093
0.027580685913562775,0.005256825126707554,-0.018657222390174866,0.013226545415818691,-0.0005621231393888593,0.02312283404171467
0.027800995856523514,0.005329829640686512,-0.018064972013235092,0.012516181915998459,-0.0006577856256626546,0.023729560896754265
0.02819616161286831,0.00532080652192235,-0.01797514595091343,0.01291252113878727,-0.0006140984478406608,0.023594027385115623
0.02820584550499916,0.004940679296851158,-0.0183103047311306,0.013177748769521713,-0.0006386577151715755,0.023501990363001823
0.02816898748278618,0.0046408153139054775,-0.018153762444853783,0.013292700052261353,-0.0006253492319956422,0.02322404272854328
0.0283370278775692,0.004835441242903471,-0.01941739022731781,0.013221479021012783,-0.0006092858384363353,0.023065434768795967
0.02868819423019886,0.005358031485229731,-0.018759163096547127,0.01279481966048479,-0.0006815390079282224,0.023266414180397987
0.028495416045188904,0.0056167407892644405,-0.018183665350079536,0.01335847470909357,-0.0006880430737510324,0.023022882640361786
0.02827608957886696,0.005531652364879847,-0.01903974451124668,0.01318080723285675,-0.0006596953608095646,0.023546406999230385
0.028382159769535065,0.004978805314749479,-0.01826576143503189,0.013989810831844807,-0.0006383709842339158,0.02352309226989746
0.02857527695596218,0.0055749062448740005,-0.018092578276991844,0.013618501834571362,-0.0006183477817103267,0.023366205394268036
0.02958015352487564,0.0053104739636182785,-0.018536482006311417,0.013705515302717686,-0.0006247832789085805,0.023377232253551483
0.029375534504652023,0.004842263646423817,-0.019008494913578033,0.013404740020632744,-0.0005930745974183083,0.02364118956029415
0.028421275317668915,0.005283441860228777,-0.01892685890197754,0.014219125732779503,-0.0006816965760663152,0.023301545530557632
0.029002001509070396,0.0048780920915305614,-0.018091952428221703,0.014932993799448013,-0.0006623384542763233,0.02333248406648636
0.028467249125242233,0.004746814724057913,-0.01847251132130623,0.014118034392595291,-0.0006856343825347722,0.023625094443559647
0.028981851413846016,0.004710166249424219,-0.01875595934689045,0.014113913290202618,-0.0009995619766414165,0.02366064488887787
0.029565349221229553,0.0048425327986478806,-0.018214985728263855,0.013541320338845253,-0.0010396592551842332,0.023862387984991074
0.02929937280714512,0.004896513186395168,-0.018584810197353363,0.013952918350696564,-0.0010229143081232905,0.0237063467502594
0.02878730185329914,0.0051180170848965645,-0.018745094537734985,0.013803394511342049,-0.000933867588173598,0.023566333577036858
0.028176402673125267,0.004982857499271631,-0.01841682940721512,0.014037073589861393,-0.0009177793399430811,0.023716744035482407
0.028896020725369453,0.004724518861621618,-0.018884437158703804,0.0138092627748847,-0.0009137999732047319,0.023526828736066818
0.02921370044350624,0.0047329505905508995,-0.01862388104200363,0.014027480036020279,-0.0008524410077370703,0.023855427280068398
0.02921370044350624,0.0047329505905508995,-0.01862388104200363,0.014027480036020279,-0.0008524410077370703,0.023855427280068398
0.029332440346479416,0.004761863499879837,-0.01858348958194256,0.014323610812425613,-0.0007997726206667721,0.024336116388440132
0.02954529970884323,0.005066766403615475,-0.01857559010386467,0.01415223442018032,-0.0007310034125111997,0.023935290053486824
0.02954529970884323,0.005066766403615475,-0.01857559010386467,0.01415223442018032,-0.0007310034125111997,0.023935290053486824
0.02948535606265068,0.004861461464315653,-0.01853029429912567,0.014360425062477589,-0.0006538405432365835,0.023419257253408432
0.02988058514893055,0.004747745580971241,-0.018512330949306488,0.014415894635021687,-0.000568854040466249,0.023225728422403336
0.029538994655013084,0.004713495261967182,-0.018127327784895897,0.014426502399146557,-0.0005047637969255447,0.023715926334261894
0.029292913153767586,0.00498819537460804,-0.019089404493570328,0.014447513967752457,-0.0005379284266382456,0.02444659173488617
0.029433701187372208,0.004957742057740688,-0.018684804439544678,0.014506114646792412,-0.0004941465449519455,0.024163609370589256
0.029729584231972694,0.005274427589029074,-0.017432786524295807,0.014834970235824585,-0.0004530093865469098,0.024601619690656662
0.03015221282839775,0.0050385743379592896,-0.01846102811396122,0.014620098285377026,-0.00047804266796447337,0.024860821664333344
0.02993672527372837,0.0048405821435153484,-0.018448151648044586,0.014720438979566097,-0.00045192238758318126,0.02500251494348049
0.030282525345683098,0.004704239312559366,-0.01846136711537838,0.01488881092518568,-0.0004782493633683771,0.02467607706785202
0.03047674521803856,0.004726028069853783,-0.018949298188090324,0.014594785869121552,-0.00047234297380782664,0.024113666266202927
0.030553940683603287,0.00468662241473794,-0.018756750971078873,0.014874096028506756,-0.00044745605555363,0.024369603022933006
0.02958989329636097,0.004869816359132528,-0.01845143735408783,0.014545183628797531,-0.00048407638678327203,0.025100545957684517
0.030959894880652428,0.004726524464786053,-0.018755998462438583,0.014834722504019737,-0.0005546092870645225,0.025494873523712158
0.031819626688957214,0.004687171895056963,-0.01893015392124653,0.014576544053852558,-0.0005500477273017168,0.025453338399529457
0.02988358773291111,0.004862100817263126,-0.019710838794708252,0.014808576554059982,-0.0008051470504142344,0.02507195994257927
0.030383992940187454,0.0047584050334990025,-0.019071519374847412,0.01547913532704115,-0.0007563233375549316,0.025359179824590683
0.03170158714056015,0.004728205502033234,-0.019363924860954285,0.014346834272146225,-0.0007478659972548485,0.025594446808099747
0.031197519972920418,0.0046684578992426395,-0.01947660930454731,0.014939435757696629,-0.0006907244678586721,0.02581601031124592
0.030965512618422508,0.004722930956631899,-0.018686359748244286,0.01424381509423256,-0.0007005686056800187,0.025429673492908478
0.031704600900411606,0.004558890592306852,-0.019361484795808792,0.014241514727473259,-0.0006506195059046149,0.025483399629592896
0.0322946198284626,0.0049288528971374035,-0.020162643864750862,0.013683969154953957,-0.0005947566241957247,0.025216305628418922
0.03153743967413902,0.004755706060677767,-0.01984163373708725,0.01450828742235899,-0.0006037650746293366,0.025714321061968803
0.031198492273688316,0.0048478348180651665,-0.018869252875447273,0.014513718895614147,-0.000564228801522404,0.025750955566763878
0.031674254685640335,0.004642134997993708,-0.019927171990275383,0.015045286156237125,-0.0005533585790544748,0.026293234899640083
0.031674254685640335,0.004642134997993708,-0.019927171990275383,0.015045286156237125,-0.0005533585790544748,0.026293234899640083
0.03202623128890991,0.004812580533325672,-0.020539984107017517,0.014446414075791836,-0.000542959722224623,0.025904761627316475
0.032192107290029526,0.004814172629266977,-0.019843699410557747,0.014733711257576942,-0.0005021027172915637,0.02515001781284809
0.03253213316202164,0.004388032481074333,-0.019310563802719116,0.013993537053465843,-0.00046516061411239207,0.025446107611060143
0.03193291649222374,0.00451230863109231,-0.02018662542104721,0.014658760279417038,-0.000490706239361316,0.02564651146531105
0.031717896461486816,0.0044467938132584095,-0.0198387298732996,0.014036060310900211,-0.0004628974129445851,0.025698574259877205
0.03236042708158493,0.004906021058559418,-0.01936797983944416,0.014685635454952717,-0.00044984466512687504,0.025965293869376183
0.03252715244889259,0.004792120773345232,-0.01962844282388687,0.013769577257335186,-0.0004552749451249838,0.02539151720702648
0.032077595591545105,0.004265551455318928,-0.01982872746884823,0.014468065463006496,-0.0004537711793091148,0.02525760605931282
0.03230638802051544,0.004483671393245459,-0.020071884617209435,0.014309217222034931,-0.0004547809949144721,0.025406915694475174
0.03273765742778778,0.004328818526118994,-0.019809802994132042,0.015250669792294502,-0.00045322527876123786,0.025865498930215836
0.032518383115530014,0.004472161643207073,-0.019435463473200798,0.014213795773684978,-0.0004693404771387577,0.026084430515766144
0.03247158229351044,0.004420097917318344,-0.01982431672513485,0.014579638838768005,-0.0004537987697403878,0.026040799915790558
0.03265179321169853,0.004481280222535133,-0.020115859806537628,0.014207269065082073,-0.0005816916236653924,0.025932935997843742
0.0328965000808239,0.0047473725862801075,-0.01970224641263485,0.015186919830739498,-0.0006288184667937458,0.02584756724536419
0.032775428146123886,0.004461361560970545,-0.01974099688231945,0.015313862822949886,-0.0006584258517250419,0.025571497157216072
0.0328647717833519,0.004347709007561207,-0.020090721547603607,0.015204916708171368,-0.0006876257248222828,0.025407319888472557
0.03328672796487808,0.004095309879630804,-0.019943539053201675,0.015989523380994797,-0.000873135810252279,0.02568725496530533
0.03315284475684166,0.004712642636150122,-0.019982734695076942,0.015987414866685867,-0.0008098051766864955,0.026587018743157387
0.0333900973200798,0.00496697286143899,-0.019982734695076942,0.015884622931480408,-0.0007681071874685585,0.026676295325160027
0.03369109332561493,0.0043608881533145905,-0.019388273358345032,0.016052084043622017,-0.0007297730771824718,0.025814896449446678
0.03387903794646263,0.004136670846492052,-0.020026421174407005,0.015608249232172966,-0.0007376298890449107,0.025237711146473885
0.03369057923555374,0.003953119274228811,-0.020231107249855995,0.01593904197216034,-0.0006791407358832657,0.025756338611245155
0.03362865373492241,0.003912477288395166,-0.019588952884078026,0.015292538329958916,-0.0006247165147215128,0.02666378580033779
0.033726129680871964,0.004407015163451433,-0.019557680934667587,0.01572951301932335,-0.0005322775105014443,0.026320897042751312
0.03370146453380585,0.004735677968710661,-0.019839966669678688,0.015626119449734688,-0.0005441100802272558,0.026132063940167427
0.03508302569389343,0.00447483966127038,-0.019762616604566574,0.016365844756364822,-0.0005549195338971913,0.02746220864355564
0.035106170922517776,0.003992829006165266,-0.01972436159849167,0.016339503228664398,-0.0005456410581246018,0.02696865424513817
0.035106170922517776,0.003992829006165266,-0.01972436159849167,0.016339503228664398,-0.0005456410581246018,0.02696865424513817
0.033238865435123444,0.004180992487818003,-0.019708532840013504,0.015755178406834602,-0.0005365706165321171,0.026006227359175682
0.033238865435123444,0.004180992487818003,-0.019708532840013504,0.015755178406834602,-0.0005365706165321171,0.026006227359175682
0.03440197557210922,0.004092568997293711,-0.019514495506882668,0.015584424138069153,-0.0006409963243640959,0.027137331664562225
0.034569162875413895,0.004179575480520725,-0.020058952271938324,0.016354793682694435,-0.0005714389262720942,0.02797527052462101
0.03475248068571091,0.003838049713522196,-0.019503731280565262,0.016368433833122253,-0.0005468809977173805,0.02676508203148842
0.03475248068571091,0.003838049713522196,-0.019503731280565262,0.016368433833122253,-0.0005468809977173805,0.02676508203148842
0.034024905413389206,0.004311009775847197,-0.01990520767867565,0.01615806296467781,-0.000568225746974349,0.026984626427292824
0.033363550901412964,0.00409284420311451,-0.02007942833006382,0.01637321710586548,-0.000530093559063971,0.027063950896263123
0.0345022939145565,0.004001356195658445,-0.01938888058066368,0.016256649047136307,-0.000549849180970341,0.02721959352493286
0.035058777779340744,0.003983465023338795,-0.01983160525560379,0.016407640650868416,-0.0005184911424294114,0.027034267783164978
0.03409360349178314,0.004483961965888739,-0.020097196102142334,0.01691654697060585,-0.00049901835154742,0.02717699110507965
0.035416729748249054,0.004195561632514,-0.019807200878858566,0.0165132787078619,-0.0004963711835443974,0.02760002575814724
0.03535881265997887,0.00394864659756422,-0.01993531733751297,0.016887705773115158,-0.0004908048431389034,0.027579590678215027
0.034692078828811646,0.004305737558752298,-0.020509110763669014,0.016902528703212738,-0.000517277221661061,0.02723129652440548
0.0352838970720768,0.004190701991319656,-0.020163709297776222,0.01708671636879444,-0.0005374173051677644,0.027337409555912018
0.03499046713113785,0.004219844006001949,-0.020143713802099228,0.016850631684064865,-0.0005183845642022789,0.026947766542434692
0.03413525968790054,0.004062121268361807,-0.0206295195966959,0.01652657613158226,-0.0007574819610454142,0.027161050587892532
0.03541109338402748,0.004558142274618149,-0.019746597856283188,0.01706675998866558,-0.0007207465823739767,0.02761329524219036
0.035243432968854904,0.004582073073834181,-0.02053236775100231,0.017124934121966362,-0.0006524870404973626,0.027754297479987144
0.03425886482000351,0.004403621423989534,-0.021869264543056488,0.017324253916740417,-0.0006323104607872665,0.028093824163079262
0.035510290414094925,0.004229169338941574,-0.021107330918312073,0.017081813886761665,-0.0006151509005576372,0.02794569730758667
0.03675384446978569,0.004118714015930891,-0.020304756239056587,0.01706027425825596,-0.0005724297952838242,0.0279066301882267
0.034722618758678436,0.0040109422989189625,-0.020486336201429367,0.016444804146885872,-0.0005648786318488419,0.027937620878219604
0.03459447622299194,0.004343616310507059,-0.020898859947919846,0.01671675592660904,-0.0005541045684367418,0.028541112318634987
0.03588654100894928,0.004587370436638594,-0.020611993968486786,0.016335010528564453,-0.0005421811947599053,0.029610436409711838
0.03588654100894928,0.004587370436638594,-0.020611993968486786,0.016335010528564453,-0.0005421811947599053,0.029610436409711838
0.03544113039970398,0.004647880792617798,-0.021318132057785988,0.016370510682463646,-0.0005664006457664073,0.029301928356289864
0.03704744204878807,0.004475018009543419,-0.02114899829030037,0.016721496358513832,-0.0005286866216920316,0.027944141998887062
0.036760978400707245,0.004310373682528734,-0.02110138349235058,0.01714850403368473,-0.0005531461792998016,0.02744809165596962
0.03568924218416214,0.004410425201058388,-0.02089807763695717,0.01765258051455021,-0.0006115913274697959,0.028269115835428238
0.034638307988643646,0.004612419754266739,-0.021390726789832115,0.01721200719475746,-0.0006507993675768375,0.028397560119628906
0.03694109991192818,0.0047240955755114555,-0.021348856389522552,0.017638597637414932,-0.0006538422894664109,0.02807023748755455
0.037021853029727936,0.00451328419148922,-0.020826976746320724,0.017729323357343674,-0.0006333729834295809,0.028958918526768684
0.03592022880911827,0.004730962682515383,-0.020761294290423393,0.01744055189192295,-0.0006548493984155357,0.02947160042822361
0.036582957953214645,0.004764683544635773,-0.022576630115509033,0.017271297052502632,-0.000608805101364851,0.02859397977590561
0.03641855716705322,0.004747788421809673,-0.02097027376294136,0.016474002972245216,-0.0007507169502787292,0.028478499501943588
0.036465078592300415,0.004438220988959074,-0.020946281030774117,0.016503900289535522,-0.0007774176192469895,0.028298282995820045
0.03651599958539009,0.00445198267698288,-0.021464159712195396,0.01631619967520237,-0.000819054723251611,0.029643965885043144
0.03667714446783066,0.004588297568261623,-0.021182367578148842,0.016568565741181374,-0.0009293846669606864,0.030359990894794464
0.036864690482616425,0.004716728813946247,-0.02188713662326336,0.017526954412460327,-0.0009953044354915619,0.029646316543221474
0.036748070269823074,0.004744796082377434,-0.021582482382655144,0.018080390989780426,-0.000984125304967165,0.02943459153175354
0.03716970235109329,0.004256964195519686,-0.02145310677587986,0.018742211163043976,-0.0009101443574763834,0.02942584827542305
0.03755030035972595,0.00429507065564394,-0.021573903039097786,0.01923481933772564,-0.0008968463516794145,0.0291090440005064
0.0369427315890789,0.004194887354969978,-0.02146272361278534,0.018608104437589645,-0.0008179068681783974,0.029413586482405663
0.03605084493756294,0.0044211759231984615,-0.02171945385634899,0.018236100673675537,-0.0008594191749580204,0.029433535411953926
0.03830340504646301,0.004733391106128693,-0.022316375747323036,0.017552373930811882,-0.0008665525238029659,0.02975427731871605
0.038075223565101624,0.004699986893683672,-0.02201155573129654,0.018375473096966743,-0.0009266978013329208,0.029946167021989822
0.0378086194396019,0.0046829585917294025,-0.021283943206071854,0.018506497144699097,-0.0008761538192629814,0.029818279668688774
0.03757122904062271,0.004678601864725351,-0.021638359874486923,0.018144136294722557,-0.0008767553954385221,0.029694581404328346
0.03775107488036156,0.004840414505451918,-0.02168416976928711,0.018777823075652122,-0.0008709787507541478,0.029998237267136574
0.03792545571923256,0.004609597846865654,-0.02201722003519535,0.018241478130221367,-0.0008739417535252869,0.03016127273440361
0.03806868940591812,0.005111257079988718,-0.02177853137254715,0.018085522577166557,-0.0008301572524942458,0.030405769124627113
0.038251135498285294,0.0050693778321146965,-0.021818825975060463,0.018602408468723297,-0.0007383138872683048,0.030790135264396667
0.038251135498285294,0.0050693778321146965,-0.021818825975060463,0.018602408468723297,-0.0007383138872683048,0.030790135264396667
0.03818139061331749,0.004802818410098553,-0.02197868935763836,0.01830201968550682,-0.0007288233027793467,0.030264809727668762
0.03756076470017433,0.004492090083658695,-0.021440081298351288,0.018307484686374664,-0.000720176671165973,0.030467504635453224
0.03817947581410408,0.004862581845372915,-0.02100268006324768,0.018445486202836037,-0.0006904910551384091,0.030561404302716255
0.03951292857527733,0.004852335434406996,-0.02143530361354351,0.018046807497739792,-0.0007079941569827497,0.030713751912117004
0.03805655613541603,0.004904272500425577,-0.02218409813940525,0.018586011603474617,-0.0007187945302575827,0.029687369242310524
0.037076186388731,0.004681550431996584,-0.022185226902365685,0.018337128683924675,-0.0008010659366846085,0.031223542988300323
0.038441579788923264,0.004846447147428989,-0.021911876276135445,0.01817195676267147,-0.0008247836958616972,0.03116304986178875
0.03881934657692909,0.004253590479493141,-0.021242467686533928,0.01873789355158806,-0.0010001687332987785,0.030945731326937675
0.039605189114809036,0.004405565094202757,-0.021556992083787918,0.018542589619755745,-0.001132417586632073,0.031933922320604324
0.039700742810964584,0.004614881239831448,-0.022108087316155434,0.018764054402709007,-0.0011221442837268114,0.03124145045876503
0.03787990286946297,0.004714279435575008,-0.02292277291417122,0.019025273621082306,-0.0010716371471062303,0.030016247183084488
0.038168709725141525,0.00520784966647625,-0.021911006420850754,0.018722761422395706,-0.0009654220193624496,0.02978016994893551
0.0393165647983551,0.004616009071469307,-0.022139785811305046,0.018847839906811714,-0.000890524941496551,0.03082251362502575
0.03887196630239487,0.004578093998134136,-0.021673716604709625,0.019317952916026115,-0.0008876408683136106,0.030800942331552505
0.0392121896147728,0.004176581744104624,-0.021591123193502426,0.018905295059084892,-0.000880135630723089,0.030979378148913383
0.03944701328873634,0.004276741296052933,-0.021517843008041382,0.01888035610318184,-0.0008673715637996793,0.03188800811767578
0.039327025413513184,0.005020607262849808,-0.022150760516524315,0.018800538033246994,-0.0007532578310929239,0.03087538480758667
0.03908243775367737,0.004927878268063068,-0.022346096113324165,0.019404761493206024,-0.0007725252071395516,0.03043702058494091
0.03927083685994148,0.0049364943988621235,-0.022398535162210464,0.01970607042312622,-0.0007887063547968864,0.03197171911597252
0.03870931640267372,0.004787527024745941,-0.022897999733686447,0.01919505186378956,-0.0008082324638962746,0.032190073281526566
0.039358917623758316,0.0047770095989108086,-0.02241596207022667,0.019431222230196,-0.000973392219748348,0.031857930123806
0.03995681181550026,0.004463868215680122,-0.02309061586856842,0.019684378057718277,-0.000988687970675528,0.03166698291897774
0.039499521255493164,0.004951557144522667,-0.02265176922082901,0.019447123631834984,-0.0009764530113898218,0.03166951611638069
0.03794626519083977,0.0049569495022296906,-0.02233058586716652,0.019163435325026512,-0.0009577040327712893,0.031335193663835526
0.03794626519083977,0.0049569495022296906,-0.02233058586716652,0.019163435325026512,-0.0009577040327712893,0.031335193663835526
0.03920775651931763,0.004880116321146488,-0.022475620731711388,0.01932293176651001,-0.00090982107212767,0.0319083146750927
0.03914929926395416,0.004664104897528887,-0.023222947493195534,0.018719833344221115,-0.000939466874115169,0.031948067247867584
0.040269069373607635,0.004430796951055527,-0.023017607629299164,0.018785160034894943,-0.0009176335879601538,0.032015375792980194
0.03968184068799019,0.004559905733913183,-0.022594543173909187,0.019310688599944115,-0.0008281164919026196,0.031652357429265976
0.03823414817452431,0.004643906839191914,-0.022065922617912292,0.02008265070617199,-0.0008306224481202662,0.031976163387298584
0.03867502883076668,0.004644608125090599,-0.022948645055294037,0.01989799179136753,-0.0007999835652299225,0.032410960644483566
0.04029839485883713,0.005031412001699209,-0.022919289767742157,0.0201092641800642,-0.0007928507984615862,0.031027043238282204
0.040430083870887756,0.004914565943181515,-0.023047838360071182,0.01959161087870598,-0.0008063783752731979,0.03252578154206276
0.039755433797836304,0.004798008594661951,-0.022974519059062004,0.018927516415715218,-0.000817826425191015,0.03269572928547859
0.03999902680516243,0.0049958545714616776,-0.02213378995656967,0.019495904445648193,-0.0007797964499332011,0.032242413610219955
0.03975255414843559,0.005041343625634909,-0.022776411846280098,0.019780395552515984,-0.0008207937353290617,0.0326436422765255
0.040021397173404694,0.004701456055045128,-0.023275019600987434,0.02021472342312336,-0.0007312175584957004,0.03269415721297264
0.040581315755844116,0.00495076784864068,-0.02303658425807953,0.020558955147862434,-0.0007479407940991223,0.03301462531089783
0.04018184542655945,0.005201611202210188,-0.022923434153199196,0.020436858758330345,-0.0007586130523122847,0.03198859840631485
0.0403711311519146,0.004584715235978365,-0.022947877645492554,0.020286042243242264,-0.0007735753897577524,0.032908715307712555
0.04071146994829178,0.0045149438083171844,-0.02277178317308426,0.021091869100928307,-0.0007657641544938087,0.0340811088681221
0.0409424863755703,0.004939159378409386,-0.023107068613171577,0.02120780013501644,-0.0007749785436317325,0.03329986333847046
0.041141584515571594,0.004975460469722748,-0.023564286530017853,0.02060640975832939,-0.000822083035018295,0.03164789825677872
0.04139043390750885,0.004857012070715427,-0.02299414947628975,0.020121796056628227,-0.000833591038826853,0.03250532224774361
0.04093795269727707,0.0037041159812361,-0.0224530678242445,0.02062389627099037,-0.0010398025624454021,0.03340798616409302
0.041032787412405014,0.0035878275521099567,-0.02279958687722683,0.020616084337234497,-0.0010350259253755212,0.03454340621829033
0.04153693839907646,0.004216680768877268,-0.02306467480957508,0.021308477967977524,-0.0010170434834435582,0.03384806215763092
0.041263140738010406,0.004583392292261124,-0.023022739216685295,0.02151787094771862,-0.0010564717231318355,0.03277195617556572
0.0421123281121254,0.004213313106447458,-0.022858502343297005,0.021002965047955513,-0.0010305489413440228,0.03275272250175476
0.041971009224653244,0.003959348890930414,-0.022910477593541145,0.020161230117082596,-0.0009992453269660473,0.03430252522230148
0.04222230985760689,0.004357779864221811,-0.022983135655522346,0.02064928598701954,-0.0009846424218267202,0.0341511145234108
0.04250851646065712,0.004215717315673828,-0.023031264543533325,0.020917827263474464,-0.0009094916167668998,0.034065429121255875
0.0424400269985199,0.003546384396031499,-0.0225889440625906,0.020911920815706253,-0.0008579553104937077,0.035128116607666016
0.04218878969550133,0.0035745513159781694,-0.02293017879128456,0.020889362320303917,-0.0007977807545103133,0.03478892520070076
0.04400066286325455,0.003795892233029008,-0.023040346801280975,0.021122867241501808,-0.000798481865786016,0.034205950796604156
0.04350874200463295,0.003868664614856243,-0.02325398102402687,0.021123375743627548,-0.000795974163338542,0.0341336615383625
0.04147834703326225,0.003910100553184748,-0.023641834035515785,0.020974919199943542,-0.0007381982286460698,0.034067295491695404
0.04147834703326225,0.003910100553184748,-0.023641834035515785,0.020974919199943542,-0.0007381982286460698,0.034067295491695404
0.042639732360839844,0.0034930307883769274,-0.02382097765803337,0.021065404638648033,-0.0007053657900542021,0.03452371433377266
0.04347096383571625,0.0035607502795755863,-0.02319285459816456,0.021120302379131317,-0.0006831403588876128,0.03456403315067291
0.043795395642519,0.0036802447866648436,-0.023527495563030243,0.020754437893629074,-0.0006541548646055162,0.03472215682268143
0.04516240209341049,0.003772963769733906,-0.02365221455693245,0.02054469846189022,-0.0006771789630874991,0.03500591963529587
0.042151790112257004,0.0037859559524804354,-0.023224258795380592,0.02051810547709465,-0.0006814416265115142,0.03471098467707634
0.04339022561907768,0.0037749616894870996,-0.02335907518863678,0.02014276757836342,-0.0006409945199266076,0.03470807522535324
0.043855927884578705,0.0037691981997340918,-0.023760169744491577,0.020116154104471207,-0.0006403647712431848,0.03501131013035774
0.04425701126456261,0.0037442680913954973,-0.023074792698025703,0.020656680688261986,-0.000662267382722348,0.034882668405771255
