davideferrari95/blind_handover_controller/data/Test 241 - [2024-02-08 -- 12-34-22]/joint_states_data.csv
shoulder_pan_joint,shoulder_lift_joint,elbow_joint,wrist_1_joint,wrist_2_joint,wrist_3_joint
0.004278271924704313,0.008035446517169476,-0.009015203453600407,0.0016253270441666245,-0.00014256505528464913,0.006501506082713604
0.004444523248821497,0.007780120708048344,-0.009871565736830235,0.0014644120819866657,-0.00013977399794384837,0.00643177330493927
0.004444523248821497,0.007780120708048344,-0.009871565736830235,0.0014644120819866657,-0.00013977399794384837,0.00643177330493927
0.0044197505339980125,0.008924159221351147,-0.009534599259495735,0.0014480407116934657,-0.0001356665015919134,0.006034449208527803
0.00403829850256443,0.008046459406614304,-0.009268267080187798,0.0013338244752958417,-0.00013170261809136719,0.006002665031701326
0.004126983229070902,0.00789427850395441,-0.009631658904254436,0.0013805441558361053,-0.00012795794464182109,0.005663045682013035
0.00407625874504447,0.007737323641777039,-0.0092913918197155,0.0013407120713964105,-0.00012441985018085688,0.00692863529548049
0.0038767445366829634,0.008116901852190495,-0.00889240950345993,0.0013286075554788113,-0.00013901435886509717,0.007403469178825617
0.004263484850525856,0.008119456470012665,-0.009440458379685879,0.0013796350685879588,-0.0001410702388966456,0.006865812931209803
0.004592330195009708,0.008328231051564217,-0.010054402984678745,0.001340230694040656,-0.00013784079055767506,0.006229112856090069
0.005335081834346056,0.008044215850532055,-0.00897130835801363,0.0014009526930749416,-0.0001344331249129027,0.006243566051125526
0.006526528391987085,0.00813849363476038,-0.009780400432646275,0.0013636138755828142,-0.00013116920308675617,0.00666186586022377
0.0058830780908465385,0.00800219364464283,-0.009637875482439995,0.0013391062384471297,-0.00014388204726856202,0.006631904281675816
0.0052087437361478806,0.008202829398214817,-0.009362956508994102,0.0014864102704450488,-0.00014558019756805152,0.006429568398743868
0.006317425519227982,0.007914616726338863,-0.009556546807289124,0.001387108932249248,-0.00013947651314083487,0.00637671397998929
0.006609201431274414,0.007414625491946936,-0.009219598956406116,0.0013050419511273503,-0.00013645699073094875,0.006731276400387287
0.0065633924677968025,0.007683783303946257,-0.00926653016358614,0.0012493337271735072,-0.0001335640554316342,0.006825157906860113
0.006050838623195887,0.007885376922786236,-0.009573767893016338,0.0011917529627680779,-0.0001470236893510446,0.006813025567680597
0.006124832667410374,0.007619868032634258,-0.009123232215642929,0.0010914397425949574,-0.00014627537166234106,0.006379839964210987
0.0059789204970002174,0.0069410367868840694,-0.008927804417908192,0.0011418317444622517,-0.0001435059093637392,0.006055016536265612
0.006248328369110823,0.007323068100959063,-0.009151357226073742,0.0011077532544732094,-0.00021142368495929986,0.006168654188513756
0.006458281073719263,0.00797844398766756,-0.009242150001227856,0.0010335138067603111,-0.00021159420430194587,0.006599919404834509
0.006065988447517157,0.007632860913872719,-0.00909315887838602,0.0010831813560798764,-0.00020272229448892176,0.006688107270747423
0.006355287041515112,0.007460840977728367,-0.009749127551913261,0.001096005435101688,-0.00021299549553077668,0.006301846355199814
0.006575915031135082,0.008184840902686119,-0.009265103377401829,0.0010343817993998528,-0.00022191049356479198,0.005932529456913471
0.00632580928504467,0.008521665818989277,-0.009032796137034893,0.0009640064090490341,-0.00021425930026452988,0.006354928016662598
0.00632580928504467,0.008521665818989277,-0.009032796137034893,0.0009640064090490341,-0.00021425930026452988,0.006354928016662598
0.006424612365663052,0.007959195412695408,-0.009320568293333054,0.0009843031875789165,-0.00020615376706700772,0.006347272545099258
0.006366129964590073,0.0077264150604605675,-0.010035784915089607,0.0010099360952153802,-0.00022942820214666426,0.00656668609008193
0.006221759598702192,0.007747202645987272,-0.008994942530989647,0.000996787566691637,-0.00022330795763991773,0.006304087117314339
0.006397607270628214,0.008221998810768127,-0.010062783025205135,0.0010122183011844754,-0.00023089771275408566,0.00600961921736598
0.006351453252136707,0.007873295806348324,-0.009290818125009537,0.0010541857918724418,-0.00023743142082821578,0.005871190689504147
0.006035036873072386,0.007508248556405306,-0.008821150287985802,0.0010322385933250189,-0.00023074595083016902,0.00632226699963212
0.006279815454035997,0.008376531302928925,-0.009182584472000599,0.0010132275056093931,-0.0003206703986506909,0.006205964833498001
0.006157027557492256,0.007908274419605732,-0.009808133356273174,0.0009167923126369715,-0.0003289766900707036,0.005698875058442354
0.00595317967236042,0.007735149003565311,-0.009229769930243492,0.0009661774383857846,-0.00030849489849060774,0.005589756648987532
0.005955464672297239,0.0077734715305268764,-0.009048494510352612,0.0009588386747054756,-0.0003313337510917336,0.005922496318817139
0.005760578904300928,0.00838991068303585,-0.009727120399475098,0.000982549972832203,-0.0003246850974392146,0.006437973119318485
0.006030230782926083,0.007894637994468212,-0.009430578909814358,0.0010248224716633558,-0.0003070835373364389,0.006185708101838827
0.006545395590364933,0.007864223793148994,-0.009819746017456055,0.0012021559523418546,-0.0003325221186969429,0.005518298130482435
0.00614426052197814,0.008120493963360786,-0.00927277933806181,0.0012020861031487584,-0.00030606292420998216,0.005560452584177256
0.006400827318429947,0.007673871237784624,-0.009760715998709202,0.0012408755719661713,-0.0002919020189438015,0.005716593936085701
0.005866555962711573,0.008122852072119713,-0.010312390513718128,0.0012757285730913281,-0.0003135028819087893,0.006113857496529818
0.0065168337896466255,0.007849816232919693,-0.00933469831943512,0.0011674972483888268,-0.0003049576480407268,0.00547567056491971
0.006619276944547892,0.008311646059155464,-0.008955983445048332,0.0012295868946239352,-0.0002928616595454514,0.0051133702509105206
0.0058365389704704285,0.007958760485053062,-0.009754515253007412,0.0011738655157387257,-0.0003080007154494524,0.004994047340005636
0.005791071802377701,0.007729219738394022,-0.009922381490468979,0.0011489317985251546,-0.0003126014780718833,0.005285056307911873
0.005795025732368231,0.008334473706781864,-0.009396778419613838,0.0012881249422207475,-0.0002938807010650635,0.005814415402710438
0.006345773581415415,0.008689031936228275,-0.009830488823354244,0.0012571286642923951,-0.000275961821898818,0.005970530211925507
0.006345773581415415,0.008689031936228275,-0.009830488823354244,0.0012571286642923951,-0.000275961821898818,0.005970530211925507
0.006357196718454361,0.008509446866810322,-0.010183255188167095,0.001212725299410522,-0.00030499594868160784,0.005263230763375759
0.00604328652843833,0.00805564783513546,-0.009972445666790009,0.0013697647955268621,-0.0002945105079561472,0.005111255217343569
0.005720849148929119,0.008423060178756714,-0.010838749818503857,0.0013112365268170834,-0.0002796561166178435,0.005346532911062241
0.0058541372418403625,0.008209306746721268,-0.009640317410230637,0.0012412163196131587,-0.00026590676861815155,0.0057652797549963
0.006313054822385311,0.008396037854254246,-0.009137309156358242,0.0012784090358763933,-0.00025342588196508586,0.005891682114452124
0.006604521535336971,0.008636110462248325,-0.010431897826492786,0.001264082035049796,-0.00024206253874581307,0.00549259502440691
0.006092960946261883,0.008711881004273891,-0.009957813657820225,0.001225557760335505,-0.00023167472681961954,0.005585656501352787
0.005869410932064056,0.008122364990413189,-0.009922677651047707,0.0012063434114679694,-0.00024025485618039966,0.005297680851072073
0.0061839004047214985,0.00818424392491579,-0.010054848156869411,0.0012490041553974152,-0.00024768890580162406,0.005666059907525778
0.0062490301206707954,0.008519729599356651,-0.009719653986394405,0.001234012539498508,-0.00023937989317346364,0.0059098550118505955
0.006322514731436968,0.00846119411289692,-0.00963971484452486,0.0012090259697288275,-0.00023068547307047993,0.005814463831484318
0.006283314898610115,0.008192458190023899,-0.010493798181414604,0.001275121234357357,-0.0002225404023192823,0.006047061178833246
0.0059807877987623215,0.008447950705885887,-0.009240647777915001,0.001292708795517683,-0.0002149469219148159,0.005669599864631891
0.006238632835447788,0.008782506920397282,-0.009642361663281918,0.0016819984884932637,-0.0002078543766401708,0.0057840496301651
0.006492950487881899,0.008492284454405308,-0.010181769728660583,0.0016368709038943052,-0.0002153108362108469,0.0055140964686870575
0.006234575062990189,0.008305343799293041,-0.009737270884215832,0.0019505851669237018,-0.00022188524599187076,0.0057936483062803745
0.0062656463123857975,0.008548176847398281,-0.010101313702762127,0.0018530895467847586,-0.00021608862152788788,0.005757203325629234
0.006319829728454351,0.008371892385184765,-0.010068192146718502,0.0020254820119589567,-0.00020984685397706926,0.006121938582509756
0.006296630948781967,0.008928281255066395,-0.009731880389153957,0.001963639399036765,-0.0001982909452635795,0.005347521044313908
0.006259702146053314,0.00876476988196373,-0.00981266237795353,0.0018200945341959596,-0.00019297604740131646,0.0051462696865201
0.00607211422175169,0.008391370065510273,-0.009215112775564194,0.0017309915274381638,-0.00018793842173181474,0.0057783471420407295
0.006012477446347475,0.007777826394885778,-0.008999114856123924,0.0015678913332521915,-0.0001831573899835348,0.005571137648075819
0.0062412177212536335,0.010178840719163418,-0.009908301755785942,0.0015196189051494002,-0.00017861353990156204,0.005847669672220945
0.006036851555109024,0.008938024751842022,-0.009788059629499912,0.001606906414963305,-0.00017428955470677465,0.005428972188383341
0.006036851555109024,0.008938024751842022,-0.009788059629499912,0.001606906414963305,-0.00017428955470677465,0.005428972188383341
0.006276172585785389,0.008720606565475464,-0.00909365899860859,0.0015458166599273682,-0.00017016989295370877,0.005088907666504383
0.005931727588176727,0.00879671424627304,-0.010158088989555836,0.0017065624706447124,-0.0001468500413466245,0.005131380166858435
0.005931727588176727,0.00879671424627304,-0.010158088989555836,0.0017065624706447124,-0.0001468500413466245,0.005131380166858435
0.006635420024394989,0.00832885131239891,-0.0089296018704772,0.0017058459343388677,-0.00014023215044289827,0.005739810410887003
0.006471181288361549,0.007831846363842487,-0.009991686791181564,0.0016640457324683666,-0.00013586469867732376,0.005540721584111452
0.006065077148377895,0.00891584437340498,-0.009691504761576653,0.0015846224268898368,-0.0001318739668931812,0.0054440912790596485
0.006241513881832361,0.008690117858350277,-0.009026256389915943,0.001631911494769156,-0.00012811837950721383,0.005766497924923897
0.006659560836851597,0.008205116726458073,-0.009429804049432278,0.0018843524158000946,-0.0001245715538971126,0.005312621593475342
0.006623480468988419,0.008401193656027317,-0.009483369067311287,0.0020048164296895266,-0.00012121576583012938,0.0051512327045202255
0.0062321750447154045,0.00916818343102932,-0.00972670502960682,0.0022396838758140802,-0.00011803602683357894,0.005129121243953705
0.0066627999767661095,0.008411979302763939,-0.009313376620411873,0.002191197359934449,-0.00011501889093779027,0.005292894318699837
0.0062454151920974255,0.008745688945055008,-0.009533219039440155,0.0019983144011348486,-0.00011215202539460734,0.005518647842109203
0.006532715167850256,0.009041748009622097,-0.00904024951159954,0.0019369496731087565,-0.00010942482185782865,0.0052624898962676525
0.006659382488578558,0.00860358215868473,-0.009666655212640762,0.001758753671310842,-0.00010682697757147253,0.005150649230927229
0.006590076722204685,0.008602676913142204,-0.009601951576769352,0.0016144440742209554,-0.00010434959403937683,0.004968312103301287
0.006642308551818132,0.008776411414146423,-0.00894125271588564,0.0015407782047986984,-0.0001019845949485898,0.005538600962609053
0.006012252066284418,0.008875285275280476,-0.008971595205366611,0.0016464885557070374,-9.97245151665993e-05,0.005354502238333225
0.006496723275631666,0.008540707640349865,-0.009491464123129845,0.0015940129524096847,-9.756234794622287e-05,0.0050484295934438705
0.006541960407048464,0.008669368922710419,-0.009365771897137165,0.0017093612113967538,-9.549191599944606e-05,0.005167391151189804
0.006221126765012741,0.009037068113684654,-0.009653876535594463,0.0016978707863017917,-9.16040880838409e-05,0.004766537342220545
0.006268566939979792,0.008227488957345486,-0.009269654750823975,0.001743299886584282,-8.977656398201361e-05,0.004939848557114601
0.006415385287255049,0.008911876007914543,-0.00918415654450655,0.0019151205196976662,-8.802037336863577e-05,0.005257381126284599
0.006598437670618296,0.008978133089840412,-0.00957679282873869,0.001946433330886066,-8.63317764014937e-05,0.005292936228215694
0.006425224244594574,0.008313752710819244,-0.00903530977666378,0.0019872242119163275,-8.470658940495923e-05,0.005287404637783766
0.00626543490216136,0.008795101195573807,-0.009408964775502682,0.0019721921999007463,-9.54811621340923e-05,0.004571821540594101
0.007095189765095711,0.008766748942434788,-0.009454123675823212,0.0020703196059912443,-9.767989831743762e-05,0.004532989114522934
0.006604172755032778,0.008054913952946663,-0.009740314446389675,0.0020219110883772373,-9.619619959266856e-05,0.0050993431359529495
0.006650804076343775,0.008186737075448036,-0.008908034302294254,0.002012725220993161,-9.452902304474264e-05,0.005437042564153671
0.006739020813256502,0.008516067638993263,-0.009519489482045174,0.0019710296764969826,-9.290376328863204e-05,0.0054866354912519455
0.007047533988952637,0.007593367248773575,-0.009331969544291496,0.0019271521596238017,-9.133252024184912e-05,0.005271273199468851
0.007449636235833168,0.006676885765045881,-0.009181932546198368,0.0018251268193125725,-8.981346763903275e-05,0.004827974364161491
0.0069711278192698956,0.006990115158259869,-0.009454596787691116,0.0018414044752717018,-8.83440807228908e-05,0.0046832384541630745
0.0063776858150959015,0.007568327710032463,-0.009005993604660034,0.0018539876909926534,-8.692205301485956e-05,0.004557830281555653
0.0063776858150959015,0.007568327710032463,-0.009005993604660034,0.0018539876909926534,-8.692205301485956e-05,0.004557830281555653
0.006191933061927557,0.007132821250706911,-0.008460549637675285,0.0019101750804111362,-8.55450562085025e-05,0.0048956978134810925
0.006791727151721716,0.0069498224183917046,-0.009607496671378613,0.0019172574393451214,-8.421101665589958e-05,0.004874585196375847
0.006653136108070612,0.007262150291353464,-0.009604308754205704,0.0019477428868412971,-8.291791891679168e-05,0.004852091893553734
0.00637451745569706,0.007834358140826225,-0.0088864890858531,0.0017841606168076396,-8.166390762198716e-05,0.004395748022943735
0.006190992426127195,0.007384184747934341,-0.008966424502432346,0.0017156583489850163,-8.044729474931955e-05,0.004464348312467337
0.006604584865272045,0.007145894691348076,-0.009205954149365425,0.001694434555247426,-7.926645776024088e-05,0.0044187824241817
0.007204307243227959,0.00692428695037961,-0.009216228500008583,0.0018565350910648704,-7.811971590854228e-05,0.004370539914816618
0.0074354903772473335,0.007191770244389772,-0.00923189613968134,0.0021639035549014807,-7.70057158661075e-05,0.00499925808981061
0.007361192721873522,0.006811728700995445,-0.009280147030949593,0.0023205531761050224,-7.592300971737131e-05,0.005060840863734484
0.007034174166619778,0.006846644915640354,-0.008737774565815926,0.002338740276172757,-7.487037510145456e-05,0.004844815004616976
0.007524988614022732,0.00681652408093214,-0.008769651874899864,0.0023968329187482595,-7.384650234598666e-05,0.004352280870079994
0.006630484480410814,0.007197050377726555,-0.00949116237461567,0.002401915146037936,-6.229288555914536e-05,0.004401518497616053
0.006525498349219561,0.007332203909754753,-0.009202821180224419,0.0022529824636876583,-6.0003894759574905e-05,0.004455052316188812
0.007285360712558031,0.006512558087706566,-0.009391766041517258,0.002006852999329567,-5.8347563026472926e-05,0.00470541650429368
0.007490853779017925,0.0068151624873280525,-0.009230582043528557,0.0022912276908755302,-5.760026760981418e-05,0.004918471910059452
0.006964389234781265,0.006954967509955168,-0.0088161900639534,0.0021582271438091993,-5.687231168849394e-05,0.004960503429174423
0.006452565081417561,0.006557589862495661,-0.009392430074512959,0.002181629417464137,-5.616250928142108e-05,0.004870050586760044
0.006984145846217871,0.006288769189268351,-0.009329838678240776,0.002099753124639392,-5.5470216466346756e-05,0.004630974028259516
0.007300000172108412,0.0063993483781814575,-0.008834701962769032,0.002189384773373604,-5.479477113112807e-05,0.004278658423572779
0.0072359731420874596,0.007116605527698994,-0.009300097823143005,0.0021874841768294573,-5.4135594837134704e-05,0.004428038839250803
0.00704342732205987,0.007057680282741785,-0.009473792277276516,0.0022096566390246153,-5.349208367988467e-05,0.00457531213760376
0.007013678550720215,0.006848752964287996,-0.009020007215440273,0.0023714774288237095,-5.286369560053572e-05,0.004607509821653366
0.0072200545109808445,0.0073891859501600266,-0.008900933898985386,0.002265303861349821,-5.2249899454182014e-05,0.004405852407217026
0.0071643078699707985,0.007213963195681572,-0.010098883882164955,0.002367818495258689,-5.165020047570579e-05,0.004054452292621136
0.007490240503102541,0.007178797386586666,-0.009090309962630272,0.0023456886410713196,-5.106408571009524e-05,0.003933566156774759
0.007588555105030537,0.006747081875801086,-0.00960574485361576,0.002205401426181197,-5.0491154979681596e-05,0.0039316993206739426
0.0073929885402321815,0.006610531825572252,-0.009605818428099155,0.0022513798903673887,-4.993090624338947e-05,0.003971623256802559
0.0073929885402321815,0.006610531825572252,-0.009605818428099155,0.0022513798903673887,-4.993090624338947e-05,0.003971623256802559
0.0064148446545004845,0.0068696667440235615,-0.009257592260837555,0.0020774442236870527,-1.2688188689935487e-05,0.004278029315173626
0.0070189060643315315,0.0072622401639819145,-0.008876074105501175,0.0021779548842459917,-8.284480372822145e-07,0.004656209144741297
0.008020463399589062,0.007137463893741369,-0.009797675535082817,0.0023329644463956356,-5.409173908788034e-08,0.0042905802838504314
0.007529334630817175,0.007034242618829012,-0.009618481621146202,0.0022305541206151247,-3.5318039603993157e-09,0.004376670345664024
0.007253515068441629,0.0070913792587816715,-0.009084239602088928,0.0020786267705261707,-2.3060157949839066e-10,0.004136981442570686
0.007183658424764872,0.007466217502951622,-0.010066866874694824,0.002078344114124775,-1.505663475842578e-11,0.00391940725967288
0.008144868537783623,0.007394416723400354,-0.009678129106760025,0.0023560447152704,-9.830905620816788e-13,0.0042670657858252525
0.007923560217022896,0.0074302866123616695,-0.009207583963871002,0.0023184858728200197,-6.418878693544364e-14,0.00433276267722249
0.007665066979825497,0.00769461365416646,-0.01047012023627758,0.0024414793588221073,-4.19106904807039e-15,0.00437478581443429
0.007703923154622316,0.007973258383572102,-0.009274814277887344,0.002234768820926547,-2.7364685792338815e-16,0.00437551224604249
0.008013664744794369,0.007118514273315668,-0.009515324607491493,0.002112563233822584,-1.7867185603567878e-17,0.0040513682179152966
0.007080265320837498,0.007244893815368414,-0.01095278188586235,0.002085658721625805,-1.1665994944582898e-18,0.0038711067754775286
0.008100287057459354,0.0076568289659917355,-0.010012137703597546,0.002044500084593892,-7.617061651421585e-20,0.0035099033266305923
0.007907775230705738,0.007845853455364704,-0.009202981367707253,0.002362375846132636,-4.97339677578737e-21,0.0033929035998880863
0.007768342271447182,0.00790087878704071,-0.01015468593686819,0.002515070606023073,-2.1202369166362558e-23,0.003792509902268648
0.0077761197462677956,0.00698853051289916,-0.009080220945179462,0.002801541704684496,-1.3843633251023962e-24,0.0044268276542425156
0.007479226216673851,0.008134891279041767,-0.009718050248920918,0.0026648067869246006,-9.038903221192856e-26,0.004224032629281282
0.007637526839971542,0.007796083576977253,-0.009456290863454342,0.0024262305814772844,-5.901758091822025e-27,0.003941086120903492
0.007757247891277075,0.007608757819980383,-0.009735400788486004,0.0023285241331905127,-3.8534259105605016e-28,0.004306563176214695
0.007519048172980547,0.007823817431926727,-0.010323000140488148,0.00222544907592237,-2.5160118584661184e-29,0.004147231113165617
0.00749253761023283,0.007108084857463837,-0.010214156471192837,0.0023503326810896397,-1.6427759247656826e-30,0.003985899034887552
0.00831694807857275,0.007153122220188379,-0.009119591675698757,0.002617898629978299,-1.072615320337191e-31,0.003903545904904604
0.008365975692868233,0.008159159682691097,-0.01079471968114376,0.002860086038708687,-7.003411671206873e-33,0.003914705943316221
0.007661181036382914,0.008043991401791573,-0.00982784852385521,0.0028487863019108772,1.2816085472877603e-05,0.0039038180839270353
0.00755836209282279,0.007975330576300621,-0.009298705495893955,0.003011270659044385,2.0450774172786623e-05,0.004331762902438641
0.008001314476132393,0.007834568619728088,-0.009786752983927727,0.0029279482550919056,2.0723249690490775e-05,0.004148196894675493
0.007979941554367542,0.007057430688291788,-0.009546710178256035,0.0028904529754072428,2.0520177713478915e-05,0.003976210951805115
0.007979941554367542,0.007057430688291788,-0.009546710178256035,0.0028904529754072428,2.0520177713478915e-05,0.003976210951805115
0.0076697287149727345,0.00808228924870491,-0.009249894879758358,0.0027697209734469652,2.9766615625703707e-05,0.0034913839772343636
0.008305148221552372,0.0085176732391119,-0.010070154443383217,0.0029072167817503214,3.0053734008106403e-05,0.003535301424562931
0.008331047371029854,0.007679034024477005,-0.009197973646223545,0.003253467846661806,1.5085369341250043e-05,0.003907173406332731
0.007758133579045534,0.007431641221046448,-0.009645509533584118,0.0033155991695821285,9.849668458628003e-07,0.00421237014234066
0.007965369150042534,0.008020494133234024,-0.010239246301352978,0.0031682373955845833,6.431129406792024e-08,0.004067891743034124
0.00818075705319643,0.00802338495850563,-0.009715196676552296,0.0029268809594213963,4.199068204258083e-09,0.0035067631397396326
0.00823760125786066,0.007456779945641756,-0.00952349416911602,0.0029179598204791546,2.3478167349821888e-05,0.003452916629612446
0.0081833740696311,0.007458374835550785,-0.010364187881350517,0.002866919618099928,0.0003715378697961569,0.003738628700375557
0.008227551355957985,0.008260224014520645,-0.009658284485340118,0.002879858249798417,0.0004180515534244478,0.003438416635617614
0.008527594618499279,0.008160646073520184,-0.009068171493709087,0.0030517634004354477,0.0004048531991429627,0.003569600638002157
0.008992593735456467,0.00754716619849205,-0.009945660829544067,0.0029915787745267153,0.0004320881562307477,0.003755076788365841
0.008074505254626274,0.007474755402654409,-0.010001209564507008,0.003305137390270829,0.00041136174695566297,0.003853440983220935
0.008319554850459099,0.008107751607894897,-0.009443019516766071,0.0034866563510149717,0.0004343520267866552,0.003559436649084091
0.0089463135227561,0.00790498498827219,-0.009354504756629467,0.0034096220042556524,0.00041581556433811784,0.0033440659753978252
0.008306914940476418,0.008137811906635761,-0.009671159088611603,0.0037035199347883463,0.0005015918868593872,0.003130094613879919
0.008716116659343243,0.008342207409441471,-0.009965085424482822,0.003356067230924964,0.0005378967034630477,0.002792037557810545
0.008703992702066898,0.007818873040378094,-0.009856099262833595,0.003536031348630786,0.0004942928208038211,0.003042811993509531
0.008537216112017632,0.007589962333440781,-0.009532616473734379,0.0033090088982135057,0.0005182572058402002,0.003360257251188159
0.008850960060954094,0.007747904397547245,-0.009871401824057102,0.003540704259648919,0.0004870496049989015,0.003120673820376396
0.008910346776247025,0.008294502273201942,-0.009631718508899212,0.0032087755389511585,0.0004839863977394998,0.002774953143671155
0.00920939166098833,0.007686133496463299,-0.009256928227841854,0.0031358906999230385,0.00048044967115856707,0.0025533579755574465
0.00900767371058464,0.007425970397889614,-0.009744225069880486,0.003389667719602585,0.00045304486411623657,0.0024053065571933985
0.008828656747937202,0.00827858131378889,-0.009737393818795681,0.0032963429111987352,0.0004745605983771384,0.0028076190501451492
0.008886806666851044,0.008501844480633736,-0.009527011774480343,0.003508978057652712,0.00043337050010450184,0.0027537555433809757
0.009080235846340656,0.008002696558833122,-0.010529382154345512,0.0032848911359906197,0.00046898011351004243,0.0026248288340866566
0.009216454811394215,0.007139746565371752,-0.00988793931901455,0.0033761044032871723,0.0004710967477876693,0.0026168206240981817
0.009216454811394215,0.007139746565371752,-0.00988793931901455,0.0033761044032871723,0.0004710967477876693,0.0026168206240981817
0.009181234985589981,0.00798681378364563,-0.009171967394649982,0.0030679411720484495,0.0004684393643401563,0.002408744301646948
0.009008727967739105,0.007722342852503061,-0.010125049389898777,0.0030703709926456213,0.000492037448566407,0.002335389843210578
0.009388008154928684,0.007551968097686768,-0.009784630499780178,0.0030284966342151165,0.00046758493408560753,0.00213980651460588
0.009273109026253223,0.00784909725189209,-0.009241965599358082,0.003320004092529416,0.0005025131977163255,0.0021102684549987316
0.008924421854317188,0.008253836072981358,-0.010234634391963482,0.0031870403327047825,0.000506920216139406,0.002439802512526512
0.00906955823302269,0.00824716780334711,-0.010031169280409813,0.0030853310599923134,0.0005262980121187866,0.002822496695443988
0.009501988068223,0.007909764535725117,-0.009864099323749542,0.003072605235502124,0.0004985839477740228,0.0026754005812108517
0.008798794820904732,0.006757248193025589,-0.010164827108383179,0.003159161889925599,0.00045766160474158823,0.002638678764924407
0.009241844527423382,0.007162802387028933,-0.010312305763363838,0.0031883050687611103,0.0004826302465517074,0.0023229739163070917
0.009591417387127876,0.007197443395853043,-0.009545298293232918,0.003396151587367058,0.0004559516964945942,0.0021584518253803253
0.009852464310824871,0.006888142786920071,-0.010367205366492271,0.0032145902514457703,0.00045520850108005106,0.0020324233919382095
0.009588784538209438,0.007282237987965345,-0.009987068362534046,0.003058371599763632,0.00045366829726845026,0.0019774672109633684
0.009161487221717834,0.007176230661571026,-0.010320883244276047,0.0033133437391370535,0.00043718531378544867,0.0020296599250286818
0.009161487221717834,0.007176230661571026,-0.010320883244276047,0.0033133437391370535,0.00043718531378544867,0.0020296599250286818
0.009540961124002934,0.007130121812224388,-0.010348652489483356,0.0034050610847771168,0.0004630473267752677,0.002237008884549141
0.010119677521288395,0.007254217751324177,-0.009584777057170868,0.0032115632202476263,0.0004436696763150394,0.002082045190036297
0.009773376397788525,0.0072496989741921425,-0.009698798879981041,0.0033586539793759584,0.00044455614988692105,0.002085695508867502
0.010565457865595818,0.007133609149605036,-0.01040053740143776,0.0035903267562389374,0.00044509669532999396,0.0022676424123346806
0.00932210125029087,0.007142653688788414,-0.010317828506231308,0.0033642956987023354,0.000444243720266968,0.002288652816787362
0.009802558459341526,0.007379778660833836,-0.010066990740597248,0.0031944378279149532,0.0004945215187035501,0.002285139402374625
0.010568764992058277,0.007056988310068846,-0.010285278782248497,0.003204109612852335,0.0005100744892843068,0.0021337622310966253
0.009915321134030819,0.006982595659792423,-0.010258417576551437,0.0034986708778887987,0.0004623264539986849,0.0020457084756344557
0.009813387878239155,0.007331893779337406,-0.010637384839355946,0.003779221326112747,0.0004599457315634936,0.0019214130006730556
0.009941091760993004,0.007810569833964109,-0.010150199756026268,0.0038876552134752274,0.0004575993225444108,0.0018937357235699892
0.009941091760993004,0.007810569833964109,-0.010150199756026268,0.0038876552134752274,0.0004575993225444108,0.0018937357235699892
0.010073317214846611,0.0071127829141914845,-0.01073350291699171,0.0038868931587785482,0.00042404368286952376,0.001957179978489876
0.009999905712902546,0.006795300170779228,-0.009971383027732372,0.003480865154415369,0.0004567683208733797,0.001852824236266315
0.00986581388860941,0.006982889026403427,-0.010750669054687023,0.00329199293628335,0.00045560242142528296,0.0019145304104313254
0.00986581388860941,0.006982889026403427,-0.010750669054687023,0.00329199293628335,0.00045560242142528296,0.0019145304104313254
0.01066140178591013,0.007282317150384188,-0.010063175112009048,0.003273783251643181,0.0004301869194023311,0.0020134015940129757
0.010337223298847675,0.007069743704050779,-0.010352660901844501,0.003596019232645631,0.00043768243631348014,0.0019812847021967173
0.010230611078441143,0.006914595607668161,-0.010196319781243801,0.0039226901717484,0.00040427653584629297,0.0019604640547186136
0.01088955532759428,0.0073353140614926815,-0.009916792623698711,0.004049791023135185,0.00042574526742100716,0.0019291674252599478
0.010072539560496807,0.007565296720713377,-0.010885101743042469,0.004028907977044582,0.00041028528357855976,0.0018783609848469496
0.010065075941383839,0.006997083779424429,-0.011157715693116188,0.004013678524643183,0.0003823258157353848,0.00178599264472723
0.01057873759418726,0.007089769002050161,-0.010109749622642994,0.004000179935246706,0.0003860189754050225,0.0015835320809856057
0.009957799687981606,0.007259496953338385,-0.010158597491681576,0.0036106863990426064,0.00038876649341546,0.0015491116791963577
0.010594566352665424,0.007001210004091263,-0.010080342181026936,0.0033988349605351686,0.0003678038774523884,0.0014817381743341684
0.010502015240490437,0.006565561518073082,-0.010195333510637283,0.003387156641110778,0.0003938424924854189,0.0015929670771583915
0.010181806050240993,0.007112098857760429,-0.011158227920532227,0.003652755171060562,0.00037627603160217404,0.0016566874692216516
0.01046503521502018,0.006764101330190897,-0.010208923369646072,0.003831001464277506,0.00041326702921651304,0.0018586624646559358
0.010724145919084549,0.0072074891068041325,-0.00989446695894003,0.003778839949518442,0.00038691918598487973,0.0018739094957709312
0.010258909314870834,0.007076879497617483,-0.010503072291612625,0.003670498263090849,0.0003913714026566595,0.0018735986668616533
0.01118528749793768,0.006773008033633232,-0.009925130754709244,0.0038482847157865763,0.0003694180923048407,0.0015537533909082413
0.01024550013244152,0.007438630796968937,-0.010437417775392532,0.003986564464867115,0.00037390459328889847,0.0014230619417503476
0.010327346622943878,0.007175021339207888,-0.009663773700594902,0.003835854819044471,0.0003772976924665272,0.0013377739815041423
0.010593525134027004,0.00705329142510891,-0.010119483806192875,0.0038059367798268795,0.00035756416036747396,0.0012969359522685409
0.010568177327513695,0.007031467743217945,-0.010736970230937004,0.004308291710913181,0.0003803003637585789,0.0013353846734389663
0.010838357731699944,0.007352076470851898,-0.009964869357645512,0.0041816821321845055,0.0003666634438559413,0.0013998858630657196
0.010294610634446144,0.00731668621301651,-0.01087246835231781,0.003924383781850338,0.00035121344262734056,0.0014075475046411157
0.010427968576550484,0.007308929692953825,-0.010192828252911568,0.004122607409954071,0.00038582267006859183,0.0014497493393719196
0.010427968576550484,0.007308929692953825,-0.010192828252911568,0.004122607409954071,0.00038582267006859183,0.0014497493393719196
0.01081403810530901,0.0074785249307751656,-0.009550939314067364,0.004262839909642935,0.00035924947587773204,0.001395097584463656
0.01017582044005394,0.007124380208551884,-0.01082441583275795,0.003982516936957836,0.00033292928128503263,0.0012519978918135166
0.010722669772803783,0.007274542935192585,-0.010317924432456493,0.003838253440335393,0.0003400997375138104,0.001197475241497159
0.010762250982224941,0.006702085491269827,-0.010229913517832756,0.003804157255217433,0.00034592626616358757,0.0012220559874549508
0.01040065847337246,0.006890618707984686,-0.010982583276927471,0.004125040024518967,0.0003267922147642821,0.001235213945619762
0.0102554215118289,0.007060909178107977,-0.010212290100753307,0.004172039683908224,0.00030824862187728286,0.001254676841199398
0.010231012478470802,0.007528743706643581,-0.010218638926744461,0.004011266399174929,0.0002916041121352464,0.001286221668124199
0.010054929181933403,0.006774610839784145,-0.010721922852098942,0.003906839527189732,0.0002766594698186964,0.001278968178667128
0.010822074487805367,0.006726554594933987,-0.010312729515135288,0.0041898516938090324,0.0002631718525663018,0.0012617424363270402
0.011138739064335823,0.00676769157871604,-0.011171350255608559,0.004463614895939827,0.0002509385521989316,0.0010670054471120238
0.010591605678200722,0.00728096067905426,-0.011425650678575039,0.004308420233428478,0.00023979306570254266,0.0010202627163380384
0.010523760691285133,0.006534594111144543,-0.01078561507165432,0.004491277039051056,0.00022959454508963972,0.0009533255361020565
0.01001425739377737,0.006416392978280783,-0.010803267359733582,0.004461716860532761,0.0002202296891482547,0.0008844846743158996
0.010616200044751167,0.006753155030310154,-0.010629286989569664,0.004355942830443382,0.00021159867173992097,0.0008777728071436286
0.01044514775276184,0.007423309609293938,-0.010026260279119015,0.004288577940315008,0.00020361828501336277,0.0009502831962890923
0.010320452973246574,0.0070453244261443615,-0.01075875386595726,0.004312947392463684,0.00019621834508143365,0.0014342484064400196
0.010815869085490704,0.006562837399542332,-0.010740422643721104,0.004434237256646156,0.00018933709361590445,0.001496114768087864
0.01103119645267725,0.0062588173896074295,-0.010849645361304283,0.004139598459005356,0.00020548453903757036,0.001413186895661056
0.010299758054316044,0.006677172612398863,-0.010967705398797989,0.0044005862437188625,0.00020589960331562907,0.0012012338265776634
0.010703044012188911,0.006808840204030275,-0.011237668804824352,0.004277350846678019,0.00019371874805074185,0.0008345687529072165
0.010691729374229908,0.0063125742599368095,-0.010661597363650799,0.004301000852137804,0.00018794146308209747,0.0007035738090053201
0.010858594439923763,0.006416936870664358,-0.010445176623761654,0.004195770248770714,0.0001824966457206756,0.000720601063221693
0.01004741434007883,0.006809173617511988,-0.011769392527639866,0.004700956866145134,0.00017735858273226768,0.0007340198499150574
0.010488610714673996,0.006623830646276474,-0.010847377590835094,0.004525939933955669,0.0001725020701996982,0.0007148886215873063
0.010811695829033852,0.006276758387684822,-0.010746943764388561,0.0045006233267486095,0.00016790421796031296,0.0006886279443278909
0.010493350215256214,0.006095161661505699,-0.011000890284776688,0.004226135555654764,0.00016354516264982522,0.0006246872362680733
0.010567700490355492,0.00669808080419898,-0.010491505265235901,0.00437717791646719,0.0001594069617567584,0.0005506635061465204
0.0108930803835392,0.006259982939809561,-0.011063804849982262,0.004490135237574577,0.00015547296789009124,0.000581610482186079
0.0108930803835392,0.006259982939809561,-0.011063804849982262,0.004490135237574577,0.00015547296789009124,0.000581610482186079
0.0103072514757514,0.005951919127255678,-0.010852770879864693,0.0045881206169724464,0.0001517281198175624,0.000606502580922097
0.01094687357544899,0.005867158994078636,-0.010354377329349518,0.0047530801966786385,0.0001481599610997364,0.0006018697749823332
0.011604737490415573,0.0057515730150043964,-0.01126327458769083,0.0050193131901323795,0.00014475546777248383,0.0005886058206669986
0.011713865213096142,0.006144446320831776,-0.010927364230155945,0.004992288071662188,0.00014150400238577276,0.0005473554483614862
0.01161410566419363,0.006530454847961664,-0.010622003115713596,0.004849959164857864,0.0001383954077027738,0.0006032094242982566
0.010502627119421959,0.006104242522269487,-0.010882748290896416,0.0047539956867694855,0.00013542044325731695,0.0005393464816734195
0.010976942256093025,0.006173812318593264,-0.010500563308596611,0.004677704535424709,0.00013257053797133267,0.0004820303583983332
0.010976839810609818,0.005893404595553875,-0.009710925631225109,0.0050935298204422,0.00012983840133529156,0.0004353598633315414
0.010879075154662132,0.006027777213603258,-0.011806074529886246,0.0049866242334246635,0.00012721659732051194,0.00039691448910161853
0.011632313020527363,0.006473635323345661,-0.011152938939630985,0.004924262873828411,0.00012469857756514102,0.00036471360363066196
0.011002200655639172,0.006002407055348158,-0.01097457017749548,0.004738043062388897,0.00012227805564180017,0.000337348785251379
0.011104851961135864,0.005939405877143145,-0.010692169889807701,0.004669727757573128,0.00011994997475994751,0.0003138057654723525
0.01097017340362072,0.006520054768770933,-0.010986391454935074,0.0044624898582696915,0.0001177087688120082,0.00029333779821172357
0.010840914212167263,0.006848492193967104,-0.011594763956964016,0.004362309817224741,0.00011554981756489724,0.0002753774751909077
0.011122194118797779,0.006344121880829334,-0.01166815310716629,0.004409397020936012,0.00011346861720085144,0.00025949018890969455
0.011210264638066292,0.006208223756402731,-0.011564482934772968,0.004848212469369173,0.00011146124597871676,0.00024533781106583774
0.011091281659901142,0.00631069066002965,-0.011102335527539253,0.004709871485829353,0.00010952341835945845,0.00023264947230927646
0.011302814818918705,0.006042590830475092,-0.011112621054053307,0.004612861201167107,0.00010765187471406534,0.00022120917856227607
0.011260093189775944,0.00626727007329464,-0.010887738317251205,0.004613466560840607,0.00010409446258563548,0.00020140313426963985
0.011627214960753918,0.0059282537549734116,-0.011234498582780361,0.004710022825747728,0.0001024024240905419,0.00019277326646260917
0.011129642836749554,0.0059719569981098175,-0.011133729480206966,0.005170851014554501,0.00010076509352074936,0.00018485329928807914
0.011795627884566784,0.005931235384196043,-0.010477563366293907,0.005074494052678347,9.917830902850255e-05,0.00017755755106918514
0.011120438575744629,0.006348239723592997,-0.01117902621626854,0.005148592405021191,9.764124115463346e-05,0.0001708162744762376
0.011393476277589798,0.006313416175544262,-0.011005913838744164,0.0050443606451153755,9.615147428121418e-05,0.00016456888988614082
0.011482504196465015,0.005733874626457691,-0.011001473292708397,0.005109189078211784,9.470601071370766e-05,0.00015876200632192194
0.01148922462016344,0.006219504866749048,-0.011695516295731068,0.00495481863617897,9.33029004954733e-05,0.00015335083298850805
0.01174512505531311,0.006608592811971903,-0.010895321145653725,0.0049630748108029366,9.194132871925831e-05,0.0001482971420045942
0.011487476527690887,0.0065273623913526535,-0.011719630099833012,0.005204616580158472,9.061925084097311e-05,0.00014356533938553184
0.01156623661518097,0.006157906726002693,-0.011200572364032269,0.00519018666818738,8.933439676184207e-05,0.00013912619033362716
0.011891443282365799,0.006026487331837416,-0.011839148588478565,0.005276878364384174,8.808537677396089e-05,0.0001349535450572148
0.011891443282365799,0.006026487331837416,-0.011839148588478565,0.005276878364384174,8.808537677396089e-05,0.0001349535450572148
0.012259147129952908,0.006265466567128897,-0.011458850465714931,0.005030686501413584,8.687072840984911e-05,0.0001310239458689466
0.01283261552453041,0.006260834634304047,-0.011092511005699635,0.005008939653635025,8.56892074807547e-05,0.00012731643801089376
0.012238050810992718,0.006407637614756823,-0.011560975573956966,0.005317028146237135,8.453935879515484e-05,0.0001238134573213756
0.01257786899805069,0.00632429588586092,-0.011495061218738556,0.005049523897469044,8.341996726812795e-05,0.00012049770157318562
0.012813449837267399,0.006193375680595636,-0.010902933776378632,0.00497452775016427,8.232984691858292e-05,9.996073640650138e-05
0.012967112474143505,0.0064233290031552315,-0.011938635259866714,0.005286510102450848,8.12677972135134e-05,9.189457341562957e-05
0.012739041820168495,0.006916268263012171,-0.011574075557291508,0.005118662025779486,8.023282134672627e-05,8.92557218321599e-05
0.01327340118587017,0.006742250639945269,-0.01181115210056305,0.005468724295496941,7.922390796011314e-05,8.707341476110741e-05
0.013503341004252434,0.005885117221623659,-0.011740880087018013,0.005301578901708126,7.823991472832859e-05,8.501533739035949e-05
0.013089223764836788,0.006398904602974653,-0.010649725794792175,0.005706400144845247,7.728028867859393e-05,7.284728053491563e-05
0.01334955170750618,0.00666932063177228,-0.011799387633800507,0.005433829501271248,7.63438583817333e-05,6.157514144433662e-05
0.013066948391497135,0.006571813952177763,-0.012119856663048267,0.005763374734669924,7.542973617091775e-05,5.9743182646343485e-05
0.01288793794810772,0.005977452266961336,-0.011648500338196754,0.005545433145016432,7.453739090124145e-05,-3.830412242677994e-05
0.011556516401469707,0.006106027401983738,-0.01144360564649105,0.005890961736440659,7.366576028289273e-05,-6.0028236475773156e-05
0.013391601853072643,0.006168913561850786,-0.011060195043683052,0.005434970837086439,7.281435682671145e-05,-6.420248246286064e-05
0.013529562391340733,0.006797104142606258,-0.011671853251755238,0.005623620469123125,7.116929918993264e-05,-9.99623371171765e-05
0.013314860872924328,0.005732132587581873,-0.012157291173934937,0.00608363701030612,7.037430623313412e-05,-0.0004075490578543395
0.013384991325438023,0.005854417569935322,-0.011693972162902355,0.006139271426945925,6.959687743801624e-05,-0.0006236539338715374
0.013217620551586151,0.0066161928698420525,-0.011134822852909565,0.006021513137966394,4.544178409560118e-06,-0.000668036169372499
0.013286219909787178,0.006528320722281933,-0.01166426669806242,0.005614875350147486,2.9670238177459396e-07,-0.0006015420658513904
0.013772020116448402,0.006425643805414438,-0.01106995064765215,0.005918535869568586,1.9372546233853427e-08,-0.0005850928137078881
0.013279110193252563,0.0060713691636919975,-0.011614291928708553,0.005661333911120892,1.2648887492971994e-09,-0.0005712165147997439
0.01388026587665081,0.005933957640081644,-0.0117643466219306,0.005867315921932459,8.258819322870536e-11,-0.0005811832961626351
0.01344544067978859,0.006412638816982508,-0.011185772716999054,0.006343556102365255,5.3924191500964724e-12,-0.0005881329998373985
0.013909844681620598,0.0069655682891607285,-0.011869711801409721,0.005937912501394749,3.520864155781567e-13,-0.0006496090209111571
0.01342300046235323,0.006441211327910423,-0.01130444835871458,0.006039758678525686,2.29887249102341e-14,-0.0007330160588026047
0.014207662083208561,0.005829624831676483,-0.011127148754894733,0.0061646332032978535,1.5009994513794415e-15,-0.0013626409927383065
0.014207662083208561,0.005829624831676483,-0.011127148754894733,0.0061646332032978535,1.5009994513794415e-15,-0.0013626409927383065
0.013247388415038586,0.00559604587033391,-0.012331833131611347,0.006019973661750555,9.800453102885013e-17,-0.0014751758426427841
0.013582264073193073,0.0056818281300365925,-0.01174844615161419,0.006043316330760717,6.398994772455092e-18,-0.0014023804105818272
0.013535442762076855,0.006460028234869242,-0.01243149396032095,0.005644909106194973,4.178086430571987e-19,-0.0015276153571903706
0.014018085785210133,0.006126916501671076,-0.012421730905771255,0.005972911603748798,2.727992223233588e-20,-0.0013999727088958025
0.013851474970579147,0.0057066516019403934,-0.012280513532459736,0.00624519307166338,1.7811838053746683e-21,-0.0013288161717355251
0.01417069137096405,0.006129489280283451,-0.011844022199511528,0.0060919285751879215,1.1629858256956392e-22,-0.001291099120862782
0.013952381908893585,0.006621165666729212,-0.011033118702471256,0.006081708706915379,7.593466999713444e-24,-0.0012917164713144302
0.013746264390647411,0.006484343204647303,-0.012538846582174301,0.005844155326485634,4.957991282352125e-25,-0.0014334161533042789
0.013909060508012772,0.006147639360278845,-0.011594357900321484,0.005647690966725349,3.237213984090863e-26,-0.0017945407889783382
0.014075242914259434,0.006171235349029303,-0.012100324034690857,0.005449310876429081,2.8436052161850967e-05,-0.00186388089787215
0.014094824902713299,0.005787339527159929,-0.01214211992919445,0.006072329822927713,1.8566709059086861e-06,-0.001881383708678186
0.014194757677614689,0.006477598566561937,-0.011740936897695065,0.006552920676767826,1.2122734460717766e-07,-0.0017471755854785442
0.014170078560709953,0.006647077389061451,-0.012093611061573029,0.006585988681763411,7.915279098824612e-09,-0.0016133635072037578
0.014527292922139168,0.006043826229870319,-0.011729246005415916,0.006424703169614077,5.168110939202109e-10,-0.001617879024706781
0.014603976160287857,0.006116054020822048,-0.012282947078347206,0.006584412418305874,3.374407003819968e-11,-0.0017083629500120878
0.014731676317751408,0.00597932655364275,-0.0123380022123456,0.006339410785585642,1.4385626750153951e-13,-0.0025758349802345037
0.014853433705866337,0.006602989975363016,-0.01239315327256918,0.006142944563180208,9.392785621552616e-15,-0.002779485657811165
0.014796972274780273,0.005820950027555227,-0.011787568219006062,0.006232449319213629,6.132818176026226e-16,-0.0027393875643610954
0.014625830575823784,0.00587548827752471,-0.012780207209289074,0.006504131015390158,4.004291678990806e-17,-0.0024839448742568493
0.014554973691701889,0.005808107554912567,-0.012497980147600174,0.006519419141113758,2.6145162910058107e-18,-0.002182579366490245
0.014758806675672531,0.006126654800027609,-0.013010344468057156,0.006459084339439869,1.7070923089456916e-19,-0.0021297696512192488
0.014555532485246658,0.0065462528727948666,-0.012807311490178108,0.006327110808342695,1.1146093156470824e-20,-0.002269541611894965
0.015154163353145123,0.005693358834832907,-0.012739190831780434,0.006529911886900663,7.277602076107594e-22,-0.002348619746044278
0.01501315739005804,0.0057781534269452095,-0.012910165823996067,0.006550992839038372,4.751754149696699e-23,-0.0026384813245385885
0.01530237216502428,0.0058191572315990925,-0.012158835306763649,0.007719419896602631,3.1025556247848623e-24,-0.002805811818689108
0.014863098971545696,0.0061113303527235985,-0.012831655330955982,0.006994399707764387,2.0257471031746957e-25,-0.0027114429976791143
0.014863098971545696,0.0061113303527235985,-0.012831655330955982,0.006994399707764387,2.0257471031746957e-25,-0.0027114429976791143
0.015111644752323627,0.006507085170596838,-0.012363680638372898,0.006394820753484964,1.3226682886420976e-26,-0.0026635481044650078
0.014757897704839706,0.00621627876535058,-0.013170027174055576,0.006718975491821766,8.636078834031332e-28,-0.0025608427822589874
0.01516640279442072,0.006190487649291754,-0.012553231790661812,0.007283574435859919,5.63874250600181e-29,-0.002449043793603778
0.015043841674923897,0.0058509730733931065,-0.012844819575548172,0.007099869195371866,3.6816957027076296e-30,-0.002268075942993164
0.01544481422752142,0.005957726389169693,-0.012499796226620674,0.007172319572418928,2.4038840666406166e-31,-0.0027200914919376373
0.014990565367043018,0.006438277196139097,-0.012498375028371811,0.007032149937003851,1.5695645790664557e-32,-0.003643018426373601
0.015511068515479565,0.006059502717107534,-0.013246073387563229,0.006907215341925621,1.0248134237911403e-33,-0.003897387534379959
0.015490774996578693,0.005852510221302509,-0.013182166032493114,0.006672213785350323,6.691299553964324e-35,-0.0038600461557507515
0.015929585322737694,0.0060834637843072414,-0.012780181132256985,0.006624054163694382,4.3689399225286704e-36,-0.0037269913591444492
0.015696149319410324,0.0059245890006423,-0.012782969512045383,0.006269020028412342,2.8526057956211953e-37,-0.003776645055040717
0.015525022521615028,0.006327704060822725,-0.013005896471440792,0.006658594124019146,1.8625474846345845e-38,-0.003794368589296937
0.015545925125479698,0.005901912227272987,-0.012818788178265095,0.0066625503823161125,1.2161098657719709e-39,-0.003755792509764433
0.01576564460992813,0.0057663931511342525,-0.013396067544817924,0.006697524804621935,7.940317618250143e-41,-0.003726487047970295
0.01613297127187252,0.006019019987434149,-0.013298272155225277,0.006535532884299755,5.184804318001823e-42,-0.003624862991273403
0.015642870217561722,0.005881980061531067,-0.013239855878055096,0.007364404853433371,3.3911422836660573e-43,-0.0033115337137132883
0.01628069393336773,0.006340337917208672,-0.012858281843364239,0.007088103331625462,2.2420775429197073e-44,-0.003091241465881467
0.016305331140756607,0.005985782947391272,-0.012763739563524723,0.0072524878196418285,0.0,-0.003780774539336562
0.015999868512153625,0.0056892018765211105,-0.012301594018936157,0.008013601414859295,0.0,-0.003931413870304823
0.016291210427880287,0.005828074179589748,-0.013033010065555573,0.00817236490547657,0.0,-0.004304720554500818
0.016442209482192993,0.0060118273831903934,-0.01261974312365055,0.007240199949592352,0.0,-0.004145998042076826
0.016291365027427673,0.005984555929899216,-0.012968788854777813,0.007208343595266342,0.0,-0.003965300973504782
0.016376789659261703,0.006082410924136639,-0.01210472360253334,0.007030211854726076,0.0,-0.0038195305969566107
0.016219109296798706,0.006252061575651169,-0.011970131658017635,0.007794808130711317,0.0,-0.003738158382475376
0.015702130272984505,0.006009343080222607,-0.01300604548305273,0.008000476285815239,0.0,-0.003762571606785059
0.01681600511074066,0.006214292254298925,-0.012606394477188587,0.007729510311037302,0.0,-0.0037705928552895784
0.016853012144565582,0.006475554313510656,-0.013244771398603916,0.007569446228444576,0.0,-0.004450037144124508
0.016663286834955215,0.0061142779886722565,-0.012616087682545185,0.008107809349894524,0.0,-0.004722149111330509
0.016663286834955215,0.0061142779886722565,-0.012616087682545185,0.008107809349894524,0.0,-0.004722149111330509
0.01662568375468254,0.006261787842959166,-0.0125694265589118,0.008270441554486752,0.0,-0.004718318581581116
0.01710421033203602,0.006168718449771404,-0.012353994883596897,0.00779906427487731,0.0,-0.0042270272970199585
0.016852138563990593,0.0058519355952739716,-0.012993701733648777,0.0077792201191186905,0.0,-0.003948334604501724
0.017091665416955948,0.006085091270506382,-0.01321503333747387,0.007476520258933306,0.0,-0.004255063831806183
0.016417939215898514,0.0055734687484800816,-0.012658251449465752,0.00728589529171586,0.0,-0.0044045583344995975
0.01624392904341221,0.0059281871654093266,-0.0132207740098238,0.006923214066773653,0.0,-0.00477713393047452
0.01695011928677559,0.006188652943819761,-0.012529966421425343,0.007755307946354151,0.0,-0.004907504189759493
0.01661502569913864,0.0060802605003118515,-0.0130125368013978,0.007966755889356136,0.0,-0.004835162311792374
0.01742308773100376,0.006035689730197191,-0.012679282575845718,0.007954969070851803,0.0,-0.00460599921643734
0.017257004976272583,0.005929538514465094,-0.013304534368216991,0.008160021156072617,0.0,-0.0045532239601016045
0.016783561557531357,0.006092673633247614,-0.013620267622172832,0.007971088401973248,0.0,-0.004689293447881937
0.017062490805983543,0.006616048514842987,-0.013245300389826298,0.0079965740442276,0.0,-0.0050830780528485775
0.01695805788040161,0.006290080491453409,-0.012836525216698647,0.00796021893620491,-0.00023602468718308955,-0.005195054691284895
0.018167492002248764,0.006107584573328495,-0.01263447292149067,0.008294717408716679,-0.0002765149693004787,-0.004913337528705597
0.017168192192912102,0.005633723456412554,-0.01314189750701189,0.008477283641695976,-0.00030958818388171494,-0.004743010271340609
0.01724291406571865,0.006005443166941404,-0.012800056487321854,0.007917692884802818,-0.0002989295753650367,-0.00500807911157608
0.017010338604450226,0.00584506755694747,-0.01280131097882986,0.007834192365407944,-0.0002695130242500454,-0.005137585569173098
0.01737336628139019,0.005647891666740179,-0.013428738340735435,0.008082853630185127,-0.000277592393103987,-0.005008709151297808
0.01729503646492958,0.005589147098362446,-0.01306951604783535,0.008071154356002808,-0.0002844599075615406,-0.005133103113621473
0.017407163977622986,0.00571011658757925,-0.01333637721836567,0.008267012424767017,-0.0002733826113399118,-0.00517743406817317
0.017755454406142235,0.0058906408958137035,-0.013318279758095741,0.008023139089345932,-0.00026208985946141183,-0.005314243491739035
0.01753261499106884,0.005942316725850105,-0.01314507145434618,0.008381573483347893,-0.00025162473320961,-0.005224978551268578
0.01756330206990242,0.005505142733454704,-0.01287072990089655,0.0080002686008811,-0.0002419601078145206,-0.005303791258484125
0.01746567338705063,0.005911961663514376,-0.013082191348075867,0.008760430850088596,-0.0002576293481979519,-0.005564725026488304
0.017518574371933937,0.005727966781705618,-0.013579959981143475,0.008269992657005787,-0.00025623111287131906,-0.005439355969429016
0.017518574371933937,0.005727966781705618,-0.013579959981143475,0.008269992657005787,-0.00025623111287131906,-0.005439355969429016
0.017812835052609444,0.005817439407110214,-0.013256276957690716,0.008193310350179672,-0.0002479150134604424,-0.00561928004026413
0.0178765170276165,0.005648130085319281,-0.012995745055377483,0.00881983246654272,-0.00027046725153923035,-0.005405767355114222
0.0178765170276165,0.005648130085319281,-0.012995745055377483,0.00881983246654272,-0.00027046725153923035,-0.005405767355114222
0.017854003235697746,0.0055844844318926334,-0.013191130012273788,0.008799109607934952,-0.00024410949845332652,-0.0055093057453632355
0.017854003235697746,0.0055844844318926334,-0.013191130012273788,0.008799109607934952,-0.00024410949845332652,-0.0055093057453632355
0.01821696013212204,0.006011764518916607,-0.013843276537954807,0.00907399132847786,-0.000231555852224119,-0.005544600076973438
0.017993053421378136,0.0060126082971692085,-0.012933257035911083,0.009109857492148876,-0.00026124127907678485,-0.0057672169059515
0.01777348667383194,0.006122377701103687,-0.013554657809436321,0.008742598816752434,-0.0002517362590879202,-0.006290256977081299
0.017961889505386353,0.005535141099244356,-0.01354028470814228,0.008937711827456951,-0.00024068716447800398,-0.005879275966435671
0.017490901052951813,0.005849920678883791,-0.013749855570495129,0.008998379111289978,-0.0002304260851815343,-0.005822950042784214
0.01830223947763443,0.005570151377469301,-0.01375868171453476,0.008796815760433674,-0.00025291848578490317,-0.005579628515988588
0.0180377047508955,0.006127695553004742,-0.013854116201400757,0.008526445366442204,-0.000264685571892187,-0.005518750287592411
0.017474807798862457,0.005725865252315998,-0.013554268516600132,0.00884926412254572,-0.0002711628039833158,-0.005472284276038408
0.018320351839065552,0.005635733716189861,-0.013471544720232487,0.009231389500200748,-0.0002623553154990077,-0.0056207687593996525
0.018181515857577324,0.005480956751853228,-0.013868008740246296,0.008623512461781502,-0.0003004040627274662,-0.005385204218327999
0.017943883314728737,0.005649154540151358,-0.013232783414423466,0.008376174606382847,-0.00032361774356104434,-0.005754852667450905
0.01673070713877678,0.00606867391616106,-0.014746802859008312,0.008203858509659767,-0.000334251846652478,-0.005435099825263023
0.019078010693192482,0.005916299298405647,-0.014104774221777916,0.00788023229688406,-0.0003405475290492177,-0.006176506634801626
0.018883902579545975,0.005943880882114172,-0.013815023936331272,0.008062630891799927,-0.0003220244834665209,-0.006751596927642822
0.0183035247027874,0.005580241326242685,-0.014228379353880882,0.008755594491958618,-0.0003286914434283972,-0.007336289156228304
0.018724098801612854,0.006420501507818699,-0.014078088104724884,0.008553708903491497,-0.00034088618122041225,-0.0061795408837497234
0.018534598872065544,0.005724931135773659,-0.014596492983400822,0.008669774048030376,-0.0003452349628787488,-0.006204479839652777
0.018342120572924614,0.005783308297395706,-0.014138835482299328,0.00891505554318428,-0.0003307260340079665,-0.006249259226024151
0.018750226125121117,0.005528090987354517,-0.014490463770925999,0.008491478860378265,-0.00031628378201276064,-0.006730535998940468
0.018625425174832344,0.005860583391040564,-0.014018594287335873,0.008852667175233364,-0.00038702384335920215,-0.006345424335449934
0.019168559461832047,0.00576854357495904,-0.014445043168962002,0.009421411901712418,-0.00036821444518864155,-0.006116689648479223
0.019168559461832047,0.00576854357495904,-0.014445043168962002,0.009421411901712418,-0.00036821444518864155,-0.006116689648479223
0.01879316009581089,0.005401205737143755,-0.014793763868510723,0.009007006883621216,-0.00037189514841884375,-0.0066228206269443035
0.01879316009581089,0.005401205737143755,-0.014793763868510723,0.009007006883621216,-0.00037189514841884375,-0.0066228206269443035
0.018913956359028816,0.005350351799279451,-0.01437586359679699,0.009341055527329445,-0.00035491667222231627,-0.006775149144232273
0.018604343757033348,0.005227038636803627,-0.01411961205303669,0.00934724509716034,-0.00038153515197336674,-0.006457697134464979
0.018288804218173027,0.0054870229214429855,-0.014068705961108208,0.008913936093449593,-0.00036596370046027005,-0.006290291901677847
0.019134294241666794,0.0056578922085464,-0.014398999512195587,0.009391609579324722,-0.000346272747265175,-0.006585059221833944
0.01961052231490612,0.005407626740634441,-0.013952168636023998,0.009567799046635628,-0.0003719164233189076,-0.007270460017025471
0.019508490338921547,0.005529850255697966,-0.014929868280887604,0.009141971357166767,-0.00035635297535918653,-0.007103848736733198
0.01881750486791134,0.0051426757127046585,-0.014542574994266033,0.009784609079360962,-0.0003791586495935917,-0.006560144945979118
0.019215576350688934,0.00526211503893137,-0.014715303666889668,0.009563259780406952,-0.00038598119863308966,-0.006238809321075678
0.019149014726281166,0.005707551259547472,-0.014460893347859383,0.009184237569570541,-0.0004196210065856576,-0.006722711026668549
0.01973610185086727,0.006061803083866835,-0.014672104269266129,0.009420400485396385,-0.00039731108699925244,-0.007135570514947176
0.020068682730197906,0.005510161630809307,-0.013949953950941563,0.009673980064690113,-0.0003705912968143821,-0.007420679088681936
0.01983458176255226,0.005734336096793413,-0.014680459164083004,0.009274140000343323,-0.00039676835876889527,-0.00717878295108676
0.01942867785692215,0.005579328164458275,-0.01461262907832861,0.009156318381428719,-0.00037967480602674186,-0.007221279665827751
0.019667962566018105,0.005899880081415176,-0.014555868692696095,0.009773766621947289,-0.0003585076192393899,-0.007482300978153944
0.02019503526389599,0.006181706208735704,-0.014686161652207375,0.009767782874405384,-0.00036284953239373863,-0.007869618013501167
0.019942302256822586,0.005489081609994173,-0.015045830979943275,0.010140126571059227,-0.0003662500239443034,-0.007861661724746227
0.020516855642199516,0.005903725512325764,-0.014545746147632599,0.010003158822655678,-0.00034987874096259475,-0.007130568381398916
0.020337218418717384,0.0064534153789281845,-0.014627221040427685,0.009596793912351131,-0.00036640549660660326,-0.007406049408018589
0.02070673368871212,0.00623758789151907,-0.014813017100095749,0.009554180316627026,-0.0003457828424870968,-0.0076753669418394566
0.020843107253313065,0.005852960050106049,-0.014887372963130474,0.009130284190177917,-0.0003688265278469771,-0.00774210412055254
0.02045491337776184,0.005203428212553263,-0.014877812936902046,0.00948731042444706,-0.0003590388223528862,-0.007240377366542816
0.020211266353726387,0.005309899337589741,-0.01515800878405571,0.010146334767341614,-0.000364918087143451,-0.00692311255261302
0.02087457664310932,0.005521222483366728,-0.014914281666278839,0.00927784200757742,-0.0003688136930577457,-0.007315073162317276
0.020874882116913795,0.0061943912878632545,-0.014947022311389446,0.009560144506394863,-0.00034997236798517406,-0.0075535704381763935
0.020450174808502197,0.006180684547871351,-0.015057112090289593,0.009987239725887775,-0.0003665939439088106,-0.007635659072548151
0.021442554891109467,0.00544370524585247,-0.015115145593881607,0.00973527878522873,-0.00035926344571635127,-0.007361315190792084
0.02156854420900345,0.005913402885198593,-0.015009594149887562,0.01020361203700304,-0.0003447011113166809,-0.007352882064878941
0.021339239552617073,0.005564918741583824,-0.015453144907951355,0.010151929222047329,-0.0004118885553907603,-0.0073441690765321255
0.02140253409743309,0.00587350083515048,-0.01469432283192873,0.00945028942078352,-0.0004545427218545228,-0.00795123353600502
0.02140253409743309,0.00587350083515048,-0.01469432283192873,0.00945028942078352,-0.0004545427218545228,-0.00795123353600502
0.021510731428861618,0.0057624164037406445,-0.01513331476598978,0.01040585432201624,-0.00048492642235942185,-0.007630321197211742
0.021774621680378914,0.005342280957847834,-0.014871355146169662,0.010481288656592369,-0.0005148756317794323,-0.00816663820296526
0.021845700219273567,0.005453057587146759,-0.015209141187369823,0.01015046238899231,-0.00048823223914951086,-0.008187408559024334
0.02173185907304287,0.005469641648232937,-0.014766654931008816,0.010369381867349148,-0.0007071486325003207,-0.007806628011167049
0.02167183719575405,0.005736134480684996,-0.01540675014257431,0.010528084821999073,-0.0006440806901082397,-0.007769770920276642
0.022208865731954575,0.00582123314961791,-0.014517886564135551,0.009787829592823982,-0.0006624759989790618,-0.007740648463368416
0.022309355437755585,0.005430970340967178,-0.01502827275544405,0.010619853623211384,-0.000650015368591994,-0.008620088919997215
0.02192681096494198,0.005763706751167774,-0.014978944323956966,0.010460115037858486,-0.0006291235331445932,-0.008185289800167084
0.02220415323972702,0.0054600960575044155,-0.015376205556094646,0.009848130866885185,-0.0006453076493926346,-0.008181867189705372
0.022527078166604042,0.005977639462798834,-0.014997843652963638,0.010540315881371498,-0.0006040252628736198,-0.008268962614238262
0.02251632697880268,0.005670600570738316,-0.015152109786868095,0.010250887833535671,-0.0005801108200103045,-0.008373765274882317
0.022559985518455505,0.005789939779788256,-0.014864129945635796,0.010428396053612232,-0.0006127300439402461,-0.008287310600280762
0.022768614813685417,0.005331797990947962,-0.01530598197132349,0.01110434252768755,-0.0006420548888854682,-0.00823329109698534
0.02269335463643074,0.005470748990774155,-0.015231720171868801,0.010788733139634132,-0.0009856157703325152,-0.008858900517225266
0.023201651871204376,0.006110904272645712,-0.01561015471816063,0.010884041897952557,-0.0009167654206976295,-0.008553826250135899
0.023067306727170944,0.005643242504447699,-0.015410694293677807,0.010698027908802032,-0.0008514778455719352,-0.008661697618663311
0.023435425013303757,0.005280418787151575,-0.01628122664988041,0.011379276402294636,-0.0007987561402842402,-0.009173446334898472
0.02358042076230049,0.005183001048862934,-0.015072135254740715,0.011203961446881294,-0.0007119789370335639,-0.008851897902786732
0.023820392787456512,0.005084028467535973,-0.015851859003305435,0.010845383629202843,-0.0006837686523795128,-0.009081301279366016
0.02370142936706543,0.004686875734478235,-0.015202800743281841,0.010318818502128124,-0.0006606125389225781,-0.0091890599578619
0.02370142936706543,0.004686875734478235,-0.015202800743281841,0.010318818502128124,-0.0006606125389225781,-0.0091890599578619
0.023403210565447807,0.004591158591210842,-0.01580306515097618,0.009793071076273918,-0.0006074355915188789,-0.008953248150646687
0.023909827694296837,0.004571360535919666,-0.015497881919145584,0.009880943223834038,-0.0005157380946911871,-0.008808022364974022
0.02435458078980446,0.0047648330219089985,-0.01601017266511917,0.010732252150774002,-0.00045906685409136117,-0.009300538338720798
0.024623800069093704,0.0048611583188176155,-0.01594419777393341,0.010129454545676708,-0.00048797400086186826,-0.009429261088371277
0.024334317073225975,0.004858323838561773,-0.016041483730077744,0.010597201064229012,-0.00045641770702786744,-0.00917860958725214
0.022445281967520714,0.0046951728872954845,-0.016393007710576057,0.010729917325079441,-0.00048667442752048373,-0.009153838269412518
0.0242463331669569,0.005083446390926838,-0.01578199863433838,0.010462322272360325,-0.0005120020359754562,-0.009145381860435009
0.024543318897485733,0.004737532697618008,-0.016013596206903458,0.010402332060039043,-0.0005857129581272602,-0.008907866664230824
0.024543318897485733,0.004737532697618008,-0.016013596206903458,0.010402332060039043,-0.0005857129581272602,-0.008907866664230824
0.02372688800096512,0.004735272377729416,-0.017050225287675858,0.010729345493018627,-0.0006182430079206824,-0.009100275114178658
0.024721525609493256,0.004733981564640999,-0.016563262790441513,0.011002195067703724,-0.0006353484350256622,-0.009254918433725834
0.025234321132302284,0.004744799807667732,-0.01688246615231037,0.0110914446413517,-0.0006597356405109167,-0.008896281942725182
0.025454053655266762,0.004572779405862093,-0.01690031588077545,0.010620802640914917,-0.0008166476618498564,-0.009390783496201038
0.024929910898208618,0.004974243231117725,-0.01599183864891529,0.010770294815301895,-0.0008783011580817401,-0.009053662419319153
0.023983696475625038,0.004767939448356628,-0.016974544152617455,0.010677888058125973,-0.0008934628567658365,-0.009250408038496971
0.023800063878297806,0.00434024166315794,-0.016685379669070244,0.011005023494362831,-0.0008873023325577378,-0.009195536375045776
0.024305783212184906,0.004493148531764746,-0.017040550708770752,0.011113285087049007,-0.0008020151872187853,-0.009644842706620693
0.0246915053576231,0.0045663523487746716,-0.01712939701974392,0.010574211366474628,-0.0008196352864615619,-0.00891266018152237
0.024810003116726875,0.004819556139409542,-0.016709571704268456,0.011723597534000874,-0.0008122464641928673,-0.008571778424084187
0.024809572845697403,0.00470367819070816,-0.01639387011528015,0.011621836572885513,-0.0007404469652101398,-0.008592826314270496
0.02468584105372429,0.004633777774870396,-0.017197877168655396,0.011366000398993492,-0.0007201179396361113,-0.009188507683575153
0.024326683953404427,0.004627816844731569,-0.016756737604737282,0.011223136447370052,-0.0006945835193619132,-0.009059842675924301
0.02462608925998211,0.0046265097334980965,-0.016908366233110428,0.011469642631709576,-0.0006762511911801994,-0.008889422751963139
0.024708710610866547,0.004722961224615574,-0.017052223905920982,0.011175158433616161,-0.0007023849757388234,-0.008856658823788166
0.024960966780781746,0.004769020713865757,-0.016595106571912766,0.011121829971671104,-0.0007251428905874491,-0.008979502134025097
0.02487037144601345,0.004925642162561417,-0.017177782952785492,0.011487873271107674,-0.0007433317368850112,-0.00912489928305149
0.025138014927506447,0.0048241582699120045,-0.016973640769720078,0.011252927593886852,-0.0008597088744863868,-0.009010104462504387
0.024934709072113037,0.00472625158727169,-0.016851138323545456,0.011390426196157932,-0.0009929126827046275,-0.009452752768993378
0.025010032579302788,0.004645850509405136,-0.016751503571867943,0.011740509420633316,-0.001020922209136188,-0.009508054703474045
0.02442552149295807,0.004669412970542908,-0.0165423434227705,0.011340662837028503,-0.001173345372080803,-0.00946604274213314
0.025035681203007698,0.0051326509565114975,-0.017382584512233734,0.011590166948735714,-0.0012868233025074005,-0.009308641776442528
0.025035681203007698,0.0051326509565114975,-0.017382584512233734,0.011590166948735714,-0.0012868233025074005,-0.009308641776442528
0.025386866182088852,0.005108062643557787,-0.01643187366425991,0.01113152876496315,-0.0012687059352174401,-0.009334417060017586
0.02512550912797451,0.005329427309334278,-0.016802269965410233,0.011796337552368641,-0.0012183386133983731,-0.009953387081623077
0.025134487077593803,0.005177638493478298,-0.01678982377052307,0.01220372598618269,-0.0011944064171984792,-0.009931068867444992
0.024498196318745613,0.004963894374668598,-0.017148027196526527,0.011558875441551208,-0.0010194272035732865,-0.009735241532325745
0.026077313348650932,0.004743183963000774,-0.017456024885177612,0.011685291305184364,-0.000982107361778617,-0.009701277129352093
0.026182495057582855,0.005251872818917036,-0.016928408294916153,0.01133425161242485,-0.000863752793520689,-0.009604262188076973
0.025758258998394012,0.005247643683105707,-0.017120499163866043,0.011414099484682083,-0.0008123331353999674,-0.00939670205116272
0.02534911036491394,0.005139824002981186,-0.016507066786289215,0.011171256192028522,-0.0007715952815487981,-0.009816663339734077
0.024907471612095833,0.0049278754740953445,-0.017260050401091576,0.010959054343402386,-0.0006995808216743171,-0.009774606674909592
0.02542107366025448,0.005090758204460144,-0.017388558015227318,0.011717380955815315,-0.0005952196661382914,-0.009341619908809662
0.02624078281223774,0.004814098589122295,-0.016894057393074036,0.011768416501581669,-0.0004931801231577992,-0.00950766634196043
0.026118189096450806,0.005140426103025675,-0.017255328595638275,0.011499173939228058,-0.0005068463506177068,-0.010006475262343884
0.02572464942932129,0.005515720695257187,-0.016621695831418037,0.011582786217331886,-0.00048138192505575716,-0.009918341413140297
0.025880640372633934,0.005116243381053209,-0.01717471517622471,0.011370697058737278,-0.0004431407724041492,-0.010241081938147545
0.02617911994457245,0.0049062129110097885,-0.01730174385011196,0.01172019075602293,-0.00047302304301410913,-0.009544532746076584
0.02581549622118473,0.00518052838742733,-0.016668247058987617,0.011323533020913601,-0.00047462049406021833,-0.009457200765609741
0.02529611438512802,0.005091013386845589,-0.01699116639792919,0.011377830058336258,-0.0004719904391095042,-0.009832619689404964
0.02575169876217842,0.005330580286681652,-0.017038069665431976,0.011795994825661182,-0.0004886338720098138,-0.010737202130258083
0.026106489822268486,0.004912537522614002,-0.017054852098226547,0.012773235328495502,-0.0004436473536770791,-0.010414780117571354
0.026136770844459534,0.005350419320166111,-0.016779690980911255,0.012003440409898758,-0.0004039817431475967,-0.010165289044380188
0.02620229870080948,0.005213927011936903,-0.01748305931687355,0.011804863810539246,-0.00043954470311291516,-0.01021342072635889
0.02628191187977791,0.005332368426024914,-0.016818318516016006,0.012560751289129257,-0.0004105960833840072,-0.010048861615359783
0.026223113760352135,0.005504797212779522,-0.017172489315271378,0.012258157134056091,-0.00038183561991900206,-0.01008485909551382
0.02562042325735092,0.005462922155857086,-0.016644231975078583,0.012733624316751957,-0.0004119059885852039,-0.009819427505135536
0.025911610573530197,0.005521286744624376,-0.016644662246108055,0.011508849449455738,-0.0003900015144608915,-0.010581741109490395
0.025998687371611595,0.005302014295011759,-0.017192428931593895,0.01145433634519577,-0.00036747846752405167,-0.011068563908338547
0.026262953877449036,0.005814582575112581,-0.016571538522839546,0.011671226471662521,-0.0003837992553599179,-0.01038264762610197
0.02614208683371544,0.00555872218683362,-0.016866793856024742,0.011874874122440815,-0.0003752495686057955,-0.010702057741582394
0.02634456194937229,0.005367427598685026,-0.017012808471918106,0.01267622597515583,-0.00035736834979616106,-0.010534031316637993
0.02634456194937229,0.005367427598685026,-0.017012808471918106,0.01267622597515583,-0.00035736834979616106,-0.010534031316637993
0.026749374344944954,0.0050094942562282085,-0.017309898510575294,0.012439201585948467,-0.00034371213405393064,-0.01055437047034502
0.026748454198241234,0.0052420105785131454,-0.0172679852694273,0.011650257743895054,-0.0003215186588931829,-0.010758807882666588
0.026774292811751366,0.005561816971749067,-0.017243457958102226,0.012779606506228447,-0.0003002113080583513,-0.010563096962869167
0.025081593543291092,0.005506017245352268,-0.017706340178847313,0.013183971866965294,-0.00028143497183918953,-0.010456911288201809
0.02740817703306675,0.005641865078359842,-0.01743180863559246,0.012693537399172783,-0.0003106760559603572,-0.010755802504718304
0.026746036484837532,0.005082647316157818,-0.017486393451690674,0.012985290959477425,-0.0002996930852532387,-0.010705677792429924
0.026247380301356316,0.005254514515399933,-0.01824713870882988,0.01307458896189928,-0.0002843177935574204,-0.010792162269353867
0.026516534388065338,0.005158485844731331,-0.017467180266976357,0.013124208897352219,-0.00029208953492343426,-0.01109242718666792
0.02671302668750286,0.005889663472771645,-0.01791861653327942,0.013197025284171104,-0.00029861764051020145,-0.010805996134877205
0.02687797136604786,0.005841721314936876,-0.01784311607480049,0.012795266695320606,-0.0002863741829060018,-0.010777835734188557
0.026969891041517258,0.00567777082324028,-0.017607884481549263,0.013109056279063225,-0.0002931396884378046,-0.01084041129797697
0.026932843029499054,0.0051037343218922615,-0.017786741256713867,0.012464572675526142,-0.0002987919724546373,-0.010734482668340206
0.02750389464199543,0.005422117188572884,-0.017086472362279892,0.013056374154984951,-0.0002880028623621911,-0.01105573307722807
0.027444493025541306,0.0057601723819971085,-0.018279507756233215,0.012267867103219032,-0.00032842063228599727,-0.010972639545798302
0.027218813076615334,0.00566749507561326,-0.018413109704852104,0.01270353514701128,-0.00031350148492492735,-0.010906364768743515
0.027783436700701714,0.005802570376545191,-0.01770606078207493,0.013042362406849861,-0.00034430387313477695,-0.010880979709327221
0.027788426727056503,0.005463439505547285,-0.018345056101679802,0.013469398953020573,-0.00035702495370060205,-0.010804520919919014
0.028148261830210686,0.005520888604223728,-0.018191855400800705,0.01348724216222763,-0.0003616917529143393,-0.01112698670476675
0.02801796980202198,0.005392792634665966,-0.01850854605436325,0.012803219258785248,-0.00038609394687227905,-0.011065504513680935
0.027834368869662285,0.005340039264410734,-0.01868276856839657,0.012980028986930847,-0.00037206130218692124,-0.010832634754478931
0.02864737994968891,0.005787217523902655,-0.018226221203804016,0.013541657477617264,-0.0005944311269558966,-0.01071363314986229
0.02907831035554409,0.005286229308694601,-0.018366876989603043,0.012910722754895687,-0.0005581298028118908,-0.010727804154157639
0.029184119775891304,0.0052894954569637775,-0.017852861434221268,0.012849345803260803,-0.0005691799451597035,-0.01126635167747736
0.027915548533201218,0.0052419682033360004,-0.01854160614311695,0.013023761101067066,-0.0005395972984842956,-0.011775156483054161
0.027780598029494286,0.005743117071688175,-0.018778812140226364,0.01331301499158144,-0.0004981535603292286,-0.012001757510006428
0.028892096132040024,0.0058937533758580685,-0.017993761226534843,0.013726051896810532,-0.0004936860059387982,-0.011134081520140171
0.029190819710493088,0.005463463254272938,-0.01828564889729023,0.01385449431836605,-0.0004893920267932117,-0.011005189269781113
0.029045846313238144,0.005316390655934811,-0.01820608228445053,0.013906171545386314,-0.0004600263200700283,-0.010924790985882282
0.02981683611869812,0.005618146155029535,-0.018425289541482925,0.013609911315143108,-0.0004347225767560303,-0.011020906269550323
0.0293759535998106,0.0053079077042639256,-0.01912662386894226,0.013999143615365028,-0.00041871858411468565,-0.011090772226452827
0.029185649007558823,0.005836996715515852,-0.01838085427880287,0.01342772040516138,-0.000450819730758667,-0.011509817093610764
0.029185649007558823,0.005836996715515852,-0.01838085427880287,0.01342772040516138,-0.000450819730758667,-0.011509817093610764
0.029016980901360512,0.005748998839408159,-0.018373392522335052,0.014087025076150894,-0.00045880003017373383,-0.011171562597155571
0.028792839497327805,0.005474803503602743,-0.01899653859436512,0.013882759027183056,-0.0004573843616526574,-0.011163780465722084
0.02942758984863758,0.005226531066000462,-0.018582474440336227,0.01395727414637804,-0.000481242808746174,-0.010684896260499954
0.029650749638676643,0.005771661642938852,-0.018791455775499344,0.013463976792991161,-0.00045797391794621944,-0.01095562893897295
0.029001494869589806,0.006029901094734669,-0.018794992938637733,0.013700654730200768,-0.00043249077862128615,-0.011305544525384903
0.030533647164702415,0.0060952939093112946,-0.018242407590150833,0.01359585765749216,-0.0005552007933147252,-0.01146236527711153
0.0300816148519516,0.005650101229548454,-0.01880228891968727,0.014042195864021778,-0.000598154729232192,-0.011905113235116005
0.02954515442252159,0.005749960895627737,-0.019407793879508972,0.013725625351071358,-0.0005446422146633267,-0.011821111664175987
0.029677513986825943,0.005628551356494427,-0.01853913441300392,0.014229042455554008,-0.0005716833402402699,-0.01145600900053978
0.030081089586019516,0.005861817393451929,-0.01853659562766552,0.014011007733643055,-0.0005286952364258468,-0.01150081492960453
0.029707040637731552,0.005998243112117052,-0.018767526373267174,0.014531003311276436,-0.0005528207402676344,-0.011567640118300915
0.029520688578486443,0.005630117375403643,-0.01870822161436081,0.013932803645730019,-0.0005173233221285045,-0.012011553160846233
0.030400577932596207,0.00483341421931982,-0.019010009244084358,0.014063162729144096,-0.0005576787516474724,-0.01189421396702528
0.030212365090847015,0.004636704921722412,-0.018611999228596687,0.01353227999061346,-0.0005077478708699346,-0.011972379870712757
0.02987191267311573,0.004747055470943451,-0.018344232812523842,0.013934964314103127,-0.000523761787917465,-0.012019268237054348
0.030234048143029213,0.005395805928856134,-0.018924392759799957,0.014087160117924213,-0.0004962001112289727,-0.012154134921729565
0.029866639524698257,0.005481811240315437,-0.01900871843099594,0.01479970570653677,-0.0004556465137284249,-0.012037260457873344
0.03077312558889389,0.004904365632683039,-0.018804660066962242,0.014694548211991787,-0.0004716572293546051,-0.011751970276236534
0.03150418400764465,0.004869784228503704,-0.019302550703287125,0.015054959803819656,-0.0004536462656687945,-0.011868956498801708
0.030566515401005745,0.00498893903568387,-0.01872153952717781,0.01463479083031416,-0.0004687094478867948,-0.011663325130939484
0.030973846092820168,0.004824022296816111,-0.019414085894823074,0.014113780111074448,-0.00045654302812181413,-0.011571532115340233
0.03150857612490654,0.00521861994639039,-0.01975848712027073,0.01469285786151886,-0.00042515280074439943,-0.012117322534322739
0.03113163635134697,0.00493755005300045,-0.019537633284926414,0.0143513772636652,-0.0004461701028048992,-0.012449144385755062
0.032128337770700455,0.004734866786748171,-0.019738975912332535,0.015105958096683025,-0.00042845035204663873,-0.012390184216201305
0.03178615868091583,0.004945335444062948,-0.01954883337020874,0.014631818979978561,-0.0004552848404273391,-0.012460920959711075
0.03144370764493942,0.0048367599956691265,-0.018855324015021324,0.014292237348854542,-0.00047738003195263445,-0.012806741520762444
0.02986944280564785,0.00477747293189168,-0.019673626869916916,0.013444463722407818,-0.0004614471981767565,-0.01225587073713541
0.03076227195560932,0.004817191977053881,-0.01983300782740116,0.014023631811141968,-0.000561282504349947,-0.012468161061406136
0.03169133514165878,0.005053506698459387,-0.02009364403784275,0.013676797039806843,-0.0005373083404265344,-0.012692687101662159
0.0312776155769825,0.005012725945562124,-0.019555222243070602,0.01390545628964901,-0.00048245821380987763,-0.012781258672475815
0.031075578182935715,0.004703247454017401,-0.019623924046754837,0.014223101548850536,-0.0004996052593924105,-0.012722916901111603
0.031680114567279816,0.004844824783504009,-0.02001534402370453,0.014935742132365704,-0.0004752616223413497,-0.012388975359499454
0.031680114567279816,0.004844824783504009,-0.02001534402370453,0.014935742132365704,-0.0004752616223413497,-0.012388975359499454
0.03157346695661545,0.004837958142161369,-0.020910078659653664,0.015061307698488235,-0.0004915377940051258,-0.012845199555158615
0.03196486830711365,0.004861047491431236,-0.019885629415512085,0.015534400008618832,-0.0004714270180556923,-0.012779995799064636
0.03158634901046753,0.004665978718549013,-0.01961945742368698,0.015018532983958721,-0.00043960445327684283,-0.01329529844224453
0.031848542392253876,0.004879280924797058,-0.02045491896569729,0.0156325064599514,-0.0004655935044866055,-0.013262966647744179
0.03161374107003212,0.00488815875723958,-0.01973556913435459,0.015261637978255749,-0.00044397683814167976,-0.012897689826786518
0.03132300451397896,0.004496378358453512,-0.019249247387051582,0.015473096631467342,-0.00043008520151488483,-0.013025288470089436
0.031905677169561386,0.004518662579357624,-0.019944271072745323,0.01537699718028307,-0.00046221609227359295,-0.013230658136308193
0.032052181661129,0.004959399811923504,-0.020666081458330154,0.015787828713655472,-0.0004694725212175399,-0.012999213300645351
0.032015006989240646,0.004979405552148819,-0.02023087441921234,0.016273465007543564,-0.0004672433133237064,-0.013026194646954536
0.03218470513820648,0.004642021376639605,-0.019533993676304817,0.01589754968881607,-0.0004950198926962912,-0.013155709020793438
0.032957687973976135,0.004858657717704773,-0.020011328160762787,0.015850363299250603,-0.000666688138153404,-0.013437969610095024
0.03191769868135452,0.00484645226970315,-0.02029988169670105,0.01560964435338974,-0.0006394818774424493,-0.0132059957832098
0.031728826463222504,0.0043983762152493,-0.01962164044380188,0.015991048887372017,-0.0006604061345569789,-0.013046744279563427
0.032818492501974106,0.0045090834610164165,-0.01999591290950775,0.015341430902481079,-0.0006002513691782951,-0.013144358992576599
0.03221900016069412,0.0045111156068742275,-0.019347168505191803,0.015386723913252354,-0.0005720164626836777,-0.013320965692400932
0.03246675059199333,0.004616871941834688,-0.019902272149920464,0.015590394847095013,-0.0005806504050269723,-0.013279988430440426
0.03283461183309555,0.004729549400508404,-0.020535195246338844,0.015181113965809345,-0.0005551047506742179,-0.013344554230570793
0.033205561339855194,0.00447114696726203,-0.02027915231883526,0.015431996434926987,-0.000539088505320251,-0.013189224526286125
0.03307753801345825,0.004200305789709091,-0.01994309574365616,0.015024088323116302,-0.0005741320783272386,-0.01350487768650055
0.0332031287252903,0.004850739147514105,-0.02018381655216217,0.015414481051266193,-0.0005996917025186121,-0.01344136893749237
0.03283218294382095,0.00494109932333231,-0.020340008661150932,0.015618312172591686,-0.0006156293675303459,-0.013797071762382984
0.032640013843774796,0.004572125617414713,-0.019973840564489365,0.015731794759631157,-0.000585898116696626,-0.013675788417458534
0.03280249610543251,0.004804560914635658,-0.020200392231345177,0.01606101542711258,-0.0007513820310123265,-0.013551943004131317
0.032990772277116776,0.004848424345254898,-0.020385505631566048,0.01585390605032444,-0.0007806017529219389,-0.01373057160526514
0.032990772277116776,0.004848424345254898,-0.020385505631566048,0.01585390605032444,-0.0007806017529219389,-0.01373057160526514
0.03419240564107895,0.004929613787680864,-0.020142018795013428,0.016253862529993057,-0.0007962950621731579,-0.013918775133788586
0.03394542634487152,0.004951557144522667,-0.02022460848093033,0.01609526015818119,-0.00080113421427086,-0.013890501111745834
0.032499365508556366,0.005152567755430937,-0.020526552572846413,0.01657770201563835,-0.0008228997467085719,-0.013570962473750114
0.03245028108358383,0.004506885539740324,-0.02015853114426136,0.01636003702878952,-0.0008823639946058393,-0.013657888397574425
0.03330090641975403,0.004498656839132309,-0.01990608125925064,0.016320256516337395,-0.000792178325355053,-0.013463017530739307
0.0333251953125,0.004480450879782438,-0.020555566996335983,0.016611136496067047,-0.0007768476498313248,-0.013816013932228088
0.03480637073516846,0.004382974002510309,-0.020341644063591957,0.016321104019880295,-0.0007143737748265266,-0.01383085548877716
0.03484286367893219,0.0044303168542683125,-0.019526321440935135,0.016610879451036453,-0.0007101704832166433,-0.014084989205002785
0.033698856830596924,0.004736659117043018,-0.02036060392856598,0.015999561175704002,-0.000665255356580019,-0.013875415548682213
0.03254777565598488,0.004757000133395195,-0.020491652190685272,0.016190379858016968,-0.000618692603893578,-0.014073673635721207
0.03380928561091423,0.004320565611124039,-0.020027918741106987,0.015809040516614914,-0.000641552556771785,-0.01431290153414011
0.03476976975798607,0.0040030390955507755,-0.020022736862301826,0.01603543944656849,-0.0006688811117783189,-0.014363107271492481
0.03435320407152176,0.0038989358581602573,-0.020482651889324188,0.016193512827157974,-0.0006914756959304214,-0.014492353424429893
0.03447829186916351,0.004323333036154509,-0.020530756562948227,0.016203535720705986,-0.0007876924355514348,-0.014217902906239033
0.03425658121705055,0.004542358219623566,-0.02011418528854847,0.016840878874063492,-0.0009258828940801322,-0.015062772668898106
0.033976517617702484,0.004607343580573797,-0.02057678811252117,0.01641540788114071,-0.0009298885706812143,-0.015034815296530724
0.03471224009990692,0.0042959898710250854,-0.020075084641575813,0.016309721395373344,-0.0009403281728737056,-0.013936487026512623
0.03430921584367752,0.004063443746417761,-0.02030767872929573,0.01663471944630146,-0.0008689895621500909,-0.014022357761859894
0.03415044769644737,0.0041651190258562565,-0.020318904891610146,0.01697440631687641,-0.0008695126161910594,-0.01426386833190918
0.0340738482773304,0.004098277539014816,-0.02049006149172783,0.016797281801700592,-0.0008647040813229978,-0.014727858826518059
0.03485630452632904,0.004405556712299585,-0.0209539532661438,0.016940541565418243,-0.0008540407288819551,-0.015201488509774208
0.03586765378713608,0.004171905107796192,-0.021412184461951256,0.016243843361735344,-0.0007939637289382517,-0.014848196879029274
0.035439636558294296,0.004410126246511936,-0.02111521176993847,0.016534384340047836,-0.000738154340069741,-0.01482575573027134
0.033745069056749344,0.0044580986723303795,-0.02028442546725273,0.016742726787924767,-0.0007561044185422361,-0.014800562523305416
0.03371300920844078,0.004347885958850384,-0.02035432681441307,0.01708301343023777,-0.0007660008268430829,-0.015127245336771011
0.03481145203113556,0.004060759209096432,-0.02119002863764763,0.017351942136883736,-0.0006948690861463547,-0.014799924567341805
0.03481145203113556,0.004060759209096432,-0.02119002863764763,0.017351942136883736,-0.0006948690861463547,-0.014799924567341805
0.03477512300014496,0.0042624520137906075,-0.021671706810593605,0.016249626874923706,-0.0006919818697497249,-0.015184048563241959
0.03571411594748497,0.004573610611259937,-0.021229073405265808,0.0170254185795784,-0.0006496947607956827,-0.015625150874257088
0.035360079258680344,0.0047924271784722805,-0.020560845732688904,0.01711440458893776,-0.0006202643853612244,-0.015244402922689915
0.03384388983249664,0.0047312891110777855,-0.021280860528349876,0.017105724662542343,-0.0006493820110335946,-0.014535740949213505
0.03398175537586212,0.004422638099640608,-0.02119293063879013,0.01704048365354538,-0.000690267828758806,-0.014423507265746593
0.03577057272195816,0.004307322669774294,-0.021413572132587433,0.017144188284873962,-0.00101391167845577,-0.014559212140738964
0.03548669442534447,0.004420774523168802,-0.02162110060453415,0.017868656665086746,-0.001209405716508627,-0.014907735399901867
0.03518310934305191,0.004476686008274555,-0.021649466827511787,0.017932532355189323,-0.0010398427257314324,-0.015231737866997719
0.03513742610812187,0.004814830608665943,-0.02073386125266552,0.017731094732880592,-0.0010093689197674394,-0.01516688708215952
0.03545433282852173,0.00480711180716753,-0.021145712584257126,0.01763593591749668,-0.000877457088790834,-0.01571914739906788
0.03553703427314758,0.004573184996843338,-0.020140038803219795,0.017127886414527893,-0.000872351520229131,-0.015572961419820786
0.035670239478349686,0.004077895078808069,-0.02142571285367012,0.018307872116565704,-0.00076576933497563,-0.015546887181699276
0.035832297056913376,0.004394790157675743,-0.02136765420436859,0.018249033018946648,-0.0007063206285238266,-0.015393860638141632
0.035851266235113144,0.004688682034611702,-0.021179214119911194,0.017836054787039757,-0.0006716094794683158,-0.015478149056434631
0.03558553382754326,0.004738255403935909,-0.02132510207593441,0.018241580575704575,-0.0006863195449113846,-0.015437748283147812
0.036105237901210785,0.004711655899882317,-0.021484578028321266,0.017644887790083885,-0.0006295340717770159,-0.015407438389956951
0.03654474392533302,0.00459867250174284,-0.020979562774300575,0.017958058044314384,-0.0005998609703965485,-0.015497596003115177
0.03610461205244064,0.004510376136749983,-0.02149450220167637,0.01767323911190033,-0.000616442586760968,-0.01563461683690548
0.03667965903878212,0.004822112619876862,-0.02155705727636814,0.01829976588487625,-0.0006547962548211217,-0.015830207616090775
0.03668132796883583,0.004806692246347666,-0.021223323419690132,0.018161242827773094,-0.0007291583460755646,-0.015880705788731575
0.036618951708078384,0.004817642737179995,-0.022040244191884995,0.018005911260843277,-0.0007131185266189277,-0.01571074314415455
0.03677412122488022,0.005129487719386816,-0.021620139479637146,0.0182917769998312,-0.001026117941364646,-0.015711674466729164
0.03671759366989136,0.004904598463326693,-0.021425100043416023,0.018229834735393524,-0.0009475710103288293,-0.015543118119239807
0.037322964519262314,0.0046890233643352985,-0.021346431225538254,0.018456103280186653,-0.0009270886075682938,-0.015788814052939415
0.03706289455294609,0.0046130456030368805,-0.021947022527456284,0.018217330798506737,-0.0008779974887147546,-0.015935420989990234
0.037317387759685516,0.0045117842964828014,-0.02226739563047886,0.017603252083063126,-0.0008277494926005602,-0.01600443571805954
0.037352725863456726,0.005004270933568478,-0.021944111213088036,0.018054287880659103,-0.0007534325704909861,-0.015926970168948174
0.03733954206109047,0.004922420717775822,-0.02149461954832077,0.01888374611735344,-0.0007116066990420222,-0.016059475019574165
0.03738998621702194,0.004873306956142187,-0.021593626588582993,0.018755324184894562,-0.0006770461914129555,-0.016141563653945923
0.03738998621702194,0.004873306956142187,-0.021593626588582993,0.018755324184894562,-0.0006770461914129555,-0.016141563653945923
0.03743351623415947,0.004828805569559336,-0.022017337381839752,0.01844624988734722,-0.0006981321494095027,-0.01601422391831875
0.03721471503376961,0.004844270180910826,-0.021980375051498413,0.018015526235103607,-0.0007003716891631484,-0.01604076661169529
0.038137950003147125,0.005105535499751568,-0.02182949148118496,0.01814407855272293,-0.0006571944104507565,-0.016145052388310432
0.03872227668762207,0.005014331545680761,-0.021701689809560776,0.018544012680649757,-0.0006317546940408647,-0.01738665997982025
0.037715066224336624,0.00483360793441534,-0.021732786670327187,0.018447130918502808,-0.000581698608584702,-0.015982894226908684
0.03638380393385887,0.004781700205057859,-0.022304758429527283,0.01850714534521103,-0.0006056284764781594,-0.015742862597107887
0.03804728388786316,0.005164929665625095,-0.021297402679920197,0.01824653521180153,-0.0006000170251354575,-0.015994811430573463
0.038204070180654526,0.00488357525318861,-0.021167179569602013,0.017531923949718475,-0.0006257293280214071,-0.016322441399097443
0.03844495862722397,0.004720494616776705,-0.022104546427726746,0.017976248636841774,-0.0006135446019470692,-0.01629088819026947
0.03948807343840599,0.0049728271551430225,-0.023050863295793533,0.01801474764943123,-0.0007931756554171443,-0.01609881781041622
0.03752792999148369,0.0050109210424125195,-0.02213013544678688,0.017974812537431717,-0.0008173515670932829,-0.016586190089583397
0.03694108501076698,0.004931144881993532,-0.021719885990023613,0.018440434709191322,-0.0008560725837014616,-0.01699332520365715
0.03880498558282852,0.005006683990359306,-0.02151220664381981,0.018332524225115776,-0.0010557698551565409,-0.01688806340098381
0.03849172964692116,0.004913602955639362,-0.021763110533356667,0.01856149360537529,-0.0011938828974962234,-0.01665622554719448
0.038432687520980835,0.004723702557384968,-0.0220508873462677,0.01839538663625717,-0.0011546916794031858,-0.016819100826978683
0.03870227187871933,0.005204986780881882,-0.022421879693865776,0.018253881484270096,-0.0010144015541300178,-0.016715770587325096
0.0385744571685791,0.004584840498864651,-0.022399384528398514,0.0186388548463583,-0.0009885814506560564,-0.016912495717406273
0.03840049356222153,0.004457719624042511,-0.022842589765787125,0.01813681051135063,-0.0009741535177454352,-0.016761673614382744
0.03840049356222153,0.004457719624042511,-0.022842589765787125,0.01813681051135063,-0.0009741535177454352,-0.016761673614382744
0.038510918617248535,0.005152835510671139,-0.021899159997701645,0.018711555749177933,-0.0008604311151430011,-0.01692141965031624
0.0400199294090271,0.004935476928949356,-0.02281644381582737,0.01855573244392872,-0.0007776118000037968,-0.017007190734148026
0.038572050631046295,0.005164210684597492,-0.022794203832745552,0.01938420720398426,-0.0006763477576896548,-0.01704559475183487
0.03758811950683594,0.004940986167639494,-0.02259535901248455,0.018767470493912697,-0.0005886615836061537,-0.016884783282876015
0.039078712463378906,0.004715316463261843,-0.022272665053606033,0.017998171970248222,-0.0005963384755887091,-0.016921022906899452
0.0392330177128315,0.0051168417558074,-0.022741442546248436,0.018199335783720016,-0.0005578816053457558,-0.016535544767975807
0.039968810975551605,0.004990346729755402,-0.02288704738020897,0.018204035237431526,-0.0005069667822681367,-0.01697675511240959
0.0395873598754406,0.004788696765899658,-0.023167015984654427,0.019216759130358696,-0.000535233411937952,-0.017391275614500046
0.0395873598754406,0.004788696765899658,-0.023167015984654427,0.019216759130358696,-0.000535233411937952,-0.017391275614500046
0.0383729450404644,0.0051923105493187904,-0.02263013832271099,0.019047735258936882,-0.0005388412391766906,-0.01797119714319706
0.0383729450404644,0.0051923105493187904,-0.02263013832271099,0.019047735258936882,-0.0005388412391766906,-0.01797119714319706
0.03983306512236595,0.004595204256474972,-0.02262488380074501,0.01877724565565586,-0.0005697462474927306,-0.016921836882829666
0.03943928703665733,0.004496567416936159,-0.023043692111968994,0.019342511892318726,-0.000579754589125514,-0.01651841402053833
0.03892434388399124,0.00448915408924222,-0.022927533835172653,0.019180744886398315,-0.0005679651512764394,-0.01677212305366993
0.03949343413114548,0.0045057907700538635,-0.022217055782675743,0.019982079043984413,-0.0005928702303208411,-0.016846662387251854
0.03959669917821884,0.004375984892249107,-0.022683003917336464,0.020009905099868774,-0.0007051317952573299,-0.017029913142323494
0.039509858936071396,0.004559504333883524,-0.023215752094984055,0.018961535766720772,-0.0007355226553045213,-0.0171661376953125
0.03959523141384125,0.004542496055364609,-0.02293478325009346,0.018595397472381592,-0.0007587530417367816,-0.01725747063755989
0.03955860808491707,0.004586030729115009,-0.023151326924562454,0.019130416214466095,-0.0007261020364239812,-0.017150964587926865
0.03951657935976982,0.004541917238384485,-0.022574927657842636,0.01908235065639019,-0.0006942671607248485,-0.01689472608268261
0.04011896252632141,0.004667661618441343,-0.02233588881790638,0.01951800473034382,-0.0006713406764902174,-0.017175236716866493
0.040186524391174316,0.00463121896609664,-0.023209581151604652,0.019648414105176926,-0.0006294046179391444,-0.01707788184285164
0.04033048450946808,0.004984077997505665,-0.022783808410167694,0.01929635740816593,-0.0006406286847777665,-0.01692834123969078
0.03997502103447914,0.004964333493262529,-0.022266898304224014,0.01912599988281727,-0.0005952987121418118,-0.01672334596514702
0.04018253833055496,0.004383513703942299,-0.02233077585697174,0.018939243629574776,-0.0006207425612956285,-0.016707491129636765
0.04042338952422142,0.004438324831426144,-0.02272121235728264,0.019019948318600655,-0.0006402580183930695,-0.016558803617954254
0.040458984673023224,0.005024565849453211,-0.023053783923387527,0.019196273759007454,-0.0005986502510495484,-0.016841299831867218
0.04050879552960396,0.00517889391630888,-0.022935546934604645,0.018921028822660446,-0.0006799424882046878,-0.01696520671248436
0.04071807861328125,0.004831329919397831,-0.022486450150609016,0.01884717494249344,-0.0007034280570223927,-0.017290422692894936
0.04099472984671593,0.004851565696299076,-0.022549856454133987,0.019366765394806862,-0.0006860081339254975,-0.01779134012758732
0.04092934727668762,0.004725250881165266,-0.022632451727986336,0.019458815455436707,-0.0006603669608011842,-0.0175387691706419
0.041987061500549316,0.004904163535684347,-0.02292953059077263,0.019528120756149292,-0.0006800183327868581,-0.017648868262767792
0.040346886962652206,0.004404619336128235,-0.02256426028907299,0.019385680556297302,-0.0007284748135134578,-0.017835676670074463
0.0405416302382946,0.004359629470854998,-0.02281961403787136,0.0190056711435318,-0.0007728420896455646,-0.01766969822347164
0.040861185640096664,0.004607953131198883,-0.022745121270418167,0.019523629918694496,-0.0007904564263299108,-0.017614252865314484
0.040861185640096664,0.004607953131198883,-0.022745121270418167,0.019523629918694496,-0.0007904564263299108,-0.017614252865314484
0.040637578815221786,0.004657836630940437,-0.022502882406115532,0.0201234370470047,-0.0008099252008832991,-0.017718443647027016
0.042839229106903076,0.004232973791658878,-0.022563233971595764,0.02036244235932827,-0.0008593224338255823,-0.017588909715414047
0.0416746512055397,0.0044882469810545444,-0.02313118241727352,0.01983967237174511,-0.0008233854896388948,-0.018023651093244553
0.04035130888223648,0.004239676520228386,-0.023127537220716476,0.02004776895046234,-0.0008225394994951785,-0.018227066844701767
0.04106974974274635,0.004309694282710552,-0.0232059508562088,0.020516574382781982,-0.0008163087186403573,-0.018115784972906113
0.0409839041531086,0.00463056517764926,-0.023154182359576225,0.020250067114830017,-0.0007985137053765357,-0.018116632476449013
0.042211562395095825,0.004784098826348782,-0.02248409204185009,0.0199094470590353,-0.000761565228458494,-0.018080633133649826
0.04195898026227951,0.0042412495240569115,-0.02273537591099739,0.019917981699109077,-0.0007226336747407913,-0.01793001964688301
0.040684591978788376,0.0042069763876497746,-0.024004990234971046,0.01996312476694584,-0.0007376840221695602,-0.017899543046951294
0.04033287614583969,0.004249545745551586,-0.023853551596403122,0.02018716372549534,-0.0007644968573004007,-0.017926741391420364
0.0419047512114048,0.004110762849450111,-0.024194246158003807,0.020522797480225563,-0.0007841510232537985,-0.018281364813447
0.04157624393701553,0.004251102916896343,-0.02419138513505459,0.020432453602552414,-0.0010746035259217024,-0.01779554784297943
0.04161898419260979,0.004587857984006405,-0.023541320115327835,0.020477522164583206,-0.0010053369915112853,-0.017822815105319023
0.04147661477327347,0.00434113061055541,-0.02305276319384575,0.01995953544974327,-0.0009335147915408015,-0.018056310713291168
0.04091128706932068,0.004006798379123211,-0.02305544912815094,0.019256751984357834,-0.0008942263084463775,-0.018260294571518898
0.04173558950424194,0.004303396213799715,-0.023413125425577164,0.019664114341139793,-0.0008811815059743822,-0.018072839826345444
0.04322335869073868,0.004140921868383884,-0.024081138893961906,0.01991179957985878,-0.0007876629242673516,-0.01811216212809086
0.04038146883249283,0.004133237060159445,-0.023977084085345268,0.019684623926877975,-0.0007876797462813556,-0.018294844776391983
0.04038146883249283,0.004133237060159445,-0.023977084085345268,0.019684623926877975,-0.0007876797462813556,-0.018294844776391983
0.041375622153282166,0.004470484796911478,-0.0235405582934618,0.020545976236462593,-0.0007300578872673213,-0.018564462661743164
