davideferrari95/blind_handover_controller/data/Test 213 - [2024-02-08 -- 12-10-27]/joint_states_data.csv
shoulder_pan_joint,shoulder_lift_joint,elbow_joint,wrist_1_joint,wrist_2_joint,wrist_3_joint
-0.0016380654415115714,0.00758946780115366,-0.00967434048652649,0.00012611750571522862,-0.0,-0.002473070751875639
-0.0016380654415115714,0.00758946780115366,-0.00967434048652649,0.00012611750571522862,-0.0,-0.002473070751875639
-0.0018201391212642193,0.007447044365108013,-0.009573344141244888,0.00012394750956445932,-0.0,-0.0022465726360678673
-0.002256974345073104,0.007287144660949707,-0.01026068814098835,0.00012185006198706105,-0.0,-0.0018838495016098022
-0.0023001236841082573,0.007381413131952286,-0.008394185453653336,0.00011982226715190336,-0.0,-0.0017145544989034534
-0.002437183167785406,0.007699258625507355,-0.008165044710040092,0.00011795041791629046,-0.0,-0.0016097361221909523
-0.00237792800180614,0.007582612335681915,-0.009467512369155884,9.40121608437039e-05,-0.0,-0.001591116189956665
-0.0022087052930146456,0.0070965182967484,-0.00880284421145916,9.071359090739861e-05,-0.0,-0.0015145442448556423
-0.0022087052930146456,0.0070965182967484,-0.00880284421145916,9.071359090739861e-05,-0.0,-0.0015145442448556423
-0.0020932303741574287,0.006731146480888128,-0.00868749339133501,8.883131522452459e-05,-0.0,-0.001792650087736547
-0.0020878866780549288,0.007288284599781036,-0.009109396487474442,8.710591646376997e-05,-0.0,-0.0017669193912297487
-0.002304540015757084,0.007353345863521099,-0.009223345667123795,8.545137097826228e-05,-0.0,-0.0020908403676003218
-0.0021480987779796124,0.006891460157930851,-0.008590571582317352,8.385896944673732e-05,-0.0,-0.002338702091947198
-0.0021436787210404873,0.007222895510494709,-0.008243951015174389,8.232473192038015e-05,-0.0,-0.0023203142918646336
-0.0026692987885326147,0.0076548438519239426,-0.008884558454155922,8.084574074018747e-05,-0.0,-0.0021793160121887922
-0.0025138789787888527,0.00747539522126317,-0.007850839756429195,9.312330075772479e-05,-0.0,-0.0022816192358732224
-0.002397842239588499,0.0070467242039740086,-0.008299844339489937,9.201907232636586e-05,-0.0,-0.0022842506878077984
-0.0021719930227845907,0.00674267765134573,-0.008214795961976051,9.050832886714488e-05,-0.0,-0.002267890376970172
-0.002390689682215452,0.00716615142300725,-0.007554987911134958,8.901839464670047e-05,-0.0,-0.0020693845581263304
-0.0027477899566292763,0.007152855861932039,-0.008206188678741455,8.757493924349546e-05,-0.0,-0.0019243613351136446
-0.002934569725766778,0.007138260640203953,-0.00860415305942297,8.617734420113266e-05,-0.0,-0.001767280395142734
-0.0027247797697782516,0.007105591706931591,-0.007956750690937042,8.482371777063236e-05,-0.0,-0.0015378082171082497
-0.002767458325251937,0.007514842785894871,-0.0073645226657390594,9.561153274262324e-05,-0.0,-0.001570984604768455
-0.0026921771932393312,0.008135545067489147,-0.00768312020227313,9.582799975760281e-05,-0.0,-0.0017784900264814496
-0.0025756466202437878,0.007939999923110008,-0.008130289614200592,9.449962090002373e-05,-0.0,-0.00196695770137012
-0.0027942643500864506,0.006877092644572258,-0.008338998071849346,9.311018948210403e-05,-0.0,-0.002677471609786153
-0.0028883973136544228,0.0081895487383008,-0.0078550660982728,9.175452578347176e-05,-0.0,-0.0026030263397842646
-0.0029175742529332638,0.007895995862782001,-0.008397205732762814,9.043748286785558e-05,-0.0,-0.002390502020716667
-0.0026890572626143694,0.006990835070610046,-0.008042960427701473,0.00010023156937677413,-0.0,-0.0021060663275420666
-0.0027436886448413134,0.006885480601340532,-0.007606872357428074,0.00010036407911684364,-0.0,-0.002062662737444043
-0.0026515168137848377,0.008251977153122425,-0.007559567224234343,9.908278298098594e-05,-0.0,-0.00210544909350574
-0.002455872716382146,0.007937966845929623,-0.008099079132080078,9.77441668510437e-05,-0.0,-0.0021038067061454058
-0.002473836997523904,0.0070088268257677555,-0.008262960240244865,0.0001310477964580059,-0.0,-0.0023277890868484974
-0.0026655085384845734,0.006920461542904377,-0.007977181114256382,0.000159292874741368,-0.0,-0.002280220855027437
-0.002597193233668804,0.007491862401366234,-0.007705710828304291,0.00015592179261147976,-0.0,-0.0021734097972512245
-0.002597193233668804,0.007491862401366234,-0.007705710828304291,0.00015592179261147976,-0.0,-0.0021734097972512245
-0.0028020362369716167,0.007378057576715946,-0.00827750563621521,0.0001508355635451153,-0.0,-0.0020035295747220516
-0.002598587889224291,0.007176364306360483,-0.008017552085220814,0.00016026549565140158,-0.0,-0.0020263143815100193
-0.0024967663921415806,0.007204765919595957,-0.007549216039478779,0.000168669008417055,-0.0,-0.0022449311800301075
-0.0026757039595395327,0.008159985765814781,-0.0075226277112960815,0.00016440982290077955,-0.0,-0.002533996943384409
-0.002783502684906125,0.007053545210510492,-0.008002129383385181,0.00015960716700647026,-0.0,-0.0025868965312838554
-0.002473862376064062,0.006764360703527927,-0.008326789364218712,0.00015502858150284737,-0.0,-0.0027132011018693447
-0.002657723380252719,0.0074355886317789555,-0.008276679553091526,0.0001694051461527124,-0.0,-0.002477009082213044
-0.0028006911743432283,0.007493732031434774,-0.00815456360578537,0.00016641680849716067,-0.0,-0.00235951179638505
-0.002614486264064908,0.007036282680928707,-0.0077931201085448265,0.00016222830163314939,-0.0,-0.002283168025314808
-0.002604149980470538,0.007154316175729036,-0.007437107618898153,0.00015816175437066704,-0.0,-0.0024342250544577837
-0.002638177014887333,0.0077175782062113285,-0.00772401737049222,0.00017342956562060863,-0.0,-0.002653903793543577
-0.0024933998938649893,0.007505069952458143,-0.008088676258921623,0.0001719252031762153,-0.0,-0.002401886507868767
-0.0026400142814964056,0.007233147043734789,-0.007582648191601038,0.00016808380314614624,-0.0,-0.00235348055139184
-0.0027328648138791323,0.00701364129781723,-0.008154300041496754,0.00016453438729513437,-0.0,-0.002351457718759775
-0.0026001702062785625,0.007470621727406979,-0.007987253367900848,0.0002435033820802346,-0.0,-0.002327136229723692
-0.0027019965928047895,0.0076525271870195866,-0.007782909087836742,0.0002364528045291081,-0.0,-0.002637192141264677
-0.0027724297251552343,0.007381804287433624,-0.007398852612823248,0.00022500303748529404,-0.0,-0.002682657912373543
-0.00242835795506835,0.006931212730705738,-0.007505582179874182,0.00025142921367660165,-0.0,-0.002589839044958353
-0.002585922833532095,0.007353431545197964,-0.007569337263703346,0.00024510393268428743,-0.0,-0.0025247568264603615
-0.002767454367130995,0.007269053254276514,-0.00744252372533083,0.00023477841750718653,-0.0,-0.0024661628995090723
-0.0026094717904925346,0.007222570478916168,-0.007450259756296873,0.00022501492640003562,-0.0,-0.002316873986274004
-0.0026583110447973013,0.007083199452608824,-0.007923739962279797,0.0002426283754175529,-0.0,-0.002463807351887226
-0.0023846635594964027,0.007423011586070061,-0.008344593457877636,0.0002417084906483069,-0.0,-0.0026869219727814198
-0.002308141440153122,0.007291774731129408,-0.007884485647082329,0.00023330409021582454,-0.0,-0.0026711171958595514
-0.0025795125402510166,0.007360357325524092,-0.007698383182287216,0.0002250067045679316,-0.0,-0.002652891678735614
-0.002551365876570344,0.007634522393345833,-0.008414545096457005,0.00021724867110606283,-0.0,-0.002328132279217243
-0.002610939322039485,0.007529239635914564,-0.007928222417831421,0.00023221095034386963,-0.0,-0.002193310996517539
-0.002610939322039485,0.007529239635914564,-0.007928222417831421,0.00023221095034386963,-0.0,-0.002193310996517539
-0.0026344615034759045,0.006851299665868282,-0.007579076569527388,0.00023175482056103647,-0.0,-0.0023051071912050247
-0.002361495513468981,0.007026028353720903,-0.007340369746088982,0.00022497144527733326,-0.0,-0.0023661998566240072
-0.0022740261629223824,0.007188625633716583,-0.007708768360316753,0.00021818418463226408,-0.0,-0.002817400498315692
-0.002494212705641985,0.007542148698121309,-0.007472190074622631,0.00021176804148126394,-0.0,-0.0029778426978737116
-0.0025892932899296284,0.007240039762109518,-0.0077584912069141865,0.0002327035035705194,-0.0,-0.0025308113545179367
-0.0025042074266821146,0.007689690683037043,-0.007768282201141119,0.00022594210167881101,-0.0,-0.0026502893306314945
-0.001910579390823841,0.007700306363403797,-0.0072879246436059475,0.00021544394257944077,-0.0,-0.0028263372369110584
-0.00089888961520046,0.007194492034614086,-0.00718249287456274,0.00020561795099638402,-0.0,-0.0028884918428957462
-0.00023830027203075588,0.0072284783236682415,-0.008152490481734276,0.00019663273997139186,-0.0,-0.002950242953374982
-0.0003348961763549596,0.007062891498208046,-0.008603365160524845,0.00018839836411643773,-0.0,-0.002884201006963849
-0.0005409157602116466,0.007726773153990507,-0.007926040329039097,0.00018082713359035552,-0.0,-0.002781794173642993
-0.0004524522228166461,0.00728352228179574,-0.007707343436777592,0.00017383992963004857,-0.0,-0.002589491894468665
-0.0005043974961154163,0.006951518356800079,-0.00785871222615242,0.00016737340774852782,-0.0,-0.0026584232691675425
-0.0004300420987419784,0.007492705248296261,-0.007929404266178608,0.00016137042257469147,-0.0,-0.002788351848721504
-0.00037096664891578257,0.008025258779525757,-0.00776037247851491,0.00015578352031297982,-0.0,-0.0030798683874309063
-0.00032612125505693257,0.007397404871881008,-0.007723857648670673,0.0001728580828057602,-0.0,-0.003122299676761031
-0.00029095300124026835,0.007126095704734325,-0.007856822572648525,0.00017432267486583441,-0.0,-0.003255498828366399
-0.0002626357018016279,0.007399521302431822,-0.00793296005576849,0.00016931684513110667,-0.0,-0.0032770391553640366
-0.00023934438650030643,0.007515778765082359,-0.007706092204898596,0.00016419832536485046,2.4953849333542166e-06,-0.003388618119060993
-0.0002676636213436723,0.0071401288732886314,-0.007766141556203365,0.00015935419651214033,1.6293078886064905e-07,-0.003184150904417038
-0.0002707114617805928,0.006882835645228624,-0.007148702163249254,0.00015478649584110826,1.063821652991237e-08,-0.0030451486818492413
-0.0002520643756724894,0.007381915580481291,-0.008040888234972954,0.00015047266788315028,6.945994890372731e-10,-0.0028698379173874855
-0.00023557129316031933,0.007990991696715355,-0.007797474507242441,0.00014639318396802992,4.5352381572438816e-11,-0.002920950995758176
-0.00025726549210958183,0.007463008631020784,-0.00709301233291626,0.00014252941764425486,2.961186200758914e-12,-0.00286349025554955
-0.0002601258165668696,0.007119618821889162,-0.007292977534234524,0.00013886383385397494,1.9334429619388e-13,-0.0032900748774409294
-0.0002601258165668696,0.007119618821889162,-0.007292977534234524,0.00013886383385397494,1.9334429619388e-13,-0.0032900748774409294
-0.0002461342664901167,0.007140798028558493,-0.008241899311542511,0.0001353822008240968,1.2624001168959169e-14,-0.0032205546740442514
-0.0002333716256543994,0.007396490778774023,-0.007772871758788824,0.00013207104348111898,8.242570783355795e-16,-0.0034819652792066336
-0.0002218641311628744,0.007271409034729004,-0.0070712449960410595,0.0001289179635932669,5.381809449709654e-17,-0.00318361003883183
-0.00025763027952052653,0.007135686464607716,-0.007394617889076471,0.00012591187260113657,3.513937274790085e-18,-0.0031122558284550905
-0.00027742760721594095,0.007709125522524118,-0.00764459976926446,0.00012030165089527145,1.4980465459946942e-20,-0.0033162557519972324
-0.00026557184173725545,0.008115795440971851,-0.006949043367058039,0.0001176797813968733,9.781173454079262e-22,-0.0031350015196949244
-0.000253145641181618,0.007932337000966072,-0.0071968575939536095,0.00011516993981786072,6.386407105035437e-23,-0.0029696847777813673
-0.00024180885520763695,0.007823326624929905,-0.008118340745568275,9.643698285799474e-05,4.169867469039429e-24,-0.002842092886567116
-0.00023144435544963926,0.00842081755399704,-0.007669686805456877,9.22094623092562e-05,2.7226257175112896e-25,-0.003137859283015132
-0.000221931841224432,0.007796972058713436,-0.0074884104542434216,9.021381265483797e-05,1.7776803313600617e-26,-0.003144104965031147
-0.0002131705405190587,0.007030743174254894,-0.0075805471278727055,8.843138493830338e-05,1.1606981773574138e-27,-0.003068834776058793
-0.0002050740731647238,0.007315597962588072,-0.008053187280893326,8.672643889440224e-05,7.578528914485804e-29,-0.0029890791047364473
-0.00023004095419310033,0.008168227970600128,-0.007515748962759972,8.508648170391098e-05,4.948238391650824e-30,-0.003081084694713354
-0.00022235703363548964,0.0077318851836025715,-0.007298791781067848,8.350747521035373e-05,3.230845988136187e-31,-0.0031705291476100683
-0.00023493087792303413,0.007088780403137207,-0.0077987248077988625,8.198607974918559e-05,0.00010721947910496965,-0.0031436507124453783
-0.00023723139020148665,0.007474636659026146,-0.007837899960577488,8.051907207118347e-05,0.000188934980542399,-0.0030521901790052652
-0.0002297946048201993,0.008273457176983356,-0.0073540788143873215,7.910366548458114e-05,0.00018672714941203594,-0.0029389779083430767
-0.00022268877364695072,0.007722614798694849,-0.007217145059257746,7.773705146973953e-05,0.00017964010476134717,-0.002970336703583598
-0.00021600790205411613,0.007042481563985348,-0.008299598470330238,7.641697447979823e-05,0.00017276608559768647,-0.0032363557256758213
-0.00020971584308426827,0.007877313531935215,-0.007854601368308067,7.514093158533797e-05,0.00016637903172522783,-0.0031701086554676294
-0.00022694839572068304,0.00804209802299738,-0.00807141698896885,7.390687824226916e-05,0.00019036246521864086,-0.0034527070820331573
-0.0002274331054650247,0.0076188151724636555,-0.007296882104128599,7.271258800756186e-05,0.00018576422007754445,-0.003295362228527665
-0.00021664320956915617,0.00764243071898818,-0.008024530485272408,7.155640196288005e-05,0.0001797089644242078,-0.003166814800351858
-0.00020669377408921719,0.007484153378754854,-0.007741644978523254,5.9977075579809025e-05,0.0001739282743074,-0.0031367517076432705
-0.00023245777992997319,0.007558088283985853,-0.007737405132502317,5.571756264544092e-05,0.00019286974566057324,-0.0031939230393618345
-0.00022709985205437988,0.007474963087588549,-0.007498266641050577,5.465405774884857e-05,0.00019039316975977272,-0.0034699661191552877
-0.00022709985205437988,0.007474963087588549,-0.007498266641050577,5.465405774884857e-05,0.00019039316975977272,-0.0034699661191552877
-0.00021799103706143796,0.007593150250613689,-0.007762816734611988,5.3822706831851974e-05,0.00018501986050978303,-0.003540240228176117
-0.00020953307102899998,0.007530017755925655,-0.0077288164757192135,5.3029008995508775e-05,0.00019877702288795263,-0.003458838677033782
-0.00020170588686596602,0.0076965163461863995,-0.00766063341870904,5.2259154472267255e-05,0.0001993013866012916,-0.003201218554750085
-0.00022302675643004477,0.008197907358407974,-0.007620807737112045,4.51666273875162e-05,0.0001943155803019181,-0.0033604153431952
-0.00021160926553420722,0.007918125949800014,-0.007861175574362278,3.758654565899633e-05,0.00025792166707105935,-0.0033285797107964754
-0.00020473291806410998,0.007757114712148905,-0.007616541348397732,3.7045221688458696e-05,0.00024882826255634427,-0.0035143259447067976
-0.00019828911172226071,0.007651335094124079,-0.007606091909110546,-2.330660936422646e-05,0.00023610646894667298,-0.003628805512562394
-0.0001922383380588144,0.007536955177783966,-0.007748855743557215,-3.115208164672367e-05,0.0002243542403448373,-0.0034352235961705446
-0.0001865460944827646,0.00770144397392869,-0.007772811688482761,-3.115152139798738e-05,0.0002507117169443518,-0.0031992243602871895
-0.00018118100706487894,0.0076100267469882965,-0.00755350524559617,-4.496723340707831e-05,0.00024443489382974803,-0.0033595298882573843
-0.00017611599469091743,0.007559074088931084,-0.00823922548443079,-4.5151173253543675e-05,0.00023416457406710833,-0.003653628285974264
-0.00017132671200670302,0.0074845715425908566,-0.008427533321082592,-5.8308847656007856e-05,0.00024274848692584783,-0.0037490571849048138
-0.00016679064719937742,0.008159153163433075,-0.0077924891375005245,-5.827190398122184e-05,0.0002501613926142454,-0.003749412950128317
-0.00016248897009063512,0.007848612032830715,-0.0074439155869185925,-6.987727829255164e-05,0.00024167849915102124,-0.003746162634342909
-0.00015840321430005133,0.007616980466991663,-0.008088942617177963,-7.064415694912896e-05,0.00024910757201723754,-0.003855127841234207
-0.00015451812942046672,0.007458848413079977,-0.007903818972408772,-0.00043878782889805734,0.00025549143902026117,-0.003902712371200323
-0.00015081916353665292,0.007962810806930065,-0.007491758558899164,-0.0005008867010474205,0.00024769603624008596,-0.0038262971211224794
-0.00016586847777944058,0.007849247194826603,-0.00816410593688488,-0.0005313263973221183,0.00027903684531338513,-0.0041532739996910095
-0.0001644560252316296,0.007668149191886187,-0.00858605932444334,-0.000560318527277559,0.0002982201403938234,-0.004150949418544769
-0.00016081469948403537,0.007456980179995298,-0.008016332052648067,-0.0009256835910491645,0.00028199327061884105,-0.004196606110781431
-0.0001573017070768401,0.008295358158648014,-0.007640487048774958,-0.0010230500483885407,0.0003114350838586688,-0.004009142983704805
-0.00015393865760415792,0.007983312010765076,-0.008056923747062683,-0.0013127719284966588,0.00030039474950172007,-0.003777344711124897
-0.00015071633970364928,0.00801074132323265,-0.008471968583762646,-0.0015839723637327552,0.00028495086007751524,-0.0034684701822698116
-0.00014762602222617716,0.008057985454797745,-0.007989773526787758,-0.0015662979567423463,0.00031270174076780677,-0.003402103204280138
-0.00014466005086433142,0.007816760800778866,-0.007935828529298306,-0.0018253532471135259,0.00030052330112084746,-0.004049693699926138
-0.0001418108440702781,0.00810460839420557,-0.008612495847046375,-0.0017375858733430505,0.0002870087919291109,-0.004406377673149109
-0.00013907170796301216,0.007835756056010723,-0.008012999780476093,-0.0019181623356416821,0.00030848963069729507,-0.004352506250143051
-0.00013907170796301216,0.007835756056010723,-0.008012999780476093,-0.0019181623356416821,0.00030848963069729507,-0.004352506250143051
-0.00013643635611515492,0.007702067960053682,-0.0074347397312521935,-0.001830065157264471,0.0003002840094268322,-0.004259898327291012
-0.00013389902596827596,0.007552490569651127,-0.007686624303460121,-0.0021303975954651833,0.0002885524299927056,-0.0036440924741327763
-0.00013145444972906262,0.0073048509657382965,-0.008231782354414463,-0.0023590384516865015,0.0003557415911927819,-0.003905246267095208
-0.00012909741781186312,0.007722946815192699,-0.0077593219466507435,-0.002455645939335227,0.00034068000968545675,-0.004167892504483461
-0.00012682355009019375,0.008199037052690983,-0.007315138820558786,-0.0027133598923683167,0.0003722468391060829,-0.004445124417543411
-0.00012250777217559516,0.007302268873900175,-0.009003421291708946,-0.0025175740011036396,0.0003819003177341074,-0.004418130032718182
-0.00012045825133100152,0.0073228455148637295,-0.007992682978510857,-0.0027365272399038076,0.0003662929229903966,-0.004371233284473419
-0.00011847612768178806,0.008243377320468426,-0.007103589363396168,-0.0031484749633818865,0.00039266058593057096,-0.004056238569319248
-0.00011655819980660453,0.008337849751114845,-0.008215819485485554,-0.0031970113050192595,0.0004768275248352438,-0.00396184204146266
-0.00011470135359559208,0.007161283399909735,-0.008764015510678291,-0.003232515649870038,0.000518081767950207,-0.003955863881856203
-0.00011290268594166264,0.006386724300682545,-0.007872624322772026,-0.0033217095769941807,0.0005574954557232559,-0.004188055172562599
-9.781887638382614e-05,0.007128020282834768,-0.006793105509132147,-0.003243598621338606,0.0005841882666572928,-0.004560146480798721
-9.579332981957123e-05,0.007436781655997038,-0.0075868298299610615,-0.003203651402145624,0.0005816736374981701,-0.0045470488257706165
-0.00010625720460666344,0.006887087598443031,-0.008043505251407623,-0.003330340376123786,0.0005704122595489025,-0.004410097375512123
-0.00010621802357491106,0.006936861667782068,-0.007196590304374695,-0.0033655737061053514,0.0006743465783074498,-0.004088671412318945
-0.00010469411790836602,0.007280874997377396,-0.006708946544677019,-0.0035514861810952425,0.000689976557623595,-0.003913363441824913
-9.047016646945849e-05,0.007401198614388704,-0.007433465216308832,-0.003959840163588524,0.0006618498009629548,-0.0043521542102098465
-8.902114495867863e-05,0.007211765274405479,-0.007696140091866255,-0.0038492402527481318,0.0006777310627512634,-0.004276701249182224
-8.777853508945554e-05,0.007113366853445768,-0.007250732276588678,-0.003531083697453141,0.0006990667316131294,-0.0044671036303043365
-8.657227590447292e-05,0.007478766608983278,-0.007136739324778318,-0.0031596103217452765,0.000769709818996489,-0.004625512752681971
-8.539877308066934e-05,0.007633896078914404,-0.007628358900547028,-0.003026993479579687,0.0008164785685949028,-0.004684317857027054
-8.425672422163188e-05,0.007499440107494593,-0.007815488614141941,-0.0034041572362184525,0.0008377832127735019,-0.004722872748970985
-8.314475417137146e-05,0.007514922879636288,-0.007443346548825502,-0.00372287817299366,0.0008544789161533117,-0.004839174449443817
-8.206177153624594e-05,0.007521944586187601,-0.006945846136659384,-0.0038312661927193403,0.001203775405883789,-0.004752451553940773
-8.100659761112183e-05,0.007515578996390104,-0.007027849089354277,-0.0038986243307590485,0.0012612486025318503,-0.004508194979280233
-7.997821376193315e-05,0.00732862763106823,-0.007032467518001795,-0.0039888592436909676,0.0013048503315076232,-0.0043150028213858604
-7.897565956227481e-05,0.0074091581627726555,-0.0072269015945494175,-0.004323088098317385,0.0013367993524298072,-0.0039806668646633625
-7.799790910212323e-05,0.007059550378471613,-0.007158237975090742,-0.0043144430965185165,0.0013550024013966322,-0.004173949360847473
-7.704406743869185e-05,0.007421568036079407,-0.007226242683827877,-0.003965710289776325,0.0012997327139601111,-0.0041181850247085094
-7.704406743869185e-05,0.007421568036079407,-0.007226242683827877,-0.003965710289776325,0.0012997327139601111,-0.0041181850247085094
-7.611329056089744e-05,0.0074932691641151905,-0.007271380629390478,-0.004198165610432625,0.001272545545361936,-0.00406003138050437
-7.520473445765674e-05,0.007750784512609243,-0.00695095956325531,-0.0038961449172347784,0.0012038190616294742,-0.0035914978943765163
-7.431763515342027e-05,0.006938124541193247,-0.007356408052146435,-0.0035875877365469933,0.0011541050625965,-0.004012593533843756
-7.345111953327432e-05,0.00729808583855629,-0.007610541768372059,-0.0040158238261938095,0.0010367421200498939,-0.004113472998142242
-3.1791587389307097e-05,0.007201239466667175,-0.0075823538936674595,-0.004132409580051899,0.000959803001023829,-0.004333403427153826
-2.609476177894976e-05,0.007046061102300882,-0.007399583701044321,-0.004334527067840099,0.000983400153927505,-0.004322640597820282
-2.529124503780622e-05,0.007318418938666582,-0.006831445265561342,-0.0036539335269480944,0.0009781442349776626,-0.004218266811221838
-2.4940809453255497e-05,0.006883145775645971,-0.007974226959049702,-0.003486739005893469,0.0010167447617277503,-0.004050167743116617
-1.246727606485365e-05,0.007207930088043213,-0.007229150738567114,-0.0039038716349750757,0.0010010730475187302,-0.004103000275790691
-4.854792905462091e-07,0.007366336416453123,-0.006817006040364504,-0.00415092334151268,0.0009550410904921591,-0.004204683471471071
-6.513324546375543e-09,0.0075818453915417194,-0.006727995350956917,-0.004308396019041538,0.0008925334550440311,-0.00442306837067008
-8.738455792300925e-11,0.0073074945248663425,-0.007340473588556051,-0.004058843478560448,0.0008784055826254189,-0.004181616008281708
-1.172375347843757e-12,0.00701071135699749,-0.007108788471668959,-0.004370222333818674,0.0008773345034569502,-0.0044417898170650005
-1.5728912245468844e-14,0.007206889800727367,-0.007103792391717434,-0.0046692900359630585,0.0008634490659460425,-0.004570458084344864
-2.1102340926205238e-16,0.007449944503605366,-0.007114189676940441,-0.004453642759472132,0.0008669420494697988,-0.004341594409197569
-2.8311484827837013e-18,0.00722731975838542,-0.007767894305288792,-0.004307591821998358,0.0008037454099394381,-0.004369736183434725
-3.7983471337710135e-20,0.007234320975840092,-0.007187592331320047,-0.004022023640573025,0.0008571779471822083,-0.004491210449486971
-5.095967231693773e-22,0.007608021609485149,-0.007210385520011187,-0.004397922661155462,0.0008022767724469304,-0.004742845892906189
-6.836890227038602e-24,0.007630557287484407,-0.006799852009862661,-0.00477819936349988,0.000802835333161056,-0.004596763290464878
-9.172560910440583e-26,0.007299315650016069,-0.006971906870603561,-0.004735338501632214,0.0007739196880720556,-0.0044081066735088825
-1.2306160787969786e-27,0.007266482338309288,-0.007211064454168081,-0.004494496621191502,0.0007396683213301003,-0.004420957528054714
-1.6510284217299242e-29,0.007278307806700468,-0.00715378113090992,-0.004375677090138197,0.0007472549332305789,-0.004659538622945547
-2.2150653494635133e-31,0.007557607721537352,-0.006861858069896698,-0.004487865604460239,0.0007163677946664393,-0.004677172750234604
-2.971792798581757e-33,0.007060371804982424,-0.0071563757956027985,-0.0046705505810678005,0.0006816699751652777,-0.004852968268096447
-3.9870392136428904e-35,0.00721146073192358,-0.0074152774177491665,-0.004724453203380108,0.0006955443532206118,-0.004481155890971422
-5.349122145382831e-37,0.007441609166562557,-0.007107543293386698,-0.0045715635642409325,0.0006371538038365543,-0.004457058385014534
-7.176530081180652e-39,0.007558153942227364,-0.006932231597602367,-0.00474347360432148,0.0006560944602824748,-0.004909640643745661
-9.628181618529386e-41,0.007642777636647224,-0.007096529006958008,-0.004794876091182232,0.0006427348125725985,-0.005198713392019272
0.0003929338126908988,0.007141594309359789,-0.007604636717587709,-0.004894514102488756,0.0005981213762424886,-0.005041716154664755
0.0003929338126908988,0.007141594309359789,-0.007604636717587709,-0.004894514102488756,0.0005981213762424886,-0.005041716154664755
0.00038561440305784345,0.007235297001898289,-0.007069406099617481,-0.0044049546122550964,0.0006212555454112589,-0.0052388557232916355
0.0003294687776360661,0.007799668703228235,-0.006601481232792139,-0.0039983526803553104,0.0006736776558682323,-0.004665948450565338
0.0003294687776360661,0.007799668703228235,-0.006601481232792139,-0.0039983526803553104,0.0006736776558682323,-0.004665948450565338
0.0003610196872614324,0.007439497858285904,-0.007071610074490309,-0.004488008562475443,0.000929590780287981,-0.004981756675988436
0.00037172017619013786,0.00800106581300497,-0.006778336595743895,-0.005118513945490122,0.0010019420878961682,-0.005670131649821997
0.00035666863550432026,0.008079452440142632,-0.006659890525043011,-0.004920498933643103,0.0011898721568286419,-0.005628079641610384
0.00038388464599847794,0.007593447808176279,-0.007336838636547327,-0.005276031326502562,0.001257274649105966,-0.00521607231348753
0.00036750498111359775,0.00836198776960373,-0.007646540645509958,-0.005306918639689684,0.0012018365086987615,-0.004829727113246918
0.000426443264586851,0.008632239885628223,-0.007559663616120815,-0.00576055096462369,0.0011598962591961026,-0.005146500654518604
0.00046551640843972564,0.0077657089568674564,-0.007072939537465572,-0.005334718618541956,0.001087681041099131,-0.005328154657036066
0.00047824077773839235,0.007482774555683136,-0.006759618874639273,-0.005018587224185467,0.0009755505598150194,-0.0053192260675132275
0.0004656893142964691,0.007649042643606663,-0.008091945201158524,-0.005174690391868353,0.0009583915816619992,-0.00512063130736351
0.0004950093571096659,0.007919601164758205,-0.007055982947349548,-0.005637018475681543,0.000926265784073621,-0.005230250768363476
0.0007394022541120648,0.0077910516411066055,-0.006764006335288286,-0.00622422993183136,0.0008537234971299767,-0.0053767128847539425
0.0007727199117653072,0.007425067480653524,-0.006713482551276684,-0.006219830829650164,0.0007499080966226757,-0.00511291716247797
0.0007887753890827298,0.007523380685597658,-0.007223394699394703,-0.0055451178923249245,0.0007638249662704766,-0.005383615847676992
0.0007983313407748938,0.007796462159603834,-0.007063997909426689,-0.005907094106078148,0.0007726596668362617,-0.005547824315726757
0.0009265425615012646,0.008004795759916306,-0.006717483513057232,-0.005930771119892597,0.0007863008067943156,-0.005628852639347315
0.0009430688223801553,0.007635991554707289,-0.006523482967168093,-0.006462075747549534,0.0008508304017595947,-0.005522267427295446
0.0010277434485033154,0.0076002078130841255,-0.006988790817558765,-0.006394061725586653,0.0009688693680800498,-0.0054738083854317665
0.0011318247998133302,0.008028119802474976,-0.007093904074281454,-0.006294875871390104,0.000998817733488977,-0.0054087270982563496
0.0011708707315847278,0.007203096058219671,-0.00664973258972168,-0.00616500386968255,0.001077908556908369,-0.00573660247027874
0.0012319117086008191,0.007252309005707502,-0.006832543760538101,-0.006228170823305845,0.0011543773580342531,-0.0057299756444990635
0.0012766062282025814,0.008146293461322784,-0.007638133596628904,-0.0066356658935546875,0.0011151996441185474,-0.005714867264032364
0.0012710607843473554,0.007878607138991356,-0.007191259879618883,-0.006658088881522417,0.0010820938041433692,-0.0052319359965622425
0.001316684763878584,0.007108540739864111,-0.007467770483344793,-0.006555287167429924,0.0009702072129584849,-0.005067106336355209
0.0013542320812121034,0.007284478284418583,-0.006668279878795147,-0.006364955101162195,0.0008847395074553788,-0.0057702986523509026
0.0014612816739827394,0.007633726112544537,-0.006664198357611895,-0.007012697868049145,0.0008718096069060266,-0.0061495741829276085
0.0016635822830721736,0.008138193748891354,-0.0070609743706882,-0.006814672611653805,0.0008747497922740877,-0.0057799918577075005
0.001809006673283875,0.007797475438565016,-0.00723286485299468,-0.006428038701415062,0.0008632573299109936,-0.005801710765808821
0.001809006673283875,0.007797475438565016,-0.00723286485299468,-0.006428038701415062,0.0008632573299109936,-0.005801710765808821
0.001833502552472055,0.0070097907446324825,-0.006890065968036652,-0.006079609040170908,0.0008575562387704849,-0.0052560847252607346
0.001920514740049839,0.007968412712216377,-0.007093141786754131,-0.00688511086627841,0.0008593664970248938,-0.0054868897423148155
0.00214366870932281,0.007137638982385397,-0.007217458449304104,-0.00735741900280118,0.0008646744536235929,-0.005929643753916025
0.002325238659977913,0.007425964344292879,-0.006947693880647421,-0.006897504907101393,0.0008280206238850951,-0.005643571726977825
0.0022523782681673765,0.0077359541319310665,-0.006759992800652981,-0.006534585729241371,0.0011262744665145874,-0.005810077767819166
0.002332087606191635,0.00813988409936428,-0.007146249525249004,-0.007098082453012466,0.001227979315444827,-0.0061361766420304775
0.002486557699739933,0.007838024757802486,-0.006710437126457691,-0.007681500632315874,0.001432207878679037,-0.006135689094662666
0.0024070378858596087,0.007631747983396053,-0.0068453894928097725,-0.00779611524194479,0.0015527248615399003,-0.006196672562509775
0.002608994720503688,0.007796007674187422,-0.006740733049809933,-0.007123992778360844,0.0015349836321547627,-0.006134443450719118
0.0026733805425465107,0.007661061827093363,-0.0072858515195548534,-0.007377049885690212,0.001391389174386859,-0.006316882558166981
0.0025551393628120422,0.007594353053718805,-0.00688173808157444,-0.007641370873898268,0.0012766789877787232,-0.006196167785674334
0.0028545306995511055,0.007783961948007345,-0.006536829750984907,-0.008596139028668404,0.001225380110554397,-0.006106385961174965
0.0029750345274806023,0.008124158717691898,-0.006353786215186119,-0.007243792060762644,0.0011725777294486761,-0.006157458294183016
0.0029708389192819595,0.007609826512634754,-0.007141970098018646,-0.006638422608375549,0.001100352848879993,-0.0062120286747813225
0.0027270910795778036,0.007431935518980026,-0.007718776818364859,-0.00756190437823534,0.0010682801948860288,-0.0059273382648825645
0.0029415390454232693,0.008092653937637806,-0.006952512543648481,-0.008174283429980278,0.0011113155633211136,-0.006315642036497593
0.0030512239318341017,0.008409269154071808,-0.006506015546619892,-0.007488822098821402,0.001131968223489821,-0.005889006890356541
0.0034420073498040438,0.007303944788873196,-0.006334357429295778,-0.0073077925480902195,0.0012597987661138177,-0.00713020283728838
0.0032591645140200853,0.007188685238361359,-0.006965765729546547,-0.007606016471982002,0.0012589445104822516,-0.006728251464664936
0.00313115818426013,0.008150937967002392,-0.006965601816773415,-0.007770106196403503,0.0013166810385882854,-0.006351227406412363
0.0031372045632451773,0.008047285489737988,-0.0067586638033390045,-0.007661669515073299,0.0013869593385607004,-0.0062780664302408695
0.003183569060638547,0.0076858834363520145,-0.006474568508565426,-0.007614430971443653,0.0013033522991463542,-0.006194675341248512
0.0034040375612676144,0.007777077611535788,-0.006524252239614725,-0.007928560487926006,0.0012393641518428922,-0.006219358649104834
0.0032987850718200207,0.007900345139205456,-0.00680021196603775,-0.007747197058051825,0.001306579215452075,-0.0062563749961555
0.0036063797306269407,0.0080175269395113,-0.006877201609313488,-0.007387151941657066,0.0012942354660481215,-0.006570621393620968
0.003934680484235287,0.007655004039406776,-0.006836677435785532,-0.008731139823794365,0.0014775785384699702,-0.00634070485830307
0.003909647464752197,0.0075603146106004715,-0.0066280965693295,-0.00856014247983694,0.001462411368265748,-0.006725202780216932
0.003909647464752197,0.0075603146106004715,-0.0066280965693295,-0.00856014247983694,0.001462411368265748,-0.006725202780216932
0.0038423107471317053,0.008858438581228256,-0.006995932199060917,-0.008432945236563683,0.0015142499469220638,-0.006884220987558365
0.00384996528737247,0.00862499512732029,-0.007061286363750696,-0.00839198473840952,0.0016003195196390152,-0.006879889871925116
0.003938867710530758,0.007966389879584312,-0.006865558214485645,-0.008710173889994621,0.0015389815671369433,-0.007117264438420534
0.0038639626000076532,0.007622682023793459,-0.00689997524023056,-0.00868998747318983,0.001531799789518118,-0.006621714681386948
0.0043216273188591,0.007988277822732925,-0.006950806360691786,-0.008570125326514244,0.0014887700090184808,-0.0067648133262991905
0.004281463101506233,0.0076361894607543945,-0.00671938993036747,-0.009285202249884605,0.001603507436811924,-0.006897564046084881
0.004504082724452019,0.008175140246748924,-0.006656020414084196,-0.008691292256116867,0.001716619823127985,-0.007410065270960331
0.004543696995824575,0.008421928621828556,-0.006976287346333265,-0.008604967035353184,0.0017829227726906538,-0.007033861707895994
0.004677300341427326,0.007735873106867075,-0.00707748718559742,-0.00950738787651062,0.0016925703966990113,-0.006437929347157478
0.004152311943471432,0.00750222010537982,-0.006760597229003906,-0.009521465748548508,0.0017037566285580397,-0.006626152899116278
0.004770488943904638,0.0076923915185034275,-0.007007087115198374,-0.009115959517657757,0.0016953054582700133,-0.006636193487793207
0.005585005972534418,0.007991102524101734,-0.00711787398904562,-0.009569312445819378,0.0017323842039331794,-0.007023542188107967
0.005146872252225876,0.007655860390514135,-0.007468520198017359,-0.009342110715806484,0.0017516061197966337,-0.007327137514948845
0.005091989412903786,0.007489800453186035,-0.007111972663551569,-0.008676965720951557,0.0016620714450255036,-0.0067503321915864944
0.005059458315372467,0.008373687043786049,-0.006914858240634203,-0.009024796076118946,0.0016910377889871597,-0.006874373648315668
0.0049071782268583775,0.008430642075836658,-0.007367141544818878,-0.00905726570636034,0.0015581096522510052,-0.007003400009125471
0.005280644632875919,0.00797326397150755,-0.007745951879769564,-0.008877960033714771,0.0014693931443616748,-0.00727806705981493
0.005580841097980738,0.007134287618100643,-0.00686492258682847,-0.009400906972587109,0.0015269804280251265,-0.007653533946722746
0.005525724496692419,0.008239097893238068,-0.0070635294541716576,-0.009251078590750694,0.0014920966932550073,-0.007694458123296499
0.005158885847777128,0.008062432520091534,-0.006946653593331575,-0.008894340135157108,0.0016330362996086478,-0.007324902340769768
0.005685701966285706,0.0076322732493281364,-0.007009073160588741,-0.008633486926555634,0.0015205281088128686,-0.007261201739311218
0.005419424269348383,0.007719867397099733,-0.007047147955745459,-0.008973997086286545,0.001501519582234323,-0.007393327075988054
0.006118275225162506,0.008265695534646511,-0.0069399611093103886,-0.009148831479251385,0.0014605468604713678,-0.007470778189599514
0.005776253063231707,0.008604749105870724,-0.007269172929227352,-0.009233158081769943,0.0014818924246355891,-0.007198988925665617
0.005749473348259926,0.007990770973265171,-0.0077001298777759075,-0.009823214262723923,0.0016061419155448675,-0.006906498689204454
0.0056814346462488174,0.007793431635946035,-0.007108706049621105,-0.010413223877549171,0.001536502386443317,-0.007768343202769756
0.00613817386329174,0.008460992947220802,-0.006784113124012947,-0.009954740293323994,0.0016303245211020112,-0.007864042185246944
0.00613817386329174,0.008460992947220802,-0.006784113124012947,-0.009954740293323994,0.0016303245211020112,-0.007864042185246944
0.0060985395684838295,0.00793105736374855,-0.006620856001973152,-0.010043617337942123,0.0016426228685304523,-0.008095300756394863
0.005908158607780933,0.008673730306327343,-0.007119404152035713,-0.010036023333668709,0.0016278323018923402,-0.007826859131455421
0.006524246651679277,0.0083704749122262,-0.00697906780987978,-0.00999464001506567,0.0015786095755174756,-0.008192447945475578
0.005970875266939402,0.008322671055793762,-0.006723531987518072,-0.01076054573059082,0.0017950390465557575,-0.00810723751783371
0.00637985160574317,0.00877862423658371,-0.007701180875301361,-0.010190602391958237,0.0017793308943510056,-0.007349612656980753
0.0073233735747635365,0.008580303750932217,-0.00797998160123825,-0.010342219844460487,0.0018580065807327628,-0.00806959718465805
0.006723765283823013,0.008112196810543537,-0.006972828879952431,-0.009747659787535667,0.0018320934614166617,-0.00822084117680788
0.0064099314622581005,0.007732490077614784,-0.007431222125887871,-0.009725334122776985,0.0018815182847902179,-0.008211098611354828
0.006794547196477652,0.008328655734658241,-0.006839688867330551,-0.010103140957653522,0.0017409397987648845,-0.007955278269946575
0.007505617570132017,0.00835021398961544,-0.007343876641243696,-0.01000758446753025,0.0016173850744962692,-0.007846366614103317
0.007074508350342512,0.008210904896259308,-0.007267024368047714,-0.010822993703186512,0.0015818129759281874,-0.007734036538749933
0.006649313494563103,0.00802901666611433,-0.006829862017184496,-0.010513265617191792,0.001448035123758018,-0.007930667139589787
0.006618526764214039,0.009076380170881748,-0.006482627242803574,-0.009969957172870636,0.0014776812167838216,-0.007753895130008459
0.006931813433766365,0.008158449083566666,-0.0073409005999565125,-0.010322816669940948,0.0014162668958306313,-0.008035293780267239
0.007251723203808069,0.008095700293779373,-0.007073187734931707,-0.010224518366158009,0.0015921329613775015,-0.007638441398739815
0.006922988221049309,0.00825777929276228,-0.006777622736990452,-0.010417575016617775,0.0016640336252748966,-0.007402701769024134
0.006811035331338644,0.008693932555615902,-0.006608231458812952,-0.010824860073626041,0.0021500163711607456,-0.0079284543171525
0.007374296896159649,0.008438387885689735,-0.007133408449590206,-0.010234461165964603,0.002006560331210494,-0.008436598815023899
0.007101056631654501,0.00821878295391798,-0.007235832512378693,-0.01055972557514906,0.0020614040549844503,-0.008054062724113464
0.007263472303748131,0.009032618254423141,-0.006535591557621956,-0.01051347516477108,0.0019135747570544481,-0.007855153642594814
0.007525794208049774,0.008195829577744007,-0.006833257153630257,-0.010119822807610035,0.0019546528346836567,-0.008085079491138458
0.008261436596512794,0.008097251877188683,-0.006960852537304163,-0.010157378390431404,0.00185870670247823,-0.00839043129235506
0.007772468030452728,0.008947890251874924,-0.007334786467254162,-0.010088845156133175,0.0020590422209352255,-0.008273621089756489
0.007816320285201073,0.00859517976641655,-0.0073226154781877995,-0.010155517607927322,0.001999265979975462,-0.008045326918363571
0.007816320285201073,0.00859517976641655,-0.0073226154781877995,-0.010155517607927322,0.001999265979975462,-0.008045326918363571
0.007900717668235302,0.007918504998087883,-0.006326180882751942,-0.010120202787220478,0.0020269013475626707,-0.00815361924469471
0.008592448197305202,0.008077677339315414,-0.0063484590500593185,-0.010272867977619171,0.001856813090853393,-0.008529528975486755
0.00867203064262867,0.008937585167586803,-0.0074043432250618935,-0.01034747064113617,0.0018855840899050236,-0.00849070493131876
0.00806930847465992,0.008597300387918949,-0.007036559283733368,-0.010193940252065659,0.0017633858369663358,-0.00820719450712204
0.007920441217720509,0.008342132903635502,-0.006508601829409599,-0.010597556829452515,0.0017201027367264032,-0.00794240366667509
0.008328241296112537,0.00884973257780075,-0.0068987468257546425,-0.010472691617906094,0.0018370909383520484,-0.008383424021303654
0.0081576406955719,0.008778100833296776,-0.0071175978519022465,-0.0106348916888237,0.001868774532340467,-0.008117162622511387
0.006345531903207302,0.009203472174704075,-0.006686079781502485,-0.010937378741800785,0.002210225211456418,-0.008693942800164223
0.005931662395596504,0.008979842998087406,-0.00636661984026432,-0.011876910924911499,0.0024518694262951612,-0.009039860218763351
0.006578131578862667,0.008865690790116787,-0.0062705716118216515,-0.011180785484611988,0.00242607481777668,-0.008810234256088734
0.006682972423732281,0.00852073635905981,-0.007086860481649637,-0.012366185896098614,0.0024479939602315426,-0.008446605876088142
0.006399570498615503,0.00889973621815443,-0.007002918049693108,-0.010992974042892456,0.0023076171055436134,-0.00814445037394762
0.006601821165531874,0.008549749851226807,-0.006645893212407827,-0.010849232785403728,0.002395194722339511,-0.009331929497420788
0.006729173008352518,0.008356001228094101,-0.0061608427204191685,-0.012090425938367844,0.002350019523873925,-0.00914797093719244
0.006368134170770645,0.00848277285695076,-0.006734506227076054,-0.011979486793279648,0.0022489887196570635,-0.009062775410711765
0.006120055448263884,0.008640175685286522,-0.007114335894584656,-0.011875483207404613,0.0022951143328100443,-0.008464432321488857
0.006440250668674707,0.008555784821510315,-0.00689660431817174,-0.0117916539311409,0.0021618357859551907,-0.00843697041273117
0.0067019411362707615,0.00889186467975378,-0.006476160138845444,-0.01159579586237669,0.0020232025999575853,-0.008637986145913601
0.007034058216959238,0.009148258715867996,-0.006154934875667095,-0.011987005360424519,0.001869807718321681,-0.008603345602750778
0.006853175815194845,0.008572028949856758,-0.007076030131429434,-0.011618676595389843,0.0018910436192527413,-0.008641533553600311
0.007255375850945711,0.008337865583598614,-0.006773857865482569,-0.012179473415017128,0.0017670068191364408,-0.0089644156396389
0.007618022616952658,0.008917618542909622,-0.006617025006562471,-0.012288584373891354,0.0019808022771030664,-0.008842798881232738
0.006922194268554449,0.009064655750989914,-0.006191520020365715,-0.012633942067623138,0.0020928739104419947,-0.008620260283350945
0.007110708858817816,0.008650828152894974,-0.0066750491969287395,-0.01241342630237341,0.00245214463211596,-0.00898825004696846
0.007238447200506926,0.00884376373142004,-0.007027005311101675,-0.011555255390703678,0.0028391291853040457,-0.008799520321190357
0.007465421687811613,0.009394480846822262,-0.006420098710805178,-0.012445203959941864,0.0027542877942323685,-0.008407140150666237
0.007228583563119173,0.008574236184358597,-0.005982731934636831,-0.01169179193675518,0.0025788564234972,-0.008700434118509293
0.007246635388582945,0.008437289856374264,-0.006427462678402662,-0.012165330350399017,0.0021887451875954866,-0.009257834404706955
0.007246635388582945,0.008437289856374264,-0.006427462678402662,-0.012165330350399017,0.0021887451875954866,-0.009257834404706955
0.008057431317865849,0.008914664387702942,-0.007288534659892321,-0.012377566657960415,0.0021326979622244835,-0.00935500580817461
0.007864653132855892,0.008527162484824657,-0.0065637980587780476,-0.012293154373764992,0.002060765866190195,-0.008604914881289005
0.008264061063528061,0.008763035759329796,-0.006252569612115622,-0.01265884842723608,0.0020784924272447824,-0.009229615330696106
0.007782177068293095,0.00876938458532095,-0.0061060115694999695,-0.012275775894522667,0.0022329201456159353,-0.009317516349256039
0.007587928790599108,0.008825964294373989,-0.006882275454699993,-0.012982916086912155,0.0021993257105350494,-0.00976189412176609
0.0075737484730780125,0.008432981558144093,-0.006880864035338163,-0.013125707395374775,0.002114375587552786,-0.009244261309504509
0.00787979643791914,0.009034272283315659,-0.006671697832643986,-0.012814512476325035,0.001792768482118845,-0.009332743473351002
0.008708137087523937,0.008807721547782421,-0.006243932526558638,-0.01242461521178484,0.001986594870686531,-0.009368774481117725
0.007967053912580013,0.00866611860692501,-0.00707508297637105,-0.013013530522584915,0.0021239013876765966,-0.00946896057575941
0.008122261613607407,0.00904589518904686,-0.006703334394842386,-0.012989643961191177,0.0022216252982616425,-0.009199233725667
0.008147298358380795,0.00866942573338747,-0.006754582282155752,-0.013437457382678986,0.00213120155967772,-0.009287171997129917
0.008410148322582245,0.008694886229932308,-0.006181721109896898,-0.012860184535384178,0.0019968373235315084,-0.009477702900767326
0.008342839777469635,0.009137352928519249,-0.0064075100235641,-0.013236072845757008,0.0018654762534424663,-0.009710937738418579
0.00829513929784298,0.008830826729536057,-0.006877235136926174,-0.013255211524665356,0.001812055241316557,-0.009556741453707218
0.008412238210439682,0.008662003092467785,-0.0067758867517113686,-0.0136216189712286,0.0018787431763485074,-0.009905155748128891
0.009112223982810974,0.00850162748247385,-0.006598007399588823,-0.013264991343021393,0.0020544950384646654,-0.010410230606794357
0.008738125674426556,0.008770588785409927,-0.006085715722292662,-0.013205875642597675,0.0021038949489593506,-0.009888380765914917
0.007801453582942486,0.008582081645727158,-0.006708262488245964,-0.013189542107284069,0.0022601233795285225,-0.00995507650077343
0.008257145993411541,0.00860424805432558,-0.0069199432618916035,-0.013272140175104141,0.0020997796673327684,-0.009667590260505676
0.009498980827629566,0.008913938887417316,-0.006217521615326405,-0.013603616505861282,0.002233418170362711,-0.009656923823058605
0.008350995369255543,0.008777372539043427,-0.005901052616536617,-0.013854493387043476,0.0022104536183178425,-0.010469338856637478
0.008546805009245872,0.00849407073110342,-0.0068002743646502495,-0.014149399474263191,0.0022044996730983257,-0.010080880485475063
0.008626807481050491,0.008313179016113281,-0.007054982706904411,-0.013892514631152153,0.0023313395213335752,-0.009929537773132324
0.008740290999412537,0.00917647685855627,-0.006486503407359123,-0.014167877845466137,0.002585317939519882,-0.009997689165174961
0.008762331679463387,0.00861024484038353,-0.006132796872407198,-0.0137709965929389,0.0024926539044827223,-0.010477658361196518
0.008932576514780521,0.008336525410413742,-0.005700668320059776,-0.01432122103869915,0.0022510807029902935,-0.010314933955669403
0.008880927227437496,0.009634540416300297,-0.006317444145679474,-0.01409126352518797,0.0021026183385401964,-0.010527204722166061
0.008960718289017677,0.008508345112204552,-0.006549799349159002,-0.01455285307019949,0.0019111743895336986,-0.010268534533679485
0.008960718289017677,0.008508345112204552,-0.006549799349159002,-0.01455285307019949,0.0019111743895336986,-0.010268534533679485
0.009267192333936691,0.008718614466488361,-0.006204567383974791,-0.014355429448187351,0.0018692060839384794,-0.010352526791393757
0.00937679409980774,0.009156683459877968,-0.00574097502976656,-0.014854204840958118,0.0020763033535331488,-0.010755443014204502
0.008852584287524223,0.008786788210272789,-0.0056962850503623486,-0.014526684768497944,0.002124569145962596,-0.010563140735030174
0.009582136757671833,0.008414218202233315,-0.0071898228488862514,-0.01472441479563713,0.0025317484978586435,-0.010613375343382359
0.009265574626624584,0.009341021068394184,-0.005712871439754963,-0.015301487408578396,0.002847371157258749,-0.01086906623095274
0.010387655347585678,0.00857299193739891,-0.005630372557789087,-0.014994436874985695,0.002681182697415352,-0.01047416403889656
0.009885954670608044,0.008358574472367764,-0.006192813627421856,-0.015079746954143047,0.002593348501250148,-0.01010914333164692
0.009242529049515724,0.009734014049172401,-0.006518066395074129,-0.015219450928270817,0.0026361653581261635,-0.010344802401959896
0.010030578821897507,0.008754369802772999,-0.0062310341745615005,-0.01552731916308403,0.002617268357425928,-0.010770396329462528
0.010250966995954514,0.00864544976502657,-0.005933965556323528,-0.016017578542232513,0.002889947034418583,-0.010315586812794209
0.009378062561154366,0.009454404935240746,-0.005478995386511087,-0.014768886379897594,0.0029100303072482347,-0.010610309429466724
0.01073392666876316,0.009199470281600952,-0.00583418644964695,-0.015163484960794449,0.0026021369267255068,-0.010909680277109146
0.010221821255981922,0.00855328980833292,-0.006542022805660963,-0.015257240273058414,0.002580904634669423,-0.010763686150312424
0.009566770866513252,0.009023082442581654,-0.006120662670582533,-0.015925928950309753,0.002389604691416025,-0.010442695580422878
0.0100579047575593,0.009028904139995575,-0.006042374763637781,-0.015206747688353062,0.002286783652380109,-0.010401526466012001
0.009924376383423805,0.00869343988597393,-0.005652196239680052,-0.015815285965800285,0.0022775442339479923,-0.0103693176060915
0.009684138000011444,0.00950405839830637,-0.006042071618139744,-0.01542991679161787,0.002194408094510436,-0.010407159104943275
0.01011491846293211,0.009077493101358414,-0.00641636922955513,-0.015965959057211876,0.0024075850378721952,-0.011469399556517601
0.010322907008230686,0.008958225138485432,-0.006121934857219458,-0.015878571197390556,0.0026362354401499033,-0.011014739982783794
0.009620483964681625,0.008618047460913658,-0.005956146866083145,-0.016063926741480827,0.002363334409892559,-0.010849539190530777
0.010147400200366974,0.009110349230468273,-0.005955596454441547,-0.01580805517733097,0.0024466419126838446,-0.010805796831846237
0.010283294133841991,0.008911825716495514,-0.0060154832899570465,-0.016096748411655426,0.0027880780398845673,-0.01097737718373537
0.009823370724916458,0.008679095655679703,-0.006608626805245876,-0.01662549003958702,0.003012529807165265,-0.01086126547306776
0.010926700197160244,0.009689162485301495,-0.006024932023137808,-0.016076955944299698,0.002923267427831888,-0.010684856213629246
0.010293575935065746,0.00894002616405487,-0.0058792210184037685,-0.01635097898542881,0.002944500185549259,-0.011119190603494644
0.009895902127027512,0.00857092346996069,-0.00650458037853241,-0.016422513872385025,0.002738461596891284,-0.011531714349985123
0.010449112392961979,0.00884378794580698,-0.006153206806629896,-0.016867302358150482,0.002695364411920309,-0.011231081560254097
0.010449112392961979,0.00884378794580698,-0.006153206806629896,-0.016867302358150482,0.002695364411920309,-0.011231081560254097
0.010696484707295895,0.00917559489607811,-0.006434902083128691,-0.01676611229777336,0.0026872893795371056,-0.011473189108073711
0.010796898975968361,0.008880015462636948,-0.0063245524652302265,-0.017168192192912102,0.0026356070302426815,-0.011655028909444809
0.010796898975968361,0.008880015462636948,-0.0063245524652302265,-0.017168192192912102,0.0026356070302426815,-0.011655028909444809
0.010853192768990993,0.00920167937874794,-0.006016702391207218,-0.016574442386627197,0.002539495937526226,-0.011565239168703556
0.010822577401995659,0.008821400813758373,-0.006486020982265472,-0.016848018392920494,0.0030067043844610453,-0.011718633584678173
0.01031350065022707,0.00922249723225832,-0.006086400710046291,-0.01705816388130188,0.003228114452213049,-0.011864801868796349
0.010736808180809021,0.009121405892074108,-0.006144170183688402,-0.01722649112343788,0.0031463417690247297,-0.011726722121238708
0.010597731918096542,0.008934971876442432,-0.0064091370441019535,-0.017024321481585503,0.0028927279636263847,-0.011349201202392578
0.01015479490160942,0.009094259701669216,-0.0064222728833556175,-0.017646413296461105,0.002785258460789919,-0.011287372559309006
0.010778471827507019,0.008695126511156559,-0.006640123203396797,-0.01736396551132202,0.0026992058847099543,-0.01166598405689001
0.01052432507276535,0.009491504170000553,-0.00635866355150938,-0.01741815358400345,0.0025927412789314985,-0.011262800544500351
0.010895675048232079,0.00932961143553257,-0.006512040738016367,-0.017527801916003227,0.002765588229522109,-0.011667145416140556
0.011480105109512806,0.009501156397163868,-0.006148089189082384,-0.016963791102170944,0.002540663816034794,-0.01163787767291069
0.010409681126475334,0.008877363987267017,-0.006599487736821175,-0.017588777467608452,0.0025339643470942974,-0.011779180727899075
0.010108169168233871,0.009647972881793976,-0.006965549662709236,-0.017804279923439026,0.002724825404584408,-0.011820732615888119
0.01079501025378704,0.008981364779174328,-0.006188720930367708,-0.018175678327679634,0.002891597803682089,-0.011918783187866211
0.010250873863697052,0.008448087610304356,-0.005917185451835394,-0.018769575282931328,0.00283604278229177,-0.012159038335084915
0.010185140185058117,0.008767282590270042,-0.006570539902895689,-0.017945023253560066,0.0028935859445482492,-0.012213600799441338
0.010992243885993958,0.009369689971208572,-0.007290755398571491,-0.01858142763376236,0.0029486429411917925,-0.012409467250108719
0.010351914912462234,0.009032643400132656,-0.00689904298633337,-0.01891130767762661,0.002849301788955927,-0.012821869924664497
0.010557531379163265,0.008779148571193218,-0.006254869978874922,-0.0179892648011446,0.0027385931462049484,-0.01237329188734293
0.010316499508917332,0.009721160866320133,-0.006629239302128553,-0.01865045726299286,0.002623197389766574,-0.012498307973146439
0.010120147839188576,0.008833254687488079,-0.007349302060902119,-0.01910855434834957,0.002718005795031786,-0.012127690017223358
0.010363458655774593,0.0084616020321846,-0.007061448413878679,-0.01939215324819088,0.002848353935405612,-0.012487933970987797
0.010605630464851856,0.008834087289869785,-0.006254943087697029,-0.019491786137223244,0.0034133130684494972,-0.012499756179749966
0.010611437261104584,0.009175135754048824,-0.00647405069321394,-0.019304538145661354,0.0032992404885590076,-0.01242544874548912
0.010611437261104584,0.009175135754048824,-0.00647405069321394,-0.019304538145661354,0.0032992404885590076,-0.01242544874548912
0.011472899466753006,0.00906844437122345,-0.006884962785989046,-0.01920943148434162,0.003262862330302596,-0.012526508420705795
0.01050972193479538,0.008829589933156967,-0.007206972222775221,-0.020327631384134293,0.003289557993412018,-0.012609361670911312
0.010586241260170937,0.009780910797417164,-0.006831500679254532,-0.019268160685896873,0.003415664890781045,-0.012802235782146454
0.010753517970442772,0.008626461960375309,-0.006317584775388241,-0.019003333523869514,0.003345478093251586,-0.013120364397764206
0.009933330118656158,0.008632528595626354,-0.0064483932219445705,-0.019462473690509796,0.0032363287173211575,-0.01324312761425972
0.010326588526368141,0.009352586232125759,-0.006884973030537367,-0.018807437270879745,0.002855143276974559,-0.013035954907536507
0.010548943653702736,0.008800447918474674,-0.006580432411283255,-0.019664643332362175,0.002762838266789913,-0.012745807878673077
0.010222972370684147,0.009364502504467964,-0.006710014771670103,-0.01989620551466942,0.0032608909532427788,-0.012985323555767536
0.010469644330441952,0.009210585616528988,-0.0068479496985673904,-0.019339891150593758,0.0032763148192316294,-0.012730404734611511
0.010099072009325027,0.00848483107984066,-0.006611436139792204,-0.019438136368989944,0.00297907623462379,-0.012692456133663654
0.010527207516133785,0.008628569543361664,-0.006462893448770046,-0.019572511315345764,0.002751518040895462,-0.012714561074972153
0.010497069917619228,0.009375321678817272,-0.00649824645370245,-0.01960182376205921,0.002827136544510722,-0.013026786036789417
0.010429363697767258,0.008873260580003262,-0.006615695543587208,-0.019465668126940727,0.002968516666442156,-0.01326909288764
0.0104519696906209,0.008698305115103722,-0.007274038624018431,-0.0195078793913126,0.00323301088064909,-0.01312510296702385
0.010709409601986408,0.009314012713730335,-0.006768978666514158,-0.019550424069166183,0.0031772395595908165,-0.013155835680663586
0.011283324100077152,0.009058584459125996,-0.0061427634209394455,-0.019630171358585358,0.00312268384732306,-0.012582062743604183
0.01039666123688221,0.008885189890861511,-0.006014639977365732,-0.019408809021115303,0.0029858446214348078,-0.012825441546738148
0.010370706208050251,0.010085462592542171,-0.007088396232575178,-0.019124086946249008,0.003146600676700473,-0.011933775618672371
0.01056444738060236,0.009748712182044983,-0.006808923091739416,-0.019366659224033356,0.0031591756269335747,-0.013338897377252579
0.010635786689817905,0.009242738597095013,-0.006170034874230623,-0.019745325669646263,0.0034522763453423977,-0.01393543928861618
0.010442799888551235,0.009669212624430656,-0.006655506789684296,-0.019755417481064796,0.003722779219970107,-0.013710588216781616
0.010795610025525093,0.009453650563955307,-0.006997052580118179,-0.019733624532818794,0.0038148576859384775,-0.013214698992669582
0.01053645834326744,0.008713102899491787,-0.006687994580715895,-0.02042262814939022,0.0034327437169849873,-0.012993044219911098
0.010614312253892422,0.00936387199908495,-0.006275586783885956,-0.02027491293847561,0.003112638369202614,-0.013084483332931995
0.010736155323684216,0.009527442045509815,-0.0061399247497320175,-0.019708193838596344,0.00309956818819046,-0.012998017482459545
0.010523417964577675,0.009152870625257492,-0.0060907816514372826,-0.020182080566883087,0.00325864739716053,-0.013463775627315044
0.0110712805762887,0.009266609326004982,-0.006272260565310717,-0.020558470860123634,0.0033454252406954765,-0.01354079507291317
0.011250404641032219,0.009777975268661976,-0.0066752671264112,-0.020349493250250816,0.0033637359738349915,-0.013865756802260876
0.011250404641032219,0.009777975268661976,-0.0066752671264112,-0.020349493250250816,0.0033637359738349915,-0.013865756802260876
0.010604342445731163,0.009348751977086067,-0.006611185614019632,-0.020121270790696144,0.0031245232094079256,-0.013738214038312435
0.010897207073867321,0.009460595436394215,-0.0062985108233988285,-0.02042461559176445,0.0029116636142134666,-0.013542285189032555
0.01121474988758564,0.009476810693740845,-0.0069265468046069145,-0.020412856712937355,0.004195291083306074,-0.013561053201556206
0.011324108578264713,0.009256644174456596,-0.0068688043393194675,-0.020924445241689682,0.004198736045509577,-0.013473059982061386
0.010445691645145416,0.009742853231728077,-0.006320619489997625,-0.02088901586830616,0.003626281162723899,-0.013507272116839886
0.010948603972792625,0.009776564314961433,-0.006343006622046232,-0.02084330841898918,0.0033059273846447468,-0.013461410067975521
0.011156500317156315,0.00982818752527237,-0.006454037502408028,-0.021467765793204308,0.003217542776837945,-0.013851109892129898
0.011681976728141308,0.01054899487644434,-0.006513824686408043,-0.02224535495042801,0.0031366136390715837,-0.014240703545510769
0.013379358686506748,0.009687220677733421,-0.006267472170293331,-0.02161458693444729,0.003737161634489894,-0.014344814233481884
0.01269939262419939,0.00975783821195364,-0.005965056829154491,-0.021551424637436867,0.004182217642664909,-0.014208846725523472
0.012545011937618256,0.009448493830859661,-0.005797108169645071,-0.021199896931648254,0.00411467207595706,-0.013904311694204807
0.012587406672537327,0.009575769305229187,-0.006241690833121538,-0.021945735439658165,0.0035925537813454866,-0.013723590411245823
0.012798539362847805,0.009688924998044968,-0.006390231661498547,-0.022326724603772163,0.0030977490823715925,-0.013920016586780548
0.01310320757329464,0.010575588792562485,-0.0061893220990896225,-0.023357832804322243,0.003139151493087411,-0.014301210641860962
0.012641407549381256,0.00933974888175726,-0.005996430292725563,-0.021716894581913948,0.003574969246983528,-0.014186186715960503
0.012881020084023476,0.009663977660238743,-0.0061374688521027565,-0.021743500605225563,0.0038345137145370245,-0.014537828043103218
0.01259230263531208,0.010608771815896034,-0.006344352848827839,-0.02263784594833851,0.0037912495899945498,-0.014538632705807686
0.012842678464949131,0.009962783195078373,-0.006247061304748058,-0.02344532497227192,0.0037070747930556536,-0.014244427904486656
0.014072127640247345,0.009799301624298096,-0.005989973898977041,-0.022978536784648895,0.004052017815411091,-0.013946722261607647
0.013722454197704792,0.009948047809302807,-0.006143845152109861,-0.022415194660425186,0.004629103932529688,-0.014391959644854069
0.012993868440389633,0.009712292812764645,-0.006376802455633879,-0.022460805252194405,0.004499288275837898,-0.014857452362775803
0.013435497879981995,0.009870879352092743,-0.0067044710740447044,-0.023098453879356384,0.004118862561881542,-0.015029069036245346
0.013560143299400806,0.01011650636792183,-0.006341046653687954,-0.023555045947432518,0.0039420234970748425,-0.014941273257136345
0.01373709924519062,0.010091396048665047,-0.005890158005058765,-0.02341681346297264,0.0035064974799752235,-0.01447150856256485
0.01377958431839943,0.009969048202037811,-0.006344239693135023,-0.02364720031619072,0.0035871786531060934,-0.014165002852678299
0.013859224505722523,0.009773972444236279,-0.006666574627161026,-0.024514885619282722,0.003661184571683407,-0.014334497042000294
0.013924524188041687,0.00999512430280447,-0.006740264594554901,-0.024636324495077133,0.003705068491399288,-0.015003442764282227
0.013700949028134346,0.01042952761054039,-0.006124765612185001,-0.0242222361266613,0.003659346839413047,-0.014669559895992279
0.014073465950787067,0.01053210161626339,-0.00599080603569746,-0.024299461394548416,0.0036294141318649054,-0.01482696458697319
0.014073465950787067,0.01053210161626339,-0.00599080603569746,-0.024299461394548416,0.0036294141318649054,-0.01482696458697319
0.014146469533443451,0.009865914471447468,-0.006051271688193083,-0.024127913638949394,0.0036523411981761456,-0.015170654281973839
0.014846688136458397,0.010654594749212265,-0.006227339617908001,-0.02420109510421753,0.003727482631802559,-0.015860965475440025
0.014762237668037415,0.010321483016014099,-0.006166093982756138,-0.024440139532089233,0.0038044422399252653,-0.016047077253460884
0.01425098069012165,0.011240937747061253,-0.005976302083581686,-0.024350997060537338,0.004183629062026739,-0.015394638292491436
0.014938213862478733,0.010321916081011295,-0.00643865205347538,-0.024685779586434364,0.0036188371013849974,-0.0161384716629982
0.014687391929328442,0.010490265674889088,-0.006320326589047909,-0.024353433400392532,0.00408835569396615,-0.016112422570586205
0.014283128082752228,0.010391653515398502,-0.006303451955318451,-0.02435814030468464,0.004126780200749636,-0.015950800850987434
0.014956117607653141,0.009900571778416634,-0.006254511419683695,-0.024803610518574715,0.004223664291203022,-0.015891754999756813
0.015090534463524818,0.010518397204577923,-0.005640468560159206,-0.024702176451683044,0.004192118067294359,-0.015764428302645683
0.014836624264717102,0.010251691564917564,-0.005924374796450138,-0.02521970495581627,0.003917900379747152,-0.015580047853291035
0.014993282034993172,0.009834548458456993,-0.006459149997681379,-0.025428013876080513,0.004180506803095341,-0.015372306108474731
0.014969401992857456,0.010006988421082497,-0.006105055101215839,-0.02519744448363781,0.004507086705416441,-0.015348311513662338
0.014604657888412476,0.010566375218331814,-0.005907080601900816,-0.025205746293067932,0.004499455913901329,-0.015900826081633568
0.01502715703099966,0.00971171073615551,-0.0058433059602975845,-0.025118062272667885,0.004366504028439522,-0.016030635684728622
0.014900857582688332,0.010015355423092842,-0.006229649763554335,-0.02511165477335453,0.004115970805287361,-0.01619660295546055
0.015398403629660606,0.010153057985007763,-0.006613168399780989,-0.02550019696354866,0.003971705213189125,-0.01627778448164463
0.015398403629660606,0.010153057985007763,-0.006613168399780989,-0.02550019696354866,0.003971705213189125,-0.01627778448164463
0.015601896680891514,0.010052168741822243,-0.005906613543629646,-0.02590138278901577,0.003961011301726103,-0.015474267303943634
0.015145434066653252,0.010039863176643848,-0.006393141113221645,-0.025994380936026573,0.004159765783697367,-0.01669015735387802
0.015803808346390724,0.009901143610477448,-0.0063058165833354,-0.025625765323638916,0.004208887927234173,-0.01621345244348049
0.014977412298321724,0.01031870674341917,-0.006512050982564688,-0.025982925668358803,0.004446088802069426,-0.015797670930624008
0.015568308532238007,0.01086913701146841,-0.006021859124302864,-0.0259128175675869,0.004140771459788084,-0.01574576459825039
0.015587113797664642,0.010024984367191792,-0.005750846117734909,-0.025387730449438095,0.0039318641647696495,-0.016000065952539444
0.015587113797664642,0.010024984367191792,-0.005750846117734909,-0.025387730449438095,0.0039318641647696495,-0.016000065952539444
0.01565498113632202,0.010273301973938942,-0.006207761820405722,-0.026368873193860054,0.004371351562440395,-0.016312384977936745
0.016017235815525055,0.01013040542602539,-0.006445611827075481,-0.025817984715104103,0.00466086994856596,-0.01603066362440586
0.01582454890012741,0.010313519276678562,-0.006644105073064566,-0.02516280859708786,0.0043653566390275955,-0.01594247668981552
0.016087239608168602,0.010229584760963917,-0.006133679300546646,-0.025644443929195404,0.004445612896233797,-0.016428371891379356
0.01612051948904991,0.010050252079963684,-0.006007809657603502,-0.026113076135516167,0.004148767329752445,-0.016521036624908447
0.015910129994153976,0.010533072985708714,-0.006270519457757473,-0.02697131037712097,0.003883895929902792,-0.016484778374433517
0.01647558994591236,0.010215637274086475,-0.0066477167420089245,-0.02655870094895363,0.003972484730184078,-0.01662823185324669
0.015644794330000877,0.010740647092461586,-0.006024917121976614,-0.02642679214477539,0.004636414349079132,-0.01680964231491089
0.01638670638203621,0.011291411705315113,-0.005817017517983913,-0.026872415095567703,0.0045905509032309055,-0.01687582954764366
0.01674426719546318,0.01024540327489376,-0.006184799131006002,-0.02627822756767273,0.004366437438875437,-0.016695527359843254
0.016705157235264778,0.010243451222777367,-0.00616820715367794,-0.02529938891530037,0.0044622584246098995,-0.01678275689482689
0.016398927196860313,0.01026907842606306,-0.006412397604435682,-0.025090856477618217,0.004621496424078941,-0.01676800288259983
0.014879620634019375,0.010097764432430267,-0.006198500748723745,-0.025783617049455643,0.004695657640695572,-0.017068468034267426
0.0170500036329031,0.011150073260068893,-0.006008652970194817,-0.026381757110357285,0.004183621145784855,-0.016941450536251068
0.01709301583468914,0.010453665629029274,-0.006130873691290617,-0.026436427608132362,0.004389399196952581,-0.01700701378285885
0.017027907073497772,0.010377490893006325,-0.006441584322601557,-0.0260813869535923,0.004386426415294409,-0.017219973728060722
0.016757911071181297,0.010623079724609852,-0.006176923401653767,-0.026497406885027885,0.004413200076669455,-0.01696811243891716
0.016788119450211525,0.010541989468038082,-0.0060806586407125,-0.026827014982700348,0.004793326836079359,-0.017306944355368614
0.017555221915245056,0.010179470293223858,-0.006449570879340172,-0.026517583057284355,0.004507781937718391,-0.017326772212982178
0.01688554510474205,0.010954556986689568,-0.0061057149432599545,-0.02619210258126259,0.004543074406683445,-0.017040207982063293
0.017085516825318336,0.010482405312359333,-0.0065132793970406055,-0.025948790833353996,0.0043040052987635136,-0.01727898232638836
0.017172083258628845,0.01042910385876894,-0.006248924415558577,-0.026181621477007866,0.004956885240972042,-0.0169847309589386
0.017172083258628845,0.01042910385876894,-0.006248924415558577,-0.026181621477007866,0.004956885240972042,-0.0169847309589386
0.017541665583848953,0.010777156800031662,-0.006100378464907408,-0.026941124349832535,0.004947260022163391,-0.01767680235207081
0.017363253980875015,0.011236229911446571,-0.006590510252863169,-0.02703089267015457,0.005142010282725096,-0.01773294061422348
0.01775513030588627,0.01102375891059637,-0.0068579488433897495,-0.026923075318336487,0.004868151154369116,-0.017559295520186424
0.01784408651292324,0.01114054024219513,-0.0058702509850263596,-0.027282455936074257,0.0047108884900808334,-0.017398212105035782
0.01784408651292324,0.01114054024219513,-0.0058702509850263596,-0.027282455936074257,0.0047108884900808334,-0.017398212105035782
0.017142634838819504,0.0114862946793437,-0.005893161986023188,-0.02745691128075123,0.004525489639490843,-0.01751767285168171
0.01762339472770691,0.009219071827828884,-0.006179555784910917,-0.02819817140698433,0.0051621622405946255,-0.0173992570489645
0.017837561666965485,0.010877154767513275,-0.006173043046146631,-0.02818104811012745,0.004770201165229082,-0.017271127551794052
0.017903579398989677,0.011642156168818474,-0.006050304044038057,-0.02826419286429882,0.0045941718854010105,-0.017250854521989822
0.017380040138959885,0.01180306077003479,-0.006118671037256718,-0.028545822948217392,0.004464327823370695,-0.017384788021445274
0.018035979941487312,0.010658144019544125,-0.00629024114459753,-0.028585070744156837,0.004532973747700453,-0.01793469674885273
0.017862970009446144,0.0105136102065444,-0.007317868061363697,-0.028543420135974884,0.0048639304004609585,-0.017875276505947113
0.018152503296732903,0.010917672887444496,-0.006564998999238014,-0.028839826583862305,0.004939486272633076,-0.017725778743624687
0.018202757462859154,0.010396737605333328,-0.00622147973626852,-0.02991621568799019,0.005161902867257595,-0.017405014485120773
0.018042411655187607,0.010419280268251896,-0.005983440205454826,-0.02919476293027401,0.005060842726379633,-0.017952989786863327
0.018215728923678398,0.010916925966739655,-0.005963272415101528,-0.028514737263321877,0.004452491644769907,-0.01753068156540394
0.018197543919086456,0.010507168248295784,-0.006689166184514761,-0.027754707261919975,0.004394783638417721,-0.01693139225244522
0.018338436260819435,0.0108751580119133,-0.006598765961825848,-0.028443099930882454,0.004462971352040768,-0.01777987740933895
0.018870504572987556,0.011071833781898022,-0.006213102024048567,-0.029519494622945786,0.004651233553886414,-0.01778324320912361
0.018668994307518005,0.010446837171912193,-0.0063791824504733086,-0.029719043523073196,0.004891958087682724,-0.018046919256448746
0.01830686442553997,0.010937138460576534,-0.006930363830178976,-0.029601186513900757,0.004812193103134632,-0.017910465598106384
0.018787922337651253,0.011044097132980824,-0.00696276780217886,-0.030375806614756584,0.004737140145152807,-0.017543461173772812
0.018644005060195923,0.010501118376851082,-0.006606296636164188,-0.029989639297127724,0.004746115766465664,-0.017584774643182755
0.018643680959939957,0.010917743667960167,-0.006609319243580103,-0.028959881514310837,0.00466133514419198,-0.017846018075942993
0.01901307702064514,0.01050623133778572,-0.006580693181604147,-0.029186366125941277,0.004599769599735737,-0.018086601048707962
0.019388796761631966,0.010806038044393063,-0.006447270512580872,-0.030001943930983543,0.004860374145209789,-0.01836252771317959
0.019334321841597557,0.010916735976934433,-0.006370942108333111,-0.030590232461690903,0.005626605357974768,-0.01790180802345276
0.01926444098353386,0.010661800391972065,-0.006119369063526392,-0.03061765991151333,0.005787305533885956,-0.017918694764375687
0.018862858414649963,0.01110509317368269,-0.006462748162448406,-0.030554836615920067,0.00483294203877449,-0.01789853349328041
0.017928171902894974,0.010924176312983036,-0.006588493939489126,-0.03064119443297386,0.004696807358413935,-0.01812170073390007
0.017928171902894974,0.010924176312983036,-0.006588493939489126,-0.03064119443297386,0.004696807358413935,-0.01812170073390007
0.019741497933864594,0.010848118923604488,-0.007217875681817532,-0.030146481469273567,0.004864443559199572,-0.01837378926575184
0.019380269572138786,0.011280904524028301,-0.006504954770207405,-0.03032347559928894,0.005123303271830082,-0.018501874059438705
0.019281143322587013,0.010626010596752167,-0.006828891113400459,-0.030597997829318047,0.005223099607974291,-0.01850225031375885
0.01899108849465847,0.010862069204449654,-0.006976706441491842,-0.030396966263651848,0.00538394320756197,-0.018385253846645355
0.019342578947544098,0.010730004869401455,-0.006647304631769657,-0.030383048579096794,0.0049651325680315495,-0.01847418025135994
0.01977430284023285,0.011256544850766659,-0.006257797125726938,-0.03049222007393837,0.004760753829032183,-0.018334757536649704
0.02009749598801136,0.011390607804059982,-0.0066575054079294205,-0.03052739053964615,0.0049062082543969154,-0.01845511421561241
0.019329816102981567,0.01068334374576807,-0.006267635151743889,-0.030742919072508812,0.005386484321206808,-0.018925407901406288
0.019942594692111015,0.010927488096058369,-0.006658695172518492,-0.030635790899395943,0.005186420865356922,-0.0185969527810812
0.019191188737750053,0.01074161846190691,-0.006674665492027998,-0.030649323016405106,0.0052497126162052155,-0.018590081483125687
0.019028017297387123,0.011194571852684021,-0.006634829565882683,-0.03084125556051731,0.004954996518790722,-0.018678372725844383
0.019813941791653633,0.011636327020823956,-0.006599615793675184,-0.031090090051293373,0.004645397886633873,-0.018964247778058052
0.020361166447401047,0.010733826085925102,-0.006823706906288862,-0.03134152665734291,0.005214028060436249,-0.01921899989247322
0.019470036029815674,0.011235681362450123,-0.00677275937050581,-0.031294748187065125,0.005329941865056753,-0.01902708411216736
0.019585447385907173,0.010759432800114155,-0.006337865721434355,-0.03069671243429184,0.005033467896282673,-0.018793409690260887
0.01982315070927143,0.010878019034862518,-0.0062531898729503155,-0.031092172488570213,0.005211216863244772,-0.01906432770192623
0.01968628540635109,0.012243129312992096,-0.006067907903343439,-0.031011642888188362,0.005214103497564793,-0.01894555240869522
0.01989736594259739,0.011554171331226826,-0.006923781707882881,-0.03179997205734253,0.004810916259884834,-0.01912744715809822
0.01987534947693348,0.011638551950454712,-0.006871597375720739,-0.0323796421289444,0.004885426256805658,-0.01894783414900303
0.019763197749853134,0.011262199841439724,-0.00681633036583662,-0.03203890472650528,0.00532003166154027,-0.01888658106327057
0.020123647525906563,0.01071194838732481,-0.00719704432412982,-0.030464231967926025,0.005149678327143192,-0.019051752984523773
0.020119933411478996,0.011121478863060474,-0.007107688579708338,-0.03095039539039135,0.005157148465514183,-0.018996011465787888
0.019893426448106766,0.010969225317239761,-0.006834293249994516,-0.031846992671489716,0.005388940684497356,-0.019255870953202248
0.019893426448106766,0.010969225317239761,-0.006834293249994516,-0.031846992671489716,0.005388940684497356,-0.019255870953202248
0.01975991018116474,0.010938834398984909,-0.0066426899284124374,-0.03151930868625641,0.0055019184947013855,-0.019694915041327477
0.02035062573850155,0.01125218253582716,-0.006686816923320293,-0.03234340623021126,0.005203103646636009,-0.019596589729189873
0.02017050050199032,0.01085208635777235,-0.006842873990535736,-0.03263002634048462,0.004948841407895088,-0.01923806220293045
0.0198644008487463,0.011799833737313747,-0.007172675337642431,-0.03139565885066986,0.005519246216863394,-0.01950022205710411
0.020241372287273407,0.011209041811525822,-0.0072678811848163605,-0.030314216390252113,0.00547827361151576,-0.01968156173825264
0.020143253728747368,0.011923047713935375,-0.006292217411100864,-0.03146621212363243,0.0056632086634635925,-0.0194967333227396
0.01999090239405632,0.0113096097484231,-0.007239921484142542,-0.03275993466377258,0.005365367513149977,-0.01924598403275013
0.020710108801722527,0.011636638082563877,-0.00693008815869689,-0.032992321997880936,0.005311501678079367,-0.019734753295779228
0.02004455402493477,0.011773409321904182,-0.00692815613001585,-0.032839320600032806,0.00510977441444993,-0.019587457180023193
0.01980297453701496,0.01135680079460144,-0.006987311411648989,-0.03278648108243942,0.005323164630681276,-0.020301956683397293
0.020699217915534973,0.011708894744515419,-0.007594200782477856,-0.03287852555513382,0.0053146881982684135,-0.020029323175549507
0.020393718034029007,0.01162740308791399,-0.0070758843794465065,-0.03332491219043732,0.005399362649768591,-0.019674254581332207
0.021105758845806122,0.011853279545903206,-0.0067028165794909,-0.034090135246515274,0.005244066007435322,-0.018854185938835144
0.02040131762623787,0.011600358411669731,-0.006783694494515657,-0.0341704897582531,0.005294772796332836,-0.019168779253959656
0.021086588501930237,0.012647291645407677,-0.007152986247092485,-0.03400362655520439,0.005446396768093109,-0.020136039704084396
0.02108907513320446,0.011723672039806843,-0.006952572613954544,-0.033926595002412796,0.005340008530765772,-0.020154522731900215
0.020407885313034058,0.011303623206913471,-0.006639671046286821,-0.03371982276439667,0.005365210119634867,-0.01961521990597248
0.020326660946011543,0.011535204015672207,-0.00713378144428134,-0.03411964699625969,0.005461065098643303,-0.02001316286623478
0.020764270797371864,0.011483387090265751,-0.007661536335945129,-0.0339445061981678,0.005381898023188114,-0.020254390314221382
0.020637907087802887,0.01185665000230074,-0.0077199554070830345,-0.03423053026199341,0.005303599406033754,-0.020601069554686546
0.02119966223835945,0.011866495944559574,-0.007270086091011763,-0.03444061800837517,0.005777115933597088,-0.02012350782752037
0.02094086818397045,0.01157784927636385,-0.006698458455502987,-0.0347147136926651,0.00552379060536623,-0.019652336835861206
0.02107340656220913,0.01216486282646656,-0.006187057588249445,-0.03379496559500694,0.005313687026500702,-0.019535182043910027
0.020737117156386375,0.011535952799022198,-0.006680701859295368,-0.03399081900715828,0.0052191466093063354,-0.019614800810813904
0.021856267005205154,0.011727276258170605,-0.006485935300588608,-0.0360514335334301,0.004960119258612394,-0.02008594200015068
0.021856267005205154,0.011727276258170605,-0.006485935300588608,-0.0360514335334301,0.004960119258612394,-0.02008594200015068
0.02128540351986885,0.011922557838261127,-0.007078157737851143,-0.036073654890060425,0.005015214905142784,-0.02016076259315014
0.02105305716395378,0.011535556986927986,-0.006368930917233229,-0.0339767150580883,0.005228570196777582,-0.020159870386123657
0.020431259647011757,0.012138237245380878,-0.006334307137876749,-0.0341409333050251,0.005227531306445599,-0.0204518660902977
0.021009866148233414,0.011681407690048218,-0.0066401297226548195,-0.03536101058125496,0.005200605373829603,-0.020403092727065086
0.021061623468995094,0.011578855104744434,-0.006308764684945345,-0.03561374545097351,0.004939973820000887,-0.020204542204737663
0.02134869433939457,0.012596805579960346,-0.006414769217371941,-0.03603652864694595,0.00483869481831789,-0.020029278472065926
0.021034961566329002,0.011518371291458607,-0.006838766857981682,-0.036045122891664505,0.0054290518164634705,-0.019999099895358086
0.0215640589594841,0.012207410298287868,-0.0069052474573254585,-0.034180283546447754,0.005701241083443165,-0.020203322172164917
0.021313078701496124,0.012581751681864262,-0.006163204554468393,-0.0355360172688961,0.005529803689569235,-0.020344741642475128
0.021396454423666,0.012297607026994228,-0.0064415703527629375,-0.03584383800625801,0.005505474284291267,-0.02032579854130745
0.021584199741482735,0.012302596122026443,-0.006892559118568897,-0.03644898906350136,0.005309930071234703,-0.020049232989549637
0.021217072382569313,0.01233723945915699,-0.0067948242649436,-0.03662937134504318,0.005696861073374748,-0.02011502906680107
0.021227816119790077,0.012204315513372421,-0.006459682714194059,-0.03616180270910263,0.005363288335502148,-0.02025100588798523
0.021458053961396217,0.012736553326249123,-0.006471060216426849,-0.03581817075610161,0.005307517014443874,-0.02005998231470585
0.02173042856156826,0.012273579835891724,-0.006575034465640783,-0.03594081476330757,0.005439693573862314,-0.020229103043675423
0.02198752574622631,0.012454845011234283,-0.007426442112773657,-0.035745132714509964,0.005357767455279827,-0.020754056051373482
0.021531308069825172,0.012173876166343689,-0.0067470199428498745,-0.035839010030031204,0.005700758658349514,-0.020371412858366966
0.021689314395189285,0.012020275928080082,-0.006599792744964361,-0.03596805781126022,0.0055396296083927155,-0.020160170271992683
0.022201066836714745,0.012771712616086006,-0.0065565817058086395,-0.036271948367357254,0.005943329073488712,-0.02136436477303505
0.022322731092572212,0.01243297103792429,-0.006503325887024403,-0.035993270576000214,0.0053033665753901005,-0.02047845907509327
0.022156212478876114,0.013027535751461983,-0.007160591427236795,-0.03555624186992645,0.005220324732363224,-0.01979847624897957
0.021950989961624146,0.01254464965313673,-0.006608819589018822,-0.03593790903687477,0.0052497778087854385,-0.02039475552737713
0.02176019921898842,0.012656296603381634,-0.006381322629749775,-0.03597535192966461,0.005687424447387457,-0.020562060177326202
0.022723235189914703,0.01262948103249073,-0.006569309625774622,-0.03555568680167198,0.005312648136168718,-0.020529255270957947
0.02210642583668232,0.01253422163426876,-0.007389192935079336,-0.035822492092847824,0.005672946572303772,-0.02100774645805359
0.021841907873749733,0.012893485836684704,-0.0075786663219332695,-0.035775940865278244,0.005490779876708984,-0.021070800721645355
0.021841907873749733,0.012893485836684704,-0.0075786663219332695,-0.035775940865278244,0.005490779876708984,-0.021070800721645355
0.022303156554698944,0.012037253938615322,-0.00638628052547574,-0.03578856959939003,0.005970577243715525,-0.021055465564131737
0.02261139638721943,0.012827581726014614,-0.006018934305757284,-0.03577369451522827,0.00593488710001111,-0.021021097898483276
0.022818548604846,0.012215732596814632,-0.006514707580208778,-0.03595716133713722,0.005732818506658077,-0.020969873294234276
0.022347813472151756,0.013087558560073376,-0.006875497289001942,-0.03637615218758583,0.005665991455316544,-0.021281464025378227
0.022296253591775894,0.012719296850264072,-0.0073471590876579285,-0.03718532994389534,0.006021350156515837,-0.021132880821824074
0.022329231724143028,0.012977724894881248,-0.00608171196654439,-0.03571063652634621,0.005911904852837324,-0.020899323746562004
0.022519078105688095,0.01260001864284277,-0.006388834677636623,-0.0356513112783432,0.005953153129667044,-0.020906051620841026
0.02264304645359516,0.01257256232202053,-0.006851817015558481,-0.03682364523410797,0.00602802075445652,-0.021107014268636703
0.02267078310251236,0.012500983662903309,-0.006578326225280762,-0.03844334930181503,0.005796076264232397,-0.020894568413496017
0.02310609631240368,0.01300099492073059,-0.006403183098882437,-0.037513457238674164,0.005712819751352072,-0.020863249897956848
0.02257792092859745,0.01285349577665329,-0.006896460894495249,-0.035898320376873016,0.006044652312994003,-0.021267367526888847
0.02259952947497368,0.013357171788811684,-0.007093455642461777,-0.037635087966918945,0.006083281710743904,-0.02164115570485592
0.022611718624830246,0.013074933551251888,-0.006795472465455532,-0.03816238045692444,0.00594264455139637,-0.021617794409394264
0.02311522886157036,0.013622086495161057,-0.00621143588796258,-0.038343142718076706,0.006106071174144745,-0.0210923720151186
0.023017434403300285,0.013186058960855007,-0.006573067046701908,-0.03836153820157051,0.005559133365750313,-0.02078276500105858
0.02298841066658497,0.013324389234185219,-0.00712505541741848,-0.03863115608692169,0.005870708264410496,-0.020910494029521942
0.0232864897698164,0.013025956228375435,-0.00745359668508172,-0.03882967680692673,0.005617676768451929,-0.020779911428689957
0.02365824766457081,0.012405607849359512,-0.006923275534063578,-0.039390020072460175,0.006331867538392544,-0.021341659128665924
0.023712417110800743,0.013102465309202671,-0.0062582828104496,-0.03863931819796562,0.006005791947245598,-0.02163887582719326
0.023805689066648483,0.012578043155372143,-0.0065740300342440605,-0.038824934512376785,0.005721371155232191,-0.021135656163096428
0.02325659617781639,0.013081282377243042,-0.007146610878407955,-0.03957084193825722,0.006019481923431158,-0.02151154913008213
0.023223167285323143,0.012736105360090733,-0.007068336009979248,-0.040005553513765335,0.005679228343069553,-0.022184569388628006
0.023533403873443604,0.013067246414721012,-0.0069011603482067585,-0.04034241661429405,0.006276366766542196,-0.021981317549943924
0.024015506729483604,0.012824766337871552,-0.007437971420586109,-0.03993380442261696,0.006658896803855896,-0.021674297749996185
0.023813586682081223,0.013032999821007252,-0.007010786794126034,-0.03974262997508049,0.005886489991098642,-0.02130012772977352
0.02465054951608181,0.013129892759025097,-0.006325211841613054,-0.03940912336111069,0.0058922069147229195,-0.021051354706287384
0.025070903822779655,0.01290211919695139,-0.006476246286183596,-0.04039306566119194,0.006217065267264843,-0.021327991038560867
0.0250660739839077,0.012934394180774689,-0.007199893705546856,-0.04143740236759186,0.006176667753607035,-0.02188369818031788
0.0250660739839077,0.012934394180774689,-0.007199893705546856,-0.04143740236759186,0.006176667753607035,-0.02188369818031788
0.024127695709466934,0.01272812020033598,-0.007754602003842592,-0.040545228868722916,0.006045281421393156,-0.022269273176789284
0.02392476610839367,0.013049846515059471,-0.006982652470469475,-0.03954332321882248,0.00566463265568018,-0.022119788452982903
0.02383575774729252,0.012793188914656639,-0.006415809039026499,-0.040472522377967834,0.005963372532278299,-0.021867964416742325
0.024359870702028275,0.01314092893153429,-0.006207506638020277,-0.040841244161129,0.0058745937421917915,-0.02209181897342205
0.025349313393235207,0.013016915880143642,-0.0074487365782260895,-0.0427175834774971,0.0062966374680399895,-0.02238771691918373
0.0235246904194355,0.013211165554821491,-0.006388124078512192,-0.03946005553007126,0.005924503318965435,-0.023070627823472023
0.025444271042943,0.013422938995063305,-0.0062834820710122585,-0.040380388498306274,0.0062708607874810696,-0.02307216078042984
0.025639614090323448,0.013636955991387367,-0.006897492799907923,-0.040872082114219666,0.006411362439393997,-0.02321239933371544
0.02502061426639557,0.012780503369867802,-0.00751730939373374,-0.04117362201213837,0.00655735470354557,-0.023245707154273987
0.024661805480718613,0.012922557070851326,-0.007071628235280514,-0.04060981422662735,0.0063545312732458115,-0.023029837757349014
0.025186607614159584,0.012700318358838558,-0.006465237122029066,-0.040111739188432693,0.006074252538383007,-0.022822555154561996
0.026275213807821274,0.013279601000249386,-0.006843244656920433,-0.040499668568372726,0.006553375627845526,-0.022858327254652977
0.02601868286728859,0.01283820066601038,-0.0077535538002848625,-0.04067113623023033,0.0068676364608109,-0.022578174248337746
0.025439932942390442,0.01364867202937603,-0.007286367006599903,-0.0406159982085228,0.00730322627350688,-0.022410020232200623
0.02583007514476776,0.012821242213249207,-0.006432458758354187,-0.04026012495160103,0.006506274454295635,-0.02296012081205845
0.026233939453959465,0.0131450854241848,-0.006244204938411713,-0.040546171367168427,0.006134343799203634,-0.02313867397606373
0.026388704776763916,0.0129201989620924,-0.006893687881529331,-0.04093247279524803,0.006450694520026445,-0.023158332332968712
0.025936823338270187,0.013183112256228924,-0.007523697800934315,-0.04104967787861824,0.006672095041722059,-0.022929120808839798
0.026003871113061905,0.013136394321918488,-0.0072722905315458775,-0.041521430015563965,0.00643858453258872,-0.022794455289840698
0.026464561000466347,0.012742223218083382,-0.006697480566799641,-0.04151395708322525,0.00647137314081192,-0.023189667612314224
0.026665274053812027,0.013065701350569725,-0.006954837590456009,-0.04228847473859787,0.0064694564789533615,-0.02323026955127716
0.027643630281090736,0.012737186625599861,-0.007258409168571234,-0.042418625205755234,0.006181944627314806,-0.023153772577643394
0.027606185525655746,0.013163130730390549,-0.0064873117953538895,-0.04336066171526909,0.006364998407661915,-0.023930128663778305
0.026633236557245255,0.012664507143199444,-0.0070596798323094845,-0.043364737182855606,0.0065173134207725525,-0.02454764023423195
0.026633236557245255,0.012664507143199444,-0.0070596798323094845,-0.043364737182855606,0.0065173134207725525,-0.02454764023423195
0.02749112993478775,0.01284725870937109,-0.007425546646118164,-0.04411201551556587,0.0062301382422447205,-0.023134807124733925
0.02749112993478775,0.01284725870937109,-0.007425546646118164,-0.04411201551556587,0.0062301382422447205,-0.023134807124733925
0.027766255661845207,0.012909354642033577,-0.00713470671325922,-0.0450737327337265,0.006311915814876556,-0.02231496572494507
0.027343060821294785,0.013256408274173737,-0.006490687374025583,-0.043045055121183395,0.006995867006480694,-0.02317420020699501
0.028054410591721535,0.013455704785883427,-0.006528207566589117,-0.0425039641559124,0.006949057802557945,-0.02454325184226036
0.027964936569333076,0.013474693521857262,-0.0070225633680820465,-0.04368183761835098,0.006696540396660566,-0.02428422123193741
0.027330761775374413,0.01329919882118702,-0.006878082174807787,-0.04586939141154289,0.006998157594352961,-0.02428755909204483
0.026467308402061462,0.012813626788556576,-0.006740462500602007,-0.04368499293923378,0.006850165314972401,-0.02489015832543373
0.02769293263554573,0.012954081408679485,-0.006987375672906637,-0.043225135654211044,0.006696827244013548,-0.02391471341252327
0.02772809937596321,0.012669801712036133,-0.007109277416020632,-0.04475448280572891,0.006704453378915787,-0.023037249222397804
0.027436506003141403,0.01302823144942522,-0.006779553834348917,-0.04498276859521866,0.006785451900213957,-0.02340168133378029
0.026709679514169693,0.012949872761964798,-0.006450033280998468,-0.04458455368876457,0.006895001977682114,-0.02388070896267891
0.027666950598359108,0.013005764223635197,-0.006484560668468475,-0.044945139437913895,0.006701974663883448,-0.02459007129073143
0.027308888733386993,0.013030622154474258,-0.007153560407459736,-0.044774074107408524,0.006585175637155771,-0.023721281439065933
0.027496689930558205,0.012544839642941952,-0.007074848283082247,-0.045113831758499146,0.006391847040504217,-0.02371615171432495
0.027634255588054657,0.013322674669325352,-0.0064506069757044315,-0.04470290616154671,0.006778399925678968,-0.024240219965577126
0.02759460359811783,0.013286876492202282,-0.006220581009984016,-0.044950444251298904,0.006472626700997353,-0.024164771661162376
0.02743435651063919,0.013345693238079548,-0.006389901041984558,-0.04475085437297821,0.006117906887084246,-0.024290727451443672
0.027719223871827126,0.01281476765871048,-0.006764282006770372,-0.044674813747406006,0.006265448871999979,-0.024063391610980034
0.028203949332237244,0.013209679163992405,-0.006899253465235233,-0.044158048927783966,0.006569413468241692,-0.024087948724627495
0.028073901310563087,0.012886669486761093,-0.006863905116915703,-0.04587402939796448,0.006666113622486591,-0.024460777640342712
0.028544295579195023,0.01365654543042183,-0.0064494917169213295,-0.04603786766529083,0.006418859586119652,-0.024261880666017532
0.027980666607618332,0.013425005599856377,-0.0070319161750376225,-0.04318244755268097,0.006532253231853247,-0.024689024314284325
0.027989469468593597,0.013830970972776413,-0.006713553331792355,-0.04307335242629051,0.006813168991357088,-0.024771660566329956
0.028454728424549103,0.01388662401586771,-0.0067193577997386456,-0.04392188787460327,0.007123381830751896,-0.02486317791044712
0.028838256374001503,0.013304682448506355,-0.00731045613065362,-0.04448579624295235,0.007713729050010443,-0.024869170039892197
0.027952102944254875,0.013197975233197212,-0.007888838648796082,-0.04445640742778778,0.007205249276012182,-0.02479119412600994
0.027952102944254875,0.013197975233197212,-0.007888838648796082,-0.04445640742778778,0.007205249276012182,-0.02479119412600994
0.026964301243424416,0.01291024312376976,-0.007148380856961012,-0.042648795992136,0.006466138642281294,-0.024993466213345528
0.029073968529701233,0.013302203267812729,-0.006552711594849825,-0.04286666959524155,0.006668455898761749,-0.02512296847999096
0.02835707925260067,0.013835187070071697,-0.006807765923440456,-0.044059790670871735,0.006441436242312193,-0.025184381753206253
0.02846384607255459,0.01342710293829441,-0.007078792899847031,-0.044155657291412354,0.006634518504142761,-0.02501143515110016
0.02842043898999691,0.013559093698859215,-0.006861538160592318,-0.0445123054087162,0.006579759065061808,-0.02514083869755268
0.028422119095921516,0.01351286843419075,-0.0072458721697330475,-0.044907134026288986,0.0067893932573497295,-0.025309165939688683
0.028539733961224556,0.013739141635596752,-0.0069566345773637295,-0.04558593034744263,0.006325576454401016,-0.025143973529338837
0.028280211612582207,0.013353943824768066,-0.007248695008456707,-0.04535624012351036,0.0065751145593822,-0.02529524825513363
0.028274914249777794,0.013787349686026573,-0.006635633297264576,-0.0456489697098732,0.006650871597230434,-0.02518567070364952
0.028283782303333282,0.013681026175618172,-0.00642718281596899,-0.04570258408784866,0.006723611615598202,-0.02504306100308895
0.028080878779292107,0.013433313928544521,-0.006550604943186045,-0.045688558369874954,0.006603267975151539,-0.02501300722360611
0.02822692319750786,0.014106811955571175,-0.0071073491126298904,-0.046315036714076996,0.006495661102235317,-0.024985099211335182
0.02795346826314926,0.01362642552703619,-0.007348631974309683,-0.04666018858551979,0.006781032774597406,-0.025013567879796028
0.027787702158093452,0.013314787298440933,-0.007260061800479889,-0.04601984843611717,0.006824180483818054,-0.024899670854210854
0.028707487508654594,0.013377895578742027,-0.007193231489509344,-0.046129968017339706,0.007075782399624586,-0.024776095524430275
0.028759242966771126,0.013960052281618118,-0.007497661281377077,-0.04632914811372757,0.006890054792165756,-0.024815315380692482
0.02802436426281929,0.013275994919240475,-0.006918426603078842,-0.04653290659189224,0.006881632376462221,-0.024742120876908302
0.027519330382347107,0.013745485804975033,-0.007278759963810444,-0.046579357236623764,0.006693034898489714,-0.024773186072707176
0.027899663895368576,0.013306505978107452,-0.007621575612574816,-0.046274054795503616,0.007184889167547226,-0.026081722229719162
0.028964251279830933,0.014026263728737831,-0.008354655466973782,-0.048560719937086105,0.007853508926928043,-0.025713715702295303
0.028148362413048744,0.01374113094061613,-0.00776915205642581,-0.048581562936306,0.007946818135678768,-0.025837676599621773
0.028861956670880318,0.014342761598527431,-0.007021555211395025,-0.04671669006347656,0.007122687995433807,-0.025547655299305916
0.02965768426656723,0.013571670278906822,-0.0076911612413823605,-0.04743296653032303,0.006871628109365702,-0.024751245975494385
0.028510527685284615,0.014088260009884834,-0.008010303601622581,-0.048577241599559784,0.006629715673625469,-0.02514529414474964
0.027937890961766243,0.013545805588364601,-0.008235094137489796,-0.050587669014930725,0.006631083320826292,-0.026367785409092903
0.028210781514644623,0.014278565533459187,-0.007036957424134016,-0.048669785261154175,0.006792611908167601,-0.026139726862311363
0.02892465889453888,0.014052226208150387,-0.007364475633949041,-0.04729842022061348,0.00738847441971302,-0.026366526260972023
0.029340824112296104,0.014011253602802753,-0.007928005419671535,-0.04895668104290962,0.0075713773258030415,-0.026830004528164864
0.029340824112296104,0.014011253602802753,-0.007928005419671535,-0.04895668104290962,0.0075713773258030415,-0.026830004528164864
0.028704121708869934,0.014030656777322292,-0.007049866020679474,-0.04920099303126335,0.0073408279567956924,-0.02709290385246277
0.02856607548892498,0.014373254962265491,-0.007244626060128212,-0.048239003866910934,0.007271070498973131,-0.02639487385749817
0.029167048633098602,0.013716211542487144,-0.00777580076828599,-0.04645747318863869,0.00761563703417778,-0.026092486456036568
0.029066359624266624,0.013571023009717464,-0.007502628955990076,-0.04714510589838028,0.007536118384450674,-0.02688644826412201
0.029184700921177864,0.0136868292465806,-0.00746229337528348,-0.04740872606635094,0.007607991807162762,-0.02702510543167591
0.029554955661296844,0.014011532999575138,-0.0076353042386472225,-0.047725118696689606,0.007057964336127043,-0.026958385482430458
0.029284443706274033,0.014122472144663334,-0.007894821465015411,-0.04695761948823929,0.007249222137033939,-0.026936931535601616
0.029808539897203445,0.014324388466775417,-0.008246202021837234,-0.04749095067381859,0.0071097188629209995,-0.027064941823482513
0.029660196974873543,0.014422050677239895,-0.007779792882502079,-0.049180518835783005,0.0071543254889547825,-0.027141829952597618
0.029359808191657066,0.014473001472651958,-0.00772517453879118,-0.04678121954202652,0.007310147397220135,-0.027239738032221794
0.030138036236166954,0.014456573873758316,-0.007930555380880833,-0.04640457034111023,0.006967552937567234,-0.027124371379613876
0.031148381531238556,0.014488453976809978,-0.007622184697538614,-0.04787950590252876,0.007044054567813873,-0.027167994529008865
0.03102456033229828,0.014300157316029072,-0.00744644133374095,-0.04959055036306381,0.007271348964422941,-0.02762594260275364
0.029960012063384056,0.014639233238995075,-0.007933353073894978,-0.049687135964632034,0.007123615592718124,-0.02755720727145672
0.0296942051500082,0.01461429800838232,-0.008350119926035404,-0.048062656074762344,0.007151949685066938,-0.028106415644288063
0.030692823231220245,0.014701472595334053,-0.0076423529535532,-0.04968768358230591,0.007347696926444769,-0.02709372714161873
0.030586443841457367,0.014905191957950592,-0.007280999328941107,-0.05039746314287186,0.007522436790168285,-0.027267128229141235
0.030538374558091164,0.0148174948990345,-0.007188808172941208,-0.050167884677648544,0.007501210086047649,-0.027496233582496643
0.03158191591501236,0.014733964577317238,-0.008358924649655819,-0.05039432644844055,0.007470731623470783,-0.027645977213978767
0.031244462355971336,0.014712010510265827,-0.008498848415911198,-0.050354812294244766,0.007291003130376339,-0.027519280090928078
0.030262703076004982,0.015229062177240849,-0.007733117789030075,-0.050129231065511703,0.007661140989512205,-0.027953200042247772
0.030063487589359283,0.014915535226464272,-0.007573720067739487,-0.05004263296723366,0.0076196459122002125,-0.02824212796986103
0.031207216903567314,0.015287322923541069,-0.008109694346785545,-0.04967629164457321,0.007476176135241985,-0.02827070653438568
0.03162149339914322,0.015080826357007027,-0.007743555586785078,-0.04992838203907013,0.007439352571964264,-0.027407541871070862
0.0319528728723526,0.015390780754387379,-0.007314443122595549,-0.050428591668605804,0.007621236145496368,-0.02643859200179577
0.03186606243252754,0.014962908811867237,-0.007585238665342331,-0.05095274746417999,0.007637111470103264,-0.026857534423470497
0.03155273571610451,0.015736741945147514,-0.008238062262535095,-0.0513010211288929,0.007597873918712139,-0.028101999312639236
