davideferrari95/blind_handover_controller/data/Test 150 - [2024-02-07 -- 17-31-10]/joint_states_data.csv
shoulder_pan_joint,shoulder_lift_joint,elbow_joint,wrist_1_joint,wrist_2_joint,wrist_3_joint
0.00641228724271059,-0.005198586732149124,-0.012639596126973629,0.014336000196635723,0.0,0.006395574659109116
0.006560932379215956,-0.004752876237034798,-0.012738386169075966,0.014223508536815643,0.0,0.006321938242763281
0.006560932379215956,-0.004752876237034798,-0.012738386169075966,0.014223508536815643,0.0,0.006321938242763281
0.006845940835773945,-0.004852570593357086,-0.012757891789078712,0.014364085160195827,0.0,0.006912491749972105
0.006775150075554848,-0.004868160001933575,-0.01297307014465332,0.014164743013679981,0.0,0.006455056834965944
0.0063939387910068035,-0.004794080276042223,-0.013147021643817425,0.014539418742060661,0.0,0.006424530874937773
0.007083397824317217,-0.004804831929504871,-0.012457747012376785,0.014486369676887989,0.0,0.006538834888488054
0.007083397824317217,-0.004804831929504871,-0.012457747012376785,0.014486369676887989,0.0,0.006538834888488054
0.006654570810496807,-0.005018063820898533,-0.012990979477763176,0.014988303184509277,0.0,0.006312721874564886
0.006488590966910124,-0.005020794924348593,-0.012044190429151058,0.015062173828482628,0.0,0.006502943579107523
0.006725870538502932,-0.005103577394038439,-0.012919646687805653,0.015417725779116154,0.0,0.0067102001048624516
0.006565720308572054,-0.004799332935363054,-0.01238172221928835,0.015608672052621841,0.0,0.00674571143463254
0.006274872459471226,-0.004905548878014088,-0.012928512878715992,0.01548962201923132,0.0,0.006518110632896423
0.006633253768086433,-0.004672578535974026,-0.012611465528607368,0.01541360653936863,0.0,0.006218537222594023
0.006895124912261963,-0.004933746065944433,-0.012416111305356026,0.015177030116319656,0.0,0.006122983526438475
0.006491535808891058,-0.005272400099784136,-0.0126952501013875,0.015566784888505936,0.0,0.006112381815910339
0.006504939869046211,-0.004706018138676882,-0.012531308457255363,0.015305103734135628,0.0,0.006294122897088528
0.0068680113181471825,-0.004500887356698513,-0.012384229339659214,0.01554195024073124,0.0,0.006107719149440527
0.007066210266202688,-0.005032340530306101,-0.011884295381605625,0.015251304022967815,0.0,0.006359849125146866
0.006667643319815397,-0.005047012120485306,-0.012711940333247185,0.015509010292589664,0.0,0.00621954957023263
0.0067786467261612415,-0.0049453359097242355,-0.011995087377727032,0.01582510955631733,0.0,0.006524121388792992
0.007489955052733421,-0.004839182365685701,-0.012103729881346226,0.01572900451719761,0.0,0.0063452147878706455
0.006753996945917606,-0.004416150040924549,-0.01154538057744503,0.01597842201590538,0.0,0.006292828358709812
0.00630745617672801,-0.004443950951099396,-0.012208184227347374,0.016162635758519173,0.0,0.006516279187053442
0.006148030050098896,-0.00463782949373126,-0.011879370547831059,0.016243642196059227,0.0,0.006575965788215399
0.0072002713568508625,-0.005192749667912722,-0.012233139015734196,0.016448093578219414,0.0,0.006419013254344463
0.006684810854494572,-0.0051146987825632095,-0.012395139783620834,0.01607593707740307,0.0,0.006453135050833225
0.0064332690089941025,-0.004708916414529085,-0.012130878865718842,0.016032984480261803,0.0,0.006589747965335846
0.006603803485631943,-0.00485045462846756,-0.012659179046750069,0.015604663640260696,0.0,0.006605724338442087
0.006615085061639547,-0.004757071379572153,-0.011994697153568268,0.01606794074177742,0.0,0.006381929386407137
0.007546253502368927,-0.004912038799375296,-0.012442393228411674,0.01501584891229868,0.0,0.006227506324648857
0.006721338257193565,-0.004835974425077438,-0.012064381502568722,0.015007823705673218,0.0,0.006268430035561323
0.006127642933279276,-0.0052274735644459724,-0.012356819584965706,0.01475940365344286,0.0,0.0056598493829369545
0.00641395291313529,-0.005179932340979576,-0.012347154319286346,0.015053072944283485,0.0,0.0058538177981972694
0.00641395291313529,-0.005179932340979576,-0.012347154319286346,0.015053072944283485,0.0,0.0058538177981972694
0.006811152677983046,-0.004682767670601606,-0.012525462545454502,0.015212493017315865,0.0,0.00633770739659667
0.006542240269482136,-0.004360703751444817,-0.01278487779200077,0.015462669543921947,0.0,0.006476550828665495
0.006324391346424818,-0.004516192711889744,-0.01245158538222313,0.01583106443285942,0.0,0.006380615755915642
0.00645232480019331,-0.005192474462091923,-0.01255472470074892,0.015946270897984505,0.0,0.0065259248949587345
0.00622898992151022,-0.0050072758458554745,-0.012332184240221977,0.016035765409469604,0.0,0.006554031278938055
0.006480539217591286,-0.004948655609041452,-0.012445619329810143,0.01515971403568983,0.0,0.006673385389149189
0.006788249127566814,-0.004735878668725491,-0.012290975078940392,0.015622509643435478,0.0,0.0064127384684979916
0.006702600512653589,-0.004840473178774118,-0.011619752272963524,0.015273251570761204,0.0,0.005992137361317873
0.006635076832026243,-0.004392293747514486,-0.012273462489247322,0.015378979966044426,0.0,0.006489099934697151
0.006762453354895115,-0.004959320183843374,-0.012587211094796658,0.015461352653801441,0.0,0.006286401767283678
0.006945786997675896,-0.005059979856014252,-0.01235844474285841,0.015005288645625114,0.0,0.006131581962108612
0.006761880125850439,-0.004775967914611101,-0.012337747029960155,0.015237541869282722,0.0,0.006428316235542297
0.006438079290091991,-0.0048481011763215065,-0.012060156092047691,0.014717177487909794,0.0,0.0070123812183737755
0.0069436850026249886,-0.004694314207881689,-0.011812040582299232,0.014398258179426193,0.0,0.006937149912118912
0.006776217371225357,-0.0043836114928126335,-0.012628110125660896,0.014518529176712036,0.0,0.006586946547031403
0.006877216976135969,-0.004545032512396574,-0.012589843012392521,0.014899758622050285,0.0,0.006364230997860432
0.0067447153851389885,-0.004664229694753885,-0.013272378593683243,0.01590917818248272,0.0,0.006530988961458206
0.006535729393362999,-0.005067915190011263,-0.013074769638478756,0.016609683632850647,0.0,0.007111578714102507
0.0068784779869019985,-0.004386522341519594,-0.012558946385979652,0.016107022762298584,0.0,0.007439070381224155
0.006683508399873972,-0.003749761264771223,-0.012598065659403801,0.015381264500319958,0.0,0.007081340067088604
0.006725783459842205,-0.003172454657033086,-0.01257344614714384,0.015256556682288647,0.0,0.0071727014146745205
0.006770098581910133,-0.002915720222517848,-0.013522733934223652,0.014454297721385956,0.0,0.007038316689431667
0.006770098581910133,-0.002915720222517848,-0.013522733934223652,0.014454297721385956,0.0,0.007038316689431667
0.007515721023082733,-0.004130408633500338,-0.011948633939027786,0.014883384108543396,0.0,0.0069552198983728886
0.006717198994010687,-0.004579151514917612,-0.01267274096608162,0.014663318172097206,0.0,0.00668730353936553
0.007189826108515263,-0.00437051709741354,-0.012320125475525856,0.015507768839597702,0.0,0.006571028381586075
0.006091575603932142,-0.004103291779756546,-0.01270577497780323,0.015569226816296577,0.0,0.006547979079186916
0.006114826537668705,-0.003979305736720562,-0.012717221863567829,0.0158802829682827,0.0,0.007314706686884165
0.006926172878593206,-0.0040138796903193,-0.012699192389845848,0.015444356948137283,0.0,0.0067306640557944775
0.006804393604397774,-0.0034940065816044807,-0.012241941876709461,0.015354645438492298,0.0,0.006392340641468763
0.006699206307530403,-0.0035883078817278147,-0.012798020616173744,0.015565398149192333,0.0,0.006209949497133493
0.006646136287599802,-0.0036899191327393055,-0.012983347289264202,0.01571963168680668,0.0,0.0065201520919799805
0.006749897263944149,-0.0037046195939183235,-0.012085252441465855,0.015994401648640633,0.0,0.006690226960927248
0.00643113860860467,-0.0036219116300344467,-0.012477811425924301,0.016220323741436005,0.0,0.006328594405204058
0.006884757895022631,-0.003566222731024027,-0.01238540094345808,0.015724845230579376,0.0,0.006145852617919445
0.006953179370611906,-0.0032160577829927206,-0.012074359692633152,0.016228675842285156,0.0,0.0064146872609853745
0.007430247962474823,-0.0031435349956154823,-0.011692479252815247,0.015329856425523758,0.0,0.00653825793415308
0.006595052313059568,-0.0031575693283230066,-0.012531149201095104,0.015043913386762142,0.0,0.006493265740573406
0.006449961569160223,-0.003421488683670759,-0.012159748934209347,0.014787057414650917,0.0,0.0062801954336464405
0.0069290706887841225,-0.003648841055110097,-0.012084669433534145,0.015201827511191368,0.0,0.006446239538490772
0.006818159017711878,-0.003791871713474393,-0.011826158501207829,0.015388360247015953,0.0,0.006776934955269098
0.007118277717381716,-0.003344273893162608,-0.011845966801047325,0.01540000643581152,0.0,0.0066977073438465595
0.007463637739419937,-0.00352180702611804,-0.012237937189638615,0.01538969948887825,0.0,0.006468872539699078
0.006698392331600189,-0.003737830324098468,-0.011667358689010143,0.015512201003730297,0.0,0.006179830990731716
0.0069946651346981525,-0.0038606692105531693,-0.012545572593808174,0.01552486140280962,0.0,0.006775477901101112
0.006707953754812479,-0.0033871126361191273,-0.011956105008721352,0.01537573616951704,0.0,0.006827297620475292
0.006869923323392868,-0.003570365719497204,-0.012380305677652359,0.015381577424705029,0.0,0.007323874160647392
0.006869923323392868,-0.003570365719497204,-0.012380305677652359,0.015381577424705029,0.0,0.007323874160647392
0.0067896051332354546,-0.0037631415762007236,-0.012223281897604465,0.014781924895942211,0.0,0.006824638694524765
0.007445840630680323,-0.003865394741296768,-0.012182713486254215,0.015507839620113373,0.0,0.0065688383765518665
0.006653245538473129,-0.0034433018881827593,-0.01280982419848442,0.015236749313771725,0.0,0.006700565107166767
0.006533258128911257,-0.0033784687984734774,-0.012000528164207935,0.015858296304941177,0.0,0.006488883402198553
0.006574012339115143,-0.0034834875259548426,-0.012206753715872765,0.015173133462667465,0.0,0.006986785680055618
0.007189589086920023,-0.003613776993006468,-0.012179353274405003,0.015592548064887524,0.0,0.006503951270133257
0.007009235210716724,-0.003557841992005706,-0.012709627859294415,0.01547803170979023,0.0,0.006477633956819773
0.0066974228248000145,-0.003528979141265154,-0.012852590531110764,0.015557210892438889,0.0,0.006372574716806412
0.006649998016655445,-0.003489490132778883,-0.01245725154876709,0.015603667125105858,0.0,0.006134246475994587
0.0070005012676119804,-0.0038747757207602262,-0.012054434046149254,0.016045302152633667,0.0,0.006739377975463867
0.0072705685161054134,-0.004043993540108204,-0.012835726141929626,0.016216488555073738,0.0,0.006720360368490219
0.0069763148203492165,-0.0039190370589494705,-0.012252810411155224,0.01670004427433014,0.0,0.006499931216239929
0.006401382852345705,-0.003785964334383607,-0.012757995165884495,0.015728555619716644,0.0,0.006455289199948311
0.006812629755586386,-0.004210101906210184,-0.012502488680183887,0.016016941517591476,0.0,0.006795499473810196
0.0070268032141029835,-0.004047851078212261,-0.012058047577738762,0.015470543876290321,0.0,0.006984586361795664
0.006945855915546417,-0.0038401088677346706,-0.01275622844696045,0.015169523656368256,0.0,0.006882007699459791
0.006469103507697582,-0.0037351937498897314,-0.011953849345445633,0.014567529782652855,0.0,0.0065129525028169155
0.006293183658272028,-0.0036705797538161278,-0.012506898492574692,0.015168005600571632,0.0,0.00651116669178009
0.007012995891273022,-0.0040449704974889755,-0.012399544008076191,0.015409429557621479,0.0,0.006701646372675896
0.006764721125364304,-0.004208909813314676,-0.012835883535444736,0.015581794083118439,0.0,0.006777544971555471
0.006539233028888702,-0.004038484301418066,-0.012654252350330353,0.015222095884382725,0.0,0.007266371976584196
0.006587754935026169,-0.003445022739470005,-0.012154786847531796,0.014935119077563286,0.0,0.006497949827462435
0.0072783976793289185,-0.003571561072021723,-0.012544490396976471,0.014943870715796947,0.0,0.005910235457122326
0.006816983222961426,-0.0037703076377511024,-0.012189683504402637,0.014857202768325806,0.0,0.006871252786368132
0.006816983222961426,-0.0037703076377511024,-0.012189683504402637,0.014857202768325806,0.0,0.006871252786368132
0.006489544175565243,-0.004213364794850349,-0.012452314607799053,0.014996006153523922,0.0,0.006715527269989252
0.006894483231008053,-0.004001800436526537,-0.013033049181103706,0.015150046907365322,0.0,0.006639727391302586
0.006894483231008053,-0.004001800436526537,-0.013033049181103706,0.015150046907365322,0.0,0.006639727391302586
0.007313299458473921,-0.003965415060520172,-0.012622373178601265,0.014848213642835617,0.0,0.006447169929742813
0.006827815901488066,-0.0039734612219035625,-0.012945408932864666,0.015000586397945881,0.0,0.006929462309926748
0.007156845182180405,-0.003914463799446821,-0.012410754337906837,0.014225914143025875,0.0,0.006537702400237322
0.006764309015125036,-0.0042002503760159016,-0.012253683060407639,0.014880134724080563,0.0,0.0067331502214074135
0.007256795186549425,-0.004271008539944887,-0.012624913826584816,0.014622232876718044,0.0,0.0066759660840034485
0.007185366004705429,-0.004050762392580509,-0.012166613712906837,0.015477264299988747,0.0,0.007075343281030655
0.006534610874950886,-0.003865184262394905,-0.012827047146856785,0.015105384401977062,0.0,0.006898544728755951
0.00683403667062521,-0.003927988465875387,-0.012748215347528458,0.015231236815452576,0.0,0.0062737478874623775
0.007222607731819153,-0.003982182592153549,-0.012735721655189991,0.015328851528465748,0.0,0.006585287395864725
0.006619014777243137,-0.003532718401402235,-0.012454344891011715,0.015458748675882816,0.0,0.007125995121896267
0.006413283292204142,-0.003539432305842638,-0.012988284230232239,0.015820683911442757,0.0,0.007285956293344498
0.006656063720583916,-0.003673452651128173,-0.012345021590590477,0.015397734008729458,0.0,0.007021811790764332
0.007236683741211891,-0.004271143581718206,-0.013150308281183243,0.015190203674137592,0.0,0.0071037239395082
0.007319167256355286,-0.0041326615028083324,-0.012212973088026047,0.015247760340571404,0.0,0.006721590645611286
0.0069749788381159306,-0.003506430657580495,-0.012561922892928123,0.01508533488959074,0.0,0.006481804419308901
0.006438728421926498,-0.0034801349975168705,-0.012811216525733471,0.015424334444105625,0.0,0.0065732127986848354
0.006584952585399151,-0.0037133244331926107,-0.012818623334169388,0.01498035155236721,0.0,0.0065541574731469154
0.0068969037383794785,-0.003923244774341583,-0.013259124010801315,0.015442424453794956,0.0,0.007068913895636797
0.006664778105914593,-0.003948437049984932,-0.012955077923834324,0.015016987919807434,0.0,0.0068464516662061214
0.006491244304925203,-0.00384057080373168,-0.01325374748557806,0.015494028106331825,0.0,0.006463035941123962
0.00677005248144269,-0.0037725965958088636,-0.012406849302351475,0.015082702971994877,0.0,0.006489486433565617
0.007058999501168728,-0.004091064445674419,-0.013441323302686214,0.015434296801686287,0.0,0.006580148823559284
0.007058999501168728,-0.004091064445674419,-0.013441323302686214,0.015434296801686287,0.0,0.006580148823559284
0.006920936517417431,-0.004212586674839258,-0.012886673212051392,0.01480905618518591,0.0,0.007316849194467068
0.006817204412072897,-0.004040669649839401,-0.013316590338945389,0.01521302666515112,0.0,0.007611529435962439
0.007079990115016699,-0.0039374325424432755,-0.013073515146970749,0.015148605220019817,0.0,0.006915517151355743
0.007299779448658228,-0.004104504361748695,-0.013079223223030567,0.015064168721437454,0.0,0.0070363599807024
0.007299779448658228,-0.004104504361748695,-0.013079223223030567,0.015064168721437454,0.0,0.0070363599807024
0.007231900002807379,-0.004129623528569937,-0.013103512115776539,0.015130070969462395,0.0,0.007075217552483082
0.007380284368991852,-0.00392233906313777,-0.013405868783593178,0.015292049385607243,0.0,0.006985980551689863
0.0069411201402544975,-0.0037567734252661467,-0.013432448729872704,0.015522700734436512,0.0,0.0068423147313296795
0.0067779202945530415,-0.0037030589301139116,-0.013417238369584084,0.015370232053101063,0.0,0.006617667619138956
0.0066170236095786095,-0.003667849116027355,-0.01268852036446333,0.015075771138072014,0.0,0.00690968194976449
0.0069260490126907825,-0.0036926986649632454,-0.013520806096494198,0.015462903305888176,0.0,0.006771752145141363
0.007277281489223242,-0.003687814110890031,-0.013020907528698444,0.014881126582622528,0.0,0.006976480595767498
0.006899010390043259,-0.00397037947550416,-0.013077235780656338,0.015119392424821854,0.0,0.0069782063364982605
0.006667753681540489,-0.0037049739621579647,-0.013158801011741161,0.014957449398934841,0.0,0.006579593755304813
0.006728626787662506,-0.003477285383269191,-0.012972147203981876,0.014697259292006493,0.0,0.006818071939051151
0.007194741629064083,-0.0035750623792409897,-0.012367391027510166,0.015384652651846409,0.0,0.006919990759342909
0.007682223338633776,-0.003875149879604578,-0.012755649164319038,0.015139225870370865,0.0,0.007044443394988775
0.006723367143422365,-0.0036039426922798157,-0.012276984751224518,0.015495183877646923,0.0,0.007052524480968714
0.006996534764766693,-0.0035187075845897198,-0.012377304956316948,0.015122106298804283,0.0,0.00701052974909544
0.0071259536780416965,-0.0037346347235143185,-0.012006942182779312,0.014939064159989357,0.0,0.006875316612422466
0.007300910539925098,-0.0038476313930004835,-0.011261029168963432,0.01454857550561428,0.0,0.006641677115112543
0.007497596088796854,-0.0038521718233823776,-0.013542601838707924,0.014917166903614998,0.0,0.00682817492634058
0.007651757448911667,-0.0037993835285305977,-0.013269565999507904,0.014856279827654362,0.0,0.006737223826348782
0.00781326275318861,-0.0037886598147451878,-0.012910238467156887,0.01532713696360588,0.0,0.006796311587095261
0.007729949429631233,-0.003835858777165413,-0.012092524208128452,0.015434840694069862,0.0,0.007185913622379303
0.006971356924623251,-0.0034517457243055105,-0.012852165848016739,0.015627285465598106,0.0,0.007058943621814251
0.007500626612454653,-0.003577813971787691,-0.01246455404907465,0.01542799174785614,0.0,0.006580665707588196
0.00762095907703042,-0.003924600780010223,-0.01338591892272234,0.015104948543012142,0.0,0.00670322310179472
0.007000104058533907,-0.0035432137083262205,-0.012383933179080486,0.015172377228736877,0.0,0.00674058822914958
0.006844530813395977,-0.0035536312498152256,-0.01270950585603714,0.015208742581307888,0.0,0.007329224143177271
0.006844530813395977,-0.0035536312498152256,-0.01270950585603714,0.015208742581307888,0.0,0.007329224143177271
0.006823861505836248,-0.003620493458583951,-0.012159849517047405,0.015984700992703438,0.0,0.007121301721781492
0.007556122727692127,-0.003715289058163762,-0.012820662930607796,0.01554081216454506,0.0,0.007003373466432095
0.007556122727692127,-0.003715289058163762,-0.012820662930607796,0.01554081216454506,0.0,0.007003373466432095
0.007439189590513706,-0.003654660889878869,-0.012523249723017216,0.01461837813258171,0.0,0.0071689966134727
0.0071225520223379135,-0.0032479255460202694,-0.012999817728996277,0.014785870909690857,0.0,0.007209067232906818
0.007779198233038187,-0.003241533413529396,-0.01259614434093237,0.014473938383162022,0.0,0.007277274038642645
0.007681840565055609,-0.0035242231097072363,-0.012807856313884258,0.01579049974679947,0.0,0.007446246687322855
0.007119530346244574,-0.003631657687947154,-0.01253543607890606,0.015276733785867691,0.0,0.006953194737434387
0.007119530346244574,-0.003631657687947154,-0.01253543607890606,0.015276733785867691,0.0,0.006953194737434387
0.007928107865154743,-0.003314465982839465,-0.012524406425654888,0.015061614103615284,0.0,0.00669953553006053
0.007743562571704388,-0.0033333301544189453,-0.012978442013263702,0.014894034713506699,0.0,0.007118557579815388
0.007842139340937138,-0.0035403070505708456,-0.012317664921283722,0.015156370587646961,0.0,0.007702745031565428
0.007835409604012966,-0.0036899836268275976,-0.012997630052268505,0.014886582270264626,0.0,0.0071889618411660194
0.007752148434519768,-0.003535383613780141,-0.012040791101753712,0.0156923308968544,0.0,0.007166425697505474
0.00754661625251174,-0.0034541329368948936,-0.012732687406241894,0.01549889799207449,0.0,0.007362482137978077
0.008134819567203522,-0.0036422896664589643,-0.012876387685537338,0.01550808735191822,0.0,0.007614335045218468
0.007931585423648357,-0.003831947688013315,-0.012833592481911182,0.015650831162929535,0.0,0.007063174154609442
0.0078007555566728115,-0.0034849250223487616,-0.013108691200613976,0.014767243526875973,0.0,0.007556017022579908
0.007297050673514605,-0.0035277747083455324,-0.012362740002572536,0.014998662285506725,0.0,0.007100348360836506
0.007255020085722208,-0.00370999937877059,-0.013039800338447094,0.014853155240416527,0.0,0.007857028394937515
0.007842732593417168,-0.00378014100715518,-0.012477781623601913,0.015390684828162193,0.0,0.007904167287051678
0.007852083072066307,-0.0034060655161738396,-0.012636061757802963,0.014997739344835281,0.0,0.007188525516539812
0.007383611984550953,-0.0033622784540057182,-0.012325211428105831,0.01580910012125969,0.0,0.006901011802256107
0.007493273820728064,-0.0035256571136415005,-0.012711514718830585,0.015062463469803333,0.0,0.0070176562294363976
0.007654229644685984,-0.003713754704222083,-0.013174026273190975,0.015230691060423851,0.0,0.0076766968704760075
0.007654229644685984,-0.003713754704222083,-0.013174026273190975,0.015230691060423851,0.0,0.0076766968704760075
0.008200977928936481,-0.0037233803886920214,-0.01266450434923172,0.015016843564808369,0.0,0.007542457897216082
0.007743480149656534,-0.003581712255254388,-0.012822000309824944,0.015374995768070221,0.0,0.007313701324164867
0.0076094274409115314,-0.0036627808585762978,-0.012076019309461117,0.015165678225457668,0.0,0.007425661198794842
0.00812201201915741,-0.003349070902913809,-0.012547307647764683,0.015482135117053986,0.0,0.007051063701510429
0.007698659785091877,-0.003170691430568695,-0.012300712987780571,0.015148802660405636,0.0,0.007000841200351715
0.007745416834950447,-0.0034857362043112516,-0.013016936369240284,0.01517825573682785,0.0,0.0072870017029345036
0.007833045907318592,-0.003994866739958525,-0.012284930795431137,0.015187823213636875,0.0,0.007474555633962154
0.007913047447800636,-0.0042524500750005245,-0.012257954105734825,0.015526368282735348,0.0,0.007154657039791346
0.007539079990237951,-0.0037060228642076254,-0.012498874217271805,0.015537883155047894,0.0,0.007311158813536167
0.008113568648695946,-0.0034565727692097425,-0.012002463452517986,0.015319899655878544,0.0,0.007468845695257187
0.008394794538617134,-0.0031772598158568144,-0.012859087437391281,0.015626506879925728,0.0,0.008037712424993515
0.00779676903039217,-0.0034529916010797024,-0.012533145025372505,0.015063070692121983,0.0,0.007944272831082344
0.007723653223365545,-0.0033596849534660578,-0.012491407804191113,0.01483918447047472,0.0,0.007429649122059345
0.007808793801814318,-0.0033004486467689276,-0.01293856929987669,0.015374863520264626,0.0,0.007059697061777115
0.007870815694332123,-0.003384129609912634,-0.012558023445308208,0.014620757661759853,0.0,0.007037083152681589
0.0075041367672383785,-0.0035565791185945272,-0.011783139780163765,0.01500785630196333,0.0,0.007330562919378281
0.008236391469836235,-0.0035987738519906998,-0.012509284541010857,0.014699225313961506,0.0,0.0074674105271697044
0.008472856134176254,-0.003515813499689102,-0.012488516978919506,0.014957689680159092,0.0,0.00794121902436018
0.0077761574648320675,-0.0035978613886982203,-0.012634355574846268,0.014356693252921104,0.0,0.007500853389501572
0.007558832876384258,-0.003763053100556135,-0.012422332540154457,0.01500315498560667,0.0,0.007307292427867651
0.009079502895474434,-0.0034035928547382355,-0.012536665424704552,0.015076406300067902,0.0,0.007860739715397358
0.007217473816126585,-0.0031760940328240395,-0.01272572297602892,0.015456782653927803,0.0,0.007963635958731174
0.007363160140812397,-0.0034098713658750057,-0.012334117665886879,0.015228698961436749,0.0,0.007653592620044947
0.007981326431035995,-0.0031174547038972378,-0.012692106887698174,0.015111515298485756,0.0,0.007602626923471689
0.008831385523080826,-0.0033608530648052692,-0.012548570521175861,0.014979008585214615,0.0,0.007696979213505983
0.008021795190870762,-0.0035661763977259398,-0.013078362680971622,0.015236828476190567,0.0,0.007671917788684368
0.007907208986580372,-0.0035351295955479145,-0.012772728689014912,0.015281081199645996,0.0,0.008009862154722214
0.008277120999991894,-0.003394627943634987,-0.012778624892234802,0.014719401486217976,0.0,0.007653306238353252
0.00842760968953371,-0.002836000407114625,-0.012981371954083443,0.014514843001961708,0.0,0.007935687899589539
0.007758229039609432,-0.002478123875334859,-0.01240621693432331,0.01473697554320097,0.0,0.008107625879347324
0.007758229039609432,-0.002478123875334859,-0.01240621693432331,0.01473697554320097,0.0,0.008107625879347324
0.008101459592580795,-0.0022827081847935915,-0.012867184355854988,0.014722876250743866,0.0,0.00767901074141264
0.008230775594711304,-0.002481394447386265,-0.013450135476887226,0.013943999074399471,0.0,0.007676766719669104
0.008230775594711304,-0.002481394447386265,-0.013450135476887226,0.013943999074399471,0.0,0.007676766719669104
0.007660964969545603,-0.003081062575802207,-0.012592311948537827,0.014216739684343338,0.0,0.008168812841176987
0.008207596838474274,-0.0031519082840532064,-0.013237705454230309,0.014292090199887753,0.0,0.00771520147100091
0.008427918888628483,-0.0026812644209712744,-0.012539452873170376,0.014530998654663563,3.368463410424738e-07,0.007378269452601671
0.008216907270252705,-0.002722191857174039,-0.013282038271427155,0.015034290961921215,2.1993656673657824e-08,0.007971175946295261
0.008081873878836632,-0.002667429391294718,-0.013154329732060432,0.014910027384757996,1.4360286293424451e-09,0.007747670169919729
0.00838415790349245,-0.002381902188062668,-0.013340120203793049,0.015689091756939888,9.376240756031606e-11,0.007844780571758747
0.008438387885689735,-0.0024601835757493973,-0.013325514271855354,0.015221661888062954,6.122014787474095e-12,0.007606950122863054
0.008152115158736706,-0.002377129625529051,-0.012410300783813,0.015363878570497036,3.9972384668733596e-13,0.00795459933578968
0.008125785738229752,-0.002285412512719631,-0.012942150235176086,0.01500015426427126,2.609911290178072e-14,0.008214239962399006
0.008526261895895004,-0.002482892945408821,-0.013153783977031708,0.014451597817242146,1.112646200598794e-16,0.009102250449359417
0.008144785650074482,-0.002395594259724021,-0.012818001210689545,0.014659209176898003,7.264784867279645e-18,0.007933246903121471
0.008443480357527733,-0.0024011442437767982,-0.013166490010917187,0.014532790519297123,4.743385538599848e-19,0.007391361519694328
0.008442440070211887,-0.0021967634093016386,-0.013076502829790115,0.015488985925912857,3.0970915216646864e-20,0.007441617548465729
0.008223194628953934,-0.0021188482642173767,-0.012687696143984795,0.015369455330073833,2.0221793225502983e-21,0.00800713337957859
0.008058721199631691,-0.0023171110078692436,-0.012846488505601883,0.015442406758666039,1.3203387113914985e-22,0.00818492379039526
0.008381237275898457,-0.0023055600468069315,-0.012486308813095093,0.015222368761897087,8.620869187481522e-24,0.008300826884806156
0.008544495329260826,-0.002759386785328388,-0.012985766865313053,0.01549861766397953,5.628811972096522e-25,0.008336085826158524
0.00803771149367094,-0.002649019006639719,-0.012329460121691227,0.014850890263915062,3.675212053531319e-26,0.008042043074965477
0.008088451810181141,-0.0024083806201815605,-0.013017450459301472,0.015416698530316353,2.3996507402151698e-27,0.007614478003233671
0.009084111079573631,-0.0023704704362899065,-0.012386554852128029,0.01557016372680664,1.5668005839511327e-28,0.007884674705564976
0.00861586444079876,-0.002132839523255825,-0.012984823435544968,0.015506709925830364,1.0230087722437897e-29,0.008032532408833504
0.008286582306027412,-0.0021349824965000153,-0.012583092786371708,0.015670711174607277,6.679517192050368e-31,0.008469467982649803
0.00906798243522644,-0.002357723191380501,-0.012741719372570515,0.014969619922339916,4.361247435265451e-32,0.00795380212366581
0.008831758983433247,-0.002291288925334811,-0.012647919356822968,0.016237394884228706,2.8475829023051737e-33,0.00806182436645031
0.008272615261375904,-0.0024375903885811567,-0.012261330150067806,0.015190297737717628,1.8592681648473328e-34,0.007834164425730705
0.008808269165456295,-0.0022512853611260653,-0.012704874388873577,0.014943514950573444,1.2139692624165662e-35,0.00811340194195509
0.008808269165456295,-0.0022512853611260653,-0.012704874388873577,0.014943514950573444,1.2139692624165662e-35,0.00811340194195509
0.00898722093552351,-0.002163579920306802,-0.012113336473703384,0.014932188205420971,7.926351268819788e-37,0.008123276755213737
0.00854479894042015,-0.002278904663398862,-0.012796777300536633,0.01576763391494751,5.175341069212545e-38,0.007974286563694477
0.00852277036756277,-0.0022765938192605972,-0.012533160857856274,0.01480128150433302,3.3791275506329363e-39,0.008123496547341347
0.008536596782505512,-0.0028338965494185686,-0.01260644942522049,0.015115154907107353,2.2063304190947812e-40,0.008175453171133995
0.008520024828612804,-0.0027071326039731503,-0.012732703238725662,0.014883870258927345,1.440534821325912e-41,0.00828478392213583
0.008775955066084862,-0.002524473937228322,-0.012784975580871105,0.01554672047495842,-7.430541154462844e-05,0.008241472765803337
0.008844781666994095,-0.002331322757527232,-0.01293389592319727,0.015294842422008514,-0.0001372960687149316,0.008389507420361042
0.009119254536926746,-0.002112399786710739,-0.012002465315163136,0.015618035569787025,-0.00013736558321397752,0.008102972991764545
0.00865628570318222,-0.002251598285511136,-0.012901433743536472,0.01575220189988613,-0.00013356639828998595,0.007745508104562759
0.008413429372012615,-0.002440611831843853,-0.012622802518308163,0.015416355803608894,-0.0001297337730647996,0.008011247962713242
0.008865145966410637,-0.0023642315063625574,-0.013012011535465717,0.015166416764259338,-0.00012609927216544747,0.008087126538157463
0.00877506285905838,-0.0024397866800427437,-0.012584477663040161,0.014959094114601612,-0.00014554763038177043,0.008269260637462139
0.00882673729211092,-0.0022859356831759214,-0.01266358233988285,0.01456796657294035,-0.00013957715418655425,0.008470004424452782
0.00882673729211092,-0.0022859356831759214,-0.01266358233988285,0.01456796657294035,-0.00013957715418655425,0.008470004424452782
0.009252261370420456,-0.0021076679695397615,-0.012347203679382801,0.014471135102212429,-0.00013272241631057113,0.007970797829329967
0.008991560898721218,-0.002448037499561906,-0.01171331200748682,0.01444048248231411,-0.00014828814892098308,0.008445796556770802
0.009106786921620369,-0.0025951366405934095,-0.012150214053690434,0.013927372172474861,-0.00014740224287379533,0.008381607942283154
0.008575526997447014,-0.0024654921144247055,-0.012334438040852547,0.014282318763434887,-0.0001441969070583582,0.008434425108134747
0.008862627670168877,-0.0024378011003136635,-0.01182668749243021,0.014277167618274689,-0.00014098119572736323,0.00826532207429409
0.00930744968354702,-0.0025381706655025482,-0.012317786924540997,0.015016923658549786,-0.00013789588410872966,0.008413176983594894
0.008946791291236877,-0.002353120129555464,-0.011437078937888145,0.01467028260231018,-0.0001349422091152519,0.008273981511592865
0.009651231579482555,-0.0025310427881777287,-0.011964939534664154,0.015068646520376205,-0.0001321122981607914,0.008330500684678555
0.008824082091450691,-0.0024150258395820856,-0.011981573887169361,0.014871807768940926,-0.0001293988316319883,0.00890334416180849
0.009154003113508224,-0.0025191635359078646,-0.01170728076249361,0.015456298366189003,-0.0001267942861886695,0.008403505198657513
0.009070388041436672,-0.0026654647663235664,-0.012288452126085758,0.014765574596822262,-0.00012429292837623507,0.00844518281519413
0.010072523728013039,-0.002735345158725977,-0.011490609496831894,0.015206065960228443,-0.00012188798427814618,0.008517399430274963
0.010072523728013039,-0.002735345158725977,-0.011490609496831894,0.015206065960228443,-0.00012188798427814618,0.008517399430274963
0.009111735038459301,-0.0025629689916968346,-0.012519999407231808,0.01481257937848568,-0.00011957457172684371,0.008568336255848408
0.00938214547932148,-0.003109386656433344,-0.012385912239551544,0.014873669482767582,-0.0001274146925425157,0.008366833440959454
0.00938214547932148,-0.003109386656433344,-0.012385912239551544,0.014873669482767582,-0.0001274146925425157,0.008366833440959454
0.009709709323942661,-0.0030256547033786774,-0.012187219224870205,0.01521630771458149,-0.00012901751324534416,0.008625687099993229
0.009034603834152222,-0.0028836349956691265,-0.012205416336655617,0.014868051744997501,-0.00012699549552053213,0.008635017089545727
0.009466088376939297,-0.0028174365870654583,-0.012069475837051868,0.015157024376094341,-0.00012481074372772127,0.008889753371477127
0.009594554081559181,-0.002806645119562745,-0.011966652236878872,0.014597286470234394,-0.00012268498539924622,0.008651851676404476
0.009074952453374863,-0.0029566981829702854,-0.012500387616455555,0.01483198907226324,-0.00012062951282132417,0.008926811628043652
0.00960792601108551,-0.0028306092135608196,-0.012042205780744553,0.014408119954168797,-0.00011864191037602723,0.008512906730175018
0.009411049075424671,-0.002855614759027958,-0.012422606348991394,0.014704078435897827,-0.00013693180517293513,0.008531913161277771
0.009703826159238815,-0.002809106605127454,-0.012793589383363724,0.014705684967339039,-0.0001393677812302485,0.008840356022119522
0.009587147273123264,-0.002691686851903796,-0.012073798105120659,0.0149147417396307,-0.00013560465595219284,0.00891520082950592
0.009695624001324177,-0.00281218602322042,-0.012857453897595406,0.014263368211686611,-0.00013166500139050186,0.008469868451356888
0.009508470073342323,-0.0029095422942191362,-0.012683202512562275,0.014333302155137062,-0.00012792376219294965,0.008313396945595741
0.009373496286571026,-0.0031358865089714527,-0.012851936742663383,0.014381345361471176,-0.00012438726844266057,0.008708748035132885
0.009508242830634117,-0.0026770641561597586,-0.012681309133768082,0.014554823748767376,-0.00011787076073233038,0.008917473256587982
0.009540046565234661,-0.002763793570920825,-0.012652733363211155,0.01465211808681488,-0.00013629494060296565,0.008980554528534412
0.010112186893820763,-0.0031166577246040106,-0.012246674858033657,0.014261564239859581,-0.0001343030744465068,0.008885500021278858
0.00966816395521164,-0.0031463471241295338,-0.012602398172020912,0.014712536707520485,-0.00013113267777953297,0.009021761827170849
0.009704837575554848,-0.003045999212190509,-0.010955841280519962,0.014351805672049522,-0.00012802948185708374,0.00918753445148468
0.010078314691781998,-0.002760985167697072,-0.013302047736942768,0.014579521492123604,-0.00012506480561569333,0.009118732996284962
0.009712944738566875,-0.0029728596564382315,-0.012969592586159706,0.014315561391413212,-0.0001222337450599298,0.008543149568140507
0.009483760222792625,-0.0030417339876294136,-0.013100347481667995,0.014969375915825367,-0.00011952797649428248,0.008330924436450005
0.01013466902077198,-0.003008580533787608,-0.012654961086809635,0.015338120982050896,-0.00013387018407229334,0.00885089859366417
0.010309029370546341,-0.002711076056584716,-0.013418088667094707,0.015468777157366276,-0.0001333703112322837,0.009063958190381527
0.010175969451665878,-0.0026821226347237825,-0.01341615803539753,0.016116391867399216,-0.00013075470633339137,0.00902270432561636
0.010660734958946705,-0.0026769465766847134,-0.013021804392337799,0.01578298956155777,-0.00012810570478904992,0.0089335385710001
0.009951303713023663,-0.0026050335727632046,-0.013248968869447708,0.016023173928260803,-0.00012555340072140098,0.008905581198632717
0.01038246788084507,-0.002766653196886182,-0.012740404345095158,0.01506032794713974,-0.0001231001369887963,0.008800717070698738
0.01038246788084507,-0.002766653196886182,-0.012740404345095158,0.01506032794713974,-0.0001231001369887963,0.008800717070698738
0.010470204055309296,-0.0024396448861807585,-0.012570938095450401,0.014113510958850384,-0.00011847027053590864,0.008872776292264462
0.010470204055309296,-0.0024396448861807585,-0.012570938095450401,0.014113510958850384,-0.00011847027053590864,0.008872776292264462
0.010263548232614994,-0.002646303502842784,-0.012956018559634686,0.014502142556011677,-0.00012861110735684633,0.008827981539070606
0.010520613752305508,-0.0025836832355707884,-0.012892625294625759,0.014100098051130772,-0.00013020723417866975,0.009007124230265617
0.010297750122845173,-0.0023737638257443905,-0.013127976097166538,0.014661019667983055,-0.00012814589717891067,0.00876316986978054
0.010759728029370308,-0.002426708582788706,-0.012910313904285431,0.01571778953075409,-0.00012592141865752637,0.008503228425979614
0.010672766715288162,-0.0025866194628179073,-0.012593450024724007,0.01402451004832983,-0.0001237581018358469,0.008842741139233112
0.010396579280495644,-0.002505319658666849,-0.012904494069516659,0.013573274947702885,-0.00012166688975412399,0.009440599009394646
0.010414449498057365,-0.0027721612714231014,-0.012799402698874474,0.0147004509344697,-0.00011964503937633708,0.009517792612314224
0.010481270030140877,-0.0029037187341600657,-0.013160322792828083,0.01439693197607994,-0.00011768933472922072,0.009167623706161976
0.01201705727726221,-0.0025859649758785963,-0.012848778627812862,0.014555400237441063,-0.00013262649008538574,0.009127030149102211
0.010013286024332047,-0.0024510780349373817,-0.012797691859304905,0.014426333829760551,-0.0001347909856121987,0.008733234368264675
0.01027324516326189,-0.0023556884843856096,-0.012886014766991138,0.01415674015879631,-0.00013126003614161164,0.0089434077963233
0.011401485651731491,-0.0026457516942173243,-0.012809637933969498,0.014788370579481125,-0.00012756501382682472,0.009124834090471268
0.010937495157122612,-0.0028634786140173674,-0.01272707898169756,0.013980336487293243,-0.00012404996959958225,0.00929336342960596
0.010962147265672684,-0.0025835735723376274,-0.013022631406784058,0.013938591815531254,-0.00012072196113876998,0.009227345697581768
0.010465092957019806,-0.002592615783214569,-0.012159189209342003,0.013590706512331963,-0.00011756771709769964,0.008736073039472103
0.01069882232695818,-0.002452337881550193,-0.012995428405702114,0.014125965535640717,-0.00011457419896032661,0.008905785158276558
0.011050130240619183,-0.002398117445409298,-0.012984290719032288,0.013947037048637867,-0.00011172924132551998,0.009098363108932972
0.010692923329770565,-0.002599098952487111,-0.013109360821545124,0.014926138333976269,-0.00010902227950282395,0.00946588534861803
0.01090843416750431,-0.002503087045624852,-0.012669636867940426,0.015276684425771236,-0.00012222692021168768,0.009536600671708584
0.011043368838727474,-0.002383740618824959,-0.013343265280127525,0.01580110192298889,-0.0001244208833668381,0.009366946294903755
0.010511756874620914,-0.002343215513974428,-0.013026053085923195,0.01526913046836853,-0.00012193848669994622,0.009846344590187073
0.01074923388659954,-0.002124146558344364,-0.013305687345564365,0.015384909696877003,-0.00011926653678528965,0.009743813425302505
0.010675500147044659,-0.002264491282403469,-0.013001104816794395,0.01491810753941536,-0.0001166905858553946,0.009595857933163643
0.011066166684031487,-0.0025623433757573366,-0.012530640698969364,0.014731863513588905,-0.00011422226816648617,0.010246877558529377
0.011212564073503017,-0.0024981230963021517,-0.013059290125966072,0.014137414284050465,-0.00011185627954546362,0.009808789007365704
0.011212564073503017,-0.0024981230963021517,-0.013059290125966072,0.014137414284050465,-0.00011185627954546362,0.009808789007365704
0.01074537355452776,-0.00260568642988801,-0.012354012578725815,0.014250453561544418,-0.00010958618076983839,0.010049593634903431
0.011015325784683228,-0.0024199122563004494,-0.01316822413355112,0.014101690612733364,-0.00010740650031948462,0.00950276106595993
0.011452888138592243,-0.002322854707017541,-0.012635281309485435,0.014657929539680481,-0.0001053117448464036,0.00947465281933546
0.01096769142895937,-0.002586625050753355,-0.01319387648254633,0.01463721040636301,-0.00011607159831328318,0.008972197771072388
0.012039992958307266,-0.002480511087924242,-0.012780794873833656,0.014880824834108353,-0.00011796131730079651,0.009473055601119995
0.01137008797377348,-0.0024353102780878544,-0.012974290177226067,0.014407492242753506,-0.00011605361942201853,0.0095691978931427
0.011478640139102936,-0.0027215874288231134,-0.012817571870982647,0.01484411396086216,-0.00011397138587199152,0.00943531934171915
0.01130759809166193,-0.00259223161265254,-0.012724713422358036,0.01446682121604681,-0.00011194733087904751,0.009590783156454563
0.01109733060002327,-0.0024037084076553583,-0.0129529545083642,0.014681950211524963,-0.00010999289952451363,0.009420843794941902
0.010811634361743927,-0.002518091117963195,-0.013018853962421417,0.01485362183302641,-0.00011947840539505705,0.00958767719566822
0.010916960425674915,-0.0023910582531243563,-0.012486242689192295,0.01497708447277546,-0.00011931989865843207,0.009501921944320202
0.011250940151512623,-0.0024672949220985174,-0.01288855355232954,0.015287550166249275,-0.00011749178520403802,0.009592589922249317
0.011167304590344429,-0.002294412348419428,-0.012771490961313248,0.014815418049693108,-0.0001156128928414546,0.009852944873273373
0.01145155355334282,-0.0023986927699297667,-0.013032976537942886,0.014658264815807343,-0.00011378631461411715,0.010002591647207737
0.011362896300852299,-0.002311806194484234,-0.012816152535378933,0.014909239485859871,-0.0001120160668506287,0.01018454972654581
0.0114045524969697,-0.0022481330670416355,-0.012837744317948818,0.014756345190107822,-0.00011030001769540831,0.00995369628071785
0.011644368059933186,-0.002397975418716669,-0.013172062113881111,0.014592142775654793,-0.00010863584611797705,0.009531713090837002
0.01154748909175396,-0.002296539256349206,-0.012359579093754292,0.014420174062252045,-0.0001070210782927461,0.009466598741710186
0.010642221197485924,-0.002437581541016698,-0.013077580370008945,0.01413608156144619,-0.00010545359691604972,0.00959088746458292
0.01174104679375887,-0.0022851424291729927,-0.012686854228377342,0.014576359651982784,-0.00010393135744379833,0.009848048910498619
0.011126738972961903,-0.0018669995479285717,-0.013610360212624073,0.014627126045525074,-0.00011326570529490709,0.009554275311529636
0.010937521234154701,-0.0014996947720646858,-0.013048150576651096,0.01454126462340355,-0.00011397781781852245,0.009616775438189507
0.011121843941509724,-0.0013817723374813795,-0.013091555796563625,0.014733005315065384,-0.00011139034904772416,0.009508918039500713
0.010921623557806015,-0.0010985060362145305,-0.013253799639642239,0.014660927467048168,-0.00010871437552850693,0.009677118621766567
0.010921623557806015,-0.0010985060362145305,-0.013253799639642239,0.014660927467048168,-0.00010871437552850693,0.009677118621766567
0.010887538082897663,-0.001779079088009894,-0.013342278078198433,0.01435814518481493,-0.00010370443487772718,0.009587641805410385
0.010887538082897663,-0.001779079088009894,-0.013342278078198433,0.01435814518481493,-0.00010370443487772718,0.009587641805410385
0.01133499015122652,-0.0019018447492271662,-0.012609853409230709,0.014127261936664581,-0.00010136836499441415,0.009667451493442059
0.011681378819048405,-0.002101181074976921,-0.013187882490456104,0.014258609153330326,-9.913502435665578e-05,0.01048108097165823
0.011267714202404022,-0.001851742505095899,-0.012771645560860634,0.0144059918820858,-0.00010653764184098691,0.010240507312119007
0.011554978787899017,-0.0016175894998013973,-0.01306284312158823,0.014875964261591434,-0.00011329784319968894,0.010145541280508041
0.011898299679160118,-0.0013378410367295146,-0.013015182688832283,0.015362902544438839,-0.00011154505773447454,0.010294109582901001
0.011500666849315166,-0.0009663252276368439,-0.013768515549600124,0.01455016154795885,-0.00010932506120298058,0.009851423092186451
0.011008907109498978,-0.0010837989393621683,-0.013530648313462734,0.014183884486556053,-0.0001050731516443193,0.01058405265212059
0.011077435687184334,-0.0015925747575238347,-0.013459522277116776,0.014724429696798325,-0.00011910210741916671,0.010446460917592049
0.011346433311700821,-0.0015192991122603416,-0.012774764560163021,0.014253824017941952,-0.00011791864380938932,0.010052037425339222
0.010990512557327747,-0.001748348819091916,-0.013301009312272072,0.013587736524641514,-0.00011581918079173192,0.010888919234275818
0.011775136925280094,-0.0017188143683597445,-0.01276919711381197,0.014125836081802845,-0.00011373279994586483,0.010458585806190968
0.011388665065169334,-0.0015142158372327685,-0.013297291472554207,0.014825164340436459,-0.00012661480286624283,0.00994939636439085
0.011418519541621208,-0.0013731926446780562,-0.013038581237196922,0.015386129729449749,-0.00012538187729660422,0.010657795704901218
0.011295356787741184,-0.0012909742072224617,-0.01371973380446434,0.01552870124578476,-0.0001232981594512239,0.010458706878125668
0.01125029381364584,-0.00123982026707381,-0.013423341326415539,0.01450412254780531,-0.00012122631596866995,0.010089423507452011
0.011570415459573269,-0.0012623710790649056,-0.013707747682929039,0.014997890219092369,-0.00011921925033675507,0.010703771375119686
0.011242009699344635,-0.0013247585156932473,-0.01320615503937006,0.01465332880616188,-0.00015351775800809264,0.010289947502315044
0.012134837917983532,-0.0016601691022515297,-0.013560639694333076,0.015342522412538528,-0.00018178018217440695,0.00974682904779911
0.012040026485919952,-0.0017311519477516413,-0.013684741221368313,0.014900151640176773,-0.00017688670777715743,0.00992924626916647
0.011450053192675114,-0.0016676279483363032,-0.01393016055226326,0.014661399647593498,-0.00017033696349244565,0.0098760686814785
0.011473526246845722,-0.0017114055808633566,-0.013809057883918285,0.013940365053713322,-0.00016413289995398372,0.01019351277500391
0.011645733378827572,-0.0015802168054506183,-0.01336137019097805,0.01476884726434946,-0.00015835673548281193,0.010501807555556297
0.011719622649252415,-0.0013480240013450384,-0.014385119080543518,0.014421898871660233,-0.00017561424465384334,0.010063400492072105
0.01211831346154213,-0.0013852521078661084,-0.014196990989148617,0.014212488196790218,-0.00017701246542856097,0.010648616589605808
0.011569627560675144,-0.0013487283140420914,-0.014017635956406593,0.01383273210376501,-0.00017184628813993186,0.010732121765613556
0.011632433161139488,-0.0014518863754346967,-0.01335874479264021,0.014424270018935204,-0.00016657546802889556,0.01015422586351633
0.011801593005657196,-0.0015297183999791741,-0.013878465630114079,0.014195444993674755,-0.00016159228107426316,0.010507985018193722
0.011310732923448086,-0.0015249826246872544,-0.013366006314754486,0.014931787736713886,-0.0001568969018990174,0.010720902122557163
0.011310732923448086,-0.0015249826246872544,-0.013366006314754486,0.014931787736713886,-0.0001568969018990174,0.010720902122557163
0.01154741458594799,-0.001612181542441249,-0.014085995964705944,0.014461306855082512,-0.0001745241752360016,0.00991213321685791
0.011627331376075745,-0.001508209970779717,-0.013584383763372898,0.014391453005373478,-0.00017277398728765547,0.010044260881841183
0.011672965250909328,-0.001398466993123293,-0.013621621765196323,0.01466680783778429,-0.00016398554726038128,0.010357973165810108
0.011620794422924519,-0.0013660050462931395,-0.014052482321858406,0.01455757673829794,-0.00018112873658537865,0.01067199558019638
0.011622517369687557,-0.001536824507638812,-0.013123043812811375,0.014809765852987766,-0.00017803891387302428,0.01025666855275631
0.01156203355640173,-0.0015969084342941642,-0.01337211299687624,0.014171666465699673,-0.0001738310675136745,0.010622670873999596
0.011941694654524326,-0.0015109287342056632,-0.01288490742444992,0.014300628565251827,-0.00016973886522464454,0.010857643559575081
0.011468135751783848,-0.0015814128564670682,-0.013493511825799942,0.014163151383399963,-0.00016582956595811993,0.010710897855460644
0.012169561348855495,-0.0014653033576905727,-0.013250520452857018,0.014295649714767933,-0.00016209614113904536,0.010984130203723907
0.012565421871840954,-0.001501444960013032,-0.013432255014777184,0.01385265402495861,-0.0001585269783390686,0.01108156144618988
0.011897494085133076,-0.001514722709544003,-0.013242213055491447,0.014277171343564987,-0.00018454386736266315,0.01112146396189928
0.012327592819929123,-0.0014541004784405231,-0.013472606427967548,0.013740291818976402,-0.00018665062088984996,0.011269026435911655
0.012238590978085995,-0.001526044332422316,-0.013815459795296192,0.014162041246891022,-0.00017982887220568955,0.011203458532691002
0.012484796345233917,-0.0014490183675661683,-0.013117596507072449,0.014072868041694164,-0.00017295777797698975,0.011202585883438587
0.011346274055540562,-0.0013541398802772164,-0.013324846513569355,0.01480932254344225,-0.00016655761282891035,0.01070217415690422
0.011346274055540562,-0.0013541398802772164,-0.013324846513569355,0.01480932254344225,-0.00016655761282891035,0.01070217415690422
0.011596357449889183,-0.0014492063783109188,-0.012890868820250034,0.014181414619088173,-0.00018437698599882424,0.010603689588606358
0.012257558293640614,-0.0013474470470100641,-0.013847936876118183,0.014432298019528389,-0.00018554615962784737,0.010524401441216469
0.011845460161566734,-0.0012365129077807069,-0.013094702735543251,0.01411321572959423,-0.00017985606973525137,0.011280646547675133
0.012216581963002682,-0.0013462352799251676,-0.013524104841053486,0.014675808139145374,-0.00017408901476301253,0.011217025108635426
0.012130890972912312,-0.0014730514958500862,-0.0134501364082098,0.014443222433328629,-0.00019032612908631563,0.011662389151751995
0.012130890972912312,-0.0014730514958500862,-0.0134501364082098,0.014443222433328629,-0.00019032612908631563,0.011662389151751995
0.012479781173169613,-0.001499615260399878,-0.013178552500903606,0.013993174768984318,-0.0001851623092079535,0.011534537188708782
0.011925931088626385,-0.0014606505865231156,-0.013607990927994251,0.014468490146100521,-0.00017990249034482986,0.011299282312393188
0.012092426419258118,-0.0013939428608864546,-0.01353809516876936,0.013994188979268074,-0.00017490923346485943,0.011097639799118042
0.012074329890310764,-0.0014599463902413845,-0.01379329152405262,0.014242722652852535,-0.00018212213763035834,0.011225206777453423
0.01223035342991352,-0.00157279206905514,-0.01380969863384962,0.014358507469296455,-0.0001885719975689426,0.010926101356744766
0.012081100605428219,-0.0014911364996805787,-0.01340221893042326,0.014553123153746128,-0.00018447343609295785,0.010754073970019817
0.012240178883075714,-0.0015649396227672696,-0.013421685434877872,0.014445463195443153,-0.00017991159984376281,0.010852468200027943
0.011737254448235035,-0.0015266923001036048,-0.013635819777846336,0.014136746525764465,-0.00021624131477437913,0.010867741890251637
0.011737254448235035,-0.0015266923001036048,-0.013635819777846336,0.014136746525764465,-0.00021624131477437913,0.010867741890251637
0.011815092526376247,-0.0014946983428671956,-0.013479813933372498,0.014715926721692085,-0.00021100073354318738,0.010809446685016155
0.011939666233956814,-0.001402287743985653,-0.013132537715137005,0.01488610077649355,-0.0002016079961322248,0.011381897144019604
0.012187936343252659,-0.0014966788003221154,-0.013608508743345737,0.01510508731007576,-0.00019296487153042108,0.011464694514870644
0.01195951271802187,-0.0015634784940630198,-0.013220229186117649,0.01437435019761324,-0.00021710268629249185,0.010665832087397575
0.012188647873699665,-0.0017066271975636482,-0.013798241503536701,0.013646861538290977,-0.00021294229372870177,0.011677482165396214
0.012045331299304962,-0.001752168987877667,-0.013491135090589523,0.013738984242081642,-0.00020513961499091238,0.011516398750245571
0.012287524528801441,-0.0016841539181768894,-0.013624134473502636,0.014037799090147018,-0.00019764866738114506,0.011332198046147823
0.01237854640930891,-0.0017186958575621247,-0.012998629361391068,0.014381478540599346,-0.00019066996173933148,0.011207306757569313
0.012471911497414112,-0.001559675787575543,-0.013007857836782932,0.014459336176514626,-0.00018416640523355454,0.01121324673295021
0.012366264127194881,-0.0015005613677203655,-0.013727749697864056,0.014594039879739285,-0.00020006181148346514,0.011399193666875362
0.012366264127194881,-0.0015005613677203655,-0.013727749697864056,0.014594039879739285,-0.00020006181148346514,0.011399193666875362
0.012273823842406273,-0.001513420371338725,-0.013425585813820362,0.014676076360046864,-0.00019488298858050257,0.011903621256351471
0.012273823842406273,-0.001513420371338725,-0.013425585813820362,0.014676076360046864,-0.00019488298858050257,0.011903621256351471
0.011960119009017944,-0.0015938552096486092,-0.01305015292018652,0.014541024342179298,-0.00018906345940195024,0.011999262496829033
0.012688280083239079,-0.001528630149550736,-0.013732977211475372,0.014673157595098019,-0.00019642518600448966,0.011506597511470318
0.01237790659070015,-0.001668301410973072,-0.013070940040051937,0.01454631332308054,-0.00020296761067584157,0.011670632287859917
0.01241481676697731,-0.00168175611179322,-0.013799701817333698,0.014877857640385628,-0.00019817013526335359,0.011569773778319359
0.012453393079340458,-0.0017052247421815991,-0.013237184844911098,0.014374901540577412,-0.00019291175703983754,0.011421834118664265
0.012159911915659904,-0.001728912815451622,-0.013446525670588017,0.014714363031089306,-0.00022529299894813448,0.011386985890567303
0.012628844007849693,-0.0016053427243605256,-0.013000252656638622,0.014436961151659489,-0.00021986541105434299,0.010992896743118763
0.01256384514272213,-0.0016946445684880018,-0.013517376035451889,0.014768438413739204,-0.000230484627536498,0.01151942927390337
0.01320804376155138,-0.001556852483190596,-0.013180648908019066,0.014304118230938911,-0.00023935255012474954,0.011661588214337826
0.013189648278057575,-0.0015764391282573342,-0.013719518668949604,0.014595049433410168,-0.00023038686776999384,0.01259095873683691
0.013280008919537067,-0.0016957779880613089,-0.013159275986254215,0.014906694181263447,-0.0002465111028868705,0.011254683136940002
0.013291221112012863,-0.001574181136675179,-0.013596794568002224,0.01484766136854887,-0.00023828445409890264,0.01167144626379013
0.013501353561878204,-0.0014804693637415767,-0.013293297030031681,0.015263878740370274,-0.00022966806136537343,0.011810564436018467
0.013071770779788494,-0.001502957078628242,-0.013738120906054974,0.014503014273941517,-0.0002371042937738821,0.011844172142446041
0.01345093920826912,-0.001567839877679944,-0.012931960634887218,0.014594750478863716,-0.00024358976224903017,0.01190454326570034
0.013331262394785881,-0.0016667181625962257,-0.013367521576583385,0.013959154486656189,-0.00023653460084460676,0.011655592359602451
0.013646405190229416,-0.0015735257184132934,-0.013109098188579082,0.014059649780392647,-0.0002290704578626901,0.01190504152327776
0.013188873417675495,-0.001622006413526833,-0.013211333192884922,0.0139214051887393,-0.00030050319037400186,0.011952529661357403
0.013422755524516106,-0.0016710292547941208,-0.01296157669275999,0.014215703122317791,-0.0003059459268115461,0.01193548459559679
0.013067991472780704,-0.001573215122334659,-0.013610167428851128,0.014064779505133629,-0.00028804829344153404,0.012228370644152164
0.013384804129600525,-0.0016711167991161346,-0.013473086059093475,0.014666843228042126,-0.00027081643929705024,0.012468961998820305
0.013359716162085533,-0.0017075302312150598,-0.01413190457969904,0.01457358431071043,-0.0002803314127959311,0.012156701646745205
0.014058157801628113,-0.0017638219287618995,-0.01361658051609993,0.014679993502795696,-0.0002883497509174049,0.011934394016861916
0.013571053743362427,-0.0016200364334508777,-0.014291062019765377,0.013873489573597908,-0.0002751573920249939,0.011964364908635616
0.013571053743362427,-0.0016200364334508777,-0.014291062019765377,0.013873489573597908,-0.0002751573920249939,0.011964364908635616
0.013438092544674873,-0.0014867294812574983,-0.013814403675496578,0.014121213927865028,-0.00026190627249889076,0.011670580133795738
0.013525176793336868,-0.0014231271343305707,-0.013281411491334438,0.014307268895208836,-0.00024979421868920326,0.011583831161260605
0.01349756121635437,-0.0013737303670495749,-0.013326927088201046,0.014724374748766422,-0.00027582081384025514,0.011761710047721863
0.013574144802987576,-0.0013262343127280474,-0.01332281157374382,0.01469445787370205,-0.0002665657957550138,0.01165474858134985
0.013317625038325787,-0.0015649928245693445,-0.013632955960929394,0.014534582383930683,-0.0002829160657711327,0.011777677573263645
0.013696086592972279,-0.0014801118522882462,-0.012964573688805103,0.013965168036520481,-0.0002804218966048211,0.011515180580317974
0.012872695922851562,-0.0017021704697981477,-0.01385990809649229,0.014033036306500435,-0.00027044452144764364,0.011465124785900116
0.01377283688634634,-0.0015367197338491678,-0.01353959646075964,0.013841788284480572,-0.0002606876369100064,0.012020869180560112
0.01319005899131298,-0.0014249415835365653,-0.013941429555416107,0.014095836319029331,-0.00028816991834901273,0.011999878101050854
0.013461735099554062,-0.00134578300639987,-0.013341155834496021,0.014138367027044296,-0.00027617678279057145,0.012025898322463036
0.013006947934627533,-0.0012966875219717622,-0.014095200225710869,0.014646124094724655,-0.00026055274065583944,0.012099738232791424
0.01343726646155119,-0.0013444380601868033,-0.014123452827334404,0.014873740263283253,-0.00023352453717961907,0.011757487431168556
0.013785789720714092,-0.001274780137464404,-0.01365686021745205,0.014505140483379364,-0.00022200019157025963,0.011590464040637016
0.014116862788796425,-0.0012114269193261862,-0.013935277238488197,0.014610790647566319,-0.00023222659365274012,0.012244760058820248
0.013497745618224144,-0.0011652852408587933,-0.013949546031653881,0.014293389394879341,-0.0002410562738077715,0.012139867059886456
0.013518168590962887,-0.0012348813470453024,-0.014128215610980988,0.014613732695579529,-0.00023195549147203565,0.012273907661437988
0.013526897877454758,-0.0011792905861511827,-0.013927401043474674,0.014766679145395756,-0.00022247883316595107,0.012285934761166573
0.01401548832654953,-0.0011650270316749811,-0.013743657618761063,0.01418097224086523,-0.00021367904264479876,0.012288871221244335
0.01319222990423441,-0.0012779695680364966,-0.013522171415388584,0.013636504299938679,-0.00020554462389554828,0.01255058404058218
0.013865719549357891,-0.0012548291124403477,-0.013566338457167149,0.014565439894795418,-0.00019800655718427151,0.012059965170919895
0.013395123183727264,-0.0013029461260885,-0.014011639170348644,0.014624698087573051,-0.00021861112327314913,0.012188972905278206
0.01375314500182867,-0.0012418633559718728,-0.01367156021296978,0.015175736509263515,-0.00021494609245564789,0.012175465933978558
0.013524815440177917,-0.0013248857576400042,-0.013610376976430416,0.015063224360346794,-0.00020809349371120334,0.012226765975356102
0.013524815440177917,-0.0013248857576400042,-0.013610376976430416,0.015063224360346794,-0.00020809349371120334,0.012226765975356102
0.01416911743581295,-0.001303084078244865,-0.013547788374125957,0.015467732213437557,-0.00022276051458902657,0.012224123813211918
0.01407308503985405,-0.001319992821663618,-0.013268355280160904,0.014675786718726158,-0.0002163628814741969,0.012407403439283371
0.01407308503985405,-0.001319992821663618,-0.013268355280160904,0.014675786718726158,-0.0002163628814741969,0.012407403439283371
0.013596407137811184,-0.0012553626438602805,-0.013779716566205025,0.014415723271667957,-0.00021007793839089572,0.012812143191695213
0.014432646334171295,-0.0011892957845702767,-0.013408245518803596,0.01506081409752369,-0.0002041234401986003,0.012770459055900574
0.014090371318161488,-0.0011414769105613232,-0.014059864915907383,0.01458441186696291,-0.0001989794400287792,0.012840739451348782
0.014887161552906036,-0.0011042364640161395,-0.013372682966291904,0.014789262786507607,-0.000197910369024612,0.01356735173612833
0.01328644435852766,-0.0009589010733179748,-0.01380972471088171,0.014711098745465279,-0.00019005266949534416,0.012004930526018143
0.013983759097754955,-0.0008461391553282738,-0.013225078582763672,0.014942186884582043,-0.0001823812344809994,0.011452581733465195
0.014538045041263103,-0.0007571040187031031,-0.013868587091565132,0.01442483626306057,-0.0001752782118273899,0.012136773206293583
0.014799639582633972,-0.0006850347854197025,-0.013535902835428715,0.01467488519847393,-0.00018522812752053142,0.01243494637310505
0.014394511468708515,-0.0004802818293683231,-0.013775661587715149,0.015020210295915604,-0.00018825120059773326,0.012424511834979057
0.014254751615226269,-0.00048685490037314594,-0.013825304806232452,0.014580223709344864,-0.00020441855303943157,0.012088832445442677
0.014776846393942833,-0.0005225325003266335,-0.013802126981317997,0.014959203079342842,-0.00020486935682129115,0.012389074079692364
0.014424876309931278,-0.0005057078087702394,-0.014232668094336987,0.014648662880063057,-0.00021990248933434486,0.012643017806112766
0.014589732512831688,-0.0005343829980120063,-0.013509037904441357,0.014617541804909706,-0.00021987206127960235,0.012879225425422192
0.01428329385817051,-0.0007642367272637784,-0.013492743484675884,0.014324811287224293,-0.00033260928466916084,0.012929028831422329
0.01436220109462738,-0.0007903648656792939,-0.01370890811085701,0.014851456508040428,-0.000345548935001716,0.012985534965991974
0.014543936587870121,-0.000693904294166714,-0.013296814635396004,0.014539206400513649,-0.0003790914488490671,0.012752651236951351
0.014998282305896282,-0.0006814540247432888,-0.01360407192260027,0.014743125066161156,-0.0003614871820900589,0.013069478794932365
0.014512729831039906,-0.0006435185787267983,-0.01305904146283865,0.014325406402349472,-0.0003881571756210178,0.013208288699388504
0.014668741263449192,-0.0005842412356287241,-0.01369195431470871,0.014664302580058575,-0.000371945439837873,0.012948908843100071
0.014543560333549976,-0.000601785141043365,-0.01329802256077528,0.014860302209854126,-0.0003516172873787582,0.012932850979268551
0.015212583355605602,-0.000563088629860431,-0.01374195609241724,0.015315672382712364,-0.00037422924651764333,0.012791010551154613
0.014545143581926823,-0.0005242727929726243,-0.013180102221667767,0.014188103377819061,-0.0003610965795814991,0.013073934242129326
0.014973534271121025,-0.0004635761142708361,-0.013747524470090866,0.01396147906780243,-0.00034419764415360987,0.013172435574233532
0.014465377666056156,-0.0004939997452311218,-0.013153168372809887,0.013420440256595612,-0.00040148544940166175,0.013420447707176208
0.015029218047857285,-0.0005111146019771695,-0.013809266500175,0.014274876564741135,-0.0003916222194675356,0.013367092236876488
0.015029218047857285,-0.0005111146019771695,-0.013809266500175,0.014274876564741135,-0.0003916222194675356,0.013367092236876488
0.014910036697983742,-0.000495293119456619,-0.013809810392558575,0.013715849258005619,-0.00036176235880702734,0.013314586132764816
0.015344102866947651,-0.0005241776816546917,-0.013876263052225113,0.01395020354539156,-0.00038412795402109623,0.013085971586406231
0.01494811475276947,-0.000659471785183996,-0.013676057569682598,0.013606186956167221,-0.0003728944866452366,0.013168268837034702
0.015156159177422523,-0.0006470538792200387,-0.013851148076355457,0.014552751556038857,-0.00034973397850990295,0.013192190788686275
0.015174013562500477,-0.0006782162236049771,-0.013572846539318562,0.014076617546379566,-0.00032851233845576644,0.013333294540643692
0.015204435214400291,-0.0006038520950824022,-0.01323789544403553,0.014235702343285084,-0.0003577057796064764,0.013621724210679531
0.015023095533251762,-0.0006225768593139946,-0.013829774223268032,0.013520230539143085,-0.00034144564415328205,0.01320252288132906
0.015152383595705032,-0.0005755479796789587,-0.013784167356789112,0.014252922497689724,-0.000358234770828858,0.013333079405128956
0.014999252744019032,-0.0005996573017910123,-0.013853286392986774,0.013516677543520927,-0.00035147214657627046,0.01317813340574503
0.015123290941119194,-0.0005385419353842735,-0.01435072347521782,0.013993232510983944,-0.00036699531483463943,0.013141969218850136
0.01508194301277399,-0.00048234587302431464,-0.013798413798213005,0.014514323323965073,-0.0004030187556054443,0.01334124244749546
0.015460072085261345,-0.0005214808625169098,-0.014270341023802757,0.013566241599619389,-0.00037888571387156844,0.013418775983154774
0.015130678191781044,-0.0005283750360831618,-0.013798525556921959,0.014477068558335304,-0.000397733470890671,0.013191117905080318
0.015634385868906975,-0.000510566751472652,-0.014214634895324707,0.013695153407752514,-0.0003868720668833703,0.013136260211467743
0.015127933584153652,-0.00053728639613837,-0.013489640317857265,0.014665934257209301,-0.00039073723019100726,0.013329006731510162
0.015409437008202076,-0.0005023772246204317,-0.01438693143427372,0.013401609845459461,-0.0003929289523512125,0.013476255349814892
0.015145549550652504,-0.00047399839968420565,-0.013846954330801964,0.013960526324808598,-0.00037620216608047485,0.01507372222840786
0.015530949458479881,-0.0005143911694176495,-0.014699258841574192,0.014202577993273735,-0.00046446602209471166,0.01350540854036808
0.015350086614489555,-0.0004627473244909197,-0.014176868833601475,0.014744815416634083,-0.0005082038696855307,0.013020886108279228
0.015966206789016724,-0.0005022721597924829,-0.01435860339552164,0.014273549430072308,-0.0005075702210888267,0.01334164198487997
0.015611599199473858,-0.00046053691767156124,-0.013605356216430664,0.01442235428839922,-0.0005367622943595052,0.013273635879158974
0.015121261589229107,-0.0004865446826443076,-0.014670310541987419,0.014128205366432667,-0.0005333164590410888,0.013662935234606266
0.015408486127853394,-0.0004588810261338949,-0.014177979901432991,0.014175549149513245,-0.0008037367952056229,0.013450839556753635
0.015792107209563255,-0.00046776505769230425,-0.015030230395495892,0.01387680135667324,-0.0008318147738464177,0.013836953788995743
0.01611463911831379,-0.0004575538041535765,-0.013635007664561272,0.013892709277570248,-0.0007873607682995498,0.013884441927075386
0.0160309299826622,-0.0004304571484681219,-0.014062515459954739,0.014189790934324265,-0.0007963731768541038,0.014163480140268803
0.015933498740196228,-0.00040652588359080255,-0.014179999008774757,0.014053886756300926,-0.0008914709906093776,0.014104428701102734
0.01567700505256653,-0.0004055428726132959,-0.015468769706785679,0.01377888023853302,-0.0009118145098909736,0.014099836349487305
0.016646869480609894,-0.00037244800478219986,-0.014119325205683708,0.013823927380144596,-0.0009111788822337985,0.013801906257867813
0.015659701079130173,-0.00040448264917358756,-0.014025471173226833,0.01395363174378872,-0.0009018920245580375,0.014221680350601673
0.015659701079130173,-0.00040448264917358756,-0.014025471173226833,0.01395363174378872,-0.0009018920245580375,0.014221680350601673
0.0160448607057333,-0.000383341102860868,-0.013681567274034023,0.014214237220585346,-0.0008153075468726456,0.013990272767841816
0.015975913032889366,-0.0004105422704014927,-0.01443116832524538,0.01431369036436081,-0.000799098052084446,0.014305952936410904
0.01608247309923172,-0.00039162152097560465,-0.01399763859808445,0.014277868904173374,-0.0007506428519263864,0.01480215135961771
0.01642511785030365,-0.00036878258106298745,-0.014453072100877762,0.014316735789179802,-0.0007094957982189953,0.014657286927103996
0.016272198408842087,-0.000396109651774168,-0.013853947632014751,0.014112262055277824,-0.0006303220870904624,0.014322184957563877
0.015537974424660206,-0.0003585026424843818,-0.013743414543569088,0.014350405894219875,-0.0005953758372925222,0.014212677255272865
0.016508551314473152,-0.0003414969251025468,-0.014532681554555893,0.014409003779292107,-0.0005445759743452072,0.014033553190529346
0.016358401626348495,-0.0003260322555433959,-0.01414363645017147,0.014187918975949287,-0.000501252943649888,0.014137412421405315
0.016165440902113914,-0.0003119072353001684,-0.014406848698854446,0.014338113367557526,-0.0004642830172087997,0.014342041686177254
0.016304537653923035,-0.00029979192186146975,-0.013989734463393688,0.014205439016222954,-0.0004778203438036144,0.01423345971852541
0.016198433935642242,-0.0003018967108801007,-0.014543436467647552,0.014469376765191555,-0.0004613439959939569,0.014630219899117947
0.0165382269769907,-0.0002831932215485722,-0.013905348256230354,0.014236499555408955,-0.0004344217013567686,0.014729159884154797
0.015926867723464966,-0.000266428105533123,-0.01419027615338564,0.014425761997699738,-0.00040974756120704114,0.014761537313461304
0.01660250872373581,-0.0002515336382202804,-0.013643785379827023,0.014202556572854519,-0.00038768042577430606,0.014259721152484417
0.016710711643099785,-0.00028518453473225236,-0.01457973476499319,0.014383567497134209,-0.00036786607233807445,0.014292852953076363
0.017005886882543564,-0.00027147732907906175,-0.013667021878063679,0.014031078666448593,-0.00034997938200831413,0.014660450629889965
0.017088614404201508,-0.0002584894245956093,-0.014258074574172497,0.0142134390771389,-0.00033375134808011353,0.014850656501948833
0.016666237264871597,-0.0002466803998686373,-0.0139114735648036,0.013748659752309322,-0.0003189615672454238,0.014825674705207348
0.017101792618632317,-0.0002101143036270514,-0.014270445331931114,0.013814461417496204,-0.00030542875174432993,0.015013637952506542
0.016939282417297363,-0.00018853861547540873,-0.013959698379039764,0.013900046236813068,-0.0002929966722149402,0.014618193730711937
0.017195694148540497,-0.00018079149594996125,-0.014093258418142796,0.014480335637927055,-0.0002815373009070754,0.015729866921901703
0.016798237338662148,-0.0001673424558248371,-0.014158403500914574,0.014611954800784588,-0.00026131808408536017,0.013980776071548462
0.016798237338662148,-0.0001673424558248371,-0.014158403500914574,0.014611954800784588,-0.00026131808408536017,0.013980776071548462
0.017033791169524193,-0.0001613423228263855,-0.014058475382626057,0.014177397824823856,-0.00019343761960044503,0.01420576311647892
0.016798323020339012,-0.00015575769066344947,-0.014357968233525753,0.014181515201926231,-0.00018190716218668967,0.015131006017327309
0.017679031938314438,-0.0001505466061644256,-0.014026627875864506,0.01381046324968338,-0.00017460474919062108,0.015159792266786098
0.017218971624970436,-0.0001456729369238019,-0.014140275306999683,0.014613675884902477,-0.00016806673374958336,0.015177937224507332
0.01728316769003868,-0.000141105119837448,-0.014099455438554287,0.01431869063526392,-0.00016201395192183554,0.014577044174075127
0.01728316769003868,-0.000141105119837448,-0.014099455438554287,0.01431869063526392,-0.00016201395192183554,0.014577044174075127
0.017459610477089882,-0.00013681496784556657,-0.0138374799862504,0.01450261753052473,-0.00015638259355910122,0.01478481013327837
0.016894575208425522,-0.00013277797552291304,-0.014169426634907722,0.013918855227530003,-0.0001511300797574222,0.01498857606202364
0.017706280574202538,-0.00012897240230813622,-0.013769731856882572,0.01436585932970047,-0.00014621869195252657,0.015031897462904453
0.017099831253290176,-0.00012198029435239732,-0.01375055406242609,0.0142352394759655,-0.00016427444643341005,0.014768114313483238
0.017383601516485214,-0.00011876100325025618,-0.01406235620379448,0.013714881613850594,-0.00015984497440513223,0.014899059198796749
0.01720447652041912,-0.00011570745846256614,-0.013825593516230583,0.014455295167863369,-0.00015527656069025397,0.015426767989993095
0.017614655196666718,-0.00011280681792413816,-0.013981236144900322,0.015425934456288815,-0.0001509377616457641,0.015508875250816345
0.01758473739027977,-0.00011004806583514437,-0.013279879465699196,0.014600281603634357,-0.00014683335029985756,0.015175403095781803
0.017526961863040924,-0.00010742105223471299,-0.013966175727546215,0.01369405072182417,-0.00014294616994448006,0.0149760777130723
0.017611265182495117,-0.00010491652938071638,-0.013399310410022736,0.014394538477063179,-0.00013925970415584743,0.015501396730542183
0.017369620501995087,-0.00010252623906126246,-0.01381698902696371,0.013972785323858261,-0.00015252939192578197,0.015135571360588074
0.017912063747644424,-0.0001002423232421279,-0.013434598222374916,0.014214331284165382,-0.00015411800995934755,0.014597791247069836
0.018149275332689285,-9.805798617890105e-05,-0.014166248962283134,0.013848749920725822,-0.00015077699208632112,0.015201873145997524
0.017461108043789864,-9.596679592505097e-05,-0.013746109791100025,0.014507933519780636,-0.00014727473899256438,0.015336532145738602
0.017603473737835884,-9.39630190259777e-05,-0.01411645207554102,0.014426121488213539,-0.00014391177683137357,0.015551824122667313
0.017816422507166862,-9.204108209814876e-05,-0.013462848030030727,0.014597753062844276,-0.00014069786993786693,0.015444205142557621
0.017856890335679054,-9.019632125273347e-05,-0.013840525411069393,0.0137375732883811,-0.00014729129907209426,0.015529455617070198
0.018407244235277176,-8.842393435770646e-05,-0.013738017529249191,0.01431871298700571,-0.0001532698079245165,0.015213105827569962
0.017904918640851974,-8.671996329212561e-05,-0.014269950799643993,0.01429149229079485,-0.00015065789921209216,0.015832697972655296
0.018011339008808136,-8.508037717547268e-05,-0.014104022644460201,0.014612982049584389,-0.00014760797785129398,0.015322243794798851
0.018092378973960876,-8.350169810000807e-05,-0.014175456017255783,0.014617766253650188,-0.00014464503328781575,0.01611858233809471
0.018092378973960876,-8.350169810000807e-05,-0.014175456017255783,0.014617766253650188,-0.00014464503328781575,0.01611858233809471
0.017278805375099182,-8.198050636565313e-05,-0.013910504058003426,0.014952046796679497,-0.0001418774190824479,0.015842607244849205
0.018042730167508125,-7.909845589892939e-05,-0.013740435242652893,0.014825630933046341,-0.00015101124881766737,0.015132967382669449
0.018042730167508125,-7.909845589892939e-05,-0.013740435242652893,0.014825630933046341,-0.00015101124881766737,0.015132967382669449
0.018165647983551025,-7.641224510734901e-05,-0.013948970474302769,0.014177688397467136,-0.00016255296941380948,0.014459359459578991
0.018165647983551025,-7.641224510734901e-05,-0.013948970474302769,0.014177688397467136,-0.00016255296941380948,0.014459359459578991
0.017965640872716904,-7.513640593970194e-05,-0.013623262755572796,0.013691539876163006,-0.0001642417482798919,0.014925952069461346
0.018586186692118645,-7.390244718408212e-05,-0.013980504125356674,0.014050842262804508,-0.00015981384785845876,0.015628116205334663
0.01849004067480564,-7.155236380640417e-05,-0.014060763642191887,0.014819376170635223,-0.00017274344281759113,0.015818597748875618
0.01849004067480564,-7.155236380640417e-05,-0.014060763642191887,0.014819376170635223,-0.00017274344281759113,0.015818597748875618
0.018738895654678345,-6.934704288141802e-05,-0.014363115653395653,0.014155878685414791,-0.00016672762285452336,0.01608336716890335
0.017596211284399033,-6.829461926827207e-05,-0.013906192034482956,0.013676808215677738,-0.00016244128346443176,0.015818146988749504
0.01823500543832779,-6.727364234393463e-05,-0.014100998640060425,0.013969614170491695,-0.00015835869999136776,0.01600823737680912
0.01870061829686165,-6.62827878841199e-05,-0.014019587077200413,0.01392127014696598,-0.0001544755359645933,0.01589348539710045
0.018597062677145004,-6.532060797326267e-05,-0.014345650561153889,0.014013375155627728,-0.0001507783163106069,0.015786392614245415
0.019202053546905518,-5.202198735787533e-05,-0.014114392921328545,0.013720216229557991,-0.00016688382311258465,0.015751035884022713
0.01878194883465767,-5.078914182377048e-05,-0.014243700541555882,0.014079627580940723,-0.0001643544965190813,0.01571750082075596
0.01885797269642353,-3.7727328162873164e-05,-0.013634765520691872,0.014281454496085644,-0.00016076798783615232,0.01579662412405014
0.018876969814300537,-3.704398841364309e-05,-0.014616015367209911,0.014186842367053032,-0.0002031687763519585,0.01568313129246235
0.018711240962147713,-3.654043030110188e-05,-0.014342616312205791,0.01403813622891903,-0.00023618513660039753,0.0159007515758276
0.018938282504677773,-4.79065602121409e-05,-0.014519191347062588,0.013735034503042698,-0.0002271198172820732,0.015602697618305683
0.01887182518839836,-4.7434379666810855e-05,-0.014070224948227406,0.014399882405996323,-0.00021638258476741612,0.015682628378272057
0.01908852532505989,-3.6479341360973194e-05,-0.01487270463258028,0.014677400700747967,-0.00020646392658818513,0.015902960672974586
0.01908852532505989,-3.6479341360973194e-05,-0.01487270463258028,0.014677400700747967,-0.00020646392658818513,0.015902960672974586
0.01902938447892666,-3.468223076197319e-05,-0.014543983153998852,0.01464885100722313,-0.0002316130994586274,0.016215508803725243
0.01914440095424652,-3.422479858272709e-05,-0.015081710182130337,0.014770080335438251,-0.00022658551461063325,0.01598101109266281
0.01910380832850933,-3.3796157367760316e-05,-0.014388419687747955,0.014637685380876064,-0.00021775309869553894,0.016109229996800423
0.019664743915200233,-3.337837551953271e-05,-0.014519179239869118,0.01437405776232481,-0.00020933062478434294,0.01611827313899994
0.019474543631076813,-3.2970801839837804e-05,-0.014428946189582348,0.014202979393303394,-0.00022635904315393418,0.016115311533212662
0.018828868865966797,-3.2573028875049204e-05,-0.014872084371745586,0.013865643180906773,-0.00022607491700910032,0.016013434156775475
0.019048789516091347,-3.218476922484115e-05,-0.014004808850586414,0.014479214325547218,-0.00021873727382626384,0.015598979778587818
0.019480111077427864,-3.18056445394177e-05,-0.01583356037735939,0.014372485689818859,-0.0002114287344738841,0.01577197201550007
0.019330007955431938,-3.107356315013021e-05,-0.013921874575316906,0.014070546254515648,-0.00019813085964415222,0.01617317460477352
0.019330007955431938,-3.107356315013021e-05,-0.013921874575316906,0.014070546254515648,-0.00019813085964415222,0.01617317460477352
0.019145110622048378,1.7668964574113488e-05,-0.014757094904780388,0.014525347389280796,-0.00021291369921527803,0.01598488725721836
0.019349800422787666,2.36084724747343e-05,-0.01451217383146286,0.014743818901479244,-0.00020690391829703003,0.01615893468260765
0.019186733290553093,2.3384580345009454e-05,-0.014654676429927349,0.014690353535115719,-0.00023655756376683712,0.016322258859872818
0.019348476082086563,2.3085785869625397e-05,-0.014333573170006275,0.014627947472035885,-0.0002359498175792396,0.016685716807842255
0.019548827782273293,2.2793461539549753e-05,-0.014299320988357067,0.014401986263692379,-0.0002249250974273309,0.016537195071578026
0.019290758296847343,2.250844227091875e-05,-0.014278498478233814,0.015552755445241928,-0.00025137525517493486,0.016495782881975174
0.019321342930197716,2.2230466129258275e-05,-0.014575204811990261,0.013730551116168499,-0.00024505588226020336,0.01620996743440628
0.01932566985487938,2.1959274818073027e-05,-0.014326232485473156,0.013738768175244331,-0.0002636394347064197,0.01648111082613468
0.019334865733981133,2.1694606402888894e-05,-0.014601227827370167,0.013741439208388329,-0.00026180243003182113,0.01668499782681465
0.01937195658683777,2.1436244423966855e-05,-0.014416744001209736,0.014231035485863686,-0.00027853751089423895,0.016711289063096046
0.019286399707198143,3.1354698876384646e-05,-0.014736366458237171,0.013906184583902359,-0.00027627585222944617,0.016787637025117874
0.019286399707198143,3.1354698876384646e-05,-0.014736366458237171,0.013906184583902359,-0.00027627585222944617,0.016787637025117874
0.019417179748415947,3.104518327745609e-05,-0.014209453016519547,0.01374918781220913,-0.0004237891116645187,0.016279416158795357
0.019417179748415947,3.104518327745609e-05,-0.014209453016519547,0.01374918781220913,-0.0004237891116645187,0.016279416158795357
0.019396193325519562,3.06923539028503e-05,-0.014157264493405819,0.014017077162861824,-0.00046065516653470695,0.016375049948692322
0.01975882239639759,3.0347371648531407e-05,-0.014472970739006996,0.013965316116809845,-0.0004683024890255183,0.016830040141940117
0.020136266946792603,3.00100764434319e-05,-0.014050553552806377,0.014078312553465366,-0.00046618180931545794,0.017136327922344208
0.019912846386432648,1.01292980616563e-05,-0.014512541703879833,0.013654111884534359,-0.0004662848368752748,0.01664862595498562
0.019831914454698563,1.3589746572506556e-07,-0.014116516336798668,0.01427566446363926,-0.00046410522190853953,0.01681084930896759
0.019184045493602753,1.823237782971887e-09,-0.01462325919419527,0.014071335084736347,-0.0005782212829217315,0.01660514995455742
0.018968632444739342,2.4461061648439753e-11,-0.01396395917981863,0.014365491457283497,-0.0006081103929318488,0.01673765666782856
0.019763097167015076,3.281763966481166e-13,-0.014630062505602837,0.01376419235020876,-0.0005920968833379447,0.016985490918159485
0.01950814388692379,4.402904788398639e-15,-0.01444332581013441,0.014442496001720428,-0.0005365292308852077,0.017420677468180656
0.019542841240763664,7.925072175275479e-19,-0.014202162623405457,0.014362330548465252,-0.0005219114245846868,0.016750462353229523
0.01911466382443905,1.0632495583225655e-20,-0.014223861508071423,0.013737753033638,-0.0005156336119398475,0.01669244095683098
0.019302068278193474,1.4264849317899066e-22,-0.014234181493520737,0.014318267814815044,-0.0005096306558698416,0.01700487546622753
0.020430218428373337,1.9138114631612307e-24,-0.01476967427879572,0.013611864298582077,-0.00047779359738342464,0.01695486344397068
0.01964637264609337,2.5676225306890503e-26,-0.014417706988751888,0.013887793757021427,-0.00047443865332752466,0.017040953040122986
0.019017858430743217,3.444793169057598e-28,-0.014723328873515129,0.013655067421495914,-0.00047576832002960145,0.01723514497280121
0.019817231222987175,4.621629637263553e-30,-0.014267893508076668,0.014010165818035603,-0.00047229952178895473,0.016570279374718666
0.019288664683699608,2.8306583772064187e-05,-0.014369916170835495,0.014219848439097404,-0.0004718201525975019,0.016617383807897568
0.018986433744430542,0.00014137137623038143,-0.014132354408502579,0.014698047190904617,-0.00046894943807274103,0.017285650596022606
0.019554995000362396,0.00013854843564331532,-0.014380570501089096,0.014540831558406353,-0.0004384130297694355,0.017955662682652473
0.020095817744731903,0.00013443006901070476,-0.014239062555134296,0.014335015788674355,-0.00041000236524268985,0.017787978053092957
0.019045088440179825,0.00013053098518867046,-0.014510039240121841,0.014164049178361893,-0.000436113536125049,0.017849888652563095
0.020321430638432503,0.0001435245794709772,-0.014569530263543129,0.014616511762142181,-0.0004143435216974467,0.01781262457370758
0.019842324778437614,0.00014793161244597286,-0.01470438577234745,0.014590057544410229,-0.0004418590397108346,0.018011095002293587
0.019381215795874596,0.00014409582945518196,-0.013992203399538994,0.015030065551400185,-0.0004185379948467016,0.01740005612373352
0.019472867250442505,0.00014035221829544753,-0.014326732605695724,0.014930490404367447,-0.00045528801274485886,0.016908545047044754
0.019472867250442505,0.00014035221829544753,-0.014326732605695724,0.014930490404367447,-0.00045528801274485886,0.016908545047044754
0.019913464784622192,0.0001569211744936183,-0.014293916523456573,0.01503688283264637,-0.0004242270952090621,0.01732955314218998
0.019916199147701263,0.00015561703185085207,-0.014726141467690468,0.014404455199837685,-0.00045022842823527753,0.017670270055532455
0.020344259217381477,0.0001710552751319483,-0.014783725142478943,0.014586854726076126,-0.00042741294601000845,0.0181636530905962
0.020682916045188904,0.00016947872063610703,-0.014915638603270054,0.013872377574443817,-0.0004007193783763796,0.017998510971665382
0.020227914676070213,0.00016613773186691105,-0.01418742910027504,0.014420055784285069,-0.00037677513319067657,0.017245715484023094
0.01994078978896141,0.0003168428665958345,-0.014613295905292034,0.01384141854941845,-0.00039293765439651906,0.0177155751734972
0.020495088770985603,0.0002795524487737566,-0.014606225304305553,0.014098502695560455,-0.00036501832073554397,0.017779935151338577
0.020495088770985603,0.0002795524487737566,-0.014606225304305553,0.014098502695560455,-0.00036501832073554397,0.017779935151338577
0.020331552252173424,0.00026319987955503166,-0.01461850106716156,0.014511916786432266,-0.00038036901969462633,0.0182175375521183
0.02049127221107483,0.00029246011399663985,-0.01477567944675684,0.014023549854755402,-0.00036190031096339226,0.017931023612618446
0.02069295197725296,0.00028267974266782403,-0.01433467399328947,0.01463950052857399,-0.0003356798551976681,0.017627330496907234
0.020305393263697624,0.00030814812635071576,-0.014978444203734398,0.014180013909935951,-0.00031241076067090034,0.01712997630238533
0.02050068788230419,0.00031179923098534346,-0.014616874046623707,0.014242591336369514,-0.00027430581394582987,0.017724696546792984
0.02080060914158821,0.0003115286526735872,-0.014568612910807133,0.014602757059037685,-0.00025853849365375936,0.018086040392518044
0.020746296271681786,0.0002987777115777135,-0.015393944457173347,0.01430569402873516,-0.0002444861165713519,0.01838080957531929
0.020945237949490547,0.0003687403805088252,-0.015609276480972767,0.014571036212146282,-0.0002750672574620694,0.01982204057276249
0.021361667662858963,0.00034412360400892794,-0.015687305480241776,0.014397677965462208,-0.00026441112277098,0.01795620284974575
0.02090233936905861,0.0003827354812528938,-0.015360638499259949,0.014898977242410183,-0.0002522406866773963,0.017207181081175804
0.02052164636552334,0.0003581922792363912,-0.014901736751198769,0.014255383983254433,-0.00024099294387269765,0.01758437789976597
0.02116553671658039,0.0003911027451977134,-0.016071243211627007,0.014178161509335041,-0.0002640136517584324,0.018184257671236992
0.020920101553201675,0.0004034340672660619,-0.014887748286128044,0.013631599023938179,-0.00025778095005080104,0.01860593818128109
0.02095150202512741,0.00039808047586120665,-0.01546641904860735,0.014009310863912106,-0.0002479329996276647,0.018293507397174835
0.020899737253785133,0.0005046011065132916,-0.015161563642323017,0.013806210830807686,-0.00023856243933551013,0.018030300736427307
0.021373961120843887,0.0005099622067064047,-0.015570219606161118,0.014298751950263977,-0.0002604698238428682,0.01827302575111389
0.02138923481106758,0.0005466303555294871,-0.015200612135231495,0.0148807093501091,-0.0002533012011554092,0.01800803281366825
0.02096385322511196,0.0004995483905076981,-0.016064336523413658,0.013916023075580597,-0.0002448178129270673,0.01807905174791813
0.021106572821736336,0.000530278543010354,-0.01542352233082056,0.013366514816880226,-0.00023677432909607887,0.018672622740268707
0.021826911717653275,0.0004917850019410253,-0.015332713723182678,0.01426446158438921,-0.00022929908300284296,0.018579235300421715
0.022096773609519005,0.0005204323097132146,-0.015301416628062725,0.01465542707592249,-0.00021156284492462873,0.018527232110500336
0.021821491420269012,0.0006003084126859903,-0.015297076664865017,0.01421994250267744,-0.00020162561850156635,0.018795907497406006
0.021821491420269012,0.0006003084126859903,-0.015297076664865017,0.01421994250267744,-0.00020162561850156635,0.018795907497406006
0.021675145253539085,0.0006473528919741511,-0.015819577500224113,0.01395499799400568,-0.0001929486752487719,0.018452871590852737
0.021296977996826172,0.0006897038547322154,-0.01569480262696743,0.014111371710896492,-0.00021261515212245286,0.018633808940649033
0.021296977996826172,0.0006897038547322154,-0.01569480262696743,0.014111371710896492,-0.00021261515212245286,0.018633808940649033
0.021324925124645233,0.0006381571874953806,-0.015041042119264603,0.01428616140037775,-0.00020510167814791203,0.018423939123749733
0.021873455494642258,0.0007941627991385758,-0.015650039538741112,0.014317141845822334,-0.0002283373469254002,0.018595371395349503
0.021661201491951942,0.0008177838171832263,-0.014729521237313747,0.0141221284866333,-0.00023785320809111,0.018736127763986588
0.021948039531707764,0.0008252859115600586,-0.01551965344697237,0.013816227205097675,-0.00024446871248073876,0.01884138211607933
0.021945668384432793,0.0008368666749447584,-0.01495858933776617,0.013699809089303017,-0.00042848149314522743,0.019483262673020363
0.021868538111448288,0.0010488618863746524,-0.015807706862688065,0.014075788669288158,-0.00047781970351934433,0.019397208467125893
0.022238925099372864,0.001012573717162013,-0.01532898098230362,0.014367328025400639,-0.0004752450331579894,0.018346840515732765
0.02176925539970398,0.0009380108094774187,-0.014703833498060703,0.014161881990730762,-0.00045692987623624504,0.018067844212055206
0.0211955439299345,0.001103393267840147,-0.015399566851556301,0.014261235482990742,-0.0004797082510776818,0.01925007812678814
0.021877087652683258,0.0010833258274942636,-0.015735136345028877,0.01401924155652523,-0.0004565407580230385,0.01901056431233883
0.022833341732621193,0.001066882279701531,-0.015449399128556252,0.014274013228714466,-0.0005722856149077415,0.019202755764126778
0.022361956536769867,0.0012999374885112047,-0.015273756347596645,0.014212626032531261,-0.0005274775321595371,0.019000863656401634
0.021959278732538223,0.0012392225908115506,-0.014920156449079514,0.014585640281438828,-0.0004733744135592133,0.019162727519869804
0.02249809354543686,0.0012175071751698852,-0.01528359018266201,0.014505007304251194,-0.0005078321555629373,0.019343441352248192
0.022810591384768486,0.0015071849338710308,-0.015029734931886196,0.01428115926682949,-0.0005262101767584682,0.020095787942409515
0.02261408418416977,0.001451968215405941,-0.01552245207130909,0.013746039941906929,-0.0005023017874918878,0.019621629267930984
0.022330688312649727,0.001690774573944509,-0.014748839661478996,0.01430518925189972,-0.0005152277299202979,0.019324809312820435
0.022330688312649727,0.001690774573944509,-0.014748839661478996,0.01430518925189972,-0.0005152277299202979,0.019324809312820435
0.02242104895412922,0.0016763042658567429,-0.015536940656602383,0.014343428425490856,-0.000495077227242291,0.019301196560263634
0.022537490352988243,0.0015226752730086446,-0.014769377186894417,0.014600889757275581,-0.000488781719468534,0.019071334972977638
0.022862698882818222,0.0015587892848998308,-0.015050494112074375,0.014160036109387875,-0.0005317653412930667,0.019056471064686775
0.022541631013154984,0.0014896938810124993,-0.014345549046993256,0.0145857073366642,-0.0005663948832079768,0.01946434937417507
0.02248401753604412,0.001618609414435923,-0.015013045631349087,0.014405302703380585,-0.0005950482445769012,0.02027978003025055
0.02261587604880333,0.001661611720919609,-0.014584071934223175,0.014855142682790756,-0.000797059154137969,0.019990703091025352
0.022943604737520218,0.0018284828402101994,-0.015309305861592293,0.01434240210801363,-0.0009835207602009177,0.01945052109658718
0.022984635084867477,0.0018295861082151532,-0.014467211440205574,0.014821916818618774,-0.0009447886259295046,0.0193546824157238
0.022667625918984413,0.001860881457105279,-0.014938675798475742,0.014827273786067963,-0.0008769407286308706,0.01900600828230381
0.022624922916293144,0.0017960068071261048,-0.014689460396766663,0.01506425254046917,-0.0007732814410701394,0.019454145804047585
0.02268805354833603,0.0018211042042821646,-0.014815925620496273,0.01455426961183548,-0.0007733938982710242,0.02012054994702339
0.023109860718250275,0.0016699964180588722,-0.015074684284627438,0.014638759195804596,-0.0006376900128088892,0.019932419061660767
0.022963382303714752,0.0017457031644880772,-0.014989328570663929,0.014912508428096771,-0.0005541977006942034,0.020071692764759064
0.02262985333800316,0.0021121008321642876,-0.015051428228616714,0.015117410570383072,-0.0004930330906063318,0.020013228058815002
0.023146390914916992,0.002059024991467595,-0.014793449081480503,0.015015325509011745,-0.0005266699008643627,0.019586171954870224
0.02347300946712494,0.002090553753077984,-0.015042604878544807,0.015107918530702591,-0.000484727876028046,0.019733717665076256
0.023455899208784103,0.0018379638204351068,-0.014957405626773834,0.015089660882949829,-0.0005090548656880856,0.020222919061779976
0.02262801304459572,0.002016037004068494,-0.014697900973260403,0.014329405501484871,-0.0005122619331814349,0.0188812967389822
0.02308831736445427,0.0020075286738574505,-0.014986864291131496,0.014419187791645527,-0.0005070824990980327,0.019216498360037804
0.023308588191866875,0.00250410963781178,-0.015310615301132202,0.01475431676954031,-0.0005091597558930516,0.019671553745865822
0.02409009449183941,0.002722066594287753,-0.015554055571556091,0.01500795129686594,-0.0004871035343967378,0.01977667026221752
0.02392693981528282,0.0025712077040225267,-0.015172176994383335,0.015365011990070343,-0.0005174388643354177,0.02003781683743
0.023344775661826134,0.0024878401309251785,-0.015859998762607574,0.01480391900986433,-0.0004817013686988503,0.019976813346147537
0.020923029631376266,0.002209455007687211,-0.01478660013526678,0.015315183438360691,-0.0005065018776804209,0.020074641332030296
0.024037158116698265,0.0022137602791190147,-0.015497667714953423,0.01459983829408884,-0.0004768486542161554,0.019853871315717697
0.024090634658932686,0.0024273067247122526,-0.015018696896731853,0.01423997338861227,-0.0004904171801172197,0.020012646913528442
0.024090634658932686,0.0024273067247122526,-0.015018696896731853,0.01423997338861227,-0.0004904171801172197,0.020012646913528442
0.023728221654891968,0.002773683751001954,-0.014507455751299858,0.014145499095320702,-0.000531075696926564,0.020027490332722664
0.023728221654891968,0.002773683751001954,-0.014507455751299858,0.014145499095320702,-0.000531075696926564,0.020027490332722664
0.023483335971832275,0.0025095343589782715,-0.015234770253300667,0.014008923433721066,-0.0005348718841560185,0.020575229078531265
0.023806750774383545,0.0024159748572856188,-0.01500408723950386,0.014874515123665333,-0.0005258629098534584,0.020767858251929283
0.023925280198454857,0.002694173017516732,-0.015569094568490982,0.014424529857933521,-0.00048173690447583795,0.020098133012652397
0.023825010284781456,0.0029659175779670477,-0.015087701380252838,0.014686978422105312,-0.0004965036059729755,0.02037162519991398
0.023121526464819908,0.0029793865978717804,-0.015107490122318268,0.014430452138185501,-0.00047576375072821975,0.020375056192278862
0.023422682657837868,0.0028604059480130672,-0.015152272768318653,0.01472675334662199,-0.00044335966231301427,0.02055186964571476
0.024073077365756035,0.0028570182621479034,-0.015431511215865612,0.014775875955820084,-0.00041425981908105314,0.02017769031226635
0.02389427274465561,0.0028304229490458965,-0.01538575254380703,0.014923629350960255,-0.00044035507016815245,0.020493360236287117
0.023968901485204697,0.0029542965348809958,-0.01536601409316063,0.014733054675161839,-0.000418141862610355,0.020620053634047508
0.023529933765530586,0.003081848379224539,-0.015102226287126541,0.014417987316846848,-0.00038587002200074494,0.020564744248986244
0.023785866796970367,0.003120139706879854,-0.01573314517736435,0.014819368720054626,-0.00039248124812729657,0.02028968557715416
0.024126248434185982,0.003338123206049204,-0.014323326759040356,0.01370447687804699,-0.0003955119173042476,0.02042836882174015
0.023591626435518265,0.003761766478419304,-0.015025906264781952,0.015107504092156887,-0.00042380334343761206,0.020672032609581947
0.023640837520360947,0.0035176551900804043,-0.0148221580311656,0.013617669232189655,-0.00040403055027127266,0.020980769768357277
0.024437781423330307,0.003502938663586974,-0.015040012076497078,0.014046690426766872,-0.0004270880890544504,0.021438943222165108
0.02436361275613308,0.0033275301102548838,-0.014687560498714447,0.014009556733071804,-0.00041032544686459005,0.020217616111040115
0.024188097566366196,0.003370820078998804,-0.015383047983050346,0.014689934439957142,-0.0005709326942451298,0.020474471151828766
0.02427883818745613,0.0031589146237820387,-0.01459075789898634,0.01435844972729683,-0.0005948577309027314,0.020659184083342552
0.024202007800340652,0.003326811594888568,-0.01531800627708435,0.014512017369270325,-0.0005575144314207137,0.021342068910598755
0.02410118654370308,0.0035460060462355614,-0.015099546872079372,0.014172348193824291,-0.0005794528406113386,0.02135087549686432
0.02459838055074215,0.004254661034792662,-0.015083757229149342,0.014413446187973022,-0.0005397507920861244,0.02139946073293686
0.024746185168623924,0.00421898253262043,-0.014862533658742905,0.014233365654945374,-0.0005590692162513733,0.021276891231536865
0.024451417848467827,0.003920276183634996,-0.015140324831008911,0.01442414429038763,-0.0005265556974336505,0.020731987431645393
0.02430972456932068,0.0033524511381983757,-0.014939220622181892,0.01417593751102686,-0.0004911628784611821,0.020283840596675873
0.02430972456932068,0.0033524511381983757,-0.014939220622181892,0.01417593751102686,-0.0004911628784611821,0.020283840596675873
0.024636173620820045,0.004217298235744238,-0.015122739598155022,0.014439833350479603,-0.0004574785998556763,0.021074483171105385
0.024471480399370193,0.004219669383019209,-0.015169523656368256,0.01446702890098095,-0.0004872615390922874,0.021405726671218872
0.024471480399370193,0.004219669383019209,-0.015169523656368256,0.01446702890098095,-0.0004872615390922874,0.021405726671218872
0.02483455277979374,0.003949422854930162,-0.015416049398481846,0.014341682195663452,-0.00045585623593069613,0.021135320886969566
0.025432629510760307,0.003836221294477582,-0.015291395597159863,0.01449029240757227,-0.0004209312901366502,0.021380338817834854
0.025362703949213028,0.003961906768381596,-0.015362417325377464,0.014665334485471249,-0.0004467042163014412,0.02138509415090084
0.025289755314588547,0.004442108329385519,-0.014983909204602242,0.014960725791752338,-0.00042427246808074415,0.021318532526493073
0.025024205446243286,0.004089140798896551,-0.015754420310258865,0.014177817851305008,-0.00042560798465274274,0.021114209666848183
0.02477300353348255,0.0038439577911049128,-0.015100476332008839,0.014446352608501911,-0.0004259039706084877,0.020857157185673714
0.02520337700843811,0.00383642315864563,-0.015382434241473675,0.014599335379898548,-0.0004050983989145607,0.020658185705542564
0.025682324543595314,0.004213016014546156,-0.014989279210567474,0.01450919359922409,-0.0004501685325521976,0.020893527194857597
0.025712111964821815,0.0040091248229146,-0.014605534262955189,0.01485640462487936,-0.00045829941518604755,0.021569501608610153
0.02579672448337078,0.004039652179926634,-0.015084078535437584,0.014436752535402775,-0.00045692772255279124,0.02165903151035309
0.025834452360868454,0.00409362930804491,-0.014436818659305573,0.0147390840575099,-0.00048483675345778465,0.021520426496863365
0.025006983429193497,0.0039559947326779366,-0.014966234564781189,0.014263502322137356,-0.0005994414095766842,0.021641749888658524
0.024152060970664024,0.003786947578191757,-0.014635907486081123,0.014321478083729744,-0.0007081936928443611,0.021562224254012108
0.024713927879929543,0.004243670031428337,-0.01599707268178463,0.014197609387338161,-0.0006823654985055327,0.021097714081406593
0.025715414434671402,0.004129432607442141,-0.015766793861985207,0.015050608664751053,-0.0006967082154005766,0.021408945322036743
0.02512712962925434,0.004016039427369833,-0.01563129387795925,0.015077240765094757,-0.000638142810203135,0.02105305902659893
0.025166450068354607,0.003965866286307573,-0.015832440927624702,0.016067953780293465,-0.0006200881907716393,0.021161844953894615
0.026245182380080223,0.004410977475345135,-0.015685366466641426,0.015454402193427086,-0.0006042738677933812,0.02125490829348564
0.026244191452860832,0.0045972480438649654,-0.015826117247343063,0.015130061656236649,-0.0005630113882943988,0.02132928930222988
0.025053909048438072,0.0044433982111513615,-0.01554782222956419,0.014461824670433998,-0.0005473727360367775,0.021605931222438812
0.025350909680128098,0.004334398545324802,-0.01605587638914585,0.01413592230528593,-0.0005820994847454131,0.02184320241212845
0.024945709854364395,0.004366958048194647,-0.015726648271083832,0.013547551818192005,-0.0005957403336651623,0.021775657311081886
