davideferrari95/blind_handover_controller/data/Test 102 - [2024-02-07 -- 16-19-46]/joint_states_data.csv
shoulder_pan_joint,shoulder_lift_joint,elbow_joint,wrist_1_joint,wrist_2_joint,wrist_3_joint
0.00534075079485774,-0.011409937404096127,-0.02895006164908409,0.04295653477311134,-0.003741211723536253,0.006183965597301722
0.00534075079485774,-0.011409937404096127,-0.02895006164908409,0.04295653477311134,-0.003741211723536253,0.006183965597301722
0.005028375890105963,-0.011589720845222473,-0.027985643595457077,0.04304509982466698,-0.0034825170878320932,0.006324160378426313
0.005636742804199457,-0.011251966468989849,-0.027994325384497643,0.04258360713720322,-0.0032610190100967884,0.006733725778758526
0.005408552475273609,-0.011369537562131882,-0.028871875256299973,0.04261744022369385,-0.0029344481881707907,0.0067911939695477486
0.005387425422668457,-0.011764970608055592,-0.027547014877200127,0.04195879027247429,-0.0032203637529164553,0.00638683931902051
0.005182929337024689,-0.011592632159590721,-0.02686399221420288,0.04138825833797455,-0.0034202549140900373,0.00609483802691102
0.004849934484809637,-0.011526432819664478,-0.02649747021496296,0.041611991822719574,-0.0033975508995354176,0.006483478005975485
0.004814980085939169,-0.01143812295049429,-0.027127135545015335,0.041112057864665985,-0.0030835443176329136,0.006401559337973595
0.005368128418922424,-0.011033990420401096,-0.027675824239850044,0.04202410578727722,-0.002925742184743285,0.00656580924987793
0.005215041805058718,-0.010602056048810482,-0.02704143524169922,0.041240449994802475,-0.002685593208298087,0.006774378940463066
0.005170132964849472,-0.010095719248056412,-0.026892157271504402,0.042385000735521317,-0.0028852331452071667,0.006007246673107147
0.005346242804080248,-0.010855665430426598,-0.02729019522666931,0.043609440326690674,-0.0027951837982982397,0.006021131295710802
0.005579858552664518,-0.010748548433184624,-0.027035318315029144,0.04087101295590401,-0.0032588213216513395,0.006268914323300123
0.005318497307598591,-0.010565141215920448,-0.027038749307394028,0.040382809937000275,-0.003032198641449213,0.006414799485355616
0.005126231350004673,-0.010993561707437038,-0.027106205001473427,0.040651530027389526,-0.0026616104878485203,0.0062365224584937096
0.005126231350004673,-0.010993561707437038,-0.027106205001473427,0.040651530027389526,-0.0026616104878485203,0.0062365224584937096
0.005717893596738577,-0.010724686086177826,-0.026429416611790657,0.04120258241891861,-0.002120792167261243,0.005967501550912857
0.004948078654706478,-0.010846992954611778,-0.02732023224234581,0.040064916014671326,-0.0019091777503490448,0.0061888364143669605
0.004948078654706478,-0.010846992954611778,-0.02732023224234581,0.040064916014671326,-0.0019091777503490448,0.0061888364143669605
0.004735838156193495,-0.010654857382178307,-0.02700713276863098,0.038798652589321136,-0.0020726777147501707,0.006195657420903444
0.00480255950242281,-0.010851852595806122,-0.026409083977341652,0.03981402516365051,-0.00268855900503695,0.0059731099754571915
0.005709211807698011,-0.010470610111951828,-0.026632187888026237,0.040020447224378586,-0.002841948764398694,0.0060806055553257465
0.005275157280266285,-0.010397274978458881,-0.026079285889863968,0.03853750601410866,-0.0028250182513147593,0.005660222377628088
0.004963621497154236,-0.01031164824962616,-0.02615216188132763,0.03967906907200813,-0.002899343380704522,0.005886005703359842
0.005118774715811014,-0.010731816291809082,-0.026272691786289215,0.03908269852399826,-0.0029876616317778826,0.006049643736332655
0.005034095142036676,-0.011185042560100555,-0.026388227939605713,0.03842601180076599,-0.0027645553927868605,0.00623862212523818
0.005452064797282219,-0.009773085825145245,-0.026227956637740135,0.03954635187983513,-0.0017860772786661983,0.005683607421815395
0.005035482347011566,-0.010310376062989235,-0.026530388742685318,0.03922402113676071,-0.0017401647055521607,0.0057798270136117935
0.0051183924078941345,-0.01017436757683754,-0.027798477560281754,0.03773410618305206,-0.0021370763424783945,0.005956785287708044
0.005048962309956551,-0.009774824604392052,-0.027173424139618874,0.038150008767843246,-0.0031015542335808277,0.005988151766359806
0.005309817846864462,-0.010404909029603004,-0.02589154988527298,0.038317739963531494,-0.0031913984566926956,0.005612940061837435
0.005461577791720629,-0.010094708763062954,-0.025196745991706848,0.03933337330818176,-0.002913376549258828,0.0059701912105083466
0.005527022294700146,-0.009763051755726337,-0.0261626448482275,0.03940511494874954,-0.0023865466937422752,0.006223416421562433
0.00577507633715868,-0.010845240205526352,-0.026891618967056274,0.03819270804524422,-0.0021948327776044607,0.0060583604499697685
0.005310909356921911,-0.010029738768935204,-0.025637857615947723,0.03753381222486496,-0.0019935693126171827,0.006099301856011152
0.00513955345377326,-0.009847600944340229,-0.025987308472394943,0.03880079835653305,-0.0019653949420899153,0.005687554366886616
0.005104994401335716,-0.010481119155883789,-0.027166781947016716,0.03898479789495468,-0.0024428905453532934,0.00567278079688549
0.005813262425363064,-0.01000326219946146,-0.02605016715824604,0.03812221810221672,-0.002825718140229583,0.00548468017950654
0.005641165189445019,-0.009772175922989845,-0.0267401821911335,0.03759108856320381,-0.0026188043411821127,0.005890004802495241
0.005652819760143757,-0.010138948448002338,-0.02579595521092415,0.037165507674217224,-0.0022922309581190348,0.0056518809869885445
0.005213638301938772,-0.009922531433403492,-0.025499848648905754,0.03740088269114494,-0.0019290397176519036,0.005664915312081575
0.005894397851079702,-0.010783051140606403,-0.026644336059689522,0.03713162988424301,-0.001550953253172338,0.0055245584808290005
0.00570813100785017,-0.011306836269795895,-0.0266414824873209,0.037108223885297775,-0.0014972822973504663,0.0054650623351335526
0.00570813100785017,-0.011306836269795895,-0.0266414824873209,0.037108223885297775,-0.0014972822973504663,0.0054650623351335526
0.005758349318057299,-0.009987229481339455,-0.025633960962295532,0.036995645612478256,-0.0014366640243679285,0.00526695791631937
0.005579921416938305,-0.009927958250045776,-0.025394199416041374,0.03757008910179138,-0.0018299231305718422,0.005422763526439667
0.00553800817579031,-0.01051713339984417,-0.02568458765745163,0.037634171545505524,-0.0019190057646483183,0.005328115075826645
0.005204957909882069,-0.010341241024434566,-0.02567513845860958,0.0366583950817585,-0.0019430556567385793,0.005483539775013924
0.005674203857779503,-0.0100172720849514,-0.025572579354047775,0.03609384968876839,-0.0018118438310921192,0.005330732092261314
0.00545820128172636,-0.010863935574889183,-0.02564246580004692,0.036406535655260086,-0.0018388171447440982,0.005761964712291956
0.005772185977548361,-0.01051757950335741,-0.02560487575829029,0.036245234310626984,-0.001729369512759149,0.0055282884277403355
0.005369116086512804,-0.010074186138808727,-0.025629885494709015,0.03658025711774826,-0.0019078487530350685,0.005384323187172413
0.005461313761770725,-0.010635683313012123,-0.02517048269510269,0.03602837771177292,-0.0018441483844071627,0.004894096404314041
0.005461313761770725,-0.010635683313012123,-0.02517048269510269,0.03602837771177292,-0.0018441483844071627,0.004894096404314041
0.005690420046448708,-0.01042122021317482,-0.024926716461777687,0.03573494404554367,-0.0015955910785123706,0.004999592900276184
0.005989922676235437,-0.010010435245931149,-0.025192510336637497,0.035830359905958176,-0.0016202130354940891,0.005051551386713982
0.005409691482782364,-0.010542047210037708,-0.025432676076889038,0.035906437784433365,-0.00153472856618464,0.005569515749812126
0.00507731270045042,-0.010803841054439545,-0.025601455941796303,0.03550826385617256,-0.0017337946919724345,0.004811284132301807
0.005753092467784882,-0.010486775077879429,-0.025318890810012817,0.035253483802080154,-0.0016315850662067533,0.0045824116095900536
0.005809360183775425,-0.010620053857564926,-0.02503805421292782,0.03462588042020798,-0.0014678322477266192,0.004431894049048424
0.00578347546979785,-0.010074355639517307,-0.024725310504436493,0.03600972890853882,-0.001343312207609415,0.004741956479847431
0.005570170935243368,-0.0104908412322402,-0.024315224960446358,0.03588755428791046,-0.0011837207712233067,0.00495898025110364
0.005744241643697023,-0.010976242832839489,-0.02476661279797554,0.035306166857481,-0.0011309440014883876,0.005144251510500908
0.005352551583200693,-0.009891985915601254,-0.025033360347151756,0.034599412232637405,-0.001046665827743709,0.0049028554931283
0.00592403719201684,-0.010229232721030712,-0.024939468130469322,0.034475259482860565,-0.0009683869429863989,0.0047824205830693245
0.0062856776639819145,-0.010708274319767952,-0.02447325363755226,0.034291915595531464,-0.0009728419245220721,0.004734734073281288
0.005740492604672909,-0.010401342995464802,-0.024628009647130966,0.03512955084443092,-0.001209700363688171,0.0045166900381445885
0.005786445457488298,-0.011153106577694416,-0.02426885813474655,0.03447333350777626,-0.0014441690873354673,0.00455815065652132
0.005786445457488298,-0.011153106577694416,-0.02426885813474655,0.03447333350777626,-0.0014441690873354673,0.00455815065652132
0.005774821154773235,-0.010295289568603039,-0.0240080114454031,0.03280653804540634,-0.0014132641954347491,0.00489494064822793
0.006155308336019516,-0.0100184865295887,-0.024159720167517662,0.033728983253240585,-0.0013842344051226974,0.00456315279006958
0.00589550007134676,-0.010689938440918922,-0.02458679862320423,0.03452157601714134,-0.0013202186673879623,0.0045092422515153885
0.0058312686160206795,-0.010561749339103699,-0.024029821157455444,0.03408241644501686,-0.0013231381308287382,0.004263786599040031
0.006117339711636305,-0.010262635536491871,-0.02400292456150055,0.03470999002456665,-0.0011880402453243732,0.004399923142045736
0.005546046420931816,-0.010610466822981834,-0.025055481120944023,0.03500932827591896,-0.001021728035993874,0.004481431096792221
0.00609626667574048,-0.01079833135008812,-0.02505670115351677,0.03314549848437309,-0.0009929097723215818,0.0042993794195353985
0.00594215327873826,-0.01033054944127798,-0.02423679456114769,0.032755933701992035,-0.0009776195511221886,0.0044641983695328236
0.006213941145688295,-0.010861804708838463,-0.02390129677951336,0.03414555639028549,-0.0009668699349276721,0.0045591010712087154
0.006302282214164734,-0.010113287717103958,-0.02417897991836071,0.0341188944876194,-0.0009420585120096803,0.004277450032532215
0.005830372683703899,-0.010231591761112213,-0.02470616064965725,0.03357132524251938,-0.0009094832348637283,0.004428028594702482
0.006542198359966278,-0.010039828717708588,-0.024411074817180634,0.03376729413866997,-0.0008085843874141574,0.004536801483482122
0.006646832451224327,-0.009904764592647552,-0.023867130279541016,0.033860184252262115,-0.0008137783734127879,0.004177368711680174
0.0059191277250647545,-0.010546799749135971,-0.025329379364848137,0.03387579694390297,-0.0007699723355472088,0.00470639718696475
0.005922566168010235,-0.009717105887830257,-0.02487669326364994,0.033826831728219986,-0.0006810523336753249,0.004538906272500753
0.006244360003620386,-0.010226015001535416,-0.02472805790603161,0.03454510495066643,-0.0005929110338911414,0.004214678891003132
0.006573444698005915,-0.009929949417710304,-0.023948263376951218,0.033608634024858475,-0.0006137780728749931,0.003997070249170065
0.005930029321461916,-0.010057607665657997,-0.023730443790555,0.03245391324162483,-0.000607105961535126,0.004274129867553711
0.0058408454060554504,-0.009941954165697098,-0.02293996512889862,0.03310230374336243,-0.0005914574139751494,0.004403902217745781
0.005906585603952408,-0.009986530058085918,-0.0243748240172863,0.03322426229715347,-0.0006152095156721771,0.004346741829067469
0.006281452719122171,-0.009863588027656078,-0.02444981411099434,0.0326056107878685,-0.0006066958303563297,0.004564040340483189
0.006659653969109058,-0.010166759602725506,-0.024556200951337814,0.03502075374126434,-0.0005479552200995386,0.004504767246544361
0.006045273505151272,-0.00999670010060072,-0.02465749718248844,0.03396490216255188,-0.000489273457787931,0.004214757587760687
0.005954165477305651,-0.010050898417830467,-0.023734956979751587,0.033221665769815445,-0.0005058205570094287,0.004258960951119661
0.006151178851723671,-0.010954460129141808,-0.023297255858778954,0.032022055238485336,-0.0004806495562661439,0.004036630038172007
0.006193256005644798,-0.010097621940076351,-0.023700561374425888,0.03254927694797516,-0.0004425309889484197,0.004160886164754629
0.005829195957630873,-0.009638050571084023,-0.02364075556397438,0.03238155320286751,-0.0004090634174644947,0.004227548837661743
0.005457178223878145,-0.010219035670161247,-0.023800702765583992,0.032159458845853806,-0.00043916451977565885,0.004078098572790623
0.005718357395380735,-0.010434150695800781,-0.023997953161597252,0.03198293223977089,-0.00041412661084905267,0.0038454208988696337
0.005865194834768772,-0.009993675164878368,-0.023562036454677582,0.032052602618932724,-0.0004404882784001529,0.00399717828258872
0.005865194834768772,-0.009993675164878368,-0.023562036454677582,0.032052602618932724,-0.0004404882784001529,0.00399717828258872
0.006079231854528189,-0.009428482502698898,-0.02343977615237236,0.03203752636909485,-0.0004105507687199861,0.0041002389043569565
0.006079231854528189,-0.009428482502698898,-0.02343977615237236,0.03203752636909485,-0.0004105507687199861,0.0041002389043569565
0.005542121361941099,-0.010999641381204128,-0.0234664473682642,0.03174256160855293,-0.0003636790788732469,0.004128722473978996
0.005837046075612307,-0.010550270788371563,-0.023457711562514305,0.03224469721317291,-0.00033563197939656675,0.003955898340791464
0.005945852492004633,-0.009240100160241127,-0.02320004254579544,0.0320679247379303,-0.0003662051458377391,0.0038331258110702038
0.006687861401587725,-0.00945869367569685,-0.023098178207874298,0.03206230700016022,-0.0003498284495435655,0.0037814220413565636
0.006184452213346958,-0.010841185227036476,-0.023647448047995567,0.03182373568415642,-0.00037640126538462937,0.003774891374632716
0.005529423709958792,-0.009560760110616684,-0.023756330832839012,0.03205951675772667,-0.00039940644637681544,0.003842035075649619
0.005830234847962856,-0.009688673540949821,-0.023394476622343063,0.031965576112270355,-0.0003901064919773489,0.0042974818497896194
0.005548432935029268,-0.009601029567420483,-0.022801728919148445,0.032407596707344055,-0.0003728772862814367,0.004150263965129852
0.006437868345528841,-0.009177061729133129,-0.022803669795393944,0.03246290981769562,-0.0004885803209617734,0.0038458574563264847
0.0058902413584291935,-0.009863906539976597,-0.023391397669911385,0.03236792981624603,-0.0004899846971966326,0.003694643499329686
0.005463787354528904,-0.009594897739589214,-0.023767860606312752,0.032300859689712524,-0.00045044958824291825,0.0037667450960725546
0.005498690064996481,-0.009562640450894833,-0.02386857569217682,0.032295189797878265,-0.000475624343380332,0.003747903509065509
0.00614836486056447,-0.009672051295638084,-0.022991297766566277,0.03219013288617134,-0.0004498003690969199,0.0037087765522301197
0.006223627831786871,-0.009383050724864006,-0.023092569783329964,0.030742883682250977,-0.000449482467956841,0.004156068898737431
0.006068446207791567,-0.009907289408147335,-0.022533876821398735,0.031912922859191895,-0.00044831648119725287,0.0036612495314329863
0.00613515404984355,-0.009459633380174637,-0.022791599854826927,0.031832363456487656,-0.0004236810200382024,0.0035433736629784107
0.005718102678656578,-0.009193881414830685,-0.023196009919047356,0.031846191734075546,-0.00040023456676863134,0.003635483793914318
0.0065542710945010185,-0.00939225871115923,-0.02336694300174713,0.0317000150680542,-0.00040039431769400835,0.0038275497499853373
0.006843114737421274,-0.009290801361203194,-0.02263832278549671,0.032077692449092865,-0.00037579788477160037,0.0039189523085951805
0.00624065101146698,-0.008976168930530548,-0.02283138409256935,0.032459959387779236,-0.0003473474062047899,0.003470459720119834
0.0057298410683870316,-0.009340616874396801,-0.02380899339914322,0.03214063122868538,-0.00032247614581137896,0.003374799620360136
0.005943989381194115,-0.009548698551952839,-0.02358490414917469,0.03157810494303703,-0.00035289471270516515,0.0032992209307849407
0.006667475216090679,-0.009089797735214233,-0.022832578048110008,0.03162609413266182,-0.000337903737090528,0.0034748257603496313
0.0066297538578510284,-0.009203553199768066,-0.02296188473701477,0.031109727919101715,-0.00031843301258049905,0.0036803956609219313
0.006441825535148382,-0.009524735622107983,-0.022943079471588135,0.03086383268237114,-0.0003007225750479847,0.003795256605371833
0.00619896175339818,-0.008869447745382786,-0.022858627140522003,0.030958501622080803,-0.0002848551084753126,0.003951495047658682
0.00619896175339818,-0.008869447745382786,-0.022858627140522003,0.030958501622080803,-0.0002848551084753126,0.003951495047658682
0.00619896175339818,-0.008869447745382786,-0.022858627140522003,0.030958501622080803,-0.0002848551084753126,0.003951495047658682
0.006899014115333557,-0.009136298671364784,-0.022986996918916702,0.032315462827682495,-0.0002998342679347843,0.003972793463617563
0.0068684788420796394,-0.009329770691692829,-0.022770492359995842,0.03139456734061241,-0.0002868615265469998,0.00350634241476655
0.007212523836642504,-0.008902695029973984,-0.02312496304512024,0.030588950961828232,-0.0002744087250903249,0.003549024695530534
0.007065046112984419,-0.009380031377077103,-0.023463493213057518,0.03237074241042137,-0.00026295578572899103,0.003757356433197856
0.007423133123666048,-0.010207943618297577,-0.023340091109275818,0.032570164650678635,-0.0002524178707972169,0.003616433357819915
0.006666786503046751,-0.008824983611702919,-0.022630417719483376,0.03171023726463318,-0.00024269233108498156,0.0028522214852273464
0.006388280540704727,-0.009230978786945343,-0.02253684028983116,0.03238385543227196,-0.00023368853726424277,0.0029178799595683813
0.006646010093390942,-0.009162438102066517,-0.022532276809215546,0.0325796902179718,-0.00022532894217874855,0.0034654787741601467
0.0074548558332026005,-0.00913956854492426,-0.022751709446310997,0.031345903873443604,-0.0002175470144720748,0.003268652129918337
0.006726427935063839,-0.009159055538475513,-0.022604238241910934,0.031607020646333694,-0.00023242940369527787,0.00322504504583776
0.006673671770840883,-0.008805504068732262,-0.02241259254515171,0.030570905655622482,-0.00022527571127284318,0.0030212299898266792
0.006745260674506426,-0.008632522076368332,-0.022952379658818245,0.032537419348955154,-0.0002184477634727955,0.0030043816659599543
0.006956927478313446,-0.009529019705951214,-0.022796858102083206,0.03192669153213501,-0.00021201519120950252,0.0030672289431095123
0.00676800636574626,-0.009323499165475368,-0.02197062410414219,0.031473319977521896,-0.0002059500548057258,0.002834926126524806
0.006457587704062462,-0.009094181470572948,-0.02198982797563076,0.030872104689478874,-0.00020022263925056905,0.002838416025042534
0.006395431235432625,-0.0089104687795043,-0.022449970245361328,0.03099304623901844,-0.00019480478658806533,0.0029077648650854826
0.008027865551412106,-0.008885166607797146,-0.02251099795103073,0.03082481026649475,-0.00018967273354064673,0.003111017169430852
0.006917155813425779,-0.008522801101207733,-0.02222253382205963,0.030295414850115776,-0.00018480407015886158,0.0031603313982486725
0.006909764837473631,-0.00881229154765606,-0.021757036447525024,0.030519193038344383,-0.00018017920956481248,0.0029679746367037296
0.006924768444150686,-0.00921512022614479,-0.02173825539648533,0.03183428943157196,-0.00017578009283170104,0.002698802389204502
0.007643564138561487,-0.008760434575378895,-0.02219250611960888,0.03175647556781769,-0.0001715906400931999,0.0024311889428645372
0.007643564138561487,-0.008760434575378895,-0.02219250611960888,0.03175647556781769,-0.0001715906400931999,0.0024311889428645372
0.006829415913671255,-0.00920194387435913,-0.022260816767811775,0.0306773129850626,-0.00016759627033025026,0.0023141964338719845
0.0070365904830396175,-0.009180030785501003,-0.021704327315092087,0.02962378039956093,-0.0001637836394365877,0.0025293054059147835
0.006959785241633654,-0.009551998227834702,-0.021520430222153664,0.030620088800787926,-0.00016014058201108128,0.0030172080732882023
0.0073312558233737946,-0.008710906840860844,-0.021745074540376663,0.030954275280237198,-0.00015665627142880112,0.003111103782430291
0.007580379489809275,-0.00874088704586029,-0.021818265318870544,0.03066026046872139,-0.0001533202303107828,0.003002038924023509
0.007391397375613451,-0.008998994715511799,-0.021447312086820602,0.03151429817080498,-0.00015012329095043242,0.002788850339129567
0.0067471968941390514,-0.00894459243863821,-0.02183125913143158,0.030881309881806374,-0.00014705699868500233,0.0028463779017329216
0.006972224451601505,-0.008945664390921593,-0.021763069555163383,0.03016449138522148,-0.00014411352458409965,0.002699978882446885
0.007560931611806154,-0.00903590489178896,-0.021294213831424713,0.02863439731299877,-0.00014128551993053406,0.0025596972554922104
0.007506952621042728,-0.0090971440076828,-0.02123563177883625,0.02988940104842186,-0.00013856639270670712,0.0024503956083208323
0.007001300808042288,-0.008537933230400085,-0.021673187613487244,0.03066701628267765,-0.0001359498710371554,0.0024307200219482183
0.007281927857547998,-0.008821550756692886,-0.022349480539560318,0.030277060344815254,-0.00013343036698643118,0.0024672041181474924
0.007798898499459028,-0.0090332617983222,-0.021831734105944633,0.03050859458744526,-0.0001310025982093066,0.0027845336589962244
0.007231248542666435,-0.00893353670835495,-0.021043073385953903,0.028905754908919334,-0.00012640281056519598,0.0028111282736063004
0.007267159875482321,-0.008913526311516762,-0.021371494978666306,0.030607489868998528,-0.000124222002341412,0.0025177530478686094
0.0073412214405834675,-0.009074259549379349,-0.02182585373520851,0.029963219538331032,-0.00012211505963932723,0.0024829620961099863
0.007662748917937279,-0.009107643738389015,-0.021549668163061142,0.030020322650671005,-0.00012007851182715967,0.0024037370458245277
0.007304193917661905,-0.008954783901572227,-0.020663708448410034,0.030134404078125954,-0.00011810864816652611,0.00252750632353127
0.007508928421884775,-0.008961046114563942,-0.02147250808775425,0.030037516728043556,-0.00011620253644650802,0.0026168967597186565
0.007452844176441431,-0.009146535769104958,-0.021467581391334534,0.030212605372071266,-0.00011435689521022141,0.0023634308017790318
0.0075511024333536625,-0.00937156192958355,-0.021056827157735825,0.029743624851107597,-0.00011256893776590005,0.0023118131794035435
0.008183742873370647,-0.009052076376974583,-0.021251333877444267,0.029883937910199165,-0.00011083601566497236,0.0021198128815740347
0.008550496771931648,-0.009184315800666809,-0.021525057032704353,0.029953384771943092,-0.00010915572784142569,0.00219660229049623
0.007884352467954159,-0.009491470642387867,-0.020434526726603508,0.029678722843527794,-0.00010752554953796789,0.0023110234178602695
0.007837180979549885,-0.009828019887208939,-0.02046838216483593,0.029822146520018578,-0.00010594339983072132,0.002249682554975152
0.007655991706997156,-0.009218837134540081,-0.020549483597278595,0.02944842167198658,-0.00010440714686410502,0.0024550866801291704
0.007955305278301239,-0.009569903835654259,-0.021087612956762314,0.029341064393520355,-0.00010291476064594463,0.0024663538206368685
0.00770199578255415,-0.009252640418708324,-0.020330585539340973,0.029468059539794922,-0.00010146446584258229,0.0023347758688032627
0.007535533048212528,-0.00928703136742115,-0.020470555871725082,0.029817888513207436,-0.00010005445801652968,0.002255999715998769
0.008171170949935913,-0.009362260811030865,-0.020728260278701782,0.029684944078326225,-9.868308552540839e-05,0.002181354211643338
0.008367578499019146,-0.009022146463394165,-0.020715096965432167,0.029595453292131424,-9.734884224599227e-05,0.002201454248279333
0.007957881316542625,-0.00930041540414095,-0.020310401916503906,0.029554974287748337,-9.605020750313997e-05,0.002010681899264455
0.007812412455677986,-0.009561194106936455,-0.020602727308869362,0.029497873038053513,-9.478573338128626e-05,0.0020477373618632555
0.007812412455677986,-0.009561194106936455,-0.020602727308869362,0.029497873038053513,-9.478573338128626e-05,0.0020477373618632555
0.008056203834712505,-0.008997510187327862,-0.02089769020676613,0.02941492199897766,-9.355412475997582e-05,0.0020766824018210173
0.00789841078221798,-0.009202409535646439,-0.020498478785157204,0.0292140431702137,-9.235414472641423e-05,0.002095130505040288
0.00805623084306717,-0.010363231413066387,-0.020535936579108238,0.029376331716775894,-9.118444722844288e-05,0.0019654459320008755
0.008186746388673782,-0.009034864604473114,-0.02094458043575287,0.029727919027209282,-9.004415187519044e-05,0.0020723328925669193
0.007917733862996101,-0.008607372641563416,-0.02082257717847824,0.029556557536125183,-8.893195627024397e-05,0.002097036922350526
0.008408332243561745,-0.009147620759904385,-0.020182237029075623,0.029663171619176865,-8.784692181507125e-05,0.0018872758373618126
0.00795700866729021,-0.009153825230896473,-0.02066299505531788,0.02980668470263481,-8.678801532369107e-05,0.0019883231725543737
0.008844799362123013,-0.008868919685482979,-0.020782338455319405,0.03051125258207321,-8.575437823310494e-05,0.0018477336270734668
0.008262029848992825,-0.009247448295354843,-0.020320717245340347,0.030192578211426735,-8.474504284095019e-05,0.0018047010526061058
0.008428797125816345,-0.00962406862527132,-0.02032969519495964,0.029446139931678772,-8.375917241210118e-05,0.0018608460668474436
0.008931136690080166,-0.008799624629318714,-0.021708521991968155,0.03095657005906105,-8.185471233446151e-05,0.0016356862615793943
0.008097058162093163,-0.009406233206391335,-0.021073156967759132,0.029268113896250725,-8.093461656244472e-05,0.0016150125302374363
0.008062660694122314,-0.008616658858954906,-0.02097991853952408,0.028551606461405754,-8.003498805919662e-05,0.0016750380164012313
0.008095864206552505,-0.008879582397639751,-0.0210124459117651,0.029067205265164375,-2.0337871319497935e-05,0.0016266973689198494
0.009064328856766224,-0.009328634478151798,-0.020744366571307182,0.02956254594027996,-1.3279176300784457e-06,0.001682362286373973
0.008556150831282139,-0.008901105262339115,-0.020751221105456352,0.029177730903029442,-8.670352258377534e-08,0.001816229079850018
0.008229400962591171,-0.00891847163438797,-0.02110361121594906,0.029385145753622055,-5.6611209053869516e-09,0.0018044175812974572
0.009181658737361431,-0.009006315842270851,-0.021381739526987076,0.02904835157096386,-3.6963077043594694e-10,0.0017971688648685813
0.00894789770245552,-0.009264949709177017,-0.021013647317886353,0.029150908812880516,-2.413424494973615e-11,0.001653161714784801
0.008757599629461765,-0.008587824180722237,-0.02107723243534565,0.0279840100556612,-1.5757936405388917e-12,0.001407779287546873
0.008483837358653545,-0.008762667886912823,-0.02125430665910244,0.027606595307588577,-1.02888062110916e-13,0.0014485508436337113
0.008404669351875782,-0.00917175691574812,-0.02100304514169693,0.028476282954216003,-6.717855574123535e-15,0.0013990103034302592
0.008701746352016926,-0.008448224514722824,-0.020786983892321587,0.028895119205117226,-4.386279649226405e-16,0.001639244845137
0.008532444015145302,-0.008405455388128757,-0.020990390330553055,0.028318220749497414,-2.8639275825076464e-17,0.0015905362088233232
0.008873717859387398,-0.009034732356667519,-0.02187090367078781,0.028192099183797836,-1.8699400023738597e-18,0.0017114346846938133
0.008925761096179485,-0.008626380935311317,-0.021543141454458237,0.02827255241572857,-1.2209371956920513e-19,0.001572528388351202
0.008925761096179485,-0.008626380935311317,-0.021543141454458237,0.02827255241572857,-1.2209371956920513e-19,0.001572528388351202
0.008491335436701775,-0.008947255089879036,-0.02093455195426941,0.027729785069823265,-7.971847332522534e-21,0.0014517424860969186
0.00908962544053793,-0.008667168207466602,-0.020453203469514847,0.027480216696858406,-5.2050471311353895e-22,0.0013124898541718721
0.008953839540481567,-0.008584202267229557,-0.020960336551070213,0.027634287253022194,-3.398523535763212e-23,0.0012265564873814583
0.008758222684264183,-0.009490191005170345,-0.02156166546046734,0.028023425489664078,-2.2189929539681996e-24,0.0012085858033969998
0.008680186234414577,-0.008844238705933094,-0.02154427394270897,0.0281323604285717,-1.4488440019823532e-25,0.001293528825044632
0.009420912712812424,-0.00919335801154375,-0.020680168643593788,0.028514234349131584,-1.4458338227996137e-05,0.0013010952388867736
0.008951537311077118,-0.00852561742067337,-0.02113787643611431,0.028282277286052704,-9.440261692361673e-07,0.0012567468220368028
0.008692924864590168,-0.008358717896044254,-0.0211518332362175,0.029159678146243095,-6.163816124171717e-08,0.0012685884721577168
0.008492077700793743,-0.008731338195502758,-0.021890966221690178,0.02946387603878975,-4.024531374824392e-09,0.0012083288747817278
0.008635657839477062,-0.008239483460783958,-0.021155819296836853,0.02905048429965973,-2.627731365834052e-10,0.001140425680205226
0.008631167002022266,-0.006314930971711874,-0.021107029169797897,0.028368420898914337,-1.7157206211315668e-11,0.0011019367957487702
0.008744293823838234,-0.008447487838566303,-0.02104715257883072,0.02706565521657467,-7.314385642304133e-14,0.0010330334771424532
0.008828172460198402,-0.007722063921391964,-0.020905615761876106,0.027934446930885315,-4.775771656395297e-15,0.001052048639394343
0.008795018307864666,-0.007278548087924719,-0.021117914468050003,0.027830583974719048,-3.1182374458688274e-16,0.0012164822546765208
0.008914156816899776,-0.007349805440753698,-0.02125638537108898,0.02755172736942768,-2.0359864600994375e-17,0.0013245802838355303
0.009067310020327568,-0.007899310439825058,-0.02136518433690071,0.02895563840866089,-1.3293535872302687e-18,0.0012569156242534518
0.00883735902607441,-0.007383929565548897,-0.021459126845002174,0.028448769822716713,-8.679728952141095e-20,0.0011422710958868265
0.00898649450391531,-0.007359429262578487,-0.02080322802066803,0.027368715032935143,-5.6672429821802384e-21,0.0010078134946525097
0.009150826372206211,-0.007884921506047249,-0.02085660770535469,0.027083279564976692,-3.7003049256281515e-22,0.0009819278493523598
0.009194307960569859,-0.007849791087210178,-0.021391473710536957,0.027345189824700356,-2.416034512545168e-23,0.0009588420507498085
0.009377527050673962,-0.007320886943489313,-0.02124026231467724,0.028482289984822273,-1.577497872552554e-24,0.0009343954734504223
0.009238485246896744,-0.007163605652749538,-0.020644476637244225,0.028250709176063538,-1.0299933739745993e-25,0.0008832818130031228
0.009238485246896744,-0.007163605652749538,-0.020644476637244225,0.028250709176063538,-1.0299933739745993e-25,0.0008832818130031228
0.009284334257245064,-0.008117767050862312,-0.02112298458814621,0.028050070628523827,-4.391023013740706e-28,0.000848344643600285
0.009813406504690647,-0.007150392513722181,-0.02112547494471073,0.028112657368183136,-2.8670244774295677e-29,0.0008548640762455761
0.009201856330037117,-0.00665330421179533,-0.0209508053958416,0.027796505019068718,-1.871961964305956e-30,0.000811164325568825
0.009201856330037117,-0.00665330421179533,-0.0209508053958416,0.027796505019068718,-1.871961964305956e-30,0.000811164325568825
0.009904017671942711,-0.006758372765034437,-0.021230246871709824,0.027861610054969788,-1.2222573968889594e-31,0.0008257605950348079
0.009209846146404743,-0.006987530272454023,-0.021616686135530472,0.028171522542834282,-7.980467147247004e-33,0.0007283312152139843
0.00942921545356512,-0.007258302997797728,-0.021209057420492172,0.028225677087903023,-5.210674420317418e-34,0.0006885410402901471
0.009842688217759132,-0.0067472090013325214,-0.02129235677421093,0.028012894093990326,-2.2213919561425267e-36,0.0005892096669413149
0.009842688217759132,-0.0067472090013325214,-0.02129235677421093,0.028012894093990326,-2.2213919561425267e-36,0.0005892096669413149
0.009779068641364574,-0.0068826982751488686,-0.021608952432870865,0.028083806857466698,0.00033517403062433004,0.0005740189226344228
0.009620319120585918,-0.007255086675286293,-0.021292272955179214,0.028252210468053818,0.00048361020162701607,0.0005613449029624462
0.009296071715652943,-0.006708694621920586,-0.020797763019800186,0.028278613463044167,0.0004907979164272547,0.0005177052225917578
0.009339679032564163,-0.006665114313364029,-0.021134797483682632,0.02759905904531479,0.0004863282374572009,0.0005116417887620628
0.009504408575594425,-0.007369611412286758,-0.02112756110727787,0.02893061377108097,0.00044851069105789065,0.0005059520481154323
0.009204382076859474,-0.007157971151173115,-0.021246222779154778,0.028056444600224495,0.00044651885400526226,0.000405874423449859
0.009562422521412373,-0.006603817921131849,-0.02112307958304882,0.027812618762254715,0.0004188214079476893,0.0003625895769800991
0.009978114627301693,-0.0067462739534676075,-0.02105823904275894,0.028282396495342255,0.00039282412035390735,0.0003840807476080954
0.00968471821397543,-0.0070480601862072945,-0.02041003666818142,0.02864186093211174,0.00036976515548303723,0.0003728003066498786
0.009678920730948448,-0.006899636704474688,-0.020871808752417564,0.02821059711277485,0.000373570597730577,0.0004038659390062094
0.010598999448120594,-0.0063442448154091835,-0.021329456940293312,0.028040055185556412,0.00037650749436579645,0.00038290987140499055
0.009319568984210491,-0.0070958868600428104,-0.021115893498063087,0.027921179309487343,0.00035919039510190487,0.00036118412390351295
0.009649138897657394,-0.006701431702822447,-0.020160693675279617,0.02800559811294079,0.000339406804414466,0.0003416071995161474
0.011019698344171047,-0.006715250667184591,-0.020737778395414352,0.027904033660888672,0.00031612563179805875,0.0003466132911853492
0.009999802336096764,-0.006672786083072424,-0.021110307425260544,0.027910668402910233,0.00035035080509260297,0.00035065310657955706
0.009301391430199146,-0.006434942129999399,-0.020936910063028336,0.028011580929160118,0.00033236463787034154,0.00033566993079148233
0.009539654478430748,-0.0064638350158929825,-0.021055929362773895,0.027911724522709846,0.00031330680940300226,0.0003208000853192061
0.009539654478430748,-0.0064638350158929825,-0.021055929362773895,0.027911724522709846,0.00031330680940300226,0.0003208000853192061
0.009711156599223614,-0.006633265875279903,-0.02121887169778347,0.02776157669723034,0.0003420793800614774,0.00030711881117895246
0.009827326983213425,-0.006518663838505745,-0.020775336772203445,0.027996152639389038,0.0003272993490099907,0.00029455250478349626
0.010854729451239109,-0.006273412611335516,-0.020410645753145218,0.027840306982398033,0.0003113164275418967,0.0002829737204592675
0.009928504936397076,-0.0061027659103274345,-0.02106478437781334,0.02737102471292019,0.0003173646400682628,0.00027227093232795596
0.009591354057192802,-0.006153833586722612,-0.02247888222336769,0.027200056239962578,0.0003223801322747022,0.00026234847609885037
0.01038523018360138,-0.0068055628798902035,-0.02079550363123417,0.027764715254306793,0.0003097652515862137,0.0002531238424126059
0.009653938002884388,-0.006255704443901777,-0.01965934969484806,0.028428560122847557,0.0003634169406723231,0.00024452636716887355
0.009382646530866623,-0.0064740427769720554,-0.02101493813097477,0.027948210015892982,0.0003569887485355139,0.00023649321519769728
0.009954324923455715,-0.006562694441527128,-0.021932361647486687,0.026793574914336205,0.0003320977557450533,0.00022897165035828948
0.010157761164009571,-0.006347350776195526,-0.02125638537108898,0.026353271678090096,0.0003548449603840709,0.00022191369498614222
0.009940266609191895,-0.007062554359436035,-0.02004590444266796,0.027373991906642914,0.00034626389970071614,0.00021527797798626125
0.010195172391831875,-0.0060701570473611355,-0.021095577627420425,0.027677705511450768,0.00037329207407310605,0.00020902736287098378
0.010592879727482796,-0.006350124254822731,-0.021066421642899513,0.02749883569777012,0.0003585303493309766,0.00020312989363446832
0.010144018568098545,-0.006658132653683424,-0.02007121406495571,0.027873558923602104,0.00037539805634878576,0.00019755585526581854
0.010235507972538471,-0.006406208500266075,-0.02088085003197193,0.02714858576655388,0.00036747651756741107,0.0001922795345308259
0.010379878804087639,-0.006345017347484827,-0.020032651722431183,0.02725262939929962,0.00042950265924446285,0.0001825298968469724
0.010069228708744049,-0.006230419967323542,-0.020454227924346924,0.026367543265223503,0.00046904030023142695,0.00017801657668314874
0.009734077379107475,-0.006239268928766251,-0.020894721150398254,0.027781929820775986,0.0004895575693808496,0.00017372133152093738
0.010341482236981392,-0.0068023307248950005,-0.020597614347934723,0.02747592329978943,0.00046990811824798584,0.00016962828522082418
0.010284697636961937,-0.006141957826912403,-0.019921278581023216,0.02713242545723915,0.0004965325351804495,0.00016572386084590107
0.010647651739418507,-0.006327946204692125,-0.020107973366975784,0.02681538835167885,0.0006970158428885043,0.00016199496167246252
0.010317841544747353,-0.006624170579016209,-0.020514199510216713,0.02697834186255932,0.000752199615817517,0.00014122729771770537
0.010124577209353447,-0.006374930962920189,-0.02015220932662487,0.027013951912522316,0.0006689386209473014,0.0001358114677714184
0.009884658269584179,-0.0062470100820064545,-0.02018783986568451,0.026855463162064552,0.000687663268763572,0.00013279376435093582
0.010405056178569794,-0.00617325259372592,-0.020381217822432518,0.02648966945707798,0.0006253680330701172,0.00013004250649828464
0.010672586970031261,-0.006775068584829569,-0.019855491816997528,0.026849832385778427,0.0006446736515499651,0.00012741173850372434
0.010672586970031261,-0.006775068584829569,-0.019855491816997528,0.026849832385778427,0.0006446736515499651,0.00012741173850372434
0.009968629106879234,-0.006689003203064203,-0.020028600469231606,0.02727624773979187,0.0005961971473880112,0.00012488602078519762
0.010695712640881538,-0.006490221247076988,-0.02020801417529583,0.02688531205058098,0.0005508669419214129,5.4871248721610755e-05
0.010295641608536243,-0.006102477200329304,-0.020145760849118233,0.02677907608449459,0.0005194246768951416,4.426904342835769e-05
0.010065506212413311,-0.006513478234410286,-0.019581615924835205,0.026989232748746872,0.0005136806285008788,4.26161423092708e-05
0.010479322634637356,-0.006902378983795643,-0.01995106227695942,0.02692171186208725,0.0005472134216688573,2.2187174181453884e-05
0.01062597893178463,-0.006403449922800064,-0.01995016261935234,0.026624398306012154,0.0005400034715421498,2.0415804101503454e-05
0.010133501142263412,-0.006345837377011776,-0.018923351541161537,0.026648228988051414,0.0005660966853611171,1.988194344448857e-05
0.01019770186394453,-0.006315582897514105,-0.01951395347714424,0.026814168319106102,0.0007238150574266911,1.2981488453078782e-06
0.01024333480745554,-0.005740139167755842,-0.01947193592786789,0.026747073978185654,0.000780147616751492,8.475985424638566e-08
0.010414120741188526,-0.006447857711464167,-0.018564553931355476,0.026086192578077316,0.0007980885566212237,5.534213531888099e-09
0.010716050863265991,-0.0067535205744206905,-0.0193313118070364,0.025104353204369545,0.000823850161395967,3.613446208916571e-10
0.010686053894460201,-0.006353667005896568,-0.019646966829895973,0.025669725611805916,0.0008715715957805514,2.3593219392048503e-11
0.011111348867416382,-0.00619994942098856,-0.01847793720662594,0.02628626674413681,0.0008287696982733905,1.5404687074560552e-12
0.011109286919236183,-0.0063604312017560005,-0.019203659147024155,0.026698395609855652,0.0008082594140432775,1.0058159139554254e-13
0.010243469849228859,-0.006350569427013397,-0.019841032102704048,0.02656475640833378,0.0007882612408138812,-0.0010278734844177961
0.01066287700086832,-0.006283007096499205,-0.019422536715865135,0.027227170765399933,0.0007480893400497735,-0.0010125723201781511
0.010852351784706116,-0.006602846551686525,-0.019380487501621246,0.02708311192691326,0.0007418098975904286,-0.0009660869836807251
0.010890080593526363,-0.005950685124844313,-0.01921083591878414,0.02662539668381214,0.0006921716267243028,-0.000865177484229207
0.010829550214111805,-0.006216762587428093,-0.019149553030729294,0.02616283670067787,0.0006290353485383093,-0.0007623544079251587
0.010684839449822903,-0.0064912280067801476,-0.020035166293382645,0.026150675490498543,0.000540254230145365,-0.0006891440134495497
0.01102740690112114,-0.006137811113148928,-0.019530633464455605,0.026563268154859543,0.0005296880844980478,-0.0006520184688270092
0.010537099093198776,-0.006171356420964003,-0.01927143894135952,0.026605304330587387,0.0005238981102593243,-0.0007424177601933479
0.010725114494562149,-0.006384377367794514,-0.019123157486319542,0.026311028748750687,0.0005164980539120734,-0.0016577120404690504
0.01100196223706007,-0.007173829711973667,-0.019091149792075157,0.026594804599881172,0.000479492504382506,-0.001971664372831583
0.011038975790143013,-0.006641462445259094,-0.019510209560394287,0.02642994187772274,0.0005048976745456457,-0.0020411028526723385
0.01145163644105196,-0.005934176500886679,-0.019599899649620056,0.026472020894289017,0.0004754145338665694,-0.001821652171202004
0.011508830823004246,-0.006547487806528807,-0.019162725657224655,0.026491686701774597,0.0004864088259637356,-0.0014641705201938748
0.012788248248398304,-0.006728722248226404,-0.019143063575029373,0.026028627529740334,0.0004887500545009971,-0.0013345875777304173
0.012788248248398304,-0.006728722248226404,-0.019143063575029373,0.026028627529740334,0.0004887500545009971,-0.0013345875777304173
0.012955894693732262,-0.006767608225345612,-0.019271893426775932,0.02770484797656536,0.0004841829068027437,-0.0010722901206463575
0.012522712349891663,-0.0064588855020701885,-0.019195113331079483,0.027058880776166916,0.0004466787213459611,-0.0009586181258782744
0.01280926913022995,-0.006294935010373592,-0.019588090479373932,0.026432769373059273,0.00041268073255196214,-0.0010188601445406675
0.012562978081405163,-0.006087662652134895,-0.019427752122282982,0.026249494403600693,0.0004427755484357476,-0.001523388084024191
0.013050817884504795,-0.006411989685148001,-0.018916435539722443,0.026479598134756088,0.0004173079796601087,-0.0016968825366348028
0.012967930175364017,-0.006670823786407709,-0.01885049231350422,0.025962626561522484,0.0004399727040436119,-0.002312224358320236
0.01350121945142746,-0.006214846391230822,-0.01916947029531002,0.025947269052267075,0.0004208712780382484,-0.00216059316881001
0.012879409827291965,-0.006241460796445608,-0.01887088268995285,0.026223517954349518,0.0003980283800046891,-0.002078736899420619
0.013557333499193192,-0.006412544287741184,-0.018912144005298615,0.02603801339864731,0.0003986159572377801,-0.0018901515286415815
0.013121435418725014,-0.0061697582714259624,-0.019961854442954063,0.026177680119872093,0.0003870233485940844,-0.0016678165411576629
0.01348789595067501,-0.0064612324349582195,-0.018994588404893875,0.026304220780730247,0.00035772257251664996,-0.0016560545191168785
0.01301207672804594,-0.00615877378731966,-0.019020523875951767,0.0263522919267416,0.00036359630757942796,-0.001886510057374835
0.013195935636758804,-0.00595454964786768,-0.019502395763993263,0.026081983000040054,0.00036821418325416744,-0.00206959480419755
0.013755847699940205,-0.006294065620750189,-0.01920938678085804,0.025454819202423096,0.0003465043264441192,-0.0024588904343545437
0.0136099336668849,-0.006807907484471798,-0.019250813871622086,0.025346100330352783,0.000354842864908278,-0.0030449971091002226
0.013451376929879189,-0.00612220261245966,-0.019048091024160385,0.02529214881360531,0.00033886052551679313,-0.0026864379178732634
0.013513952493667603,-0.006321160588413477,-0.019336264580488205,0.02517259679734707,0.0003441771259531379,-0.0024382194969803095
0.013059279881417751,-0.006669148802757263,-0.01938929222524166,0.025057731196284294,0.00034832031815312803,-0.002111223293468356
0.013758492656052113,-0.0062888311222195625,-0.01893240585923195,0.025254249572753906,0.0003335411020088941,-0.002016344340518117
0.013304576277732849,-0.006323229521512985,-0.019018644466996193,0.02537071891129017,0.0003188558330293745,-0.0019423032645136118
0.014013092033565044,-0.005572305992245674,-0.019588513299822807,0.025164250284433365,0.00030575101845897734,-0.0019132274901494384
0.013981637544929981,-0.005866646766662598,-0.019141199067234993,0.025063976645469666,0.0003182827786076814,-0.0021467639598995447
0.013619103468954563,-0.005968864541500807,-0.020019348710775375,0.024979423731565475,0.0002993395028170198,-0.0031004140619188547
0.013788178563117981,-0.006335449870675802,-0.020474566146731377,0.025337517261505127,0.0003221445076633245,-0.003889120416715741
0.014270609244704247,-0.006373625714331865,-0.01993074081838131,0.02518872171640396,0.00031620165100321174,-0.004040365573018789
0.014270609244704247,-0.006373625714331865,-0.01993074081838131,0.02518872171640396,0.00031620165100321174,-0.004040365573018789
0.01319176983088255,-0.0056225089356303215,-0.01964658312499523,0.025442777201533318,0.00033630800317041576,-0.0035371414851397276
0.013847307302057743,-0.005773010663688183,-0.019989870488643646,0.026584772393107414,0.00033025717129930854,-0.00327527173794806
0.014177239499986172,-0.0058176214806735516,-0.020143777132034302,0.02690860629081726,0.00035637401742860675,-0.003178120357915759
0.014153435826301575,-0.005933098960667849,-0.019811933860182762,0.025734160095453262,0.0003422108420636505,-0.0031964348163455725
0.01386998686939478,-0.00586335826665163,-0.020460430532693863,0.02473296970129013,0.00048341217916458845,-0.0032531500328332186
0.014559476636350155,-0.005479188170284033,-0.020071029663085938,0.024756865575909615,0.0005018013762310147,-0.0036687066312879324
0.014317304827272892,-0.00562793854624033,-0.019399361684918404,0.02494453638792038,0.0004969576839357615,-0.0034286787267774343
0.013951582834124565,-0.005480755586177111,-0.01997048780322075,0.02474176697432995,0.0004575355560518801,-0.0031964825466275215
0.013958451338112354,-0.005789035465568304,-0.020470645278692245,0.024838004261255264,0.0004219308029860258,-0.0030985167250037193
0.0140214953571558,-0.005825371947139502,-0.019859209656715393,0.025940384715795517,0.000422976678237319,-0.0031504419166594744
0.014114405028522015,-0.005870772060006857,-0.019744159653782845,0.025989126414060593,0.0004235002852510661,-0.003438639687374234
0.013726039789617062,-0.00550001859664917,-0.020104605704545975,0.02569563128054142,0.00039859116077423096,-0.0036396461073309183
0.014324946328997612,-0.005388191901147366,-0.01998426392674446,0.024188680574297905,0.0003749805619008839,-0.003741020569577813
0.014595204032957554,-0.006165160331875086,-0.019894665107131004,0.024818113073706627,0.00038208396290428936,-0.003878728486597538
0.014140171930193901,-0.005665814969688654,-0.020056897774338722,0.02574712038040161,0.0003635494504123926,-0.0036370321176946163
0.014499902725219727,-0.005720950663089752,-0.019766639918088913,0.02573217824101448,0.0003495885757729411,-0.003586118808016181
0.014324289746582508,-0.005425254348665476,-0.01990925893187523,0.025842364877462387,0.00032809600816108286,-0.003682447597384453
0.014894210733473301,-0.005820565856993198,-0.019962025806307793,0.02537698484957218,0.0003357576788403094,-0.004061142913997173
0.01453746110200882,-0.005552046000957489,-0.01958632655441761,0.02499823458492756,0.00034180478542111814,-0.003933060448616743
0.014757444150745869,-0.005402225069701672,-0.01980246603488922,0.024582548066973686,0.00032313255360350013,-0.003728211624547839
0.014279630966484547,-0.0050574494525790215,-0.01997474394738674,0.024619687348604202,0.00030498995329253376,-0.003696025349199772
0.014533366076648235,-0.0056192344054579735,-0.019966470077633858,0.02438269555568695,0.0003241676022298634,-0.003552897134795785
0.014378946274518967,-0.005299519747495651,-0.02005266584455967,0.025299742817878723,0.00031887993100099266,-0.003593314904719591
0.014378946274518967,-0.005299519747495651,-0.02005266584455967,0.025299742817878723,0.00031887993100099266,-0.003593314904719591
0.014795574359595776,-0.005351053085178137,-0.02057148888707161,0.02530997060239315,0.00030420554685406387,-0.00411011790856719
0.01432101707905531,-0.005557428579777479,-0.019768157973885536,0.02471434511244297,0.00029023532988503575,-0.004475157242268324
0.01444717962294817,-0.005153360776603222,-0.019449546933174133,0.024646654725074768,0.00027745217084884644,-0.004110594280064106
0.014248630963265896,-0.005087476689368486,-0.020011810585856438,0.025090128183364868,0.0002657471923157573,-0.003845078172162175
0.014811052940785885,-0.005336595233529806,-0.020229753106832504,0.024622760713100433,0.00028191509773023427,-0.004044122528284788
0.014515510760247707,-0.0055811223573982716,-0.019743066281080246,0.024806533008813858,0.00027945745387114584,-0.004216755274683237
0.014922115951776505,-0.005276264622807503,-0.0195670947432518,0.025241125375032425,0.0002695485018193722,-0.004572226665914059
0.01486692763864994,-0.004738371353596449,-0.01989772543311119,0.02536005526781082,0.00025985532556660473,-0.004176388960331678
0.014784472994506359,-0.004826659802347422,-0.019777337089180946,0.024887358769774437,0.0002510696940589696,-0.004091168288141489
0.014802033081650734,-0.004853688646107912,-0.02088409662246704,0.02509431354701519,0.0002597923739813268,-0.004402798600494862
0.01491505280137062,-0.0048417821526527405,-0.0202066358178854,0.025623302906751633,0.0002470452163834125,-0.004415750037878752
0.01501828245818615,-0.0052983807399868965,-0.019404850900173187,0.025165222585201263,0.00023427950509358197,-0.0036968791391700506
0.015007254667580128,-0.005532689392566681,-0.019436148926615715,0.024669896811246872,0.00022268872999120504,-0.004224269185215235
0.01485813595354557,-0.004823213908821344,-0.020302368327975273,0.0236862413585186,0.000251714518526569,-0.004826005548238754
0.014895224012434483,-0.004603983368724585,-0.019896328449249268,0.024145932868123055,0.00024296407354995608,-0.004839210771024227
0.015017618425190449,-0.00493715051561594,-0.01993492804467678,0.025207336992025375,0.00023266188509296626,-0.00520258117467165
0.015209358185529709,-0.005128981079906225,-0.020569905638694763,0.025160038843750954,0.0002451598411425948,-0.004781804513186216
0.015066225081682205,-0.004929727409034967,-0.019570983946323395,0.02532081864774227,0.00024006509920582175,-0.004538383800536394
0.015525099821388721,-0.004719575401395559,-0.019749460741877556,0.025906836614012718,0.00023152021458372474,-0.004901694133877754
0.015088059939444065,-0.00445186672732234,-0.020259886980056763,0.024990081787109375,0.0002469334867782891,-0.005152435041964054
0.015505353920161724,-0.00421209866181016,-0.021218040958046913,0.02496875636279583,0.0002459542884025723,-0.005097934976220131
0.015511659905314445,-0.004992781672626734,-0.019831662997603416,0.02413579262793064,0.00023829985002521425,-0.004930681083351374
0.01549444068223238,-0.00502430647611618,-0.019534362480044365,0.0245989803224802,0.00023069609596859664,-0.004895824007689953
0.015351885929703712,-0.004501858726143837,-0.01989440806210041,0.025489112362265587,0.00022393376275431365,-0.004794740583747625
0.0160351749509573,-0.0042362636886537075,-0.019972162321209908,0.025097494944930077,0.00026392913423478603,-0.0052506946958601475
0.016394130885601044,-0.003982807509601116,-0.020202873274683952,0.024727005511522293,0.00025258809910155833,-0.005577556788921356
0.015915129333734512,-0.0038252579979598522,-0.020005347207188606,0.024467626586556435,0.00023937439254950732,-0.005487501621246338
0.016233310103416443,-0.003850822104141116,-0.019921567291021347,0.024497341364622116,0.0002696278679650277,-0.005595388822257519
0.015588944777846336,-0.004272286780178547,-0.020383400842547417,0.024578845128417015,0.00025943282525986433,-0.005210490897297859
0.015785183757543564,-0.004418599884957075,-0.020178835839033127,0.024493755772709846,0.0002477092784829438,-0.005195621866732836
0.015601128339767456,-0.004231430124491453,-0.019395168870687485,0.024241533130407333,0.00023685306950937957,-0.00507335364818573
0.015601128339767456,-0.004231430124491453,-0.019395168870687485,0.024241533130407333,0.00023685306950937957,-0.00507335364818573
0.016238845884799957,-0.0035342839546501637,-0.019850490614771843,0.023930195719003677,0.00025484547950327396,-0.005789668764919043
0.015749186277389526,-0.002599759493023157,-0.020190222188830376,0.024147406220436096,0.0002533959923312068,-0.005500343628227711
0.016307435929775238,-0.001972082769498229,-0.01990749128162861,0.02429519221186638,0.00024414982181042433,-0.005391838029026985
0.016243960708379745,-0.0018446153262630105,-0.020234515890479088,0.0237897839397192,0.0002350756258238107,-0.005665356758981943
0.0157022662460804,-0.002253105165436864,-0.020529501140117645,0.023346228525042534,0.0002266211376991123,-0.006102816667407751
0.016105933114886284,-0.0027020820416510105,-0.019806746393442154,0.023807881399989128,0.00024585623759776354,-0.005794780794531107
0.01604590378701687,-0.002906549721956253,-0.01928088627755642,0.023852579295635223,0.0002413405745755881,-0.006395432632416487
0.016775673255324364,-0.0028387955389916897,-0.020182890817523003,0.023564424365758896,0.00023374809825327247,-0.005974258296191692
0.015980608761310577,-0.0023216314148157835,-0.020481614395976067,0.0236239992082119,0.00022641304531134665,-0.005802876781672239
0.01630188524723053,-0.002349077956750989,-0.01967124454677105,0.023563338443636894,0.0002195103734266013,-0.005550959147512913
0.016784975305199623,-0.002157566836103797,-0.020315734669566154,0.02433505840599537,0.00023393119045067579,-0.006417143624275923
0.01624409668147564,-0.002360117854550481,-0.020206375047564507,0.02389100007712841,0.00022635137429460883,-0.006251934915781021
0.016107633709907532,-0.002238029381260276,-0.019960448145866394,0.023933205753564835,0.00021576930885203183,-0.005847631022334099
0.01676461286842823,-0.0021509418729692698,-0.019913287833333015,0.02390163578093052,0.00020591092470567673,-0.005783680826425552
0.0168464332818985,-0.0019410819513723254,-0.01955643855035305,0.024016637355089188,0.00019690040790010244,-0.006160658784210682
0.015622160397469997,-0.0018513789400458336,-0.019916189834475517,0.024475038051605225,0.00018864413141272962,-0.0063422429375350475
0.01710578426718712,-0.0019235584186390042,-0.020106015726923943,0.024270346388220787,0.00021480002033058554,-0.006247030571103096
0.017096128314733505,-0.001974904676899314,-0.019807353615760803,0.024150574579834938,0.00020869821310043335,-0.006064289715141058
0.016729379072785378,-0.0022843494080007076,-0.019513817504048347,0.024159284308552742,0.00020106989541091025,-0.0061913952231407166
0.016550980508327484,-0.0021724726539105177,-0.019389724358916283,0.023948023095726967,0.0001938594796229154,-0.0064409226179122925
0.017010847106575966,-0.0020979740656912327,-0.019247975200414658,0.02385503426194191,0.00018714103498496115,-0.006566865835338831
0.016975095495581627,-0.0020245080813765526,-0.01964370347559452,0.02368633635342121,0.00018087659555021673,-0.006552248727530241
0.01728949509561062,-0.001983220921829343,-0.02071733959019184,0.023652391508221626,0.00017500993271823972,-0.006906577851623297
0.01718701235949993,-0.0019448467064648867,-0.020352432504296303,0.023685023188591003,0.00016951901488937438,-0.00686537753790617
0.01705012284219265,-0.0019970403518527746,-0.019416624680161476,0.023385312408208847,0.0001899196213344112,-0.006750462111085653
0.01767515204846859,-0.001960989087820053,-0.020066719502210617,0.023073505610227585,0.0001859640033217147,-0.00635170005261898
0.01767515204846859,-0.001960989087820053,-0.020066719502210617,0.023073505610227585,0.0001859640033217147,-0.00635170005261898
0.01734045147895813,-0.001970474375411868,-0.019842000678181648,0.023481860756874084,0.0001807551016099751,-0.006483257282525301
0.0172836072742939,-0.001997452462092042,-0.019835174083709717,0.024126600474119186,0.00017570746422279626,-0.0067319609224796295
0.017575697973370552,-0.0020715808495879173,-0.020372610539197922,0.023382971063256264,0.00017094881332013756,-0.007296275347471237
0.01759245991706848,-0.0020257302094250917,-0.021013615652918816,0.02329128421843052,0.00016643619164824486,-0.0067461333237588406
0.01864851638674736,-0.0019315978279337287,-0.020612427964806557,0.02206769771873951,0.0001621525880182162,-0.006647575180977583
0.01837243139743805,-0.0018984212074428797,-0.019958017393946648,0.022980088368058205,0.00015807214367669076,-0.0069575197994709015
0.017813222482800484,-0.0020662571769207716,-0.020211828872561455,0.02347560040652752,0.00015421296120621264,-0.006998172029852867
0.018207628279924393,-0.0019194905180484056,-0.02050035260617733,0.02318188175559044,0.00015052876551635563,-0.007353826425969601
0.01833154819905758,-0.0021659100893884897,-0.02008804865181446,0.022274332121014595,0.00014701590407639742,-0.007061401382088661
0.018162742257118225,-0.002321713836863637,-0.02080470882356167,0.022660089656710625,0.00014366333198267967,-0.006886694580316544
0.018154514953494072,-0.0022266642190515995,-0.02091742493212223,0.023256663233041763,0.00014046025171410292,-0.006895170547068119
0.01866578496992588,-0.0020403731614351273,-0.019921641796827316,0.02287694811820984,0.00013446433877106756,-0.0072095575742423534
0.018721245229244232,-0.0020301728509366512,-0.020374953746795654,0.02259616181254387,0.00013165417476557195,-0.006814770400524139
0.018020587041974068,-0.001886742189526558,-0.020508741959929466,0.02232162095606327,0.00012895923282485455,-0.006814512424170971
0.018817832693457603,-0.0022001974284648895,-0.020326659083366394,0.02254423499107361,0.00012637241161428392,-0.007139993365854025
0.018766198307275772,-0.0027727021370083094,-0.020268457010388374,0.02252601832151413,0.00012388729373924434,-0.007318898569792509
0.018386011943221092,-0.0024594690185040236,-0.020459676161408424,0.02324235625565052,0.00012149794201832265,-0.007712997030466795
0.01889396272599697,-0.0022679211106151342,-0.020102104172110558,0.023422539234161377,0.0001318347203778103,-0.007843812927603722
0.018654972314834595,-0.0019871843978762627,-0.020178813487291336,0.023243071511387825,0.0001334110856987536,-0.007832151837646961
0.018654972314834595,-0.0019871843978762627,-0.020178813487291336,0.023243071511387825,0.0001334110856987536,-0.007832151837646961
0.018937338143587112,-0.0019328119233250618,-0.02046874724328518,0.023117074742913246,0.00013124183169566095,-0.00781303085386753
0.018867282196879387,-0.002216209191828966,-0.02003452554345131,0.02255607768893242,0.00012664285895880312,-0.008299116976559162
0.018867282196879387,-0.002216209191828966,-0.02003452554345131,0.02255607768893242,0.00012664285895880312,-0.008299116976559162
0.01851070113480091,-0.0025457132142037153,-0.020524412393569946,0.022377490997314453,0.00012445390166249126,-0.007980456575751305
0.01884261891245842,-0.0024279633071273565,-0.019772382453083992,0.023037796840071678,0.00012029528443235904,-0.0076483869925141335
0.01884261891245842,-0.0024279633071273565,-0.019772382453083992,0.023037796840071678,0.00012029528443235904,-0.0076483869925141335
0.019052615389227867,-0.002457991009578109,-0.019891886040568352,0.022913683205842972,0.00011831831943709403,-0.007258269935846329
0.019206158816814423,-0.0023388138506561518,-0.02000841125845909,0.022451354190707207,0.00011640549200819805,-0.007185732014477253
0.019518759101629257,-0.0024701585061848164,-0.020099826157093048,0.022382650524377823,0.00011455341154942289,-0.007235047873109579
0.019361278042197227,-0.0027097135316580534,-0.020256411284208298,0.022409189492464066,0.0001127594878198579,-0.0073263151571154594
0.01958126574754715,-0.0028246857691556215,-0.020426424220204353,0.022747023031115532,0.00011102074495283887,-0.007824108935892582
0.019092097878456116,-0.002622219966724515,-0.0199409332126379,0.02314045839011669,0.00010933478915831074,-0.007957340218126774
0.01893622614443302,-0.0023109971079975367,-0.019650721922516823,0.022917721420526505,0.00010769929212983698,-0.00770724518224597
0.0195644348859787,-0.0022582868114113808,-0.01998462714254856,0.022929701954126358,0.00010611223842715845,-0.007732634898275137
0.019509851932525635,-0.0024932511150836945,-0.01981806568801403,0.023319518193602562,0.00010457103053340688,-0.007680701557546854
0.019555548205971718,-0.002866640454158187,-0.020390519872307777,0.023127909749746323,0.00010161932004848495,-0.007113088387995958
0.019505495205521584,-0.0026209389325231314,-0.020066550001502037,0.022669199854135513,0.00010020497575169429,-0.007309971377253532
0.01962502859532833,-0.002538292668759823,-0.019728681072592735,0.023129142820835114,9.882956510409713e-05,-0.007933633401989937
0.020303718745708466,-0.002331550233066082,-0.020223625004291534,0.02359756827354431,9.749138553161174e-05,-0.007977096363902092
0.01996426284313202,-0.0024503092281520367,-0.021687332540750504,0.023861883208155632,9.61890400503762e-05,-0.007785084191709757
0.019586551934480667,-0.002701050601899624,-0.019742056727409363,0.02341408282518387,9.492084063822404e-05,-0.007740238681435585
0.019876057282090187,-0.0028231553733348846,-0.019593289121985435,0.022435707971453667,9.368577593704686e-05,-0.007418144028633833
0.01974267140030861,-0.0026370163541287184,-0.020682023838162422,0.021832529455423355,9.248240530723706e-05,-0.007637326139956713
0.019356006756424904,-0.0023455254267901182,-0.02094549871981144,0.022266926243901253,9.13096300791949e-05,-0.007888264954090118
0.019908329471945763,-0.002228613244369626,-0.019915008917450905,0.02276976779103279,9.016607509693131e-05,-0.007906065322458744
0.020795388147234917,-0.002164301462471485,-0.020235193893313408,0.02269698865711689,8.905092545319349e-05,-0.008078714832663536
0.020795388147234917,-0.002164301462471485,-0.020235193893313408,0.02269698865711689,8.905092545319349e-05,-0.008078714832663536
0.02008066326379776,-0.002544831018894911,-0.020477648824453354,0.02187575399875641,8.79630315466784e-05,-0.008362360298633575
0.020161578431725502,-0.002462549600750208,-0.019420260563492775,0.022354314103722572,8.690136019140482e-05,-0.007942892611026764
0.02070271596312523,-0.0025900094769895077,-0.019998326897621155,0.0228105541318655,8.586501644458622e-05,-0.00806764792650938
0.020184587687253952,-0.002566244453191757,-0.02044890634715557,0.022560805082321167,8.48531344672665e-05,-0.008037306368350983
0.019940461963415146,-0.002443778095766902,-0.020158598199486732,0.021993353962898254,8.386474655708298e-05,-0.007887541316449642
0.02017599530518055,-0.0024800312239676714,-0.01943490095436573,0.022034458816051483,8.28991542221047e-05,-0.00806471612304449
0.020657705143094063,-0.0025639201048761606,-0.020003613084554672,0.021956471726298332,8.195562259061262e-05,-0.008338233456015587
0.020472455769777298,-0.0024185923393815756,-0.020262375473976135,0.02223978564143181,8.103323489194736e-05,-0.008440423756837845
0.019991986453533173,-0.0024274340830743313,-0.020027831196784973,0.022691398859024048,8.013137994566932e-05,-0.008245018310844898
0.02067127265036106,-0.002271119272336364,-0.020035825669765472,0.022755762562155724,4.017043102066964e-05,-0.008206991478800774
0.020643100142478943,-0.002386712469160557,-0.0198709424585104,0.022882012650370598,2.6228424303553766e-06,-0.008311906829476357
0.020594561472535133,-0.0022238162346184254,-0.019591858610510826,0.02271314151585102,1.7125286433383735e-07,-0.008380518294870853
0.02081511728465557,-0.0021829158067703247,-0.01960437186062336,0.02260715700685978,1.1181588988051772e-08,-0.008265265263617039
0.020929807797074318,-0.0023391912691295147,-0.019867179915308952,0.02230321802198887,7.300778315233458e-10,-0.007978621870279312
0.02071244642138481,-0.0025382705498486757,-0.019883472472429276,0.02270118147134781,4.766886538276616e-11,-0.008048020303249359
0.02140728384256363,-0.002310029696673155,-0.019795294851064682,0.02325148694217205,2.0321986010218146e-13,-0.008836795575916767
0.021177010610699654,-0.0021637119352817535,-0.01947857439517975,0.022941473871469498,1.3268805000056505e-14,-0.009188315831124783
0.02076786756515503,-0.002223437186330557,-0.01977071724832058,0.022167442366480827,8.663581627645848e-16,-0.008801336400210857
0.021342439576983452,-0.002028617076575756,-0.01995576173067093,0.021913141012191772,5.656699765234501e-17,-0.008513794280588627
0.0213849525898695,-0.002153199864551425,-0.01981523260474205,0.021937355399131775,3.6934209920533724e-18,-0.008653804659843445
0.021229129284620285,-0.0020393854938447475,-0.019774429500102997,0.021627463400363922,2.4115401273581345e-19,-0.008697912096977234
0.021095680072903633,-0.002218003384768963,-0.019761379808187485,0.021473832428455353,1.5745633375952635e-20,-0.008773683570325375
0.021523160859942436,-0.002157106762751937,-0.01939414069056511,0.021682897582650185,1.0280773580396385e-21,-0.008663053624331951
0.021308671683073044,-0.0020664811599999666,-0.01935860887169838,0.021891258656978607,6.712609924586463e-23,-0.008618036285042763
0.02113862708210945,-0.001977508421987295,-0.01987707056105137,0.02184933051466942,4.382854391422766e-24,-0.008728550747036934
0.02089061215519905,-0.0019351422088220716,-0.020028408616781235,0.02148517780005932,2.8616908017452743e-25,-0.00876766536384821
0.02121349796652794,-0.0019557992927730083,-0.01952117122709751,0.02152065746486187,1.8684796082205602e-26,-0.008844112046062946
0.02121349796652794,-0.0019557992927730083,-0.01952117122709751,0.02152065746486187,1.8684796082205602e-26,-0.008844112046062946
0.021667160093784332,-0.0019269107142463326,-0.01965508796274662,0.021833788603544235,1.219983597353e-27,-0.008818945847451687
0.0222009290009737,-0.001935124397277832,-0.01956021413207054,0.02218056470155716,7.965620972155087e-29,-0.008987268432974815
0.02184114418923855,-0.0019101181533187628,-0.019086522981524467,0.02174907550215721,5.20098209029796e-30,-0.009211734868586063
0.021920422092080116,-0.0019190262537449598,-0.019616981968283653,0.02150825411081314,3.395869408268465e-31,-0.009081433527171612
0.02133977599442005,-0.0018998159794136882,-0.02011539414525032,0.02172098122537136,2.2172602031280099e-32,-0.009414061903953552
0.020576536655426025,-0.0019504112424328923,-0.01926361955702305,0.021756427362561226,1.4477123938498358e-33,-0.009157257154583931
0.022409167140722275,-0.0017468425212427974,-0.019416606053709984,0.021925941109657288,9.452528322411815e-35,-0.00941598229110241
0.022382427006959915,-0.0016389871016144753,-0.019581511616706848,0.021974485367536545,6.171826043242211e-36,-0.009028921835124493
0.022095175459980965,-0.0017398314084857702,-0.019354844465851784,0.022333433851599693,4.029761301695032e-37,-0.008890850469470024
0.022056693211197853,-0.001607152633368969,-0.01975366845726967,0.02181318961083889,2.6311460997216427e-38,-0.008399232290685177
0.02210197038948536,-0.001622991869226098,-0.01943233609199524,0.02129034884274006,1.717949878308296e-39,-0.008168897591531277
0.022177105769515038,-0.001664618612267077,-0.019135380163788795,0.02123126946389675,1.1216973817380863e-40,-0.008313541300594807
0.022629063576459885,-0.0015637804754078388,-0.019699346274137497,0.021888582035899162,7.324587073025819e-42,-0.008763447403907776
0.02181977406144142,-0.0015121555188670754,-0.019975360482931137,0.021258074790239334,3.0828566215145976e-44,-0.00904952734708786
0.021768508478999138,-0.0013449473772197962,-0.019563091918826103,0.021416086703538895,1.401298464324817e-45,-0.00917298998683691
0.02244524285197258,-0.001266677281819284,-0.019289394840598106,0.021982496604323387,0.0,-0.009055975824594498
0.02310815639793873,-0.0013517194893211126,-0.019410161301493645,0.022194374352693558,0.0,-0.008851881138980389
0.022993989288806915,-0.001308486214838922,-0.019894227385520935,0.021698756143450737,0.0,-0.00935437437146902
0.022774778306484222,-0.0014161766739562154,-0.020276067778468132,0.021565869450569153,0.0,-0.008755451068282127
0.022571248933672905,-0.0013362816534936428,-0.02049039863049984,0.021114902570843697,0.0,-0.009116927161812782
0.02279953844845295,-0.0014330395497381687,-0.019383396953344345,0.021279750391840935,0.0,-0.008927755989134312
0.023154135793447495,-0.0013238213723525405,-0.020302798599004745,0.02165735512971878,0.0,-0.009042913094162941
0.023336773738265038,-0.0012845987221226096,-0.020811397582292557,0.02210943028330803,0.0,-0.009054332040250301
0.023007281124591827,-0.0011958176037296653,-0.020659584552049637,0.02195749804377556,0.0,-0.00851575005799532
0.023007281124591827,-0.0011958176037296653,-0.020659584552049637,0.02195749804377556,0.0,-0.00851575005799532
0.023092025890946388,-0.001269581844098866,-0.02026974782347679,0.02161729894578457,0.0,-0.008815731853246689
0.023491118103265762,-0.0012067402713000774,-0.02077566459774971,0.021897675469517708,0.0,-0.008887847885489464
0.023524126037955284,-0.0012617821339517832,-0.020299609750509262,0.022303404286503792,0.0,-0.008854793384671211
0.023439431563019753,-0.001337717636488378,-0.019064202904701233,0.021629473194479942,0.0,-0.008799092844128609
0.023822110146284103,-0.0012976614525541663,-0.02032163366675377,0.02146661840379238,0.0,-0.00913584791123867
0.02359943650662899,-0.0012976224534213543,-0.021293023601174355,0.02075400948524475,0.0,-0.009218990802764893
0.023669350892305374,-0.0012274113250896335,-0.020310798659920692,0.020858412608504295,0.0,-0.009200634434819221
0.02396431379020214,-0.0011664032936096191,-0.020762158557772636,0.0215764157474041,0.0,-0.009275047108530998
0.02411665767431259,-0.0011244103079661727,-0.02063155360519886,0.022539803758263588,0.0,-0.009092221967875957
0.024038007482886314,-0.001016777940094471,-0.0205416027456522,0.022808292880654335,0.0,-0.009353182278573513
0.02386760711669922,-0.000995059497654438,-0.0205316711217165,0.02213202603161335,0.0,-0.00991834420710802
0.024020595476031303,-0.000980075797997415,-0.021083563566207886,0.021425064653158188,0.0,-0.009782243520021439
0.02415558695793152,-0.0009810742922127247,-0.02091239020228386,0.021630490198731422,0.0,-0.009477503597736359
0.024217667058110237,-0.0010996890487149358,-0.020046938210725784,0.021181248128414154,0.0,-0.010061699897050858
0.025044186040759087,-0.0010411461116746068,-0.021100373938679695,0.021274637430906296,0.0,-0.009426520206034184
0.024356694892048836,-0.0009460219298489392,-0.02090364880859852,0.021447615697979927,0.0,-0.009733154438436031
0.024451810866594315,-0.0008950061746872962,-0.02079889178276062,0.021188579499721527,0.0,-0.009925374761223793
0.024833107367157936,-0.0008521742420271039,-0.020950347185134888,0.020978379994630814,0.0,-0.01002991758286953
0.025035753846168518,-0.000774980231653899,-0.021087855100631714,0.02117401361465454,0.0,-0.010221687145531178
0.02473423257470131,-0.0007514627068303525,-0.021043917164206505,0.02094644121825695,0.0,-0.009853183291852474
0.02346576564013958,-0.0007023426005616784,-0.021280165761709213,0.020804520696401596,0.0,-0.009599554352462292
0.025162473320961,-0.000632281880825758,-0.021263619884848595,0.020831990987062454,0.0,-0.010208169929683208
0.025569211691617966,-0.0005745953531004488,-0.02115204557776451,0.021133296191692352,0.0,-0.01001681201159954
0.025823649019002914,-0.0005265517975203693,-0.020840078592300415,0.02100701816380024,0.0,-0.01005875039845705
0.02505357377231121,-0.0004859257605858147,-0.021288998425006866,0.020865557715296745,0.0,-0.010502627119421959
0.025396963581442833,-0.0004511198203545064,-0.021175572648644447,0.020778680220246315,0.0,-0.010363640263676643
0.024817556142807007,-0.0004209696489851922,-0.020840371027588844,0.02087150700390339,0.0,-0.010591198690235615
0.025013480335474014,-0.0003945978241972625,-0.02083892561495304,0.020320197567343712,0.0,-0.010570640675723553
0.025013480335474014,-0.0003945978241972625,-0.02083892561495304,0.020320197567343712,0.0,-0.010570640675723553
0.025544071570038795,-0.00037133460864424706,-0.021108079701662064,0.020212966948747635,0.0,-0.010045642033219337
0.02563360333442688,-0.0003506625653244555,-0.021145084872841835,0.020401736721396446,0.0,-0.010392104275524616
0.02530139684677124,-0.000332171592162922,-0.021370284259319305,0.02032470703125,0.0,-0.011042890138924122
0.025752488523721695,-0.00031553301960229874,-0.02104995772242546,0.01986582949757576,0.0,-0.010823938995599747
0.026209205389022827,-0.0003004824975505471,-0.021184291690587997,0.02027926966547966,0.0,-0.010786065831780434
0.025071118026971817,-0.00028680198010988533,-0.021368054673075676,0.020079050213098526,0.0,-0.0102201197296381
0.02571263164281845,-0.0002743135264609009,-0.020781314000487328,0.019839230924844742,0.0,-0.010193713009357452
0.025428351014852524,-0.0002628671354614198,-0.021143609657883644,0.020231246948242188,0.0,-0.011001676321029663
0.02539234422147274,-0.0002523376897443086,-0.021486688405275345,0.021301066502928734,0.0,-0.010794495232403278
0.026111282408237457,-0.0002767953264992684,-0.02150730974972248,0.020805099979043007,0.0,-0.010822836309671402
0.026339132338762283,-0.0002669895184226334,-0.020637812092900276,0.02004511095583439,0.0,-0.011043121106922626
0.02615479752421379,-0.00025744890444912016,-0.020526038482785225,0.019919555634260178,0.0,-0.010730231180787086
0.026372037827968597,-0.0002114469389198348,-0.02109670452773571,0.020137064158916473,1.4995160313446831e-07,-0.01082809828221798
0.026064543053507805,-5.105841046315618e-05,-0.020859841257333755,0.020474769175052643,9.790768196182853e-09,-0.010845840908586979
0.02589893899857998,-3.29047252307646e-05,-0.02109633758664131,0.020508605986833572,6.392671947352824e-10,-0.011156325228512287
0.0260159894824028,-3.153293073410168e-05,-0.02086903341114521,0.020439526066184044,4.173958054187743e-11,-0.011355534195899963
0.026333846151828766,-3.0462675567832775e-05,-0.020738691091537476,0.020957790315151215,2.7252961172508083e-12,-0.011412389576435089
0.025942111387848854,-2.9465298212016933e-05,-0.021383389830589294,0.021685907617211342,1.7794236407703973e-13,-0.01124625001102686
0.026617735624313354,-2.8531165298772976e-05,-0.02175980433821678,0.021225877106189728,1.1618363843430343e-14,-0.0108901746571064
0.026396460831165314,-2.7654470613924786e-05,-0.021827563643455505,0.01988162100315094,7.585961959951694e-16,-0.01086445339024067
0.02654610015451908,-2.6830048227566294e-05,-0.021189486607909203,0.01963546872138977,4.9530910026462805e-17,-0.010967519134283066
0.027127619832754135,-2.605335794214625e-05,-0.02082909643650055,0.01986156776547432,3.2340145992136183e-18,-0.010570146143436432
0.025603698566555977,-2.5320359782199375e-05,-0.021075723692774773,0.019289404153823853,2.111580526556825e-19,-0.010795364156365395
0.027044381946325302,-3.3970491131185554e-07,-0.02214686945080757,0.019288916140794754,1.3787110407910016e-20,-0.010963937267661095
0.027343399822711945,-4.5575752061211006e-09,-0.02032504417002201,0.019779670983552933,9.001997993725936e-22,-0.011280284263193607
0.027025694027543068,-6.114568573689638e-11,-0.020831122994422913,0.020080259069800377,5.877661240927543e-23,-0.01143723912537098
0.026715727522969246,-8.203474791829146e-13,-0.02167852595448494,0.020236175507307053,3.83769313020806e-24,-0.011778809130191803
0.0269000381231308,-1.1006008997509371e-14,-0.021882381290197372,0.01998707838356495,2.505739258458219e-25,-0.01154038030654192
0.0269000381231308,-1.1006008997509371e-14,-0.021882381290197372,0.01998707838356495,2.505739258458219e-25,-0.01154038030654192
0.026730729267001152,-1.4765965380481635e-16,-0.02140013501048088,0.019646432250738144,1.6360687055164105e-26,-0.012312973849475384
0.027908198535442352,-1.9810427663489196e-18,-0.02114679291844368,0.019241521134972572,1.0682359177678354e-27,-0.011621614918112755
0.0277981236577034,-2.6578216194536625e-20,-0.021610770374536514,0.019402431324124336,6.97481728446846e-29,-0.011382675729691982
0.028020450845360756,-3.5658070442961e-22,-0.021429965272545815,0.019420916214585304,4.554057331921788e-30,-0.011597057804465294
0.026603462174534798,-4.783985034131766e-24,-0.020717648789286613,0.01879766955971718,2.973473851012349e-31,-0.0120646171271801
0.02699570544064045,-6.418326399273703e-26,-0.021172424778342247,0.018901923671364784,1.9414658654748786e-32,-0.011573413386940956
0.02815701626241207,-8.611004189120382e-28,-0.022104162722826004,0.01905123144388199,1.2676385979183619e-33,-0.012030920013785362
0.02814546227455139,-1.155276148914698e-29,-0.021338090300559998,0.019034933298826218,8.276774536312881e-35,-0.012296473607420921
0.02785583585500717,-1.5499504272654288e-31,-0.02072300761938095,0.019399283453822136,5.4041419211381654e-36,-0.01171326357871294
0.028606867417693138,-2.0794559350893577e-33,-0.021479934453964233,0.019640134647488594,3.5285186346680793e-37,-0.01181653793901205
0.028648050501942635,-2.7898556145154893e-35,-0.022000232711434364,0.01925886981189251,-0.00012803424033336341,-0.01157170906662941
0.02773384004831314,-5.0216413287112344e-39,-0.020947881042957306,0.019443845376372337,-0.0004294274258427322,-0.012214330025017262
0.027850868180394173,-6.737162756780856e-41,-0.021718177944421768,0.01954246498644352,-0.00046635407488793135,-0.012319458648562431
0.028802545741200447,-9.03837509489507e-43,-0.02203473448753357,0.019529342651367188,-0.0004337344435043633,-0.012358573265373707
0.02900807186961174,-1.2611686178923354e-44,-0.0215111393481493,0.019687501713633537,-0.0004342257452663034,-0.012211733497679234
0.028911001980304718,-0.0,-0.020968101918697357,0.01935812644660473,-0.0004340078157838434,-0.012660626322031021
0.029251771047711372,0.0003396440006326884,-0.021160796284675598,0.019570041447877884,-0.0004507311969064176,-0.012225750833749771
0.02925596572458744,0.0003388863697182387,-0.021676531061530113,0.01957595720887184,-0.0004393419367261231,-0.01256746705621481
0.029111135751008987,0.0003776416415348649,-0.02119302563369274,0.019281549379229546,-0.0005019430536776781,-0.01241363026201725
0.029065588489174843,0.0003537409647833556,-0.021147185936570168,0.01931076869368553,-0.0005251669208519161,-0.012211091816425323
0.029065588489174843,0.0003537409647833556,-0.021147185936570168,0.01931076869368553,-0.0005251669208519161,-0.012211091816425323
0.029321379959583282,0.00033199938479810953,-0.021160267293453217,0.019168609753251076,-0.000497830449603498,-0.012843129225075245
0.029877226799726486,0.00031276672962121665,-0.021348576992750168,0.01897028088569641,-0.0005128987831994891,-0.012860463000833988
0.029886167496442795,0.00033904644078575075,-0.020836390554904938,0.019673818722367287,-0.0004903440130874515,-0.01290170755237341
0.030095750465989113,0.0003575335431378335,-0.020725972950458527,0.019662002101540565,-0.0005165342590771616,-0.012876033782958984
0.029731187969446182,0.0004715067334473133,-0.021089740097522736,0.019019730389118195,-0.0005651069805026054,-0.013088424690067768
0.029731187969446182,0.0004715067334473133,-0.021089740097522736,0.019019730389118195,-0.0005651069805026054,-0.013088424690067768
0.02957768924534321,0.0005148561322130263,-0.02070540562272072,0.019360292702913284,-0.0005910174804739654,-0.013137946836650372
0.030350765213370323,0.0005424103001132607,-0.0214825589209795,0.019308356568217278,-0.0006214284221641719,-0.013040119782090187
0.029865138232707977,0.0005547117907553911,-0.02185196988284588,0.019274432212114334,-0.0006469079526141286,-0.013097506016492844
0.0298140961676836,0.0005364387761801481,-0.02076544426381588,0.019333792850375175,-0.0007760216249153018,-0.013216906227171421
0.03015640377998352,0.0006836489192210138,-0.020379602909088135,0.019112160429358482,-0.0008460674434900284,-0.013040979392826557
0.029956722632050514,0.0006711653550155461,-0.02137800306081772,0.019381700083613396,-0.0008482889970764518,-0.013431631959974766
0.030353866517543793,0.0006969386013224721,-0.021590029820799828,0.019206108525395393,-0.0008541872375644743,-0.01324374694377184
0.030520573258399963,0.0006884029135107994,-0.02121777832508087,0.019321685656905174,-0.0009317706571891904,-0.013408233411610126
0.030906308442354202,0.0006630704156123102,-0.021464571356773376,0.020233314484357834,-0.0009555565775372088,-0.013151980936527252
0.031185787171125412,0.000677529547829181,-0.021665679290890694,0.01929554156959057,-0.0009324621642008424,-0.013175862841308117
0.03174898028373718,0.0007258148980326951,-0.021138422191143036,0.018481427803635597,-0.000850020966026932,-0.012990893796086311
0.03139786422252655,0.0007558235083706677,-0.021381543949246407,0.018397027626633644,-0.0007617727969773114,-0.012940531596541405
0.03095109388232231,0.0007741690496914089,-0.022014938294887543,0.018157443031668663,-0.0006888919160701334,-0.012734753079712391
0.03153025358915329,0.0010525468969717622,-0.021324025467038155,0.018986845389008522,-0.0006220481009222567,-0.012960424646735191
0.03249312564730644,0.0010369062656536698,-0.020373020321130753,0.01956702023744583,-0.0005467536393553019,-0.01281987689435482
0.031956471502780914,0.001014782814309001,-0.02232091687619686,0.01892424188554287,-0.0004874448641203344,-0.012864681892096996
0.030099807307124138,0.000995143665932119,-0.021695151925086975,0.01913389191031456,-0.00048210457316599786,-0.012793944217264652
0.03174238279461861,0.0009259013459086418,-0.02075730636715889,0.019550424069166183,-0.00047767930664122105,-0.013059087097644806
0.03174238279461861,0.0009259013459086418,-0.02075730636715889,0.019550424069166183,-0.00047767930664122105,-0.013059087097644806
0.03244783356785774,0.000938007899094373,-0.021077122539281845,0.019796060398221016,-0.00044113618787378073,-0.013535269536077976
0.0319332554936409,0.0010536304907873273,-0.02124161459505558,0.019839711487293243,-0.000471134961117059,-0.013430113904178143
0.03249595686793327,0.001457463949918747,-0.021537799388170242,0.019550006836652756,-0.00044218337279744446,-0.013155677355825901
0.03312702476978302,0.0014264574274420738,-0.02132132090628147,0.018569450825452805,-0.00045687489910051227,-0.013177488930523396
0.03273444622755051,0.001342770759947598,-0.02101953700184822,0.018849220126867294,-0.0004439388867467642,-0.01317954994738102
0.0313931368291378,0.0014388993149623275,-0.021450283005833626,0.019594838842749596,-0.0004455260932445526,-0.013267590664327145
0.032064471393823624,0.00137435516808182,-0.021584007889032364,0.01944984681904316,-0.0004838744061999023,-0.013366111554205418
0.032669562846422195,0.0015264858957380056,-0.021052246913313866,0.020973635837435722,-0.0005036744405515492,-0.013260506093502045
0.032470643520355225,0.001684558461420238,-0.021606972441077232,0.019108999520540237,-0.00048243222408927977,-0.013314696028828621
0.03233252093195915,0.0018570930697023869,-0.02182391844689846,0.018333273008465767,-0.00048029408208094537,-0.01330649759620428
0.03268507122993469,0.001960495952516794,-0.021595878526568413,0.018626566976308823,-0.00047705869656056166,-0.01383743155747652
0.03255368769168854,0.0021860094275325537,-0.021297825500369072,0.018663892522454262,-0.0006230103899724782,-0.013654991053044796
0.03253253549337387,0.002146518789231777,-0.021485310047864914,0.018367819488048553,-0.000571326760109514,-0.013763786293566227
0.03273549675941467,0.002107459120452404,-0.021555094048380852,0.018807051703333855,-0.0006026960327289999,-0.01380289439111948
0.03250958025455475,0.002038045320659876,-0.02170475572347641,0.018798088654875755,-0.000614531512837857,-0.014094878919422626
0.032113462686538696,0.002085230778902769,-0.02118559554219246,0.01834137551486492,-0.0005789649439975619,-0.01377416867762804
0.03280000016093254,0.002460627816617489,-0.021262306720018387,0.017810974270105362,-0.0006683402461931109,-0.014027071185410023
0.03331170231103897,0.0026222930755466223,-0.021313223987817764,0.018254948779940605,-0.0007014633738435805,-0.013942441903054714
0.033019762486219406,0.00252221105620265,-0.02099541388452053,0.01876778155565262,-0.0007249977206811309,-0.014023523777723312
0.03198014572262764,0.0027409130707383156,-0.021280262619256973,0.018343068659305573,-0.0006620116764679551,-0.01429049577564001
0.03351736441254616,0.002917239908128977,-0.021679110825061798,0.018562208861112595,-0.0006410832866095006,-0.013773431070148945
0.03420655056834221,0.002948950743302703,-0.020916173234581947,0.018646055832505226,-0.0006229720893315971,-0.01424451731145382
0.03450506925582886,0.002695739036425948,-0.02073776163160801,0.018253760412335396,-0.0006259875372052193,-0.014638190157711506
0.03294610604643822,0.0026084440760314465,-0.02116522751748562,0.018555069342255592,-0.0005951909115538001,-0.014452359639108181
0.03306438773870468,0.0026547012384980917,-0.021265266463160515,0.018630705773830414,-0.0006193710723891854,-0.014367615804076195
0.034061942249536514,0.002537193475291133,-0.021465713158249855,0.018469495698809624,-0.000566789589356631,-0.014148234389722347
0.033711597323417664,0.00300420424900949,-0.021114272996783257,0.018923282623291016,-0.0005136259715072811,-0.014135051518678665
0.03351660445332527,0.003504629712551832,-0.02118520997464657,0.018251467496156693,-0.0005415937048383057,-0.01459985040128231
0.034401051700115204,0.0033540572039783,-0.021137354895472527,0.01761413738131523,-0.0005030565080232918,-0.014768151566386223
0.034401051700115204,0.0033540572039783,-0.021137354895472527,0.01761413738131523,-0.0005030565080232918,-0.014768151566386223
0.03453044220805168,0.003099643625319004,-0.02090100571513176,0.017920397222042084,-0.0005150354118086398,-0.015038619749248028
0.03366173803806305,0.0033655529841780663,-0.021365733817219734,0.01800406165421009,-0.0004948523128405213,-0.01511671207845211
0.033412426710128784,0.0036726363468915224,-0.021660538390278816,0.01781362295150757,-0.0004773726686835289,-0.014797410927712917
0.03385396674275398,0.0032521202228963375,-0.02155340276658535,0.01782466098666191,-0.0004457379109226167,-0.014156284742057323
0.034083008766174316,0.0032497532665729523,-0.021183378994464874,0.01822684146463871,-0.00046600468340329826,-0.014484013430774212
0.03429972752928734,0.0033317452762275934,-0.021319221705198288,0.018640780821442604,-0.0004459623305592686,-0.015116703696548939
0.03404834493994713,0.0035720549058169127,-0.021636825054883957,0.018147407099604607,-0.0004770242376253009,-0.015459020622074604
0.03343775123357773,0.003918421920388937,-0.021753372624516487,0.018150070682168007,-0.0004784225020557642,-0.015135680325329304
0.03384959697723389,0.00392325920984149,-0.0212225541472435,0.018533673137426376,-0.0004755243717227131,-0.0154427420347929
0.033858444541692734,0.003773307427763939,-0.021447138860821724,0.01796872355043888,-0.00045020258403383195,-0.01459502149373293
0.03410288318991661,0.003840992460027337,-0.021577170118689537,0.01809089072048664,-0.0005453773192130029,-0.014964906498789787
0.03442882001399994,0.0044154818169772625,-0.022008126601576805,0.01833479478955269,-0.0005803960375487804,-0.014821600168943405
0.03433343395590782,0.004210165701806545,-0.022370675578713417,0.018464775756001472,-0.0005350272404029965,-0.014728101901710033
0.033799927681684494,0.0040087890811264515,-0.022025316953659058,0.01848706230521202,-0.0005209025694057345,-0.01514887809753418
0.03452468663454056,0.004096329677850008,-0.022019147872924805,0.017795968800783157,-0.0005410565063357353,-0.015332006849348545
0.034882523119449615,0.004007840063422918,-0.021489495411515236,0.01760619319975376,-0.0005124384770169854,-0.015397141687572002
0.03428272157907486,0.0044134752824902534,-0.022082887589931488,0.017033852636814117,-0.000560266780667007,-0.015110745094716549
0.034107599407434464,0.004666805732995272,-0.02309393882751465,0.017416594550013542,-0.0005915220244787633,-0.01529073715209961
0.03440096229314804,0.004611406475305557,-0.021543756127357483,0.018401456996798515,-0.0006104795029386878,-0.015064284205436707
0.03448084741830826,0.004487987607717514,-0.021896176040172577,0.018285810947418213,-0.0005758721963502467,-0.015229581855237484
0.03523877263069153,0.004631356801837683,-0.022516338154673576,0.017947230488061905,-0.0005842808168381453,-0.015169861726462841
0.03474796563386917,0.004783380776643753,-0.023338841274380684,0.01741291955113411,-0.0005563584854826331,-0.01520908810198307
0.03467787429690361,0.0052981083281338215,-0.02244606427848339,0.017308682203292847,-0.0006348680472001433,-0.015142739750444889
0.035010386258363724,0.005572755821049213,-0.022845134139060974,0.018249372020363808,-0.0005737298051826656,-0.01516776718199253
0.035010386258363724,0.005572755821049213,-0.022845134139060974,0.018249372020363808,-0.0005737298051826656,-0.01516776718199253
0.035479623824357986,0.005138000473380089,-0.02222147025167942,0.017951805144548416,-0.0005842691170983016,-0.015454915352165699
0.03496973589062691,0.004053793381899595,-0.022035634145140648,0.017202680930495262,-0.0005478023085743189,-0.015139270573854446
0.03468906879425049,0.005331441760063171,-0.021964317187666893,0.016798987984657288,-0.0004986607818864286,-0.015330340713262558
0.03542846813797951,0.006041497457772493,-0.02314143441617489,0.016784878447651863,-0.0005221465253271163,-0.014895228669047356
0.03660546988248825,0.005407513584941626,-0.023090124130249023,0.017407825216650963,-0.0005243946798145771,-0.015197536908090115
0.03526346758008003,0.005421224050223827,-0.022647198289632797,0.017396846786141396,-0.0005182228633202612,-0.015234704129397869
0.03442114219069481,0.005578374024480581,-0.02274421602487564,0.017800793051719666,-0.0004853428399655968,-0.015524847432971
0.03582223504781723,0.005377614870667458,-0.022951243445277214,0.018352001905441284,-0.00046837853733450174,-0.015466512180864811
0.03559670224785805,0.005907941609621048,-0.023047033697366714,0.01811317168176174,-0.00046878433204256,-0.015541309490799904
0.03669629618525505,0.005585955921560526,-0.022833973169326782,0.01826389506459236,-0.000465855177026242,-0.015205558389425278
0.03609384968876839,0.005874023772776127,-0.02249087393283844,0.017987018451094627,-0.0004931028815917671,-0.01585347019135952
0.03509288653731346,0.006404940504580736,-0.022797223180532455,0.01771024987101555,-0.0005227274377830327,-0.014756466262042522
0.03490865230560303,0.0057810391299426556,-0.02336805872619152,0.01774563267827034,-0.0006356893572956324,-0.015257011167705059
0.036408524960279465,0.005890430882573128,-0.023385699838399887,0.01718975231051445,-0.0007394226267933846,-0.015502514317631721
0.03617672249674797,0.006195737048983574,-0.022208362817764282,0.017788028344511986,-0.0007811935502104461,-0.01558535173535347
0.03699801489710808,0.0061550927348434925,-0.023076731711626053,0.017761997878551483,-0.0007519385544583201,-0.015444345772266388
0.03692323714494705,0.0058320690877735615,-0.02309226803481579,0.018017450347542763,-0.0010051003191620111,-0.01566374860703945
0.03625278174877167,0.006159964017570019,-0.02292509190738201,0.017332913354039192,-0.0010028999531641603,-0.01524159125983715
0.037009138613939285,0.006814427208155394,-0.022585198283195496,0.01743794046342373,-0.0009572691633366048,-0.015253374353051186
0.03677988424897194,0.006506513804197311,-0.022873325273394585,0.017751561477780342,-0.000894401571713388,-0.015410196967422962
0.0369408018887043,0.006398356053978205,-0.022819798439741135,0.017097529023885727,-0.0007987162680365145,-0.015538969077169895
0.037094976752996445,0.0063238986767828465,-0.022966908290982246,0.01744684763252735,-0.0007190614123828709,-0.015631170943379402
0.037094976752996445,0.0063238986767828465,-0.022966908290982246,0.01744684763252735,-0.0007190614123828709,-0.015631170943379402
0.03690541908144951,0.005993320606648922,-0.02265581302344799,0.01743551716208458,-0.0006560051115229726,-0.01606760360300541
0.03699776902794838,0.0064444635063409805,-0.021944230422377586,0.01735631749033928,-0.0006589097320102155,-0.01580136828124523
0.03829599916934967,0.006635990459471941,-0.023234887048602104,0.016753382980823517,-0.000634549418464303,-0.015058686956763268
0.03829599916934967,0.006635990459471941,-0.023234887048602104,0.016753382980823517,-0.000634549418464303,-0.015058686956763268
0.037415556609630585,0.0061943186447024345,-0.023246264085173607,0.017266033217310905,-0.0006531719118356705,-0.015073025599122047
0.036604560911655426,0.006264824885874987,-0.022238600999116898,0.017231646925210953,-0.0007293900707736611,-0.015575885772705078
0.038089413195848465,0.007167562376707792,-0.02220000885426998,0.017548920586705208,-0.0007805591449141502,-0.015676364302635193
0.03737650811672211,0.007042227312922478,-0.022901626303792,0.01781998574733734,-0.0007535384502261877,-0.015849968418478966
0.03847621753811836,0.006405324209481478,-0.02309972420334816,0.01712576113641262,-0.0007675973465666175,-0.015639502555131912
0.03815845027565956,0.00647698063403368,-0.02327723614871502,0.01718061976134777,-0.0007365891942754388,-0.01538363378494978
0.03691987320780754,0.006862465292215347,-0.022529233247041702,0.016797391697764397,-0.0007874518050812185,-0.015525626949965954
0.03674793615937233,0.007012763060629368,-0.022071853280067444,0.017195548862218857,-0.0008096537203527987,-0.01590449921786785
0.03822575509548187,0.006890798453241587,-0.02254509925842285,0.017863105982542038,-0.0008383829845115542,-0.015536426566541195
0.03806256130337715,0.006709657143801451,-0.02283807285130024,0.01791953481733799,-0.0008468632586300373,-0.015664543956518173
0.03750191256403923,0.006485001649707556,-0.022651037201285362,0.018129387870430946,-0.0007725369068793952,-0.015988970175385475
0.037794362753629684,0.007189858239144087,-0.022546740248799324,0.017930155619978905,-0.0008202226017601788,-0.015359470620751381
0.03806554153561592,0.006965091452002525,-0.022609896957874298,0.017364751547574997,-0.0008060095715336502,-0.015211711637675762
0.03802464157342911,0.006702144164592028,-0.022835757583379745,0.01758148893713951,-0.000728598446585238,-0.015559224411845207
0.037728190422058105,0.007043700199574232,-0.02270491048693657,0.017331862822175026,-0.0007528237765654922,-0.015391970984637737
0.03808298334479332,0.004981557838618755,-0.022511638700962067,0.017506342381238937,-0.0007468663970939815,-0.015729770064353943
0.03888989984989166,0.003535736817866564,-0.0226433202624321,0.017393046990036964,-0.0007827377994544804,-0.01614987477660179
0.038685593754053116,0.0035969880409538746,-0.02291356399655342,0.017683571204543114,-0.0007907543331384659,-0.016134727746248245
0.03874889388680458,0.004567235242575407,-0.02262444794178009,0.017350276932120323,-0.0008096157689578831,-0.015883004292845726
0.03884674608707428,0.005761576350778341,-0.022540774196386337,0.017729315906763077,-0.000961816986091435,-0.016134966164827347
0.03833497315645218,0.005241338163614273,-0.022386886179447174,0.018255295231938362,-0.0009437357657589018,-0.016233254224061966
0.03896278515458107,0.004814316052943468,-0.023129858076572418,0.018068702891469002,-0.0008355175377801061,-0.015263380482792854
0.03981894627213478,0.00463616568595171,-0.023385746404528618,0.018108297139406204,-0.0007254669908434153,-0.015365694649517536
0.03981894627213478,0.00463616568595171,-0.023385746404528618,0.018108297139406204,-0.0007254669908434153,-0.015365694649517536
0.03895290940999985,0.005049389787018299,-0.022187309339642525,0.01726730726659298,-0.0007171365432441235,-0.015854809433221817
0.03921391814947128,0.004955456592142582,-0.02236849069595337,0.016974328085780144,-0.0006650720024481416,-0.016285810619592667
0.03924907371401787,0.005413802340626717,-0.02251182682812214,0.01819642260670662,-0.0006828259211033583,-0.01636209338903427
0.03909824788570404,0.005055875983089209,-0.023120952770113945,0.016040928661823273,-0.0005890630418434739,-0.016418924555182457
0.03981821611523628,0.004814535845071077,-0.023270100355148315,0.01609252393245697,-0.0006076939753256738,-0.01604934222996235
0.03941783681511879,0.0049328734166920185,-0.023181824013590813,0.01590322144329548,-0.0006247516721487045,-0.016166118904948235
0.03948616608977318,0.004895392805337906,-0.02277413383126259,0.01631813310086727,-0.0006497089052572846,-0.016226034611463547
0.03881898894906044,0.0048581939190626144,-0.022341413423419,0.01613057404756546,-0.000962903315667063,-0.016424311324954033
0.03990425541996956,0.0050469329580664635,-0.023156961426138878,0.016499582678079605,-0.0010755842085927725,-0.016782445833086967
0.040712181478738785,0.004992819856852293,-0.023230435326695442,0.016762325540184975,-0.0010879695182666183,-0.01672828011214733
0.03883964195847511,0.004910177551209927,-0.023349018767476082,0.017386289313435555,-0.001398031716234982,-0.01672462373971939
0.03804410994052887,0.00501782214269042,-0.023047825321555138,0.017401335760951042,-0.0013608988374471664,-0.01644301973283291
0.039896123111248016,0.004982126876711845,-0.022727923467755318,0.01692710444331169,-0.00123911804985255,-0.016483087092638016
0.04014509916305542,0.004921522922813892,-0.02287726104259491,0.01678176410496235,-0.0011171558871865273,-0.01651209406554699
0.041185859590768814,0.005124883260577917,-0.023250335827469826,0.016292061656713486,-0.0009569780668243766,-0.016676543280482292
0.04052311182022095,0.005469759926199913,-0.02325386554002762,0.016348619014024734,-0.0008552660001441836,-0.016982661560177803
0.040445782244205475,0.00530608557164669,-0.02256036549806595,0.01730632595717907,-0.0008612232049927115,-0.01704951748251915
0.04081016778945923,0.005467399023473263,-0.022872624918818474,0.01828516274690628,-0.0008165063336491585,-0.017042208462953568
0.04044029489159584,0.006132114678621292,-0.023051537573337555,0.018460754305124283,-0.0008206599159166217,-0.016670366749167442
0.04051529988646507,0.005724847782403231,-0.02296793833374977,0.0180584117770195,-0.0008453428163193166,-0.016934173181653023
0.04012024775147438,0.0060128760524094105,-0.0227244533598423,0.017931988462805748,-0.0008537276298739016,-0.01699533499777317
0.04100368171930313,0.006052322220057249,-0.02330271154642105,0.017161689698696136,-0.0008594002574682236,-0.01742510311305523
0.04075002670288086,0.005464769434183836,-0.023467037826776505,0.01744319126009941,-0.0008753422298468649,-0.017510047182440758
0.04061286896467209,0.005975319538265467,-0.02354823239147663,0.017446864396333694,-0.0008922186680138111,-0.017114214599132538
0.04049452394247055,0.005909875966608524,-0.023437825962901115,0.017376480624079704,-0.0008944024448283017,-0.017085561528801918
0.04046078771352768,0.0064715915359556675,-0.022638021036982536,0.017345651984214783,-0.0008378977654501796,-0.01728169433772564
0.04191472753882408,0.006365407723933458,-0.023120395839214325,0.016604231670498848,-0.0008341548382304609,-0.01765712909400463
0.04140882194042206,0.005958660040050745,-0.023389922454953194,0.016637509688735008,-0.0007658099057152867,-0.017596879974007607
0.04140882194042206,0.005958660040050745,-0.023389922454953194,0.016637509688735008,-0.0007658099057152867,-0.017596879974007607
0.03990942984819412,0.006286908872425556,-0.023692790418863297,0.016530754044651985,-0.000734701578039676,-0.018241148442029953
0.04052598029375076,0.006686484441161156,-0.02446792833507061,0.016434522345662117,-0.000754449691157788,-0.016948485746979713
0.04039877653121948,0.007234834600239992,-0.023230887949466705,0.01678008772432804,-0.0007501093205064535,-0.01678997278213501
0.041836224496364594,0.006472426932305098,-0.022465698421001434,0.016668392345309258,-0.0007404654170386493,-0.017591046169400215
0.041788309812545776,0.006395679898560047,-0.02346046082675457,0.016687098890542984,-0.0007159156957641244,-0.01781410723924637
0.03986823186278343,0.006830611266195774,-0.02418064884841442,0.016045480966567993,-0.0008208254585042596,-0.01759607158601284
0.04060548543930054,0.0074632614850997925,-0.024033570662140846,0.016330014914274216,-0.0008374292519874871,-0.01798831857740879
0.042091283947229385,0.0069443522952497005,-0.0234847255051136,0.016903884708881378,-0.0008457908406853676,-0.0182963814586401
0.04174787551164627,0.006301849614828825,-0.023135151714086533,0.01667121797800064,-0.000803530216217041,-0.018349824473261833
0.041478876024484634,0.0065025086514651775,-0.02417447231709957,0.016711266711354256,-0.0008898802334442735,-0.018123460933566093
0.041516195982694626,0.0071820905432105064,-0.02358105592429638,0.01623605191707611,-0.0008396973717026412,-0.018168119713664055
