davideferrari95/blind_handover_controller/data/Test 147 - [2024-02-07 -- 17-29-02]/joint_states_data.csv
shoulder_pan_joint,shoulder_lift_joint,elbow_joint,wrist_1_joint,wrist_2_joint,wrist_3_joint
0.006527517922222614,-0.0017321696504950523,-0.009979958645999432,0.012611129321157932,0.0,0.005706571042537689
0.006527517922222614,-0.0017321696504950523,-0.009979958645999432,0.012611129321157932,0.0,0.005706571042537689
0.005624095443636179,-0.001979881664738059,-0.008974464610219002,0.01251025591045618,0.0,0.0056132241152226925
0.005863200407475233,-0.002326250309124589,-0.009450727142393589,0.012265091761946678,0.0,0.0057914680801332
0.00596854230388999,-0.0022560565266758204,-0.00989073421806097,0.01208363939076662,0.0,0.006037217564880848
0.00596854230388999,-0.0022560565266758204,-0.00989073421806097,0.01208363939076662,0.0,0.006037217564880848
0.005723726470023394,-0.0022481130436062813,-0.00946042314171791,0.012324906885623932,0.0,0.005178104620426893
0.005895863752812147,-0.0023329707328230143,-0.008973400108516216,0.011949416249990463,0.0,0.004964033607393503
0.0059427060186862946,-0.0023026622366160154,-0.009032568894326687,0.01197835523635149,0.0,0.005617160815745592
0.0060249376110732555,-0.0024263840168714523,-0.009906689636409283,0.011777766980230808,0.0,0.005451636854559183
0.005927841179072857,-0.0024293221067637205,-0.009256700053811073,0.011808695271611214,0.0,0.005422000773251057
0.005872719455510378,-0.002247211756184697,-0.009117841720581055,0.012631017714738846,0.0,0.0055550173856318
0.005352445878088474,-0.00209699384868145,-0.009275397285819054,0.01227474957704544,0.0,0.005234630778431892
0.005978679750114679,-0.002089920686557889,-0.009831215254962444,0.01219426840543747,0.0,0.005156554281711578
0.0057596429251134396,-0.002465753350406885,-0.009109714068472385,0.01237416360527277,0.0,0.00542705412954092
0.0057596429251134396,-0.002465753350406885,-0.009109714068472385,0.01237416360527277,0.0,0.00542705412954092
0.005710188299417496,-0.0026454098988324404,-0.009798366576433182,0.012182846665382385,0.0,0.006085049826651812
0.005464630667120218,-0.002468816237524152,-0.009635851718485355,0.012372090481221676,0.0,0.005629474762827158
0.005717604421079159,-0.0024419755209237337,-0.008994600735604763,0.011943654157221317,0.0,0.005372908897697926
0.0062168356962502,-0.0021758214570581913,-0.009228555485606194,0.01241697184741497,0.0,0.005156702362000942
0.0060394518077373505,-0.002214960055425763,-0.00909957941621542,0.012397113256156445,0.0,0.005053171422332525
0.0059349797666072845,-0.0024349582381546497,-0.008881933055818081,0.012561498209834099,0.0,0.005594745744019747
0.005427208729088306,-0.0023912680335342884,-0.009464225731790066,0.012441255152225494,0.0,0.005855811294168234
0.005322385113686323,-0.00282482267357409,-0.010279515758156776,0.01207922026515007,0.0,0.005781195592135191
0.005562921054661274,-0.0025446638464927673,-0.00904726143926382,0.01221975963562727,0.0,0.006050692871212959
0.006045369431376457,-0.002311628544703126,-0.010015206411480904,0.01184080820530653,0.0,0.005634014960378408
0.005626375321298838,-0.0018120715394616127,-0.00980699434876442,0.011888496577739716,2.8915826533193467e-06,0.005735368933528662
0.005735375918447971,-0.0017721587792038918,-0.009164354763925076,0.011736062355339527,1.8879966035001416e-07,0.005270261783152819
0.006020530592650175,-0.0021503919269889593,-0.009286468848586082,0.012915168888866901,8.048826050099933e-10,0.005414578132331371
0.0059994421899318695,-0.002904940163716674,-0.00897781178355217,0.01206076517701149,5.255308688223437e-11,0.005434541031718254
0.005706888157874346,-0.0027609474491328,-0.009125757962465286,0.012414463795721531,3.431340931878135e-12,0.005579118616878986
0.005590226501226425,-0.00246084900572896,-0.009629299864172935,0.012170336209237576,2.2404205769245567e-13,0.005744114518165588
0.005623576231300831,-0.0020997885148972273,-0.009304475970566273,0.01206226833164692,1.4628345396442387e-14,0.005718096625059843
0.005282496102154255,-0.002091566566377878,-0.008709902875125408,0.011839904822409153,9.551265274225658e-16,0.005394832696765661
0.005901013500988483,-0.002428970066830516,-0.009404703043401241,0.01190278586000204,6.236293309049587e-17,0.005610969848930836
0.005895869340747595,-0.0028643973637372255,-0.009338089264929295,0.012067689560353756,4.071853640754545e-18,0.005570433102548122
0.005763242021203041,-0.002932415809482336,-0.008966939523816109,0.011607657186686993,2.658629574579322e-19,0.005600480828434229
0.005153783597052097,-0.0026977260131388903,-0.009953072294592857,0.011980739422142506,1.7358952225509282e-20,0.005474998150020838
0.005130203440785408,-0.0025455651339143515,-0.009084132499992847,0.012070754542946815,1.1334156586533554e-21,0.005615578964352608
0.005702935624867678,-0.002239505061879754,-0.009363905526697636,0.01194070465862751,7.400394397565869e-23,0.005734998267143965
0.005702935624867678,-0.002239505061879754,-0.009363905526697636,0.01194070465862751,7.400394397565869e-23,0.005734998267143965
0.005784224718809128,-0.002833545207977295,-0.009172683581709862,0.011638790369033813,3.1549039907210695e-25,0.005584557540714741
0.005784224718809128,-0.002833545207977295,-0.009172683581709862,0.011638790369033813,3.1549039907210695e-25,0.005584557540714741
0.00580349937081337,-0.0030256633181124926,-0.00874275341629982,0.01204382348805666,2.0599269054539667e-26,0.005736440885812044
0.005596734583377838,-0.0028475045692175627,-0.009384543634951115,0.012147648259997368,1.3449850211319841e-27,0.006005651783198118
0.005782861728221178,-0.0027770574670284986,-0.009574862197041512,0.01254724059253931,8.781790360281295e-29,0.005569735541939735
0.0056998818181455135,-0.0024532305542379618,-0.009193668141961098,0.011559314094483852,5.733881639695217e-30,0.0057786861434578896
0.005769130773842335,-0.002568426076322794,-0.01015236135572195,0.01181772630661726,3.7438147957163815e-31,0.005407209973782301
0.005537037737667561,-0.00276239519007504,-0.009159243665635586,0.01267449650913477,2.4444435882076178e-32,0.00586337735876441
0.005586112383753061,-0.0031188251450657845,-0.009576519019901752,0.01220947690308094,1.5960469239541464e-33,0.005520376842468977
0.005996037740260363,-0.0030414583161473274,-0.009417475201189518,0.012002281844615936,1.0421045553908774e-34,0.005697498098015785
0.005499457474797964,-0.0025630700401961803,-0.009446125477552414,0.011398103088140488,6.804198095138002e-36,0.005472957622259855
0.005788867827504873,-0.0023449903819710016,-0.009908100590109825,0.011619641445577145,1.8939725836059936e-39,0.005149386823177338
0.005788867827504873,-0.0023449903819710016,-0.009908100590109825,0.011619641445577145,1.8939725836059936e-39,0.005149386823177338
0.005378625355660915,-0.0028649556916207075,-0.009270437993109226,0.0117803905159235,1.2366318817820078e-40,0.0052476306445896626
0.005483674351125956,-0.0030468041077256203,-0.00877343863248825,0.011516283266246319,8.074281751439596e-42,0.005332212429493666
0.005622133146971464,-0.002925165230408311,-0.009464070200920105,0.012126903980970383,5.268882225861312e-43,0.005544514860957861
0.005985025316476822,-0.0027066748589277267,-0.00953333918005228,0.011851320043206215,3.5032461608120427e-44,0.005323118530213833
0.005402871873229742,-0.0028488461393862963,-0.009403355419635773,0.01126948930323124,2.802596928649634e-45,0.005821751896291971
0.00539693608880043,-0.002626393921673298,-0.009821665473282337,0.0115903215482831,0.0,0.005960248410701752
0.005629281513392925,-0.0025093851145356894,-0.009274456650018692,0.011387106962502003,0.0,0.005833491217344999
0.005962658207863569,-0.002684977138414979,-0.009071874432265759,0.0118997972458601,0.0,0.005790108349174261
0.00586059782654047,-0.0028003500774502754,-0.010334244929254055,0.01205555722117424,0.0,0.00559477973729372
0.0054587009362876415,-0.0029609836637973785,-0.009603651240468025,0.011846799403429031,0.0,0.005768219009041786
0.0053001027554273605,-0.002694660797715187,-0.009291313588619232,0.012373311445116997,0.0,0.005765481851994991
0.006076203193515539,-0.002497937995940447,-0.00971939042210579,0.011871409602463245,0.0,0.005459509324282408
0.006076203193515539,-0.002497937995940447,-0.00971939042210579,0.011871409602463245,0.0,0.005459509324282408
0.005851675756275654,-0.0022361245937645435,-0.009456790052354336,0.011542025953531265,0.0,0.005641230382025242
0.0058258590288460255,-0.0018473335076123476,-0.00951327197253704,0.012350987643003464,0.0,0.005553911440074444
0.0059756631962955,-0.0018108281074091792,-0.010437354445457458,0.012836147099733353,0.0,0.005849315319210291
0.005724186543375254,-0.001679599634371698,-0.009601196274161339,0.012793131172657013,0.0,0.005999437533318996
0.005471730604767799,-0.0017292611300945282,-0.009044063277542591,0.011640064418315887,0.0,0.005805793218314648
0.0057500069960951805,-0.0022982966620475054,-0.00985381193459034,0.01200919784605503,0.0,0.005601726472377777
0.006116906180977821,-0.0025258485693484545,-0.010313184931874275,0.012165619991719723,0.0,0.005368846468627453
0.005803593434393406,-0.002322685206308961,-0.009901860728859901,0.012620327062904835,0.0,0.00594269298017025
0.005656690336763859,-0.0018497549463063478,-0.010096356272697449,0.012850373983383179,0.0,0.006210556253790855
0.005309977103024721,-0.0018126999493688345,-0.009610828012228012,0.011956723406910896,0.0,0.00595035869628191
0.005751616787165403,-0.0015783966518938541,-0.010792139917612076,0.012465618550777435,0.0,0.005583107937127352
0.006098615005612373,-0.0016095810569822788,-0.009962338022887707,0.012127607129514217,0.0,0.005478012841194868
0.005463027860969305,-0.001773717114701867,-0.009525317698717117,0.01142204087227583,0.0,0.005915825720876455
0.005363484378904104,-0.0017885061679407954,-0.010108033195137978,0.010802548378705978,0.0,0.005629747174680233
0.005363484378904104,-0.0017885061679407954,-0.010108033195137978,0.010802548378705978,0.0,0.005629747174680233
0.005746087059378624,-0.0018743526889011264,-0.009300175122916698,0.010943339206278324,0.0,0.0054842326790094376
0.005703465547412634,-0.0017781343776732683,-0.009915321134030819,0.011326709762215614,0.0,0.005381844472140074
0.006042157299816608,-0.001618697657249868,-0.009644945152103901,0.011907586827874184,0.0,0.005237735342234373
0.0056865522637963295,-0.0016388921067118645,-0.009160489775240421,0.012010564096271992,0.0,0.00585404597222805
0.005895229056477547,-0.0016697938553988934,-0.009589344263076782,0.011875192634761333,0.0,0.005790121387690306
0.005590291228145361,-0.0018646271200850606,-0.009522360749542713,0.011583182960748672,0.0,0.005714740604162216
0.005590291228145361,-0.0018646271200850606,-0.009522360749542713,0.011583182960748672,0.0,0.005714740604162216
0.005772794131189585,-0.0019628757145255804,-0.009503223933279514,0.012205662205815315,0.0,0.005294503644108772
0.005957040470093489,-0.00194479338824749,-0.010091211646795273,0.011869954876601696,0.0,0.00570640480145812
0.005572121124714613,-0.0018491814844310284,-0.009704789146780968,0.011840004473924637,0.0,0.005835582502186298
0.005572121124714613,-0.0018491814844310284,-0.009704789146780968,0.011840004473924637,0.0,0.005835582502186298
0.005831637419760227,-0.0017953047063201666,-0.010534861125051975,0.01165340468287468,0.0,0.00588828744366765
0.0060712723061442375,-0.0016626173164695501,-0.008825987577438354,0.011703390628099442,0.0,0.005856635514646769
0.005712837912142277,-0.001645913696847856,-0.008762499317526817,0.011561542749404907,0.0,0.0055718207731842995
0.005683138035237789,-0.0016840880271047354,-0.009713837876915932,0.011416730470955372,0.0,0.005967007949948311
0.006013584788888693,-0.0018446650356054306,-0.009584205225110054,0.011354092508554459,0.0,0.006150111090391874
0.005945710465312004,-0.0018426132155582309,-0.009151420556008816,0.011059090495109558,0.0,0.005657074507325888
0.005866161547601223,-0.0019368043867871165,-0.010559926740825176,0.011103453114628792,0.0,0.00585275050252676
0.005866161547601223,-0.0019368043867871165,-0.010559926740825176,0.011103453114628792,0.0,0.00585275050252676
0.00580458203330636,-0.001848131068982184,-0.009209446609020233,0.01099245622754097,0.0,0.00577485142275691
0.00574229983612895,-0.0016593525651842356,-0.009727581404149532,0.01151485275477171,0.0,0.005734924226999283
0.005846213083714247,-0.0019111104775220156,-0.009189214557409286,0.011935238726437092,0.0,0.005515098571777344
0.0057513597421348095,-0.002222353359684348,-0.009258545003831387,0.011695618741214275,0.0,0.005420801695436239
0.005524020176380873,-0.0021400549449026585,-0.009504871442914009,0.011373104527592659,0.0,0.005474302917718887
0.005674133077263832,-0.002031541196629405,-0.008879052475094795,0.011398606933653355,0.0,0.005742248147726059
0.006141819059848785,-0.001970291370525956,-0.00923882331699133,0.010982862673699856,0.0,0.005900448653846979
0.005750293843448162,-0.0018065444892272353,-0.009442886337637901,0.010876967571675777,0.0,0.005941620096564293
0.0058006285689771175,-0.0018002886790782213,-0.009131254628300667,0.011174107901751995,0.0,0.005913734436035156
0.0058006285689771175,-0.0018002886790782213,-0.009131254628300667,0.011174107901751995,0.0,0.005913734436035156
0.005569875705987215,-0.0019694212824106216,-0.009084856137633324,0.010797000490128994,0.0,0.00587796326726675
0.00575987296178937,-0.0019335979595780373,-0.009321529418230057,0.011051831766963005,0.0,0.005581322126090527
0.005781928077340126,-0.0018907110206782818,-0.00907906610518694,0.011129697784781456,0.0,0.005868538748472929
0.005781928077340126,-0.0018907110206782818,-0.00907906610518694,0.011129697784781456,0.0,0.005868538748472929
0.0054603698663413525,-0.0016118690837174654,-0.009493633173406124,0.01144067570567131,0.0,0.005943475291132927
0.0054603698663413525,-0.0016118690837174654,-0.009493633173406124,0.01144067570567131,0.0,0.005943475291132927
0.006012158002704382,-0.0016857633600011468,-0.009175765328109264,0.011285489425063133,0.0,0.0057539185509085655
0.005719105713069439,-0.001801756676286459,-0.009126683697104454,0.011421005241572857,0.0,0.005617488641291857
0.00598829984664917,-0.0021852157078683376,-0.010015360079705715,0.011362372897565365,0.0,0.005487589631229639
0.005704199895262718,-0.002192879095673561,-0.009160171262919903,0.011892014183104038,0.0,0.005848538596183062
0.005713016726076603,-0.0022406261414289474,-0.00952412374317646,0.012075663544237614,0.0,0.005852555390447378
0.006118870805948973,-0.0021332958713173866,-0.009609052911400795,0.011613544076681137,0.0,0.005993121303617954
0.006046972703188658,-0.0019483935320749879,-0.00901823490858078,0.011629423126578331,0.0,0.0062838830053806305
0.0063384524546563625,-0.0019040948245674372,-0.00949141662567854,0.01106394175440073,0.0,0.006291213445365429
0.005822360049933195,-0.002001069253310561,-0.009485367685556412,0.011142698116600513,0.0,0.00532347708940506
0.005958720110356808,-0.0019562910310924053,-0.008836868219077587,0.010867206379771233,0.0,0.005283511709421873
0.005844670347869396,-0.0022042517084628344,-0.009114298969507217,0.011185341514647007,0.0,0.0059397174045443535
0.006150655448436737,-0.002078928053379059,-0.009071649983525276,0.010929952375590801,0.0,0.005682766903191805
0.005980373825877905,-0.0018512260867282748,-0.008936223573982716,0.011140208691358566,0.0,0.00556157948449254
0.006028373260051012,-0.0016797168646007776,-0.009361854754388332,0.011129246093332767,0.0,0.005544083658605814
0.0055427029728889465,-0.0017065462889149785,-0.009180990979075432,0.01090939249843359,0.0,0.0062164864502847195
0.005926161073148251,-0.002087250119075179,-0.008575266227126122,0.011590137146413326,0.0,0.00638038944453001
0.0061600953340530396,-0.00197612214833498,-0.009092298336327076,0.011171137914061546,0.0,0.005639680661261082
0.0061600953340530396,-0.00197612214833498,-0.009092298336327076,0.011171137914061546,0.0,0.005639680661261082
0.005808327347040176,-0.002232220722362399,-0.009238152764737606,0.010813533328473568,0.0,0.005873920861631632
0.0057066441513597965,-0.002030646428465843,-0.008614631369709969,0.010950385592877865,0.0,0.005529866553843021
0.006363292690366507,-0.0018949753139168024,-0.008899557404220104,0.011709002777934074,0.0,0.006064713466912508
0.006363292690366507,-0.0018949753139168024,-0.008899557404220104,0.011709002777934074,0.0,0.006064713466912508
0.006001004949212074,-0.0020841192454099655,-0.00868138112127781,0.011615111492574215,0.0,0.006090441718697548
0.005946001969277859,-0.002207623329013586,-0.008945918641984463,0.011934717185795307,0.0,0.005665475968271494
0.005619996227324009,-0.0021897160913795233,-0.009235590696334839,0.012129141949117184,0.0,0.005618289113044739
0.005602086428552866,-0.0021408291067928076,-0.008768344298005104,0.011717093177139759,0.0,0.005804372485727072
0.006067750509828329,-0.002049502916634083,-0.008441207930445671,0.011926969513297081,0.0,0.006323126144707203
0.006138412281870842,-0.0019533359445631504,-0.009092838503420353,0.01076886709779501,0.0,0.005900237709283829
0.006319237407296896,-0.0019143943209201097,-0.008691019378602505,0.010054478421807289,0.0,0.005600845441222191
0.005718058906495571,-0.0018780335085466504,-0.008559947833418846,0.0106681939214468,0.0,0.006157645955681801
0.005726821720600128,-0.0018065565964207053,-0.00937310978770256,0.010193449445068836,0.0,0.006519225426018238
0.0061642201617360115,-0.0018228826811537147,-0.00889589637517929,0.010770023800432682,0.0,0.006291576661169529
0.005969292018562555,-0.0018831724300980568,-0.008468152023851871,0.011456234380602837,0.0,0.005829717963933945
0.006133627146482468,-0.0020225998014211655,-0.008709308691322803,0.011021861806511879,0.0,0.0058475579135119915
0.005668208003044128,-0.0021933866664767265,-0.009170887060463428,0.011051744222640991,0.0,0.0063691046088933945
0.006123681087046862,-0.0021433935035020113,-0.008257746696472168,0.010677368380129337,0.0,0.006206903140991926
0.006125439889729023,-0.0021050614304840565,-0.009031970053911209,0.01105094887316227,0.0,0.006070454604923725
0.006325296126306057,-0.001978021813556552,-0.008976520039141178,0.010727419517934322,0.0,0.005648304708302021
0.005698984954506159,-0.0019660922698676586,-0.008681576699018478,0.01149772573262453,0.0,0.005368468817323446
0.005635769106447697,-0.0018984919879585505,-0.009305356070399284,0.011973217129707336,0.0,0.005482470616698265
0.0060333628207445145,-0.0020934036001563072,-0.009162047877907753,0.011367379687726498,0.0,0.0060274130664765835
0.0060333628207445145,-0.0020934036001563072,-0.009162047877907753,0.011367379687726498,0.0,0.0060274130664765835
0.006102212704718113,-0.0021121122408658266,-0.008561684750020504,0.011406386271119118,0.0,0.006039066705852747
0.006102212704718113,-0.0021121122408658266,-0.008561684750020504,0.011406386271119118,0.0,0.006039066705852747
0.006468205247074366,-0.002027989597991109,-0.0093837333843112,0.011079085059463978,0.0,0.005760698113590479
0.005669631529599428,-0.0017856338527053595,-0.008647182025015354,0.010997551493346691,0.0,0.0058485534973442554
0.005919111892580986,-0.001695788698270917,-0.008571015670895576,0.010785832069814205,0.0,0.006172743160277605
0.006011462304741144,-0.0017440717201679945,-0.009442726150155067,0.011075355112552643,0.0,0.006253558676689863
0.006121139507740736,-0.0021054919343441725,-0.00865289568901062,0.010983767919242382,0.0,0.005687113851308823
0.005841244477778673,-0.002130680251866579,-0.008781829848885536,0.010744019411504269,0.0,0.005828259978443384
0.005727082025259733,-0.0025083275977522135,-0.008942010812461376,0.011185907758772373,0.0,0.0060544139705598354
0.0059665353037416935,-0.0022040707990527153,-0.008965248242020607,0.010814318433403969,0.0,0.006347870919853449
0.005911846645176411,-0.002197711728513241,-0.008899548090994358,0.010848085395991802,0.0,0.006091956049203873
0.006054118741303682,-0.0019759417045861483,-0.008635439909994602,0.010881139896810055,0.0,0.0059381574392318726
0.006449914071708918,-0.002003193600103259,-0.009600006975233555,0.010674795135855675,0.0,0.005975504871457815
0.005770358256995678,-0.0020584994927048683,-0.009526725858449936,0.011193085461854935,0.0,0.006323005072772503
0.0058709424920380116,-0.0022898027673363686,-0.00929100438952446,0.01098745409399271,0.0,0.006407746113836765
0.00613544974476099,-0.0023902086541056633,-0.009234994649887085,0.010626129806041718,0.0,0.0063687521032989025
0.006153099704533815,-0.002262101275846362,-0.008778286166489124,0.01084120199084282,0.0,0.006195558235049248
0.005859986413270235,-0.00206090253777802,-0.009520950727164745,0.010891999118030071,0.0,0.0062299445271492004
0.006227182690054178,-0.002035784302279353,-0.009141381829977036,0.010705766268074512,0.0,0.006235990207642317
0.006300696637481451,-0.0018953869584947824,-0.008908332325518131,0.010228813625872135,0.0,0.005960716400295496
0.005989334546029568,-0.0022475451696664095,-0.009741762652993202,0.010863667353987694,0.0,0.00626400439068675
0.006193086504936218,-0.002471892163157463,-0.009543433785438538,0.010752319358289242,0.0,0.006377066019922495
0.006368435453623533,-0.0023757293820381165,-0.009516116231679916,0.010452289134263992,0.0,0.006997967604547739
0.006368435453623533,-0.0023757293820381165,-0.009516116231679916,0.010452289134263992,0.0,0.006997967604547739
0.0059501901268959045,-0.002397469710558653,-0.00956239178776741,0.010464486666023731,0.0,0.006135599222034216
0.006380260456353426,-0.0021680593490600586,-0.00935849454253912,0.010361277498304844,0.0,0.005864979233592749
0.006557739805430174,-0.002273309975862503,-0.009307298809289932,0.010258916765451431,0.0,0.005985066294670105
0.0059766885824501514,-0.002302273642271757,-0.009646127931773663,0.010673047043383121,0.0,0.006172336172312498
0.006216210778802633,-0.0022640912793576717,-0.009200166910886765,0.010485122911632061,0.0,0.0066370670683681965
0.0068884980864822865,-0.0024551167152822018,-0.00870839785784483,0.010779954493045807,0.0,0.0061027840711176395
0.006329793948680162,-0.0024647137615829706,-0.010309510864317417,0.010936176404356956,0.0,0.005946355406194925
0.006315401289612055,-0.0022690058685839176,-0.009329412132501602,0.010221063159406185,0.0,0.006059637293219566
0.006448664702475071,-0.0018365586875006557,-0.008829448372125626,0.010658053681254387,0.0,0.0062690735794603825
0.006468816660344601,-0.0018042519222944975,-0.008812105283141136,0.010828460566699505,0.0,0.006493700668215752
0.006426241248846054,-0.0020328836981207132,-0.009400300681591034,0.009907293133437634,0.0,0.006299077998846769
0.006517963018268347,-0.002039732877165079,-0.00884463544934988,0.010161343961954117,0.0,0.005822791717946529
0.006595783866941929,-0.0025237768422812223,-0.008743184618651867,0.010305756703019142,0.0,0.005994955077767372
0.006108841858804226,-0.0024031077045947313,-0.008749224245548248,0.010691085830330849,0.0,0.006250644568353891
0.0064339484088122845,-0.0022837058641016483,-0.009677460417151451,0.011313310824334621,0.0,0.006444210652261972
0.006917992606759071,-0.0014442388201132417,-0.009651603177189827,0.010531442239880562,0.0,0.006256141234189272
0.00648927828297019,-0.0012830767082050443,-0.009050254710018635,0.01078129094094038,0.0,0.006087925285100937
0.006482288241386414,-0.001207741443067789,-0.009469765238463879,0.010227966122329235,0.0,0.006466126535087824
0.006793077103793621,-0.0011693828273564577,-0.009393762797117233,0.01061414834111929,0.0,0.006805554497987032
0.0065966821275651455,-0.001081440830603242,-0.009484776295721531,0.010510342195630074,0.0,0.006588233634829521
0.006509259808808565,-0.0011988113401457667,-0.008692187257111073,0.01046830229461193,0.0,0.006191471591591835
0.006489854771643877,-0.0021186380181461573,-0.009346784092485905,0.010962332598865032,0.0,0.006427485030144453
0.006678289733827114,-0.0019293155055493116,-0.00913583766669035,0.010597333312034607,0.0,0.006495033856481314
0.006823272909969091,-0.0016460279002785683,-0.009263723157346249,0.010607209987938404,0.0,0.006083048414438963
0.006775984074920416,-0.0014504209393635392,-0.008847657591104507,0.01103513315320015,0.0,0.005685413256287575
0.006775984074920416,-0.0014504209393635392,-0.008847657591104507,0.01103513315320015,0.0,0.005685413256287575
0.006328123155981302,-0.0013329137582331896,-0.009129549376666546,0.010795474983751774,0.0,0.005922151263803244
0.006507296580821276,-0.0012567860540002584,-0.008852451108396053,0.010918907821178436,0.0,0.0062077222391963005
0.007030811160802841,-0.0009673537570051849,-0.009025956504046917,0.011275564320385456,0.0,0.006768052000552416
0.0074528977274894714,-0.00104257941711694,-0.009354526177048683,0.010352370329201221,0.0,0.006638451479375362
0.006954926066100597,-0.0010641367407515645,-0.008641481399536133,0.010828162543475628,0.0,0.00580058665946126
0.0066183931194245815,-0.0014911178732290864,-0.00901805143803358,0.010432986542582512,0.0,0.006685466971248388
0.0066183931194245815,-0.0014911178732290864,-0.00901805143803358,0.010432986542582512,0.0,0.006685466971248388
0.00687291007488966,-0.0015369225293397903,-0.008899673819541931,0.010867992416024208,0.0,0.007092718034982681
0.007065634708851576,-0.0015566253568977118,-0.008852575905621052,0.010292013175785542,0.0,0.006404409185051918
0.006490910891443491,-0.001466187066398561,-0.0085294833406806,0.010353520512580872,0.0,0.00649267015978694
0.006238667760044336,-0.001271266140975058,-0.009116902947425842,0.010885264724493027,0.0,0.006511123850941658
0.006866191979497671,-0.0013256017118692398,-0.008665159344673157,0.010909694246947765,0.0,0.0066931662149727345
0.0066741108894348145,-0.00129261938855052,-0.008752011694014072,0.0112700080499053,0.0,0.0066766743548214436
0.006726022809743881,-0.0015663543017581105,-0.009349205531179905,0.010592315346002579,0.0,0.006525024306029081
0.00747302221134305,-0.0015136564616113901,-0.008809802122414112,0.010410163551568985,0.0,0.0061897942796349525
0.006859843153506517,-0.0014233284164220095,-0.009555085562169552,0.0106574147939682,0.0,0.006528464145958424
0.006759640760719776,-0.0014405827969312668,-0.009158910252153873,0.01022158283740282,0.0,0.006824078969657421
0.006577633321285248,-0.0013173703337088227,-0.008603649213910103,0.010474460199475288,0.0,0.006480508483946323
0.006940153427422047,-0.001384265604428947,-0.009353749454021454,0.010745720937848091,0.0,0.005996720399707556
0.007413217332214117,-0.0013393523404374719,-0.009465668350458145,0.01080828532576561,0.0,0.006170271430164576
0.0070777577348053455,-0.001606576843187213,-0.009357323870062828,0.010931244120001793,0.0,0.0069892737083137035
0.006493253167718649,-0.0016130091389641166,-0.008592343889176846,0.010687634348869324,0.0,0.006932015065103769
0.006488490384072065,-0.0018011369975283742,-0.00920871365815401,0.010958234779536724,0.0,0.006727827247232199
0.006833378225564957,-0.0016532931476831436,-0.008896411396563053,0.011091959662735462,0.0,0.0067489561624825
0.007230803370475769,-0.001510877744294703,-0.008701159618794918,0.010985668748617172,0.0,0.006676642224192619
0.007104313001036644,-0.0012673118617385626,-0.009225997142493725,0.011136792600154877,0.0,0.0062454515136778355
0.007104313001036644,-0.0012673118617385626,-0.009225997142493725,0.011136792600154877,0.0,0.0062454515136778355
0.007461986970156431,-0.0013166246935725212,-0.009378859773278236,0.010984588414430618,0.0,0.006915035657584667
0.006790708750486374,-0.0014876998029649258,-0.009149335324764252,0.01140271220356226,0.0,0.006575081031769514
0.006790708750486374,-0.0014876998029649258,-0.009149335324764252,0.01140271220356226,0.0,0.006575081031769514
0.006820638198405504,-0.0015637881588190794,-0.009270574897527695,0.010621078312397003,0.0,0.006777023430913687
0.0069776796735823154,-0.0017803150694817305,-0.008618177846074104,0.010749490931630135,0.0,0.006656039506196976
0.007219263352453709,-0.001815006835386157,-0.00973472185432911,0.011184423230588436,0.0,0.006363024935126305
0.0069641610607504845,-0.0016832357505336404,-0.009617690928280354,0.01108534075319767,0.0,0.006592017598450184
0.007206459064036608,-0.00170982931740582,-0.00925438106060028,0.011835155077278614,0.0,0.007219228427857161
0.006962968502193689,-0.0015532986726611853,-0.008531211875379086,0.01137702539563179,0.0,0.006920646410435438
0.006689903791993856,-0.0014495104551315308,-0.00935822632163763,0.010783180594444275,0.0,0.0061098020523786545
0.007997492328286171,-0.0013769606593996286,-0.008993249386548996,0.010921308770775795,0.0,0.006308150943368673
0.006846741773188114,-0.001764934859238565,-0.00938320904970169,0.010921914130449295,0.0,0.006808245554566383
0.006652627140283585,-0.0018802066333591938,-0.009327573701739311,0.011311112903058529,0.0,0.007303961552679539
0.007375834509730339,-0.0018448997288942337,-0.008916917257010937,0.010523722507059574,0.0,0.007126561366021633
0.007440675515681505,-0.0016752277733758092,-0.01005755364894867,0.010974397882819176,0.0,0.007021995261311531
0.006952210329473019,-0.0015502037713304162,-0.009538545273244381,0.011487971059978008,0.0,0.0071631986647844315
0.006505848374217749,-0.0015573500422760844,-0.009320315904915333,0.0112079456448555,0.0,0.007250288967043161
0.007131596561521292,-0.0014779760967940092,-0.009271543473005295,0.01134764589369297,0.0,0.006638039834797382
0.007269307039678097,-0.0015529984375461936,-0.00949309766292572,0.01108192466199398,0.0,0.0065653566271066666
0.0072141471318900585,-0.0014726705849170685,-0.009426233358681202,0.010999789461493492,0.0,0.0070816813968122005
0.006865258328616619,-0.001719450461678207,-0.009507833048701286,0.01035251747816801,0.0,0.006916793063282967
0.0073651643469929695,-0.0016107697738334537,-0.00963456928730011,0.009804731234908104,0.0,0.0067213550209999084
0.007270000874996185,-0.00172718265093863,-0.00893873255699873,0.010409756563603878,0.0,0.006479531992226839
0.007105198223143816,-0.0016998015344142914,-0.009570334106683731,0.010480908676981926,0.0,0.006840602029114962
0.007105198223143816,-0.0016998015344142914,-0.009570334106683731,0.010480908676981926,0.0,0.006840602029114962
0.006932221818715334,-0.0015450975624844432,-0.00940680131316185,0.010226712562143803,0.0,0.007132267113775015
0.007061921060085297,-0.001548056723549962,-0.009813828393816948,0.010779137723147869,0.0,0.006760369520634413
0.0074448492377996445,-0.0014748717658221722,-0.009300586767494678,0.010620180517435074,0.0,0.006427818443626165
0.007147257681936026,-0.001551865367218852,-0.009525367990136147,0.010185206308960915,0.0,0.006970604415982962
0.007296754512935877,-0.0016122956294566393,-0.009402467869222164,0.010143250226974487,0.0,0.007086738478392363
0.007550397887825966,-0.0018862583674490452,-0.009428421035408974,0.009991760365664959,0.0,0.00682077556848526
0.007668252568691969,-0.001876480528153479,-0.010126660577952862,0.009710646234452724,0.0,0.006607024930417538
0.006979391910135746,-0.0018589039100334048,-0.009079614654183388,0.010747083462774754,0.0,0.006808500271290541
0.007109213620424271,-0.0016800651792436838,-0.009749455377459526,0.010228860192000866,0.0,0.007191453129053116
0.006771124433726072,-0.001578000490553677,-0.009898025542497635,0.009737018495798111,0.0,0.007360590621829033
0.007288326509296894,-0.0014984222361817956,-0.009272079914808273,0.010348756797611713,0.0,0.007339217234402895
0.007319768890738487,-0.0015002049040049314,-0.008952758274972439,0.010057422332465649,0.0,0.007738512475043535
0.007118259556591511,-0.001623406889848411,-0.009703277610242367,0.010452342219650745,0.0,0.007864915765821934
0.007414559368044138,-0.0014244705671444535,-0.008546707220375538,0.010095690377056599,0.0,0.00620916998013854
0.007414559368044138,-0.0014244705671444535,-0.008546707220375538,0.010095690377056599,0.0,0.00620916998013854
0.0071773710660636425,-0.0015173900173977017,-0.009014956653118134,0.010918698273599148,0.0,0.007093321532011032
0.007159932050853968,-0.0014443718828260899,-0.008813572116196156,0.010031232610344887,0.0,0.007392547093331814
0.007450590841472149,-0.0015157045563682914,-0.00939273089170456,0.009755152277648449,0.0,0.007213514763861895
0.007488619536161423,-0.001456276630051434,-0.009606805630028248,0.01021174993366003,0.0,0.006974558811634779
0.007380496244877577,-0.0016242675483226776,-0.009548292495310307,0.010158511810004711,0.0,0.006788779050111771
0.007216246798634529,-0.0016168622532859445,-0.009799984283745289,0.010512755252420902,0.0,0.007291968446224928
0.00816905964165926,-0.001532958005554974,-0.009602087549865246,0.010686008259654045,0.0,0.007588907144963741
0.008489331230521202,-0.0015444116434082389,-0.009137009270489216,0.01007907185703516,0.0,0.006959306541830301
0.007242877967655659,-0.001456897472962737,-0.010206923820078373,0.010499419644474983,0.0,0.007080334238708019
0.007170829456299543,-0.0013155055930837989,-0.010539197362959385,0.010397969745099545,0.0,0.007566770538687706
0.007170829456299543,-0.0013155055930837989,-0.010539197362959385,0.010397969745099545,0.0,0.007566770538687706
0.008117575198411942,-0.0013666041195392609,-0.0095498813316226,0.010133774019777775,0.0,0.007419286295771599
0.007980262860655785,-0.0013202858390286565,-0.009840887039899826,0.010441608726978302,0.0,0.007272218819707632
0.007566438987851143,-0.001520188874565065,-0.009877245873212814,0.010687346570193768,0.0,0.0072183758020401
0.007577175740152597,-0.001543415361084044,-0.00959937833249569,0.010267295874655247,0.0,0.007278090808540583
0.007678654510527849,-0.0017803863156586885,-0.010781177319586277,0.010564050637185574,0.0,0.0068116262555122375
0.007969875819981098,-0.0016429920215159655,-0.01017430517822504,0.009798243641853333,0.0,0.0070861694402992725
0.007547156419605017,-0.0015035109827294946,-0.009707261808216572,0.010286359116435051,0.0,0.007031838409602642
0.0074595557525753975,-0.00144021341111511,-0.010800947435200214,0.010233588516712189,0.0,0.007228926755487919
0.007636247202754021,-0.001387271680869162,-0.010334337130188942,0.01002076268196106,0.0,0.006967591587454081
0.00773621303960681,-0.0013364311307668686,-0.009684923104941845,0.010039761662483215,0.0,0.007087542209774256
0.0072947293519973755,-0.0014451449969783425,-0.010154135525226593,0.010251631028950214,0.0,0.006878031883388758
0.007421846501529217,-0.0014600945869460702,-0.010198713280260563,0.009863900020718575,0.0,0.007009466644376516
0.008425870910286903,-0.001464668195694685,-0.010836518369615078,0.010398242622613907,0.0,0.007938684895634651
0.007989217527210712,-0.0013969058636575937,-0.010180213488638401,0.010167098604142666,0.0,0.007819335907697678
0.007809316739439964,-0.0015014419332146645,-0.010305341333150864,0.010160396806895733,0.0,0.007584902457892895
0.007722188718616962,-0.0014376852195709944,-0.010332630015909672,0.010624696500599384,0.0,0.00735888397321105
0.007694591302424669,-0.001337874331511557,-0.010286996141076088,0.010190794244408607,0.0,0.007307057268917561
0.007958936505019665,-0.001138633699156344,-0.00977103877812624,0.01016195211559534,0.0,0.00782737322151661
0.008045962080359459,-0.0009494305704720318,-0.009938200935721397,0.009865684434771538,0.0,0.007923578843474388
0.007588458713144064,-0.0009340544347651303,-0.009866957552731037,0.009823494590818882,0.0,0.007658436894416809
0.007588458713144064,-0.0009340544347651303,-0.009866957552731037,0.009823494590818882,0.0,0.007658436894416809
0.0080775897949934,-0.0009288418805226684,-0.010234136134386063,0.010337899439036846,0.0,0.007625423837453127
0.007832726463675499,-0.0009250789880752563,-0.010137954726815224,0.01005787868052721,0.0,0.007652034983038902
0.008139443583786488,-0.0009105497738346457,-0.009224780835211277,0.010289127007126808,0.0,0.0077588981948792934
0.0077187977731227875,-0.0010098732309415936,-0.009403269737958908,0.010885658673942089,0.0,0.007680946495383978
0.007494605612009764,-0.0010252655483782291,-0.009707345627248287,0.010442527942359447,0.0,0.0076722754165530205
0.008143546991050243,-0.0011374306632205844,-0.009310797788202763,0.010773608461022377,0.0,0.007954354397952557
0.008143546991050243,-0.0011374306632205844,-0.009310797788202763,0.010773608461022377,0.0,0.007954354397952557
0.007822767831385136,-0.0010960539802908897,-0.009635599330067635,0.010151439346373081,0.0,0.0078036170452833176
0.008242560550570488,-0.0010559037327766418,-0.009498384781181812,0.010890219360589981,0.0,0.007894732989370823
0.008600318804383278,-0.0009410198545083404,-0.009106111712753773,0.010843920521438122,0.0,0.007488122675567865
0.008362424559891224,-0.0008306870586238801,-0.009397724643349648,0.010027789510786533,0.0,0.007830665446817875
0.008198583498597145,-0.0008399350335821509,-0.00876940693706274,0.010674514807760715,0.0,0.007595916744321585
0.00822779256850481,-0.0008479442331008613,-0.008893914520740509,0.010107888840138912,0.0,0.007089902646839619
0.008370495401322842,-0.0008540700655430555,-0.009905846789479256,0.010446562431752682,0.0,0.007098176516592503
0.008238899521529675,-0.0008984660962596536,-0.010080738924443722,0.010372735559940338,0.0,0.007861584424972534
0.008968277834355831,-0.0008993653464131057,-0.00962734967470169,0.009745093062520027,0.0,0.00742955831810832
0.00872564222663641,-0.0008993583032861352,-0.009661586955189705,0.01064713392406702,0.0,0.007973967120051384
0.007887479849159718,-0.0009390048799104989,-0.009316646493971348,0.010058962740004063,0.0,0.007885090075433254
0.008725735358893871,-0.0009320111130364239,-0.010556022636592388,0.009827569127082825,0.0,0.0077749681659042835
0.008566804230213165,-0.0008964124135673046,-0.009797833859920502,0.010185147635638714,0.0,0.007800279185175896
0.008566804230213165,-0.0008964124135673046,-0.009797833859920502,0.010185147635638714,0.0,0.007800279185175896
0.008783487603068352,-0.0008257162990048528,-0.010232793167233467,0.010694026947021484,0.0,0.008247007615864277
0.008783487603068352,-0.0008257162990048528,-0.010232793167233467,0.010694026947021484,0.0,0.008247007615864277
0.00853989738970995,-0.0007856102893128991,-0.009611508809030056,0.010444867424666882,0.0,0.007830989547073841
0.008626243099570274,-0.000807443168014288,-0.009934676811099052,0.009958969429135323,0.0,0.007626120932400227
0.008058542385697365,-0.0008293958380818367,-0.009468046948313713,0.010370422154664993,0.0,0.008027654141187668
0.008510858751833439,-0.0008377705235034227,-0.009455936029553413,0.010270005092024803,0.0,0.00814790464937687
0.009041081182658672,-0.0010047579417005181,-0.00930810533463955,0.010284362360835075,0.0,0.008374063298106194
0.008788621984422207,-0.0010115500772371888,-0.010043571703135967,0.010853307321667671,0.0,0.00791290495544672
0.008275648579001427,-0.0009940986055880785,-0.00996440276503563,0.010421857237815857,0.0,0.0081576406955719
0.009408778510987759,-0.000863238878082484,-0.009703484363853931,0.010111048817634583,0.0,0.007793113589286804
0.009380072355270386,-0.0008629419025965035,-0.010555032640695572,0.01086692325770855,0.0,0.00795650389045477
0.008606523275375366,-0.0007764987531118095,-0.009577922523021698,0.010743631981313229,0.0,0.007695889100432396
0.008937022648751736,-0.000681030738633126,-0.00955213513225317,0.010976418852806091,0.0,0.007936902344226837
0.009187309071421623,-0.0007081998628564179,-0.01048469077795744,0.010895533487200737,0.0,0.007621277589350939
0.008667767979204655,-0.0007304212776944041,-0.01013763714581728,0.010093575343489647,0.0,0.008034531027078629
0.00887422077357769,-0.0007532697636634111,-0.009962412528693676,0.010477384552359581,0.0,0.008558464236557484
0.008937114849686623,-0.00104755989741534,-0.009572021663188934,0.01039243582636118,0.0,0.007774262223392725
0.008655715733766556,-0.001026266603730619,-0.009406235069036484,0.010752665810286999,0.0,0.007772441953420639
0.009229722432792187,-0.0009105497738346457,-0.010482518933713436,0.0101653216406703,0.0,0.007769244723021984
0.009107986465096474,-0.0009000125573948026,-0.009461942128837109,0.009523143991827965,0.0,0.008030468598008156
0.008749529719352722,-0.0008985705790109932,-0.010062962770462036,0.010090124793350697,0.0,0.007836610078811646
0.009301495738327503,-0.0009024024475365877,-0.010550652630627155,0.009842798113822937,0.0,0.007908298633992672
0.009483212605118752,-0.0009192386060021818,-0.010327190160751343,0.009684894233942032,0.0,0.007917714305222034
0.009218416176736355,-0.0011055252980440855,-0.009748285636305809,0.010725295171141624,0.0,0.007975113578140736
0.009213094599545002,-0.0010852980194613338,-0.009772750549018383,0.010428322479128838,0.0,0.007772849407047033
0.009213094599545002,-0.0010852980194613338,-0.009772750549018383,0.010428322479128838,0.0,0.007772849407047033
0.009177225641906261,-0.0010730888461694121,-0.009697441011667252,0.010051415301859379,0.0,0.008256576023995876
0.009177225641906261,-0.0010730888461694121,-0.009697441011667252,0.010051415301859379,0.0,0.008256576023995876
0.00938796903938055,-0.0010577088687568903,-0.010493354871869087,0.009539266116917133,0.0,0.007894642651081085
0.009367342106997967,-0.001027568825520575,-0.01002039760351181,0.010163969360291958,0.0,0.00811160821467638
0.008997635915875435,-0.0010094704339280725,-0.010520908050239086,0.010109747759997845,0.0,0.007988769561052322
0.01001863181591034,-0.0010945447720587254,-0.010068853385746479,0.009833385236561298,0.0,0.008270179852843285
0.009739883244037628,-0.0011015317868441343,-0.009308405220508575,0.010138108395040035,0.0,0.008368507027626038
0.009194530546665192,-0.0010716462275013328,-0.010397231206297874,0.01021832786500454,0.0,0.0086880624294281
0.009451529942452908,-0.0009597415919415653,-0.009977512992918491,0.009774996899068356,0.0,0.008413639850914478
0.009685018099844456,-0.0009475313709117472,-0.00950867310166359,0.009789778850972652,0.0,0.008316168561577797
0.010099897161126137,-0.0009216279722750187,-0.010612422600388527,0.009895073249936104,0.0,0.008061753585934639
0.009877166710793972,-0.0008876884239725769,-0.010149686597287655,0.00950666330754757,0.0,0.008616664446890354
0.010394931770861149,-0.0008889622404240072,-0.009308109059929848,0.009189882315695286,0.0,0.008341364562511444
0.009553564712405205,-0.0008367564296349883,-0.009525169618427753,0.01060064323246479,0.0,0.008539517410099506
0.008883807808160782,-0.0008750170818530023,-0.009474551305174828,0.01012051198631525,0.0,0.008434627205133438
0.009714428335428238,-0.0008497971575707197,-0.009604242630302906,0.009729856625199318,0.0,0.008666986599564552
0.009650406427681446,-0.0008557370747439563,-0.009680436924099922,0.01057510357350111,0.0,0.008846948854625225
0.010626854375004768,-0.0009965455392375588,-0.00968742836266756,0.010219809599220753,0.0,0.008363941684365273
0.009399930015206337,-0.0008877479122020304,-0.01103993784636259,0.010653535835444927,0.0,0.007705675903707743
0.009500405751168728,-0.0008880874956957996,-0.01023603044450283,0.010343005880713463,0.0,0.007994730956852436
0.009500405751168728,-0.0008880874956957996,-0.01023603044450283,0.010343005880713463,0.0,0.007994730956852436
0.010050556622445583,-0.0008719528559595346,-0.009308019652962685,0.01051018014550209,0.0,0.008544797077775002
0.009375456720590591,-0.000871607509907335,-0.00984464306384325,0.009865181520581245,0.0,0.00856547150760889
0.009375456720590591,-0.000871607509907335,-0.00984464306384325,0.009865181520581245,0.0,0.00856547150760889
0.010543091222643852,-0.0008756027673371136,-0.009762736037373543,0.009835411794483662,0.0,0.008542251773178577
0.009926722384989262,-0.0009388378239236772,-0.010285058990120888,0.010172761045396328,0.0,0.008578645065426826
0.010398894548416138,-0.0009834569646045566,-0.010279514826834202,0.010062411427497864,0.0,0.008829185739159584
0.010398894548416138,-0.0009834569646045566,-0.010279514826834202,0.010062411427497864,0.0,0.008829185739159584
0.010001324117183685,-0.000982571393251419,-0.010431500151753426,0.009937640279531479,0.0,0.008492394350469112
0.010823050513863564,-0.000971475150436163,-0.010006687603890896,0.009711077436804771,0.0,0.008741501718759537
0.010385233908891678,-0.0010315641993656754,-0.010258423164486885,0.009798124432563782,0.0,0.008878089487552643
0.010438337922096252,-0.0010285918833687901,-0.010628498159348965,0.00965383742004633,0.0,0.008820932358503342
0.010908746160566807,-0.001003898330964148,-0.010607610456645489,0.009842862375080585,0.0,0.009244113229215145
0.010351096279919147,-0.0009894201066344976,-0.009955566376447678,0.010047060437500477,0.0,0.008782551623880863
0.010028206743299961,-0.0009675988112576306,-0.010436543263494968,0.009853668510913849,0.0,0.008271474391222
0.010314872488379478,-0.000964098609983921,-0.009942366741597652,0.009835472330451012,0.0,0.008249607868492603
0.010715642012655735,-0.0009543666965328157,-0.010513844899833202,0.010884718038141727,0.0,0.009164554066956043
0.009942618198692799,-0.0009504989720880985,-0.011285538785159588,0.01026478037238121,0.0,0.008496596477925777
0.010008281096816063,-0.0011398224160075188,-0.010125439614057541,0.009819176979362965,0.0,0.008460222743451595
0.010288147255778313,-0.0011420338414609432,-0.009998722933232784,0.010306504555046558,0.0,0.009044096805155277
0.010105696506798267,-0.0011049300665035844,-0.010706531815230846,0.01054325420409441,0.0,0.008949958719313145
0.010848751291632652,-0.0009709856240078807,-0.010150790214538574,0.010717140510678291,0.0,0.008650201372802258
0.01020889263600111,-0.000901026651263237,-0.010720090940594673,0.01102070976048708,0.0,0.008634664118289948
0.010195992887020111,-0.0007690892089158297,-0.010200071148574352,0.01090564951300621,0.0,0.0090696532279253
0.010504196397960186,-0.0007825270295143127,-0.009683008305728436,0.011153792031109333,0.0,0.00926554948091507
0.010307335294783115,-0.0008089622133411467,-0.010729389265179634,0.009919891133904457,0.0,0.009282552637159824
0.010881761088967323,-0.0008236441062763333,-0.009995875880122185,0.010300274938344955,0.0,0.008584290742874146
0.010225591249763966,-0.0008438993827439845,-0.010893251746892929,0.010221212171018124,0.0,0.008647495880723
0.01062840037047863,-0.0008516149246133864,-0.010627000592648983,0.01041217241436243,0.0,0.008970179595053196
0.010361142456531525,-0.0008487718878313899,-0.009635630995035172,0.010949889197945595,0.0,0.008512602187693119
0.010361142456531525,-0.0008487718878313899,-0.009635630995035172,0.010949889197945595,0.0,0.008512602187693119
0.010202880017459393,-0.0008221146417781711,-0.01082819327712059,0.010313883423805237,0.0,0.008802625350654125
0.011013139970600605,-0.0008344236994162202,-0.010267375968396664,0.01009735744446516,0.0,0.009152553044259548
0.011013139970600605,-0.0008344236994162202,-0.010267375968396664,0.01009735744446516,0.0,0.009152553044259548
0.010204796679317951,-0.0008431432070210576,-0.01086060144007206,0.009907599538564682,0.0,0.008704252541065216
0.010097670368850231,-0.0008468189043924212,-0.009868093766272068,0.009653904475271702,0.0,0.008449796587228775
0.010358704254031181,-0.0008939124527387321,-0.01057769637554884,0.01040094904601574,0.0,0.008736479096114635
0.010413875803351402,-0.0008956391829997301,-0.010321629233658314,0.010338671505451202,0.0,0.008613952435553074
0.010621780529618263,-0.0008665359346196055,-0.009868369437754154,0.010007577016949654,2.6004721576100565e-07,0.008224638178944588
0.01054553035646677,-0.000796621898189187,-0.010785643011331558,0.010580376721918583,1.6979225136992682e-08,0.008993308059871197
0.010981732048094273,-0.0008071766933426261,-0.010950945317745209,0.010244110599160194,1.108622083023647e-09,0.009239024482667446
0.01108571607619524,-0.00081925984704867,-0.010643674992024899,0.010496793314814568,7.23850979156282e-11,0.009303666651248932
0.010205833241343498,-0.0008346237591467798,-0.01096145436167717,0.010401634499430656,4.726229824170147e-12,0.009125912562012672
0.011025935411453247,-0.0008433502516709268,-0.010256242007017136,0.009927461855113506,3.085890375696676e-13,0.009598028846085072
0.010837728157639503,-0.0008499932009726763,-0.010193342342972755,0.010317728854715824,2.0148659013474214e-14,0.009551458992064
0.010531848296523094,-0.0009253753232769668,-0.011235437355935574,0.009996525943279266,1.3155635045556226e-15,0.009330633096396923
0.010308416560292244,-0.0010268749902024865,-0.010511571541428566,0.009477558545768261,8.589689649700935e-17,0.009739596396684647
0.01025461871176958,-0.0009244018001481891,-0.010698736645281315,0.009501717984676361,5.608453711544795e-18,0.008940818719565868
0.010191965848207474,-0.0009200435015372932,-0.010759737342596054,0.010444906540215015,3.6619195244843037e-19,0.008848611265420914
0.010630621574819088,-0.0009398192050866783,-0.010591542348265648,0.01025475561618805,1.5611335675963893e-21,0.009194017387926579
0.010227171704173088,-0.000805629650130868,-0.010525748133659363,0.01052542682737112,1.0193086957615638e-22,0.0091170035302639
0.010919276624917984,-0.0007010166300460696,-0.010116788558661938,0.010483826510608196,6.655357555529143e-24,0.009674296714365482
0.010432195849716663,-0.0006204132223501801,-0.010453030467033386,0.0100547568872571,4.345472836922284e-25,0.009512298740446568
0.01033572293817997,-0.0005564420716837049,-0.010418962687253952,0.010002546943724155,2.837283383707978e-26,0.009400328621268272
0.010424215346574783,-0.0005782957887277007,-0.011032810434699059,0.009819935075938702,1.8525433468213324e-27,0.009606781415641308
0.010424215346574783,-0.0005782957887277007,-0.011032810434699059,0.009819935075938702,1.8525433468213324e-27,0.009606781415641308
0.010162386111915112,-0.0005380770307965577,-0.010537058115005493,0.010524251498281956,1.209578375642459e-28,0.009214380756020546
0.010851669125258923,-0.0005656415014527738,-0.010362903587520123,0.009994668886065483,7.897681987807505e-30,0.00928516685962677
0.011060480959713459,-0.0004876254533883184,-0.009920923039317131,0.009954488836228848,5.156621942763465e-31,0.009543614462018013
0.010087383911013603,-0.0004241203423589468,-0.010268529877066612,0.010626165196299553,3.366905580112509e-32,0.009558293037116528
0.010377059690654278,-0.0004615657962858677,-0.010244525037705898,0.01053206529468298,2.1983487398093855e-33,0.008766992017626762
0.01085736509412527,-0.0004279353597667068,-0.01114447321742773,0.009935891255736351,1.435364583337291e-34,0.008940856903791428
0.010415485128760338,-0.0004397076554596424,-0.010471773333847523,0.009933631867170334,9.371904935883975e-36,0.009098422713577747
0.010584999807178974,-0.0004306671617086977,-0.010194813832640648,0.010244117118418217,6.119184304612e-37,0.009290594607591629
0.010206285864114761,-0.0004033719887956977,-0.01023871824145317,0.009965518489480019,3.9953900287543187e-38,0.009334481321275234
0.010696767829358578,-0.0004310188232921064,-0.009812950156629086,0.010173025541007519,2.6087048653348665e-39,0.009777731262147427
0.011072466149926186,-0.00040863201138563454,-0.009588329121470451,0.01045509148389101,1.7032922963714584e-40,0.00940778013318777
0.010146940127015114,-0.00038670896901749074,-0.010706257075071335,0.010030003264546394,1.1120704612881748e-41,0.00985786970704794
0.01044999249279499,-0.0003669979050755501,-0.010295414365828037,0.01005506794899702,-7.503412052756175e-05,0.009856426157057285
0.010710719041526318,-0.0003491966053843498,-0.010169163346290588,0.009828872047364712,-0.00013811237295158207,0.009445367380976677
0.009680266492068768,-0.00036572563112713397,-0.01059991866350174,0.010809500701725483,-0.00013814149133395404,0.009212346747517586
0.010207937099039555,-0.0003397440887056291,-0.010190627537667751,0.010549085214734077,-0.0001342973264399916,0.01028650626540184
0.010144583880901337,-0.00031590802245773375,-0.009574378840625286,0.010141318663954735,-0.00013042311184108257,0.009833944961428642
0.010385800153017044,-0.0002770088904071599,-0.009897399693727493,0.010701753199100494,-0.00014468177687376738,0.009532734751701355
0.010279166512191296,-0.0003069048107136041,-0.010565458796918392,0.010141387581825256,-0.00015556145808659494,0.009152548387646675
0.01015673577785492,-0.00029588319011963904,-0.011213491670787334,0.010386483743786812,-0.00016281200805678964,0.009595436975359917
0.010708818212151527,-0.0002805870899464935,-0.010263681411743164,0.010665444657206535,-0.0001763146137818694,0.009792911820113659
0.010985670611262321,-0.00026672592503018677,-0.010033967904746532,0.010183057747781277,-0.00017737534653861076,0.009353844448924065
0.010474755428731441,-0.0002541703579481691,-0.010630656965076923,0.010759254917502403,-0.00017369187844451517,0.009345784783363342
0.010474755428731441,-0.0002541703579481691,-0.010630656965076923,0.010759254917502403,-0.00017369187844451517,0.009345784783363342
0.010756103321909904,-0.00027840776601806283,-0.010008374229073524,0.0101908715441823,-0.0003565404622349888,0.009738716296851635
0.010348166339099407,-0.00027095331461168826,-0.010417263023555279,0.009875491261482239,-0.00034228962613269687,0.009842069819569588
0.010364007204771042,-0.00025983911473304033,-0.010073177516460419,0.011067352257668972,-0.0003657508350443095,0.009695811197161674
0.010672872886061668,-0.00024954654509201646,-0.009904596954584122,0.009775112383067608,-0.0003562643250916153,0.010081185959279537
0.010156126692891121,-0.00024003915314096957,-0.010442240163683891,0.009631517343223095,-0.0003351052291691303,0.010034754872322083
0.010670444928109646,-0.00023122863785829395,-0.01004834659397602,0.010617380030453205,-0.000315575220156461,0.010434870608150959
0.010636177845299244,-0.0002536142128519714,-0.009835815988481045,0.01031770370900631,-0.0002981482248287648,0.01032025646418333
0.011483612470328808,-0.000246171752223745,-0.010479016229510307,0.010566123761236668,-0.0003233015595469624,0.00947502814233303
0.011215378530323505,-0.0002380488149356097,-0.009847935289144516,0.010639394633471966,-0.0003128253447357565,0.008984444662928581
0.009568016976118088,-0.00023043030523695052,-0.009760437533259392,0.009945057332515717,-0.00029837022884748876,0.009571953676640987
0.0103300204500556,-0.0002232874248875305,-0.010017802938818932,0.010533698834478855,-0.0002848980948328972,0.0099217863753438
0.010960465297102928,-0.00021704066602978855,-0.00989171676337719,0.01048195268958807,-0.0002725702943280339,0.010485120117664337
0.010433030314743519,-0.0001983072143048048,-0.009764102287590504,0.01000986434519291,-0.00026126409647986293,0.010200640186667442
0.010918167419731617,-0.00018982250185217708,-0.010068978182971478,0.010353649966418743,-0.0002819242945406586,0.009866214357316494
0.010896576568484306,-0.0001821369369281456,-0.009873922914266586,0.010634437203407288,-0.0002754034358076751,0.009727469645440578
0.010318994522094727,-0.0001750518276821822,-0.009427010081708431,0.010626760311424732,-0.0002655246062204242,0.010570958256721497
0.010683977976441383,-0.00019821387832053006,-0.010548391379415989,0.010317620821297169,-0.00026117762899957597,0.010262709110975266
0.011004787869751453,-0.0001881084608612582,-0.009429819881916046,0.00986066460609436,-0.00023866782430559397,0.010657363571226597
0.011334572918713093,-0.00018177683523390442,-0.009872759692370892,0.010611031204462051,-0.00022666374570690095,0.010237136855721474
0.011334572918713093,-0.00018177683523390442,-0.009872759692370892,0.010611031204462051,-0.00022666374570690095,0.010237136855721474
0.01150067150592804,-0.00018895389803219587,-0.009925037622451782,0.009889495559036732,-0.0002059154212474823,0.010695764794945717
0.011405122466385365,-0.00019249018805567175,-0.010111690498888493,0.010606305673718452,-0.000196903056348674,0.01007252000272274
0.010293652303516865,-0.00018690428987611085,-0.010610386729240417,0.010186738334596157,-0.0002213440602645278,0.009743827395141125
0.010891936719417572,-0.0001815206342143938,-0.009873305447399616,0.01071062684059143,-0.00021693807502742857,0.010117467492818832
0.010836922563612461,-0.00017643714090809226,-0.009992347098886967,0.010606059804558754,-0.00020884031255263835,0.00985222402960062
0.01036138366907835,-0.0001716303959256038,-0.009992239065468311,0.009750432334840298,-0.00020108134776819497,0.010159024968743324
0.01036138366907835,-0.0001716303959256038,-0.009992239065468311,0.009750432334840298,-0.00020108134776819497,0.010159024968743324
0.010922176763415337,-0.00016276234237011522,-0.010170236229896545,0.01043455395847559,-0.00018714334873948246,0.010020534507930279
0.010922176763415337,-0.00016276234237011522,-0.010170236229896545,0.01043455395847559,-0.00018714334873948246,0.010020534507930279
0.010540802963078022,-0.00015866330068092793,-0.010059157386422157,0.009750780649483204,-0.00018087397620547563,0.010519829578697681
0.01141150388866663,-0.0001765706401783973,-0.01045527309179306,0.010611820966005325,-0.000196603374206461,0.010414631105959415
0.010812457650899887,-0.00017263017070945352,-0.01002388447523117,0.010735318064689636,-0.00019727472681552172,0.010253889486193657
0.010592964477837086,-0.00016859154857229441,-0.009646967053413391,0.01097735296934843,-0.00019171735038980842,0.010174195282161236
0.011994583532214165,-0.00016473433061037213,-0.009998073801398277,0.011359445750713348,-0.0001860831252997741,0.010317160747945309
0.012417420744895935,-0.00016104982933029532,-0.010754166170954704,0.010539633221924305,-0.00018074570107273757,0.010335016064345837
0.012525832280516624,-0.00015752617036923766,-0.010158363729715347,0.010536978021264076,-0.00019430053362157196,0.010655596852302551
0.011887767352163792,-0.00015415367670357227,-0.009984445758163929,0.010988765396177769,-0.0001949319412233308,0.010220705531537533
0.012115836143493652,-0.00015092252579052,-0.010745743289589882,0.010262894444167614,-0.0001901681098388508,0.010451948270201683
0.012492024339735508,-0.00014782398648094386,-0.010253346525132656,0.010614721104502678,-0.00018541169993113726,0.01048942469060421
0.012122755870223045,-0.00014485011342912912,-0.01031282264739275,0.010675027035176754,-0.00019264579168520868,0.010466358624398708
0.012311161495745182,-0.00014199348515830934,-0.010552575811743736,0.010012811049818993,-0.00018568742962088436,0.01048937439918518
0.012603986077010632,-0.0001366055221296847,-0.011311584152281284,0.01079886220395565,-0.00017159081471618265,0.011052594520151615
0.011980516836047173,-0.000134061963763088,-0.010458588600158691,0.010224471800029278,-0.0001652874198043719,0.011102795600891113
0.012240484356880188,-0.00013161149399820715,-0.01024833507835865,0.010773059912025928,-0.00015943075413815677,0.0106569305062294
0.012630609795451164,-0.00012924907787237316,-0.010508829727768898,0.0105477599427104,-0.00018268787243869156,0.010475093498826027
0.01237169373780489,-0.00012696981139015406,-0.010584985837340355,0.010287825018167496,-0.00017851997108664364,0.010584715753793716
0.012427872978150845,-0.00012476957635954022,-0.010124452412128448,0.010545286349952221,-0.00017292521079070866,0.01054096594452858
0.012573613785207272,-0.00012264444376341999,-0.01185231190174818,0.010115154087543488,-0.0001675664389040321,0.010033692233264446
0.012184188701212406,-0.00012059020809829235,-0.010484091937541962,0.010558116249740124,-0.00016252305067609996,0.010539411567151546
0.012047731317579746,-0.00011860382073791698,-0.01064172014594078,0.01085100881755352,-0.0001805973006412387,0.010954382829368114
0.012240414507687092,-0.00010708073386922479,-0.010602390393614769,0.010680191218852997,-0.0001786175271263346,0.011422650888562202
0.01224780548363924,-0.00010053533333120868,-0.010519314557313919,0.010778360068798065,-0.0001922984520206228,0.01044392678886652
0.01224780548363924,-0.00010053533333120868,-0.010519314557313919,0.010778360068798065,-0.0001922984520206228,0.01044392678886652
0.012240586802363396,-9.889248030958697e-05,-0.011658739298582077,0.01084352470934391,-0.00019299039558973163,0.010939650237560272
0.012389677576720715,-9.736333595355973e-05,-0.010844198055565357,0.010098522529006004,-0.00018832433852367103,0.012010164558887482
0.012235624715685844,-9.588151442585513e-05,-0.010643001645803452,0.010675156489014626,-0.0002450442116241902,0.011891467496752739
0.012391147203743458,-9.444415627513081e-05,-0.011080238036811352,0.010179836302995682,-0.00025151626323349774,0.011452091857790947
0.012193896807730198,-9.304932609666139e-05,-0.01068752259016037,0.010099408216774464,-0.00023944888380356133,0.011216229759156704
0.012450744397938251,-9.169499389827251e-05,-0.011001561768352985,0.010399133898317814,-0.00022742926375940442,0.010960586369037628
0.012366829439997673,-9.037958807311952e-05,-0.010956939309835434,0.009985867887735367,-0.00021649007976520807,0.011211104691028595
0.012266313657164574,-8.910134783945978e-05,-0.01023910939693451,0.010243654251098633,-0.00023705670901108533,0.011107227765023708
0.012786723673343658,-8.78589489730075e-05,-0.01060987263917923,0.010190722532570362,-0.00023627579503227025,0.010994556359946728
0.012478534132242203,-8.665046334499493e-05,-0.010677320882678032,0.010008538141846657,-0.0002269703254569322,0.011392815038561821
0.012672045268118382,-8.547495235688984e-05,-0.010518536902964115,0.010518943890929222,-0.00021785257558804005,0.011212030425667763
0.012676817364990711,-8.43308080220595e-05,-0.010512747801840305,0.010188399814069271,-0.00020940562535542995,0.011315373703837395
0.012819329276680946,-8.321685891132802e-05,-0.009911426343023777,0.009734408929944038,-0.00020158733241260052,0.010923609137535095
0.012604356743395329,-3.409947385080159e-05,-0.010801579803228378,0.010429169982671738,-0.0002146972547052428,0.011352392844855785
0.012615724466741085,-3.161807399010286e-05,-0.009849104098975658,0.010470862500369549,-0.0002112252259394154,0.011524632573127747
0.012250090949237347,-3.1047453376231715e-05,-0.01047429908066988,0.010067543014883995,-0.00020460803352762014,0.011233286932110786
0.012329043820500374,-4.5014963689027354e-05,-0.010338632389903069,0.00994256604462862,-0.00019214247004128993,0.011426390148699284
0.012329043820500374,-4.5014963689027354e-05,-0.010338632389903069,0.00994256604462862,-0.00019214247004128993,0.011426390148699284
0.012784808874130249,-4.436577728483826e-05,-0.010928066447377205,0.010805943049490452,-0.0002112999209202826,0.01137167401611805
0.012168622575700283,0.0001327237841906026,-0.011017750017344952,0.010457921773195267,-0.00020684917399194092,0.011373083107173443
0.012606862932443619,0.000117685274744872,-0.010661574080586433,0.01025467086583376,-0.00020117484382353723,0.011041115038096905
0.01272208895534277,1.5788982636877336e-06,-0.011133776977658272,0.010461816564202309,-0.00019571294251363724,0.011438877321779728
0.012587644159793854,2.1182934517582908e-08,-0.010850421153008938,0.010383053682744503,-0.00019053406140301377,0.011663486249744892
0.01255030557513237,2.8419608333329904e-10,-0.0112424585968256,0.010136282071471214,-0.00019919876649510115,0.012000912800431252
0.012190920300781727,3.812853244938852e-12,-0.010961894877254963,0.01081113051623106,-0.00019282828725408763,0.011645344085991383
0.012190920300781727,3.812853244938852e-12,-0.010961894877254963,0.01081113051623106,-0.00019282828725408763,0.011645344085991383
0.013119601644575596,5.1154291577388405e-14,-0.009993728250265121,0.01099713146686554,-0.00018503970932215452,0.011491107754409313
0.01296354178339243,9.207590589427842e-18,-0.010680719278752804,0.01063188724219799,-0.00017098462558351457,0.011447452940046787
0.01296354178339243,9.207590589427842e-18,-0.010680719278752804,0.01063188724219799,-0.00017098462558351457,0.011447452940046787
0.01334175281226635,1.235315791936725e-19,-0.010693307034671307,0.01009034551680088,-0.00016472440620418638,0.011287769302725792
0.012664278037846088,1.6573336025098302e-21,-0.011180865578353405,0.010482175275683403,-0.0001864716614363715,0.011171119287610054
0.012745977379381657,2.2235243682230154e-23,-0.010609670542180538,0.010576763190329075,-0.00018390787590760738,0.01176909264177084
0.012663239613175392,2.9831416080418053e-25,-0.010972518473863602,0.01028360240161419,-0.00017809003475122154,0.011527259834110737
0.013494618237018585,4.002265387781393e-27,-0.0107542360201478,0.010742083191871643,-0.00019735278328880668,0.011549118906259537
0.012230983935296535,5.369550462849945e-29,-0.010706862434744835,0.01074342243373394,-0.00019468374375719577,0.0114469975233078
0.012745535001158714,9.665001245169221e-33,-0.010851369239389896,0.01017826609313488,-0.0001964401308214292,0.011834883131086826
0.012745535001158714,9.665001245169221e-33,-0.010851369239389896,0.01017826609313488,-0.0001964401308214292,0.011834883131086826
0.013030212372541428,1.2966833414116276e-34,-0.01048151683062315,0.010213007219135761,-0.0002029835741268471,0.01175130158662796
0.012855351902544498,1.7396661705527323e-36,-0.010952386073768139,0.010256604291498661,-0.0001981849636649713,0.011649197898805141
0.013377194292843342,3.1313415483802362e-40,-0.011000108905136585,0.010032590478658676,-0.0002635974087752402,0.011754248291254044
0.013278602622449398,4.2010927960458016e-42,-0.011126535013318062,0.009885839186608791,-0.00027883690199814737,0.011640102602541447
0.013608305715024471,5.605193857299268e-44,-0.010776923038065434,0.010482587851583958,-0.000287253555143252,0.011836538091301918
0.01337821688503027,1.401298464324817e-45,-0.011178761720657349,0.010593830607831478,-0.00027418555691838264,0.011842366307973862
0.013412073254585266,0.0,-0.010939616709947586,0.010622838512063026,-0.00028494122670963407,0.011851700022816658
0.013412073254585266,0.0,-0.010939616709947586,0.010622838512063026,-0.00028494122670963407,0.011851700022816658
0.01418981421738863,0.0,-0.011537865735590458,0.010721693746745586,-0.0002773251326289028,0.012354781851172447
0.013141447678208351,0.0,-0.011059478856623173,0.010611158795654774,-0.0002659380261320621,0.01209285482764244
0.013997214846313,0.0,-0.0110442154109478,0.010735413059592247,-0.0002821314847096801,0.011626295745372772
0.013719893991947174,0.0,-0.011290202848613262,0.010403203777968884,-0.00027966510970145464,0.011966250836849213
0.013835416175425053,0.0,-0.010865123942494392,0.010539949871599674,-0.0002697418676689267,0.012441190890967846
0.013836865313351154,0.0,-0.011144413612782955,0.010412785224616528,-0.00026003847597166896,0.012161717750132084
0.013836865313351154,0.0,-0.011144413612782955,0.010412785224616528,-0.00026003847597166896,0.012161717750132084
0.013859237544238567,0.0,-0.01095523964613676,0.010526100173592567,-0.00032065901905298233,0.012341354042291641
0.013927355408668518,0.0,-0.011165798641741276,0.011272183619439602,-0.0003209560236427933,0.012591274455189705
0.014439376071095467,0.0,-0.011876645497977734,0.01066617202013731,-0.00030099693685770035,0.012497944757342339
0.01396937109529972,0.0,-0.011266029439866543,0.010773264802992344,-0.00028220826061442494,0.012480820529162884
0.014160433784127235,0.0,-0.011583876796066761,0.011888030916452408,-0.0003149774856865406,0.012367482297122478
0.013654383830726147,0.0,-0.01108485832810402,0.011379579082131386,-0.00030065918690524995,0.012506223283708096
0.014175460673868656,0.0,-0.01092262752354145,0.011631050147116184,-0.00028499719337560236,0.012335754930973053
0.014199988916516304,0.0,-0.011562529020011425,0.011524605564773083,-0.00027071780641563237,0.012367000803351402
0.014274254441261292,0.0,-0.01085564773529768,0.010554319247603416,-0.0002950002672150731,0.012141070328652859
0.014298496767878532,0.0,-0.01134257111698389,0.010989125818014145,-0.0002866731956601143,0.012580372393131256
0.014427991583943367,0.0,-0.011359130963683128,0.010791641660034657,-0.0002745130332186818,0.012754114344716072
0.014402694068849087,0.0,-0.011707369238138199,0.012279421091079712,-0.0002525236632209271,0.012581842020154
0.014607129618525505,0.0,-0.01105207297950983,0.01031628530472517,-0.0002597878919914365,0.012514219619333744
0.01452358067035675,0.0,-0.011352449655532837,0.010261344723403454,-0.0002660215541254729,0.012527045793831348
0.014672068879008293,0.0,-0.011501126922667027,0.010859069414436817,-0.0002575401740614325,0.012590979225933552
0.014641610905528069,0.0,-0.011225104331970215,0.011062674224376678,-0.000248723168624565,0.013023910112679005
0.014370775781571865,0.0,-0.012080138549208641,0.011157885193824768,-0.00025619001826271415,0.01245585735887289
0.014509087428450584,0.0,-0.011202075518667698,0.011011702008545399,-0.0002449893217999488,0.01292955782264471
0.01442050188779831,0.0,-0.012031273916363716,0.010802878066897392,-0.0002325243258383125,0.012471714057028294
0.01442050188779831,0.0,-0.012031273916363716,0.010802878066897392,-0.0002325243258383125,0.012471714057028294
0.014452626928687096,0.0,-0.011150756850838661,0.010917691513895988,-0.0002107555337715894,0.012842227704823017
0.014452626928687096,0.0,-0.011150756850838661,0.010917691513895988,-0.0002107555337715894,0.012842227704823017
0.014754226431250572,0.0,-0.011631215922534466,0.010732443071901798,-0.00020130746997892857,0.012810735031962395
0.0144154978916049,0.0,-0.011855905875563622,0.011160984635353088,-0.00019268794858362526,0.012938433326780796
0.014742836356163025,0.0,-0.012563994154334068,0.011178188025951385,-0.00021920980361755937,0.012820323929190636
0.014491179957985878,0.0,-0.011430123820900917,0.011709616519510746,-0.00021281429508235306,0.013101409189403057
0.014515492133796215,0.0,-0.011151203885674477,0.01111049484461546,-0.00020488532027229667,0.012707620859146118
0.01460680179297924,0.0,-0.012231900356709957,0.010855144821107388,-0.00019741740834433585,0.013409017585217953
0.015001373365521431,7.938313501654193e-05,-0.012555119581520557,0.010760507546365261,-0.0001904523087432608,0.012792082503437996
0.014817042276263237,7.961432129377499e-05,-0.011898848228156567,0.01017195638269186,-0.00018395668303128332,0.012736360542476177
0.015422740019857883,7.825186185073107e-05,-0.011998419649899006,0.010705145075917244,-0.00017790393030736595,0.012916848063468933
0.014552399516105652,7.691478094784543e-05,-0.011764216236770153,0.010860747657716274,-0.00017222747555933893,0.01283415500074625
0.015338207595050335,7.562217797385529e-05,-0.011864903382956982,0.010679978877305984,-0.00019104247621726245,0.012953286059200764
0.014655095525085926,7.43724885978736e-05,-0.011579051613807678,0.011089762672781944,-0.00018863368313759565,0.012705604545772076
0.014852194115519524,8.75965051818639e-05,-0.011964060366153717,0.010692778043448925,-0.00018336741777602583,0.013124988414347172
0.014582549221813679,8.638874714961275e-05,-0.012525942176580429,0.010348350740969181,-0.00017818972992245108,0.01272736955434084
0.015134819783270359,8.503110439050943e-05,-0.012099969200789928,0.010723390616476536,-0.00017329570255242288,0.013577496632933617
0.014827263541519642,8.371295552933589e-05,-0.012225001119077206,0.010429986752569675,-0.00018956672283820808,0.012545222416520119
0.014896728098392487,8.119550329865888e-05,-0.012855172157287598,0.010942379012703896,-0.0001829405955504626,0.013368479907512665
0.01494285836815834,9.314345516031608e-05,-0.01239550020545721,0.011096958070993423,-0.00017869244038593024,0.013254391960799694
0.014749815687537193,9.196031169267371e-05,-0.012440893799066544,0.011417361907660961,-0.00018268745043314993,0.013119490817189217
0.015293508768081665,9.063973993761465e-05,-0.012634548358619213,0.010576345026493073,-0.00017627626948524266,0.012963294982910156
0.01538548618555069,8.935421647038311e-05,-0.012202895246446133,0.010616396553814411,-0.00016967731062322855,0.013360278680920601
0.016038164496421814,8.81046216818504e-05,-0.012955143116414547,0.011137504130601883,-0.00019398766744416207,0.013183517381548882
0.015691952779889107,8.688948582857847e-05,-0.012229032814502716,0.010708525776863098,-0.0001891906140372157,0.013485082425177097
0.014959613792598248,8.570744103053585e-05,-0.013113118708133698,0.010444486513733864,-0.00020546381711028516,0.013554948382079601
0.015505306422710419,8.455725037492812e-05,-0.011949650943279266,0.010776740498840809,-0.00020589723135344684,0.01364811323583126
0.014982422813773155,8.343735680682585e-05,-0.012504649348556995,0.01066267117857933,-0.00022096089378464967,0.01320226676762104
0.01524477917701006,9.364221477881074e-05,-0.012266834266483784,0.010852858424186707,-0.0002209046360803768,0.013563325628638268
0.015004361048340797,9.28901499719359e-05,-0.012230481021106243,0.010657627135515213,-0.00021475699031725526,0.01351729966700077
0.015004361048340797,9.28901499719359e-05,-0.012230481021106243,0.010657627135515213,-0.00021475699031725526,0.01351729966700077
0.015234793536365032,9.171302372124046e-05,-0.012842444702982903,0.010188836604356766,-0.00020856453920714557,0.013644452206790447
0.015179242007434368,9.055957343662158e-05,-0.0124928904697299,0.010920439846813679,-0.0003309653839096427,0.013843716122210026
0.01613532565534115,8.943473221734166e-05,-0.012585016898810863,0.010563760995864868,-0.0003468080540187657,0.013537772931158543
0.015770239755511284,0.0001408389798598364,-0.011878609657287598,0.01053081639111042,-0.00032449988066218793,0.013337916694581509
0.01540739368647337,0.00016211127513088286,-0.012774565257132053,0.01089844387024641,-0.00035515244235284626,0.013193695805966854
0.015299084596335888,0.00015681562945246696,-0.01226517278701067,0.010422520339488983,-0.0003399415872991085,0.013486486859619617
0.015872444957494736,0.0001515392941655591,-0.012252571992576122,0.0104726767167449,-0.00035953204496763647,0.013220099732279778
0.01609150879085064,0.00017247043433599174,-0.012732986360788345,0.011051831766963005,-0.0003518032899592072,0.013311170972883701
0.015667172148823738,0.00017032650066539645,-0.011998082511126995,0.010743905790150166,-0.00037838370190002024,0.01332058571279049
0.015629390254616737,0.0001651608617976308,-0.012655941769480705,0.010823514312505722,-0.000362363934982568,0.013839773833751678
0.015760865062475204,0.00018382916459813714,-0.012029759585857391,0.010526415891945362,-0.0004652886709664017,0.013737669214606285
0.01607956551015377,0.0001815393043216318,-0.012659875676035881,0.010335047729313374,-0.00050420529441908,0.014341777190566063
0.01622832752764225,0.00017168447084259242,-0.012385937385261059,0.011175913736224174,-0.0005008765147067606,0.014085137285292149
0.01622832752764225,0.00017168447084259242,-0.012385937385261059,0.011175913736224174,-0.0005008765147067606,0.014085137285292149
0.016273558139801025,0.0001860648626461625,-0.011808200739324093,0.010806260630488396,-0.0004938568454235792,0.014261560514569283
0.01629222184419632,0.00018205383094027638,-0.012813528068363667,0.01095474511384964,-0.00046725489664822817,0.013921529985964298
0.016129599884152412,0.00031397893326357007,-0.012195908464491367,0.011721774004399776,-0.0005688195233233273,0.014226118102669716
0.01598893292248249,0.0002953198563773185,-0.012545925565063953,0.011433119885623455,-0.0005143285379745066,0.013874041847884655
0.015937132760882378,0.0003134185972157866,-0.012120595201849937,0.010498476214706898,-0.0005295747541822493,0.013982516713440418
0.01650957018136978,0.00031302962452173233,-0.012041455134749413,0.010703865438699722,-0.00050125434063375,0.01372087374329567
0.01603851653635502,0.00029610266210511327,-0.012544085271656513,0.010735070332884789,-0.0005160983419045806,0.014105121605098248
0.016376633197069168,0.000280710868537426,-0.012260928750038147,0.0106655303388834,-0.0005273680435493588,0.01468082144856453
0.015931660309433937,0.00026683873147703707,-0.012812752276659012,0.010667147114872932,-0.0005215167766436934,0.013448772020637989
0.01631273701786995,0.0002949203772004694,-0.012414950877428055,0.010531571693718433,-0.0005469454335980117,0.013610933907330036
0.01671041175723076,0.00028328780899755657,-0.012809723615646362,0.010760701261460781,-0.0005565014434978366,0.014399602077901363
0.01671041175723076,0.00028328780899755657,-0.012809723615646362,0.010760701261460781,-0.0005565014434978366,0.014399602077901363
0.016050267964601517,0.0003052634419873357,-0.012389378622174263,0.011272301897406578,-0.0005454887286759913,0.014339465647935867
0.016314836218953133,0.00029700295999646187,-0.01223730482161045,0.01095222681760788,-0.0005751471035182476,0.014105012640357018
0.01636912301182747,0.0003609893028624356,-0.012740330770611763,0.010984989814460278,-0.0005973436054773629,0.014011475257575512
0.016530022025108337,0.0003436584956943989,-0.012553309090435505,0.010898228734731674,-0.0007638568058609962,0.014000835828483105
0.016168372705578804,0.00031939783366397023,-0.012593379244208336,0.010676910169422626,-0.0007816269644536078,0.014127516187727451
0.016697930172085762,0.0003570156986825168,-0.012164143845438957,0.011491364799439907,-0.0007387797813862562,0.014254412613809109
0.016730688512325287,0.00037220778176561,-0.012560507282614708,0.011410793289542198,-0.0007327593048103154,0.014477540738880634
0.016126304864883423,0.0003683880204334855,-0.01248054951429367,0.01180572435259819,-0.0006782690179534256,0.01433134451508522
0.01645171269774437,0.0003920876479241997,-0.012688743881881237,0.01155965868383646,-0.0006137138116173446,0.014308338984847069
0.01630212366580963,0.0003779292164836079,-0.012681820429861546,0.011433999054133892,-0.0006281123496592045,0.014512378722429276
0.017033176496624947,0.0005348531412892044,-0.012411641888320446,0.011740882880985737,-0.0005862881080247462,0.014711601659655571
0.016718292608857155,0.0005724405637010932,-0.01272228080779314,0.0114185381680727,-0.0005472471239045262,0.015014217235147953
0.01667153835296631,0.0005509324255399406,-0.012588564306497574,0.011307839304208755,-0.00043779448606073856,0.014547423459589481
0.016525141894817352,0.0005093960207886994,-0.012381086125969887,0.010698535479605198,-0.0004729697830043733,0.014521502889692783
0.017198676243424416,0.0005376690533012152,-0.012549374252557755,0.010897651314735413,-0.00043931324034929276,0.014140310697257519
0.016981400549411774,0.000594358192756772,-0.012383157387375832,0.01092744804918766,-0.0004065298708155751,0.01378538366407156
0.017128951847553253,0.0006404472514986992,-0.012249831110239029,0.010706767439842224,-0.00043665303383022547,0.01416563056409359
0.01684645563364029,0.0006042220047675073,-0.01264282874763012,0.010914495214819908,-0.00041191597119905055,0.014427312649786472
0.01681627705693245,0.0006331034819595516,-0.012414280325174332,0.010916183702647686,-0.000386857136618346,0.014752314426004887
0.01734136790037155,0.0006552269333042204,-0.012511762790381908,0.011690638028085232,-0.0004129407461732626,0.015065575949847698
0.017455894500017166,0.0008299940382130444,-0.012249058112502098,0.011506978422403336,-0.00039352604653686285,0.014908778481185436
0.01777501590549946,0.0008654354605823755,-0.012317133136093616,0.011171531863510609,-0.00037332053761929274,0.014413881115615368
0.017786219716072083,0.0008705302607268095,-0.012524728663265705,0.011269092559814453,-0.00035492604365572333,0.014812910929322243
0.01681135967373848,0.0008741049095988274,-0.012493440881371498,0.011285520158708096,-0.00033824771526269615,0.014666951261460781
0.017233949154615402,0.000955678871832788,-0.01251454371958971,0.011747580952942371,-0.00032474854378961027,0.014945733360946178
0.017233949154615402,0.000955678871832788,-0.01251454371958971,0.011747580952942371,-0.00032474854378961027,0.014945733360946178
0.016983643174171448,0.0009504724876023829,-0.012139483354985714,0.010511129163205624,-0.00030087752384133637,0.015418090857565403
0.017638584598898888,0.0009096770663745701,-0.012370371259748936,0.0112308319658041,-0.0003043274045921862,0.014754067175090313
0.017638584598898888,0.0009096770663745701,-0.012370371259748936,0.0112308319658041,-0.0003043274045921862,0.014754067175090313
0.017470799386501312,0.0009426912874914706,-0.012559779919683933,0.011429613456130028,-0.00029965839348733425,0.015651550143957138
0.01746147871017456,0.0009695967310108244,-0.012334453873336315,0.010926983319222927,-0.0002846573479473591,0.014608395285904408
0.017218774184584618,0.001060767681337893,-0.011834011413156986,0.011210479773581028,-0.0002704487706068903,0.013887254521250725
0.01782352291047573,0.001244409941136837,-0.012466668151319027,0.011216500774025917,-0.0002892366028390825,0.01450221799314022
0.01794186607003212,0.0012932486133649945,-0.012138012796640396,0.010715920478105545,-0.00028605887200683355,0.015156409703195095
0.017658760771155357,0.0012183747021481395,-0.012809083797037601,0.011260801926255226,-0.0002742541837505996,0.014919922687113285
0.01777651533484459,0.0011664386838674545,-0.012476933188736439,0.01095485594123602,-0.0002628520305734128,0.015408921986818314
0.01915719546377659,0.0010423669591546059,-0.012410375289618969,0.011217489838600159,-0.000252324651228264,0.015053807757794857
0.017323508858680725,0.0010165894636884332,-0.012375740334391594,0.01185605302453041,-0.00024260695499833673,0.01516206655651331
0.01747274585068226,0.00117745460011065,-0.01248615700751543,0.011578644625842571,-0.0002252554550068453,0.015166563913226128
0.01803537830710411,0.0013309866189956665,-0.012364675290882587,0.011216463521122932,-0.00021747805294580758,0.015040039084851742
0.018326791003346443,0.001313457847572863,-0.012845613062381744,0.011195128783583641,-0.00021022070723120123,0.015361767262220383
0.018111230805516243,0.0016355564584955573,-0.012665840797126293,0.011383838020265102,-0.00021768134320154786,0.015415963716804981
0.018185317516326904,0.0016275888774544,-0.01258388813585043,0.011279724538326263,-0.00022425279894378036,0.015399397350847721
0.017758235335350037,0.0015292742755264044,-0.012613414786756039,0.0118364617228508,-0.0002183247997891158,0.01533487718552351
0.017967432737350464,0.0015391503693535924,-0.012972974218428135,0.011534452438354492,-0.00021195424778852612,0.01518614124506712
0.01801144890487194,0.0014529275940731168,-0.012887274846434593,0.011677137576043606,-0.00020589657651726156,0.015267540700733662
0.01757310889661312,0.0014565364690497518,-0.012244533747434616,0.011456654407083988,-0.00020017194037791342,0.015288320370018482
0.018368149176239967,0.0015370541950687766,-0.013540772721171379,0.011006138287484646,-0.00019475685257930309,0.015332053415477276
0.018368149176239967,0.0015370541950687766,-0.013540772721171379,0.011006138287484646,-0.00019475685257930309,0.015332053415477276
0.018157007172703743,0.001891543623059988,-0.012208236381411552,0.011082693003118038,-0.0001883452059701085,0.015179634094238281
0.018138403072953224,0.0019740292336791754,-0.013010346330702305,0.010982501320540905,-0.00018022618314716965,0.015402687713503838
0.01860225759446621,0.0020691081881523132,-0.012939374893903732,0.010801796801388264,-0.00017324881628155708,0.01532291155308485
0.018366634845733643,0.002002548659220338,-0.012937884777784348,0.011151769198477268,-0.0001668228505877778,0.015715736895799637
0.018389040604233742,0.0018216304015368223,-0.012730392627418041,0.011161813512444496,-0.0001608584716450423,0.015428215265274048
0.018287885934114456,0.0018114653648808599,-0.012741239741444588,0.011272122152149677,-0.0001782905455911532,0.015517182648181915
0.01801789551973343,0.0016279831761494279,-0.013477315194904804,0.011566700413823128,-0.00017962191486731172,0.01541314460337162
0.018371600657701492,0.0017023568507283926,-0.01259943563491106,0.011822342872619629,-0.00017429811123292893,0.015683084726333618
0.018455231562256813,0.0017917189979925752,-0.013232345692813396,0.011664015240967274,-0.0001688779884716496,0.015594258904457092
0.018287712708115578,0.0018831149209290743,-0.012606516480445862,0.011239094659686089,-0.00016375818813685328,0.015324762091040611
0.018714142963290215,0.0019000530010089278,-0.013233511708676815,0.011402023956179619,-0.00015893758973106742,0.015306614339351654
0.018429413437843323,0.0021201306954026222,-0.012973939999938011,0.011407305486500263,-0.0001543934631627053,0.015522918663918972
0.01826716959476471,0.0021895309910178185,-0.013109162449836731,0.011309394612908363,-0.0001623831776669249,0.016141198575496674
0.018423644825816154,0.002393972361460328,-0.01285333838313818,0.010907331481575966,-0.00016584059630986303,0.015485520474612713
0.018510032445192337,0.0021290548611432314,-0.013208328746259212,0.01074670534580946,-0.0001616348308743909,0.015393488109111786
0.018548620864748955,0.002200055867433548,-0.01275548990815878,0.010869302786886692,-0.00017714449495542794,0.01593594066798687
0.0180972870439291,0.002432378474622965,-0.013516387902200222,0.0107252923771739,-0.00017551904602441937,0.015717800706624985
0.018767965957522392,0.0023651123046875,-0.012312213890254498,0.010748308151960373,-0.0002089456538669765,0.015696221962571144
0.01879127509891987,0.00258249556645751,-0.01286595780402422,0.011434762738645077,-0.0002339395578019321,0.015415859408676624
0.01865139789879322,0.0025616902858018875,-0.01274836529046297,0.01122350711375475,-0.00025778054259717464,0.015937205404043198
0.01865139789879322,0.0025616902858018875,-0.01274836529046297,0.01122350711375475,-0.00025778054259717464,0.015937205404043198
0.018854157999157906,0.0021332644391804934,-0.013024134561419487,0.012088527902960777,-0.0002451800392009318,0.01583310402929783
0.018854157999157906,0.0021332644391804934,-0.013024134561419487,0.012088527902960777,-0.0002451800392009318,0.01583310402929783
0.018910765647888184,0.002340903040021658,-0.013160613365471363,0.011687414720654488,-0.00026193418307229877,0.015771016478538513
0.018676169216632843,0.002358111785724759,-0.012898693792521954,0.011708776466548443,-0.0002829486329574138,0.015672586858272552
0.018676169216632843,0.002358111785724759,-0.012898693792521954,0.011708776466548443,-0.0002829486329574138,0.015672586858272552
0.018220292404294014,0.0025153171736747026,-0.013387597166001797,0.011937733739614487,-0.00027638644678518176,0.015585987828671932
0.019041558727622032,0.0026797321625053883,-0.01255404856055975,0.01155154500156641,-0.00026643823366612196,0.01592669077217579
0.019466392695903778,0.002364661078900099,-0.013095228001475334,0.01187189482152462,-0.00034819726715795696,0.01587953418493271
0.01861453242599964,0.0025113667361438274,-0.012811602093279362,0.011401114985346794,-0.0004023122601211071,0.01601211167871952
0.018814032897353172,0.002491482300683856,-0.013525191694498062,0.011253472417593002,-0.0003744165296666324,0.015711050480604172
0.018250813707709312,0.0024260932113975286,-0.013337166048586369,0.011296682991087437,-0.00040568545227870345,0.01586942933499813
0.018052205443382263,0.0026816274039447308,-0.0129919508472085,0.011038298718631268,-0.0003849133790936321,0.01596199721097946
0.018662380054593086,0.002804342657327652,-0.012804141268134117,0.011100636795163155,-0.0003597881004679948,0.016216464340686798
0.01857941411435604,0.0028829709626734257,-0.012791558168828487,0.011026476509869099,-0.00033733368036337197,0.01636531390249729
0.01900007203221321,0.002655012533068657,-0.01293312106281519,0.010794653557240963,-0.0003432556986808777,0.01605801470577717
0.018313657492399216,0.0026363034266978502,-0.013051974587142467,0.01090878527611494,-0.0003313058987259865,0.016404559835791588
0.01856984943151474,0.0025080638006329536,-0.012513348832726479,0.01083084661513567,-0.00034803428570739925,0.016473092138767242
0.01888267695903778,0.002841639332473278,-0.013219068758189678,0.011001426726579666,-0.0003419290587771684,0.016400903463363647
0.019020410254597664,0.002978981239721179,-0.01285860687494278,0.010829507373273373,-0.0003614330489654094,0.016348304226994514
0.018795594573020935,0.002979445504024625,-0.013346248306334019,0.010630260221660137,-0.0003400084387976676,0.016326097771525383
0.019215665757656097,0.0028777120169252157,-0.01305765938013792,0.011441218666732311,-0.0003711332392413169,0.017038065940141678
0.018567673861980438,0.002980980556458235,-0.013462850823998451,0.01139418687671423,-0.00035425813985057175,0.015933310613036156
0.018567673861980438,0.002980980556458235,-0.013462850823998451,0.01139418687671423,-0.00035425813985057175,0.015933310613036156
0.018825216218829155,0.002944715553894639,-0.013195140287280083,0.012257871218025684,-0.00037375607644207776,0.015685977414250374
0.019062785431742668,0.0028559458442032337,-0.012871609069406986,0.011877696961164474,-0.0003649005084298551,0.016119753941893578
0.018733609467744827,0.002676420845091343,-0.013316935859620571,0.012344466522336006,-0.0003457065613474697,0.017000380903482437
0.01754654198884964,0.0027057402767241,-0.012637168169021606,0.012347270734608173,-0.000371369271306321,0.016958137974143028
0.01953665167093277,0.0027683719526976347,-0.013479328714311123,0.011601823382079601,-0.0003558552998583764,0.0175721924751997
0.019218487665057182,0.0028658027295023203,-0.01314704678952694,0.01139257661998272,-0.00040014376281760633,0.017381252720952034
0.019017955288290977,0.0027591048274189234,-0.013501431792974472,0.011042028665542603,-0.000421276839915663,0.01721671223640442
0.018846338614821434,0.002982765669003129,-0.012733145616948605,0.011247247457504272,-0.0004557596112135798,0.0167531855404377
0.018524155020713806,0.003273911774158478,-0.013570012524724007,0.011982273310422897,-0.0004289091157261282,0.01620372012257576
0.01922689750790596,0.003174013923853636,-0.013153426349163055,0.01110774651169777,-0.0004595453792717308,0.016397889703512192
0.019454844295978546,0.003072447143495083,-0.013179199770092964,0.011291217990219593,-0.0004620644904207438,0.017141349613666534
0.019332710653543472,0.0033473623916506767,-0.013392255641520023,0.01107914000749588,-0.00046030167140997946,0.01735163852572441
0.020061010494828224,0.003048054641112685,-0.013243397697806358,0.011446516960859299,-0.0004358117585070431,0.017215995118021965
0.019352544099092484,0.002943543018773198,-0.012730478309094906,0.011730784550309181,-0.0005672650295309722,0.016760719940066338
0.019659219309687614,0.002880826825276017,-0.013763800263404846,0.012032927013933659,-0.0005769975250586867,0.01723555475473404
0.019929880276322365,0.003279432887211442,-0.012982014566659927,0.011583955958485603,-0.0005654723499901593,0.017354223877191544
0.019540082663297653,0.0031516740564256907,-0.013567936606705189,0.011950691230595112,-0.0005855226190760732,0.01751120015978813
0.01978856325149536,0.0033262427896261215,-0.012867998331785202,0.011961011216044426,-0.0005546300089918077,0.01749625988304615
0.019866645336151123,0.0033606740180402994,-0.013921044766902924,0.011683518067002296,-0.0006440005963668227,0.017078248783946037
0.019630318507552147,0.0033642465714365244,-0.01354530081152916,0.012110933661460876,-0.000656479736790061,0.016875289380550385
0.019630318507552147,0.0033642465714365244,-0.01354530081152916,0.012110933661460876,-0.000656479736790061,0.016875289380550385
0.019794899970293045,0.00316414562985301,-0.014425894245505333,0.011699768714606762,-0.0006085766362957656,0.01680382899940014
0.02004246413707733,0.0022038621827960014,-0.01360037550330162,0.01204039715230465,-0.0005483970162458718,0.017100516706705093
0.019873062148690224,0.0016317050904035568,-0.013774676248431206,0.011936583556234837,-0.0005586287588812411,0.01754443719983101
0.019983965903520584,0.0014561926946043968,-0.013759701512753963,0.011307411827147007,-0.0005303297657519579,0.017831210047006607
0.020130008459091187,0.0012269768631085753,-0.013649378903210163,0.012033249251544476,-0.0004902572836726904,0.01788303256034851
0.019725024700164795,0.000902992149349302,-0.013478529639542103,0.011513317003846169,-0.00048643277841620147,0.019101398065686226
0.019754886627197266,0.001020976691506803,-0.013312339782714844,0.011750242672860622,-0.00048268542741425335,0.016972724348306656
0.02028726413846016,0.0018111582612618804,-0.014124629087746143,0.011747946962714195,-0.0004541167872957885,0.016689639538526535
0.020334502682089806,0.001951606827788055,-0.013909408822655678,0.012095741927623749,-0.0004272793885320425,0.016986891627311707
0.020220868289470673,0.0023125556763261557,-0.014315602369606495,0.011792347766458988,-0.0003821917052846402,0.017577607184648514
0.020494824275374413,0.002013816963881254,-0.013930744491517544,0.011464574374258518,-0.0003472683019936085,0.01806793175637722
0.020400838926434517,0.001502569648437202,-0.013753260485827923,0.011922262609004974,-0.000369376182788983,0.017550483345985413
0.02016722783446312,0.0013212560443207622,-0.013637235388159752,0.012168629094958305,-0.00035948544973507524,0.017533039674162865
0.019991425797343254,0.001251270528882742,-0.014502051286399364,0.011358195915818214,-0.00039035105146467686,0.017584843561053276
0.02032972313463688,0.00126049411483109,-0.01390146929770708,0.0113832363858819,-0.00040990320849232376,0.017711849883198738
0.02006755955517292,0.0013952741865068674,-0.014796520583331585,0.011070065200328827,-0.0003995907318312675,0.017528817057609558
0.020560264587402344,0.001939151668921113,-0.01422800961881876,0.011359506286680698,-0.0005204868502914906,0.01763048581779003
0.02102346532046795,0.0017381890211254358,-0.01416701264679432,0.01085108146071434,-0.00047735226689837873,0.017519386485219002
0.020699361339211464,0.0016413999255746603,-0.014960248954594135,0.011516894213855267,-0.00043223649845458567,0.017304573208093643
0.02062905952334404,0.0016212911577895284,-0.013800951652228832,0.01107478141784668,-0.00039436350925825536,0.017973385751247406
0.020391225814819336,0.001462188665755093,-0.014177427627146244,0.011177058331668377,-0.00039765526889823377,0.01826873980462551
0.020489465445280075,0.0015602983767166734,-0.013759739696979523,0.012027674354612827,-0.00040016445564106107,0.01831205002963543
0.020390845835208893,0.0017589073395356536,-0.014173035509884357,0.011451860889792442,-0.00037449420779012144,0.01815343089401722
0.021111348643898964,0.0018871709471568465,-0.013864098116755486,0.011597040109336376,-0.00035032321466133,0.017814546823501587
0.021067624911665916,0.0017462227260693908,-0.01441859733313322,0.011858579702675343,-0.0003289771266281605,0.0179730374366045
0.021067624911665916,0.0017462227260693908,-0.01441859733313322,0.011858579702675343,-0.0003289771266281605,0.0179730374366045
0.020695649087429047,0.001663788571022451,-0.01371791772544384,0.012215063907206059,-0.0003100787871517241,0.01809139922261238
0.021736353635787964,0.0016959419008344412,-0.013720270246267319,0.011866608634591103,-0.0003228441346436739,0.018827326595783234
0.021736353635787964,0.0016959419008344412,-0.013720270246267319,0.011866608634591103,-0.0003228441346436739,0.018827326595783234
0.02151261456310749,0.0017248638905584812,-0.014119049534201622,0.012517102062702179,-0.0003084748168475926,0.018685659393668175
0.02075195126235485,0.0021560185123234987,-0.01352254394441843,0.0117031866684556,-0.0002941620768979192,0.01813872717320919
0.02073770761489868,0.0022253228817135096,-0.014368005096912384,0.012133455835282803,-0.0002810416917782277,0.017793701961636543
0.02108650840818882,0.0022057590540498495,-0.01390931848436594,0.012673070654273033,-0.000269037380348891,0.01735147461295128
0.021262183785438538,0.002294608624652028,-0.01423791702836752,0.01211387850344181,-0.00025801724405027926,0.018575333058834076
0.0217624232172966,0.002191952196881175,-0.01369653269648552,0.012525332160294056,-0.0002478637616150081,0.017914341762661934
0.021586626768112183,0.002130173146724701,-0.014287281781435013,0.012076170183718204,-0.00023847943521104753,0.017945103347301483
0.02141670137643814,0.002120434306561947,-0.01366518996655941,0.012112723663449287,-0.00025406162603758276,0.01811598241329193
0.021698255091905594,0.0023654638789594173,-0.01455905195325613,0.012006559409201145,-0.0002528056502342224,0.018100861459970474
0.02143043652176857,0.0022727595642209053,-0.013909067027270794,0.012354069389402866,-0.0002447133301757276,0.018559155985713005
0.021741371601819992,0.0022000735625624657,-0.0142628513276577,0.011953155510127544,-0.00023670025984756649,0.019004784524440765
0.021780269220471382,0.002010547323152423,-0.013858049176633358,0.011454780586063862,-0.0002093491784762591,0.019274365156888962
0.021684054285287857,0.0019673595670610666,-0.014440673403441906,0.0120181143283844,-0.0001824644423322752,0.018833709880709648
0.021442856639623642,0.002052956959232688,-0.014150477014482021,0.011798069812357426,-0.00019999159849248827,0.018006687983870506
0.021750973537564278,0.002176742535084486,-0.013747639954090118,0.012348121032118797,-0.0001938465138664469,0.01788133941590786
0.021774902939796448,0.002204235875979066,-0.014212872833013535,0.01149719301611185,-0.000214255356695503,0.018542751669883728
0.021658943966031075,0.0024501336738467216,-0.01390046440064907,0.011826668865978718,-0.00021080947772134095,0.018620751798152924
0.021541496738791466,0.0024902895092964172,-0.013876722194254398,0.011714068241417408,-0.00022953203006181866,0.019337179139256477
0.021989230066537857,0.002314749639481306,-0.013767380267381668,0.011755975894629955,-0.00022582951351068914,0.01930958218872547
0.02209761179983616,0.0021228946279734373,-0.013512951321899891,0.011814785189926624,-0.00045256633893586695,0.018969055265188217
0.021928051486611366,0.0020989193581044674,-0.01412690058350563,0.011660804972052574,-0.00048438305384479463,0.0188776645809412
0.021928051486611366,0.0020989193581044674,-0.01412690058350563,0.011660804972052574,-0.00048438305384479463,0.0188776645809412
0.02200920507311821,0.002418822841718793,-0.01390307117253542,0.012173565104603767,-0.00048194939154200256,0.01883450150489807
0.022146182134747505,0.0025349732022732496,-0.01409077737480402,0.01231416966766119,-0.00044436956522986293,0.019318507984280586
0.022146182134747505,0.0025349732022732496,-0.01409077737480402,0.01231416966766119,-0.00044436956522986293,0.019318507984280586
0.022118709981441498,0.002554755425080657,-0.014452663250267506,0.013803496025502682,-0.00044343320769257843,0.019457941874861717
0.021861735731363297,0.002303114626556635,-0.013768762350082397,0.012510084547102451,-0.00041611833148635924,0.01900547742843628
0.02212727814912796,0.002366213593631983,-0.014028011821210384,0.012210208922624588,-0.00043151417048648,0.01899184286594391
0.022477300837635994,0.0023554323706775904,-0.013574267737567425,0.012030757032334805,-0.00041922085802070796,0.019142646342515945
0.022059157490730286,0.0025796236004680395,-0.01428125984966755,0.012035842053592205,-0.0003969398676417768,0.019083172082901
0.021924873813986778,0.0028185229748487473,-0.013641957193613052,0.011586939916014671,-0.0004112988244742155,0.019098477438092232
0.022375019267201424,0.003133367979899049,-0.014274134300649166,0.012246479280292988,-0.0003889862564392388,0.020539864897727966
0.022264795377850533,0.0029944113921374083,-0.013653062283992767,0.012434962205588818,-0.0003588126564864069,0.018589532002806664
0.022668272256851196,0.0028834682889282703,-0.014135726727545261,0.011686474084854126,-0.00038972776383161545,0.018432404845952988
0.023155026137828827,0.0026650906074792147,-0.01377659011632204,0.011803314089775085,-0.00037078087916597724,0.019031623378396034
0.022366221994161606,0.0028842592146247625,-0.014372365549206734,0.01186942309141159,-0.0003974751161877066,0.019156290218234062
0.02241506613790989,0.0029904418624937534,-0.01381159108132124,0.012161682359874249,-0.0003803399740718305,0.019361060112714767
0.02224227786064148,0.0034826528280973434,-0.014365451410412788,0.011804387904703617,-0.0003969104727730155,0.019185038283467293
0.021270381286740303,0.002857932122424245,-0.013416743837296963,0.01185289490967989,-0.00038842286448925734,0.01912572979927063
0.02285704016685486,0.0026990396436303854,-0.0137576162815094,0.011877541430294514,-0.000519314082339406,0.019292794167995453
0.022598018869757652,0.0027544645126909018,-0.014579608105123043,0.012304618954658508,-0.0005376209155656397,0.019442472606897354
0.02277441695332527,0.002861515386030078,-0.014084299094974995,0.01238218229264021,-0.0005123545415699482,0.019329465925693512
0.022814856842160225,0.0029196515679359436,-0.01470685750246048,0.012322930619120598,-0.0005334819434210658,0.019465526565909386
0.022831333801150322,0.0028858953155577183,-0.014277419075369835,0.01262053195387125,-0.0005062456475570798,0.01968807354569435
0.02294350601732731,0.0027440031990408897,-0.014286468736827374,0.012110630050301552,-0.0006422841688618064,0.01952800713479519
0.023131011053919792,0.0026963045820593834,-0.014020664617419243,0.012385902926325798,-0.0006726036663167179,0.019493961706757545
0.022438736632466316,0.0028601244557648897,-0.014872746542096138,0.012386994436383247,-0.0006595620070584118,0.019687289372086525
0.022138472646474838,0.0027991412207484245,-0.014431953430175781,0.01244925707578659,-0.0006374840741045773,0.019791215658187866
0.022138472646474838,0.0027991412207484245,-0.014431953430175781,0.01244925707578659,-0.0006374840741045773,0.019791215658187866
