davideferrari95/blind_handover_controller/data/Test 195 - [2024-02-08 -- 11-31-21]/joint_states_data.csv
shoulder_pan_joint,shoulder_lift_joint,elbow_joint,wrist_1_joint,wrist_2_joint,wrist_3_joint
0.003686201060190797,0.0005984806339256465,-0.007171107921749353,0.007202783599495888,-0.0,0.0035346688237041235
0.003644117619842291,0.0006311776814982295,-0.007081292569637299,0.006914573255926371,-0.0,0.0034547527320683002
0.003644117619842291,0.0006311776814982295,-0.007081292569637299,0.006914573255926371,-0.0,0.0034547527320683002
0.0036299077328294516,0.0006534699932672083,-0.00692282197996974,0.007281506434082985,-0.0,0.003387921489775181
0.0037593268789350986,0.0008346694521605968,-0.007387915626168251,0.007788858376443386,-0.0,0.003536839969456196
0.003890625899657607,0.0009375264635309577,-0.0071647921577095985,0.007431089412420988,-0.0,0.0037009664811193943
0.0034634971525520086,0.0009331736946478486,-0.0072308252565562725,0.007388141937553883,-0.0,0.003740974934771657
0.0035364869982004166,0.0008255408611148596,-0.0066788336262106895,0.0070197442546486855,-0.0,0.0035258429124951363
0.0033358449582010508,0.000832711870316416,-0.006636464968323708,0.006858035922050476,-0.0,0.003394033759832382
0.003337318077683449,0.0008299232576973736,-0.0070946430787444115,0.00689040869474411,-0.0,0.003184859175235033
0.0034190791193395853,0.0008475370123051107,-0.0077544767409563065,0.006787238642573357,-0.0,0.003380710491910577
0.003492323448881507,0.0008582401787862182,-0.0069221253506839275,0.007272864226251841,-0.0,0.003152834950014949
0.003402306232601404,0.0008634194382466376,-0.006740450859069824,0.006726686377078295,-0.0,0.0033028586767613888
0.00328673142939806,0.0010834070853888988,-0.007916657254099846,0.006541273556649685,-0.0,0.003543170401826501
0.004005813971161842,0.0010869894176721573,-0.0073274411261081696,0.007073225453495979,-0.0,0.0037302151322364807
0.003679663175716996,0.001084389048628509,-0.0072521185502409935,0.007464240305125713,-0.0,0.0035429662093520164
0.0035730989184230566,0.0011008372530341148,-0.007498474325984716,0.007542879320681095,-0.0,0.0035067962016910315
0.0035730989184230566,0.0011008372530341148,-0.007498474325984716,0.007542879320681095,-0.0,0.0035067962016910315
0.0036833002232015133,0.001071661594323814,-0.007778190076351166,0.007057070732116699,-0.0,0.0037000752054154873
0.0033769593574106693,0.0010465739760547876,-0.007327229715883732,0.007151665166020393,-0.0,0.003396865213289857
0.003618547460064292,0.0011718657333403826,-0.007250490598380566,0.0072773536667227745,-0.0,0.0032147502060979605
0.0032839830964803696,0.0011271813418716192,-0.007569693494588137,0.0067845298908650875,-0.0,0.0032007144764065742
0.003396446816623211,0.0009991456754505634,-0.008330860175192356,0.006784011144191027,-0.0,0.00341851101256907
0.00353167369030416,0.0009841854916885495,-0.007903709076344967,0.0071391030214726925,-0.0,0.0036621487233787775
0.003627459052950144,0.000930196198169142,-0.007057587616145611,0.006918423809111118,-0.0,0.0035692446399480104
0.0034386988263577223,0.0010266822064295411,-0.00803038664162159,0.006584013346582651,-0.0,0.0035414211452007294
0.0034489459358155727,0.0010585017735138535,-0.008353439159691334,0.006041800137609243,-0.0,0.0037077388260513544
0.003204490290954709,0.0015894346870481968,-0.007635417394340038,0.006328443996608257,-0.0,0.003996336832642555
0.003589621977880597,0.0019812963437289,-0.007510093040764332,0.006849907338619232,-0.0,0.004057537764310837
0.0033779717050492764,0.0020952224731445312,-0.008523107506334782,0.007202998269349337,-0.0,0.0037882213946431875
0.0035899323411285877,0.0019182385876774788,-0.007815917953848839,0.007129203993827105,-0.0,0.00356228812597692
0.0033087069168686867,0.0016547403065487742,-0.008187531493604183,0.006896585691720247,-0.0,0.003187293652445078
0.0033207654487341642,0.0016671749763190746,-0.008708213455975056,0.00695073651149869,-0.0,0.002956636482849717
0.003412023652344942,0.0015715408371761441,-0.008145627565681934,0.006930585950613022,-0.0,0.0031978783663362265
0.0034660000819712877,0.001623252290301025,-0.007588555105030537,0.006661500781774521,-0.0,0.003556978888809681
0.0034619353245943785,0.0019821429159492254,-0.007510448340326548,0.006563279777765274,-0.0,0.003757832106202841
0.003135161940008402,0.0020178300328552723,-0.007843442261219025,0.006908801384270191,-0.0,0.003635441418737173
0.0034590994473546743,0.002277012448757887,-0.008289261721074581,0.007010786794126034,-0.0,0.003358007175847888
0.003293984569609165,0.0020095244981348515,-0.008166198618710041,0.007086011581122875,-0.0,0.003117957850918174
0.003293984569609165,0.0020095244981348515,-0.008166198618710041,0.007086011581122875,-0.0,0.003117957850918174
0.003294050693511963,0.0018007020698860288,-0.008440550416707993,0.007026612758636475,-0.0,0.003342318581417203
0.003383772214874625,0.001996064791455865,-0.008261176757514477,0.007510010618716478,-0.0,0.0032613701187074184
0.003387297037988901,0.0025212226901203394,-0.00781322456896305,0.007523463573306799,-0.0,0.003242604900151491
0.0033292921725660563,0.002528012963011861,-0.0077528576366603374,0.006796678528189659,-0.0,0.003233549650758505
0.0035720765590667725,0.0026659059803932905,-0.00853180605918169,0.006476406939327717,-0.0,0.003178296610713005
0.0033317082561552525,0.002314956858754158,-0.008452768437564373,0.007112933788448572,-0.0,0.0034051197580993176
0.0031195804476737976,0.0020874175243079662,-0.007902566343545914,0.006615020334720612,-0.0,0.003616177476942539
0.0029528727754950523,0.0019363483879715204,-0.0077068437822163105,0.006389772053807974,-0.0,0.0037873340770602226
0.0031469110399484634,0.002022190485149622,-0.008499525487422943,0.006175518035888672,-0.0,0.0034653933253139257
0.0035066462587565184,0.002337931888177991,-0.00845820177346468,0.006429870612919331,-0.0,0.0031744542066007853
0.0037034107372164726,0.002276336308568716,-0.007891282439231873,0.006741695571690798,-0.0,0.0030994273256510496
0.0036009785253554583,0.002203269163146615,-0.008370486088097095,0.006505816709250212,-0.0,0.0031927924137562513
0.0034385889302939177,0.002101362682878971,-0.008595925755798817,0.006235931068658829,-0.0,0.003383069531992078
0.003416190855205059,0.00214572180993855,-0.008854985237121582,0.006105837412178516,-0.0,0.003623366355895996
0.003600066527724266,0.002153353299945593,-0.007928014732897282,0.006417250260710716,-0.0,0.0040016197599470615
0.0037584363017231226,0.0023589872289448977,-0.00814722292125225,0.006681113503873348,-0.0,0.004035474266856909
0.003396589308977127,0.0026783670764416456,-0.008166591636836529,0.00666517298668623,-0.0,0.003824120620265603
0.003273317124694586,0.0025456594303250313,-0.007856766693294048,0.00668348791077733,-0.0,0.003684066003188491
0.003385212505236268,0.002623290056362748,-0.007700302172452211,0.00708662299439311,-0.0,0.0034900715108960867
0.003632865846157074,0.002446043072268367,-0.008868690580129623,0.006986195687204599,-0.0,0.0031814943067729473
0.0036702698562294245,0.0022567373234778643,-0.008046746253967285,0.006414585281163454,-0.0,0.003053390420973301
0.003680054796859622,0.0022897811140865088,-0.0077324421145021915,0.0061141797341406345,-0.0,0.0033266821410506964
0.0037396769039332867,0.0022283410653471947,-0.008214971981942654,0.006443563848733902,-0.0,0.003640400245785713
0.0033106745686382055,0.0023994154762476683,-0.00852707214653492,0.00720812426880002,-0.0,0.003750760341063142
0.003312157467007637,0.002790231490507722,-0.008154327981173992,0.006238624453544617,-0.0,0.003721672808751464
0.003312157467007637,0.002790231490507722,-0.008154327981173992,0.006238624453544617,-0.0,0.003721672808751464
0.003520556492730975,0.002586635295301676,-0.008244254626333714,0.005976011045277119,-0.0,0.0033371075987815857
0.003915936686098576,0.0026353849098086357,-0.00715411314740777,0.006518990732729435,-0.0,0.003298473311588168
0.0035367703530937433,0.0025881528854370117,-0.007820342667400837,0.006199398078024387,-0.0,0.0030962713062763214
0.0035367703530937433,0.0025881528854370117,-0.007820342667400837,0.006199398078024387,-0.0,0.0030962713062763214
0.003496672958135605,0.0029438058845698833,-0.008367286995053291,0.005990768317133188,-0.0,0.003042613621801138
0.0036354712210595608,0.003028319915756583,-0.008295342326164246,0.005952219013124704,-0.0,0.00333213503472507
0.0039281644858419895,0.0027808083686977625,-0.007964897900819778,0.006325857248157263,-0.0,0.0036436072550714016
0.0037947515957057476,0.0025616632774472237,-0.008404507301747799,0.006763609126210213,-0.0,0.0042420728132128716
0.0035155529621988535,0.0025255337823182344,-0.008192488923668861,0.006589806172996759,-0.0,0.0041475920006632805
0.0035952182952314615,0.002548162592574954,-0.007526112720370293,0.006195959635078907,-0.0,0.003936329856514931
0.0038775175344198942,0.0024387133307754993,-0.008249212987720966,0.005784038454294205,-0.0,0.0034298496320843697
0.003925268072634935,0.0026012659072875977,-0.008633965626358986,0.006214826367795467,-0.0,0.003437095321714878
0.0039592585526406765,0.0026133754290640354,-0.008170947432518005,0.006344395689666271,-0.0,0.003306279657408595
0.0034456506837159395,0.0024619607720524073,-0.008020145818591118,0.006251067388802767,-0.0,0.003880864242091775
0.003563115606084466,0.0027490861248224974,-0.007862533442676067,0.006063935346901417,-0.0,0.004077055491507053
0.003713734447956085,0.0030222092755138874,-0.008166530169546604,0.005530165508389473,-0.0,0.004004856571555138
0.0037867871578782797,0.0030492697842419147,-0.008443628437817097,0.005715940147638321,-0.0,0.003488102462142706
0.003841415513306856,0.002741617150604725,-0.00800012331455946,0.006456069648265839,-0.0,0.0032946201972663403
0.0038911679293960333,0.0025732936337590218,-0.008478197269141674,0.00602506659924984,-0.0,0.0033910260535776615
0.004165108315646648,0.0023132681380957365,-0.008445296436548233,0.005758863873779774,-0.0,0.0034853701945394278
0.004262772388756275,0.0024129070807248354,-0.007911484688520432,0.006036737002432346,-0.0,0.0036582781467586756
0.0040838466957211494,0.0026862546801567078,-0.007729535456746817,0.006189684849232435,-0.0,0.00373365031555295
0.003976420033723116,0.0029502364341169596,-0.008270617574453354,0.0063205137848854065,-0.0,0.0038037910126149654
0.003927074372768402,0.0027724732644855976,-0.007832519710063934,0.005589482840150595,-0.0,0.003209191607311368
0.003927074372768402,0.0027724732644855976,-0.007832519710063934,0.005589482840150595,-0.0,0.003209191607311368
0.0042107608169317245,0.0024944001343101263,-0.007923773489892483,0.005883392877876759,-0.0,0.003430144628509879
0.004029810894280672,0.002416610950604081,-0.007969754748046398,0.006004746537655592,-0.0,0.0038115743082016706
0.003716119797900319,0.0028201539535075426,-0.0067734261974692345,0.006375296972692013,-0.0,0.003910969942808151
0.00393091281875968,0.0032296667341142893,-0.006410254631191492,0.006272896658629179,-0.0,0.0034645122941583395
0.00405703391879797,0.0030477680265903473,-0.007159828674048185,0.005504866596311331,-0.0,0.0034250908065587282
0.003886451246216893,0.002171961357817054,-0.007837318815290928,0.005418120417743921,-0.0,0.0031215022318065166
0.0037267839070409536,0.0010297441622242332,-0.006837520748376846,0.0056495750322937965,-0.0,0.0033511589281260967
0.004238029010593891,4.2221974581480026e-05,-0.00606386037543416,0.006420638877898455,-0.0,0.0035333421546965837
0.004087402485311031,5.664616651301912e-07,-0.0071321637369692326,0.006168078631162643,-0.0,0.0034362429287284613
0.0038731300737708807,7.599806117752905e-09,-0.007079371716827154,0.005891282577067614,-0.0,0.003803705796599388
0.004192104563117027,1.0196110622473498e-10,-0.0066551147028803825,0.005454440135508776,-0.0,0.003974850755184889
0.004229927435517311,1.36793831470583e-12,-0.006405465770512819,0.005708926822990179,-0.0,0.00357414479367435
0.004022491630166769,0.0027158791199326515,-0.006550248246639967,0.0060858335345983505,-0.0,0.003143921960145235
0.0038485280238091946,0.0020102246198803186,-0.0073900846764445305,0.006070472300052643,-0.0,0.0030438953544944525
0.004279035143554211,0.001523864921182394,-0.006985105108469725,0.005867533851414919,-0.0,0.003223587991669774
0.004090647213160992,0.0005783289088867605,-0.006401900667697191,0.005488330963999033,-0.0,0.0035632087383419275
0.004045800771564245,0.0003818574477918446,-0.006496374029666185,0.005764360539615154,-0.0,0.0036754158791154623
0.004070730414241552,0.0004511340812314302,-0.0071619595400989056,0.005773307289928198,-0.0,0.003954876214265823
0.004488341975957155,0.0005431316094473004,-0.007544766645878553,0.006152017507702112,-0.0,0.004157197196036577
0.004226763267070055,0.00059446383966133,-0.007420840207487345,0.006111673079431057,-0.0,0.003621503245085478
0.004493096377700567,0.0007603834383189678,-0.007027405314147472,0.005738168489187956,-0.0,0.003562792669981718
0.004768754355609417,0.001172482268884778,-0.006608258467167616,0.005667207762598991,-0.0,0.003673308063298464
0.004398757591843605,0.0012440551072359085,-0.007454395294189453,0.005331325810402632,-0.0,0.003842549165710807
0.004354707431048155,0.00106438051443547,-0.007298027165234089,0.0057523236609995365,-0.0,0.0039050644263625145
0.004220845643430948,0.0008750619017519057,-0.006645740941166878,0.005263593513518572,-0.0,0.003493290627375245
0.004457053728401661,0.0007802469190210104,-0.007491529453545809,0.0049391984939575195,-0.0,0.003490760223940015
0.004614013247191906,0.0007893050787970424,-0.007290681824088097,0.005187383387237787,-0.0,0.0036055510863661766
0.004340866580605507,0.000634161988273263,-0.00711180130019784,0.005522395018488169,-0.0,0.0036654528230428696
0.00442512659355998,0.0006534421700052917,-0.006823667790740728,0.0053075263276696205,-0.0,0.003603239543735981
0.00442512659355998,0.0006534421700052917,-0.006823667790740728,0.0053075263276696205,-0.0,0.003603239543735981
0.004562006331980228,0.0007463062647730112,-0.007532666902989149,0.005606348160654306,-0.0,0.0035391547717154026
0.004151997156441212,0.0012299328809604049,-0.007052928674966097,0.005287048872560263,-0.0,0.003378266468644142
0.004383551422506571,0.0013994615292176604,-0.00682806083932519,0.005280769895762205,-0.0,0.0034950815606862307
0.004639449529349804,0.0013240340631455183,-0.006613790523260832,0.005574515555053949,-0.0,0.003487994195893407
0.004484012722969055,0.001290954533033073,-0.00707823084667325,0.005577892530709505,-0.0,0.0034385069739073515
0.004814395681023598,0.0011548759648576379,-0.007316074799746275,0.005673135165125132,-0.0,0.0036234301514923573
0.004373965784907341,0.0009999400936067104,-0.006511885207146406,0.0051790871657431126,-0.0,0.003558544907718897
0.004399347584694624,0.0010734513634815812,-0.0065249912440776825,0.0051114605739712715,-0.0,0.00343718146905303
0.004176051821559668,0.0009828688343986869,-0.006823619361966848,0.005202439613640308,-0.0,0.003262018784880638
0.004487345926463604,0.0010784697951748967,-0.00744601571932435,0.006047004368156195,-0.0,0.0032944325357675552
0.004504247568547726,0.0010884033981710672,-0.0072187096811831,0.005061357282102108,-0.0,0.0035531832836568356
0.004625267349183559,0.001641151960939169,-0.006855944637209177,0.00460713729262352,-0.0,0.004132374189794064
0.004726289305835962,0.0016477142926305532,-0.006637866143137217,0.004733891226351261,-0.0,0.004055312369018793
0.0049110958352684975,0.0014069993048906326,-0.00745914364233613,0.005255094263702631,-0.0,0.003950509242713451
0.004570486024022102,0.001330557162873447,-0.007356180809438229,0.00528447050601244,-0.0,0.003431154415011406
0.004369779024273157,0.0012850345810875297,-0.0070038787089288235,0.0056865098886191845,-0.0,0.0033440389670431614
0.004838582128286362,0.0012319459347054362,-0.007252985145896673,0.005327584687620401,-0.0,0.0033270439598709345
0.0048760282807052135,0.001333951367996633,-0.00775265833362937,0.005326626356691122,-0.0,0.0035571164917200804
0.004521855153143406,0.0013893750729039311,-0.0070923021994531155,0.005430315621197224,-0.0,0.003918281756341457
0.004570234101265669,0.0015706575941294432,-0.007506620604544878,0.0052605122327804565,-0.0,0.004146008286625147
0.005001560319215059,0.001650212099775672,-0.007795815356075764,0.005436440464109182,-0.0,0.004059283062815666
0.005098316818475723,0.0015108783263713121,-0.007092667743563652,0.005137156695127487,-0.0,0.004263924900442362
0.004874120932072401,0.0014632530510425568,-0.0072822412475943565,0.005154070444405079,-0.0,0.004020600114017725
0.004712811671197414,0.0014941705157980323,-0.006947515998035669,0.005138381849974394,-0.0,0.0033893452491611242
0.004877500236034393,0.0016333080129697919,-0.0071251532062888145,0.005353159736841917,-0.0,0.0034812644589692354
0.004822554532438517,0.0017996070673689246,-0.007103829178959131,0.005168678238987923,-0.0,0.004152324981987476
0.004652396310120821,0.0021014215890318155,-0.006990059278905392,0.004497520625591278,-0.0,0.004091276787221432
0.004682621918618679,0.0018459325656294823,-0.007079926319420338,0.004177610855549574,-0.0,0.003936218097805977
0.004682621918618679,0.0018459325656294823,-0.007079926319420338,0.004177610855549574,-0.0,0.003936218097805977
0.004707383923232555,0.0018035548273473978,-0.00700440164655447,0.004180658608675003,-0.0,0.003407333744689822
0.004642686806619167,0.0016624541021883488,-0.007379072718322277,0.004474511835724115,-0.0,0.003339745569974184
0.004756964277476072,0.0015966638457030058,-0.00749641377478838,0.004536658059805632,-0.0,0.0033128573559224606
0.005175462923943996,0.001589535386301577,-0.007105834782123566,0.00471240421757102,-0.0,0.0035216815304011106
0.004838057793676853,0.0019016339210793376,-0.007380064111202955,0.004789773374795914,-0.0,0.003703530877828598
0.004970223177224398,0.0018880857387557626,-0.007987478747963905,0.0045800525695085526,-0.0,0.003874208079650998
0.0048457905650138855,0.0019822963513433933,-0.0070962198078632355,0.004415992647409439,-2.8019601359119406e-06,0.004010151140391827
0.004675752948969603,0.0018841830315068364,-0.006877661217004061,0.004395287949591875,-1.8294797143880714e-07,0.00408574566245079
0.0047318353317677975,0.0018582191551104188,-0.007437050808221102,0.004565804731100798,-1.1945194167140016e-08,0.004044785164296627
0.005681607406586409,0.0018512260867282748,-0.007679847069084644,0.004421024117618799,-7.79935893646666e-10,0.0039709280245006084
0.0053260414861142635,0.0019289400661364198,-0.007384947035461664,0.004544785711914301,-5.092424051889033e-11,0.003938002046197653
0.005312998313456774,0.0019145287806168199,-0.007461668457835913,0.004962061531841755,-3.3249891555342526e-12,0.003486868692561984
0.005094532389193773,0.0021208131220191717,-0.007100139744579792,0.005068840458989143,-2.1709802738075629e-13,0.003577244933694601
0.004851579666137695,0.0021250685676932335,-0.007451776415109634,0.004739976022392511,-1.4174950682633788e-14,0.004192020744085312
0.00523817352950573,0.0025590811856091022,-0.007299527060240507,0.004248729441314936,-9.255230435533833e-16,0.00419246219098568
0.005498122423887253,0.0024504472967237234,-0.007228701375424862,0.0038385698571801186,-6.043003699208606e-17,0.004266688600182533
0.005607388447970152,0.0023414185270667076,-0.0074352724477648735,0.004197581205517054,-3.945649453926411e-18,0.003976740408688784
0.005231135990470648,0.0023849550634622574,-0.007904264144599438,0.004591614473611116,-2.5762271344264967e-19,0.003666337113827467
0.0050442456267774105,0.00214016274549067,-0.0073095629923045635,0.004821909591555595,-1.6820922935831822e-20,0.003407773794606328
0.00616702763363719,0.0022009150125086308,-0.006877513136714697,0.004618795122951269,-1.0982860290914064e-21,0.003558252938091755
0.006188954226672649,0.0023776027373969555,-0.007337859366089106,0.004709204658865929,-7.171022676408911e-23,0.003947902005165815
0.005245243199169636,0.0022932460997253656,-0.007795908488333225,0.00469000730663538,-4.6821655738035324e-24,0.004101759288460016
0.005308928433805704,0.0023113172501325607,-0.007296659983694553,0.004383175168186426,-1.9960804789047832e-26,0.0035902075469493866
0.005604306235909462,0.002414194867014885,-0.0070077828131616116,0.0044637112878263,9.861541002464946e-06,0.0042325761169195175
0.005604306235909462,0.002414194867014885,-0.0070077828131616116,0.0044637112878263,9.861541002464946e-06,0.0042325761169195175
0.005168184172362089,0.0025693143252283335,-0.007801000028848648,0.0045794895850121975,0.0002233087579952553,0.004148980602622032
0.0052146404050290585,0.0023061493411660194,-0.007694628089666367,0.004516366869211197,0.00022604924743063748,0.0041761803440749645
0.005409494508057833,0.0025516266468912363,-0.007345611695200205,0.004118475131690502,0.000253543839789927,0.00395062193274498
0.00551008153706789,0.0027519233990460634,-0.007561699021607637,0.003892470384016633,0.00024712979211471975,0.0037768452893942595
0.005080544855445623,0.0025089960545301437,-0.008694833144545555,0.0038797578308731318,0.00025591961457394063,0.0037299059331417084
0.005257238168269396,0.0025656663347035646,-0.007352657616138458,0.003994747065007687,0.00026319274911656976,0.0034905513748526573
0.005627724342048168,0.0026901382952928543,-0.0072418698109686375,0.004320182837545872,0.00025376424309797585,0.0038093705661594868
0.005931611638516188,0.0027462979778647423,-0.007935803383588791,0.004762503318488598,0.00027423244318924844,0.004597109742462635
0.005341735202819109,0.0026357495225965977,-0.007892636582255363,0.004420273471623659,0.00026817270554602146,0.004624482244253159
0.005404026713222265,0.0028605395928025246,-0.008155913092195988,0.004265954252332449,0.00039733730955049396,0.0043289088644087315
0.005612061824649572,0.0029090377502143383,-0.007225568871945143,0.004166693426668644,0.00040666331187821925,0.00399494543671608
0.00546279875561595,0.0029673795215785503,-0.007459532003849745,0.003949964884668589,0.0004404769279062748,0.0042556594125926495
0.005634044297039509,0.002729264320805669,-0.008080502040684223,0.0037440392188727856,0.0004155732458457351,0.004124206956475973
0.005973375868052244,0.0030221170745790005,-0.007747158408164978,0.004208519123494625,0.0004420234472490847,0.004060153849422932
0.005367191042751074,0.0030839904211461544,-0.007621987257152796,0.004409299697726965,0.0004201544797979295,0.004044622648507357
0.005379520356655121,0.0030483249574899673,-0.007821413688361645,0.004344108514487743,0.0004467569524422288,0.0043449485674500465
0.005614647176116705,0.002817446831613779,-0.007538483943790197,0.004124689381569624,0.00042389598092995584,0.004231318831443787
0.006124412175267935,0.0029956421349197626,-0.007460210006684065,0.004009842406958342,0.0005208697984926403,0.0039193457923829556
0.005449469666928053,0.0029712505638599396,-0.007644337136298418,0.003929871134459972,0.000566986040212214,0.004070354159921408
0.00592789426445961,0.002945311600342393,-0.007833579555153847,0.003912507556378841,0.0005665993085131049,0.0041089365258812904
0.005476811900734901,0.0027374301571398973,-0.007578375283628702,0.004021147266030312,0.0005555238458327949,0.003997873514890671
0.005879322532564402,0.0028888850938528776,-0.007316830102354288,0.0041177053935825825,0.0005808984860777855,0.003967782016843557
0.005888236220926046,0.003009768668562174,-0.006865205243229866,0.004068487789481878,0.0007139024091884494,0.004343131557106972
0.006221426650881767,0.003386031836271286,-0.007354611065238714,0.004007534123957157,0.0007655599038116634,0.004432367626577616
0.0059807696379721165,0.003196916775777936,-0.008014974184334278,0.003945548087358475,0.0007555691991001368,0.004477052018046379
0.005717778578400612,0.003007141873240471,-0.007187046576291323,0.00393080897629261,0.0007358771981671453,0.003989343997091055
0.005865396466106176,0.002764660632237792,-0.007571233902126551,0.003845820901915431,0.0008231401443481445,0.0038930715527385473
0.006198852322995663,0.0025305207818746567,-0.0074885073117911816,0.003715614788234234,0.000841913977637887,0.004219137132167816
0.005944850388914347,0.0023512605112046003,-0.006735406816005707,0.0036449343897402287,0.0008503503049723804,0.004583396017551422
0.005667821504175663,0.00201201974414289,-0.0082884281873703,0.0036496343091130257,0.0009254234028048813,0.004307577386498451
0.005667821504175663,0.00201201974414289,-0.0082884281873703,0.0036496343091130257,0.0009254234028048813,0.004307577386498451
0.006118511315435171,0.002120093908160925,-0.007876547984778881,0.0036331957671791315,0.0009551952825859189,0.0040344190783798695
0.006118511315435171,0.002120093908160925,-0.007876547984778881,0.0036331957671791315,0.0009551952825859189,0.0040344190783798695
0.006245310418307781,0.0024311174638569355,-0.006532934494316578,0.004053250886499882,0.0009489305666647851,0.0039502293802797794
0.0060000065714120865,0.0027166958898305893,-0.006582722999155521,0.004172124899923801,0.0009268417488783598,0.003895426634699106
0.005914788227528334,0.002726938808336854,-0.007509277667850256,0.00358234322629869,0.0009381973068229854,0.004313824698328972
0.006522560026496649,0.0025263631250709295,-0.007591842208057642,0.0031116174068301916,0.0009763326379470527,0.004604104906320572
0.006260876543819904,0.0024845062289386988,-0.007136691827327013,0.0028469651006162167,0.0009861559374257922,0.005009575746953487
0.00620414549484849,0.0022467963863164186,-0.006804577074944973,0.0030616356525570154,0.0009913736721500754,0.00476094102486968
0.006510955281555653,0.002470000647008419,-0.007195841986685991,0.0035062842071056366,0.001201941748149693,0.004418747965246439
0.006122807506471872,0.0024572834372520447,-0.007916848175227642,0.0035447226837277412,0.0011825442779809237,0.0040712179616093636
0.0062831067480146885,0.0024000750854611397,-0.0073083373717963696,0.003518778132274747,0.0011392798041924834,0.004193815402686596
0.006162818055599928,0.00240093981847167,-0.007348979823291302,0.0034438588190823793,0.0011883199913427234,0.004792206455022097
0.006162818055599928,0.00240093981847167,-0.007348979823291302,0.0034438588190823793,0.0011883199913427234,0.004792206455022097
0.006213190965354443,0.002293994417414069,-0.007673799991607666,0.003665480064228177,0.0011842547683045268,0.004763136617839336
0.00618773465976119,0.002391093410551548,-0.006916081067174673,0.003399572102352977,0.0011318799806758761,0.004284720867872238
0.006053344812244177,0.0026655327528715134,-0.007107707671821117,0.003474677447229624,0.0011198259890079498,0.004191518295556307
0.006369816139340401,0.002568688942119479,-0.007623901590704918,0.00312619935721159,0.0011041854741051793,0.004061663057655096
0.0067797256633639336,0.00266706058755517,-0.007710800506174564,0.0031196163035929203,0.001083963899873197,0.003962785471230745
0.006315760314464569,0.002687067026272416,-0.006661870516836643,0.003395166713744402,0.0010697715915739536,0.004320023115724325
0.00602340092882514,0.002503014635294676,-0.006357899401336908,0.0035027707926928997,0.0010497057810425758,0.004152501467615366
0.006582627072930336,0.002525407588109374,-0.006751471199095249,0.0033977096900343895,0.0010255620582029223,0.003891191678121686
0.006830007303506136,0.0026166376192122698,-0.007420807145535946,0.0028483897913247347,0.0010132202878594398,0.003749880939722061
0.006381006445735693,0.0028799870051443577,-0.00719809764996171,0.0030347041320055723,0.0011188442585989833,0.0043680742383003235
0.006490104366093874,0.002745463512837887,-0.006722521036863327,0.0034872766118496656,0.0010966066038236022,0.004186392296105623
0.006282019894570112,0.002621435560286045,-0.007665660697966814,0.0033529216889292,0.0011046910658478737,0.003947752062231302
0.006307895295321941,0.0026904381811618805,-0.007023938931524754,0.0031222582329064608,0.0011054141214117408,0.00426030158996582
0.006744979415088892,0.0027887923642992973,-0.006826825439929962,0.002962052123621106,0.0010616997024044394,0.004255781881511211
0.006844772957265377,0.0028527574613690376,-0.006714434828609228,0.0030422203708440065,0.0010372523684054613,0.004196440801024437
0.006264903582632542,0.002892416901886463,-0.0071685053408145905,0.0031684141140431166,0.000978601397946477,0.004208800382912159
0.0066032675094902515,0.003240079851821065,-0.007323492784053087,0.00305988360196352,0.0010647705057635903,0.003851570188999176
0.0064540947787463665,0.0032216219697147608,-0.006508256308734417,0.0029609829653054476,0.0010394045384600759,0.0038797713350504637
0.0064540947787463665,0.0032216219697147608,-0.006508256308734417,0.0029609829653054476,0.0010394045384600759,0.0038797713350504637
0.006347497925162315,0.002727481769397855,-0.007055697962641716,0.002938214223831892,0.0010207371087744832,0.004430578090250492
0.006211139261722565,0.0025063883513212204,-0.007597439922392368,0.002981872297823429,0.0009553921408951283,0.004578413907438517
0.006592128425836563,0.0028291959315538406,-0.007591638248413801,0.003094969317317009,0.0009642032673582435,0.004558892920613289
0.006660931743681431,0.003472935175523162,-0.007366673555225134,0.0028042460326105356,0.0009550999384373426,0.004242132417857647
0.006492509040981531,0.0033167158253490925,-0.00679690670222044,0.0026990040205419064,0.0009477182175032794,0.004008919466286898
0.006133252289146185,0.0030782767571508884,-0.006783701479434967,0.00279165618121624,0.0009282121900469065,0.004669667687267065
0.006159238982945681,0.0028811132069677114,-0.0075186616741120815,0.0030693961307406425,0.0009072157554328442,0.004797647241503
0.006579660344868898,0.002989686094224453,-0.007332382258027792,0.0030617667362093925,0.000883367087226361,0.004503482487052679
0.0066663166508078575,0.003244744148105383,-0.006745615042746067,0.0029650519136339426,0.0008193257381208241,0.004092704970389605
0.006446250714361668,0.0031780696008354425,-0.006714127026498318,0.002811197657138109,0.0008254675194621086,0.004191122949123383
0.006192744243890047,0.0031250424217432737,-0.0071535250172019005,0.0029072926845401525,0.000826687493827194,0.004125919193029404
0.006477623712271452,0.0032370060216635466,-0.007541049737483263,0.0029225172474980354,0.0008055341895669699,0.003971154801547527
0.006751785054802895,0.0029220934957265854,-0.007000728975981474,0.0029333506245166063,0.0008029576856642962,0.004279423505067825
0.006469962652772665,0.0030898298136889935,-0.006751562003046274,0.002793049206957221,0.0008155750692822039,0.004070747178047895
0.006165664177387953,0.0029917764477431774,-0.007542655803263187,0.002946029882878065,0.0008260355680249631,0.004378188867121935
0.006001483183354139,0.0034789026249200106,-0.006984759122133255,0.002620042534545064,0.0009265061235055327,0.004545808304101229
0.006473877467215061,0.0033044160809367895,-0.006380725186318159,0.002577424282208085,0.0010337592102587223,0.004471051041036844
0.006645291578024626,0.003101147711277008,-0.006832010578364134,0.002687370404601097,0.001099857734516263,0.004228794015944004
0.006436855997890234,0.003196241334080696,-0.007102468051016331,0.0025034171994775534,0.0014277814188972116,0.004347724374383688
0.0062460703775286674,0.0034619253128767014,-0.0067304219119250774,0.002636135555803776,0.0013417163863778114,0.004456968512386084
0.0068037486635148525,0.003313221503049135,-0.00657501770183444,0.0025214168708771467,0.0013064786326140165,0.0043173981830477715
0.0068037486635148525,0.003313221503049135,-0.00657501770183444,0.0025214168708771467,0.0013064786326140165,0.0043173981830477715
0.006905828602612019,0.0032807663083076477,-0.006697467062622309,0.0024584413040429354,0.0012432666262611747,0.004433457739651203
0.006771900691092014,0.003359281225129962,-0.007331444416195154,0.0026060438249260187,0.0011564500164240599,0.004648135509341955
0.006204285193234682,0.003625864628702402,-0.0068269153125584126,0.0027301330119371414,0.0010777126299217343,0.005140362773090601
0.006622849032282829,0.0037659306544810534,-0.006684301886707544,0.0028591137379407883,0.00099132617469877,0.0046555218286812305
0.006891469471156597,0.003790496848523617,-0.006366996094584465,0.0027220910415053368,0.0008407329441979527,0.004523616749793291
0.006907826755195856,0.0031666215509176254,-0.00731882406398654,0.002342080231755972,0.0008304765215143561,0.004198862239718437
0.00659928098320961,0.0030859087128192186,-0.007004910614341497,0.002176440553739667,0.0008469974854961038,0.004334969911724329
0.006441251840442419,0.0030606375075876713,-0.006718459073454142,0.0020024303812533617,0.0008538281545042992,0.0046789804473519325
0.0067620063200592995,0.0030800646636635065,-0.006632780656218529,0.0019542898517102003,0.0010627839947119355,0.004704926162958145
0.006683879066258669,0.003466243389993906,-0.006898175459355116,0.0023279741872102022,0.0009703103569336236,0.004187117796391249
0.006729796528816223,0.0031169091816991568,-0.0073404693976044655,0.0025623671244829893,0.0009550201357342303,0.004321482963860035
0.006632398813962936,0.0031370031647384167,-0.007053324952721596,0.0025986533146351576,0.0009390871273353696,0.004235764965415001
0.007168504875153303,0.0033660444896668196,-0.006561874877661467,0.0025112994480878115,0.0009101012838073075,0.004450798500329256
0.007330496795475483,0.0032901528757065535,-0.006943423766642809,0.0024696416221559048,0.0008973441435955465,0.004933908581733704
0.0074437642470002174,0.0034878263249993324,-0.00705729378387332,0.0023705067578703165,0.00089710095198825,0.00508757634088397
0.006806490942835808,0.0037113374564796686,-0.006834077183157206,0.0025796713307499886,0.0008974925731308758,0.004740217700600624
0.006881725508719683,0.0038797578308731318,-0.00690170843154192,0.0026326319202780724,0.0009252174058929086,0.004792178049683571
0.007219931110739708,0.0034100469201803207,-0.006895961705595255,0.0025260935071855783,0.0009754649945534766,0.00498497299849987
0.006957568693906069,0.0030877969693392515,-0.007690462749451399,0.002460732590407133,0.0009860750287771225,0.004637714009732008
0.0068155499175190926,0.002937816781923175,-0.007746687158942223,0.0022914644796401262,0.0009841505670920014,0.004388295114040375
0.007002146448940039,0.0032306676730513573,-0.006706268526613712,0.0021768352016806602,0.0010346771450713277,0.004510002676397562
0.0075344545766711235,0.003769384231418371,-0.006474305875599384,0.0019767461344599724,0.0010273436782881618,0.004967384040355682
0.007137381937354803,0.0035135922953486443,-0.00676747178658843,0.0020596168469637632,0.0010076698381453753,0.004912711214274168
0.007289881817996502,0.00326263764873147,-0.007306754123419523,0.0021444738376885653,0.0009925244376063347,0.004569292068481445
0.007289881817996502,0.00326263764873147,-0.007306754123419523,0.0021444738376885653,0.0009925244376063347,0.004569292068481445
0.007689972873777151,0.0034351611975580454,-0.007053439971059561,0.002079880330711603,0.000923585263080895,0.004544531460851431
0.007700460962951183,0.003395217237994075,-0.007659032009541988,0.002033539582043886,0.0008895928040146828,0.004865986295044422
0.007809425238519907,0.003385441843420267,-0.007000700104981661,0.001982669113203883,0.000846610520966351,0.004804434720426798
0.00793053861707449,0.0033565310295671225,-0.006865410599857569,0.0019252460915595293,0.0008932067430578172,0.0047448910772800446
0.00793053861707449,0.0033565310295671225,-0.006865410599857569,0.0019252460915595293,0.0008932067430578172,0.0047448910772800446
0.00758785754442215,0.003682781010866165,-0.007569651585072279,0.0018749844748526812,0.0008400449878536165,0.004758195485919714
0.007674789521843195,0.003821753663942218,-0.007077401038259268,0.0018648335244506598,0.0008432553149759769,0.005024786107242107
0.007674789521843195,0.003821753663942218,-0.007077401038259268,0.0018648335244506598,0.0008432553149759769,0.005024786107242107
0.007841795682907104,0.003794539486989379,-0.006586568895727396,0.0018811869667842984,0.0008867590222507715,0.0050301747396588326
0.007507921662181616,0.0034808393102139235,-0.006896259728819132,0.00187448610085994,0.0009020143770612776,0.004808464087545872
0.007225488778203726,0.0034074042923748493,-0.007492541801184416,0.0017987024039030075,0.0009644375531934202,0.0046227313578128815
0.007513304706662893,0.003682714654132724,-0.007357040885835886,0.00181099702604115,0.0009106106008403003,0.004611480515450239
0.007907910272479057,0.0033812408801168203,-0.007207945454865694,0.001717677223496139,0.0011091544292867184,0.004847656935453415
0.0075625525787472725,0.003537592012435198,-0.0073411171324551105,0.0018567006336525083,0.0011065418366342783,0.004869726020842791
0.007309317588806152,0.0040607391856610775,-0.007632844615727663,0.001998831983655691,0.0011047630105167627,0.005036783870309591
0.007619133219122887,0.004201487638056278,-0.007564513012766838,0.001876945374533534,0.0013235461665317416,0.005033543799072504
0.007563898339867592,0.003535880008712411,-0.007010313682258129,0.001793689327314496,0.0012538796290755272,0.004850081168115139
0.008107840083539486,0.003523791441693902,-0.0067994059063494205,0.0016469674883410335,0.0011553495423868299,0.00481038261204958
0.007586956024169922,0.004055685829371214,-0.006963872816413641,0.0014758494216948748,0.0010524821700528264,0.005100361071527004
0.008136115036904812,0.004242993891239166,-0.0073017035610973835,0.0013646474108099937,0.0009043524041771889,0.005010589025914669
0.008227294310927391,0.004050395451486111,-0.007162613328546286,0.0010937373153865337,0.0008277535089291632,0.004814765881747007
0.00800266396254301,0.0034795268438756466,-0.007079823408275843,0.0011228399816900492,0.0007716552936471999,0.00480555510148406
0.007533146068453789,0.0040266322903335094,-0.006960113998502493,0.0010910233249887824,0.0007755918777547777,0.004787572659552097
0.008274172432720661,0.004278275184333324,-0.0075722672045230865,0.0011346362298354506,0.0007756498525850475,0.004802065435796976
0.008593863807618618,0.004047010093927383,-0.00714278407394886,0.0012206828687340021,0.0007738622953183949,0.005110182799398899
0.008382131345570087,0.003977958112955093,-0.007148821838200092,0.001233687624335289,0.0008128881454467773,0.004881244618445635
0.008008953183889389,0.004011937882751226,-0.007798207923769951,0.0015225160168483853,0.0008422791142947972,0.004924716893583536
0.00800004880875349,0.0041098264046013355,-0.007691387087106705,0.0014513639034703374,0.00110916409175843,0.00522198062390089
0.008267049677670002,0.004066195338964462,-0.008087021298706532,0.001378786051645875,0.0013753214152529836,0.005439623724669218
0.008214686065912247,0.004317881539463997,-0.008578500710427761,0.0013090886641293764,0.0013600593665614724,0.004979617428034544
0.008756596595048904,0.0040291547775268555,-0.008071514777839184,0.001239031902514398,0.0014111197087913752,0.0051291268318891525
0.008497572503983974,0.003991818521171808,-0.007743563503026962,0.00112872663885355,0.0013209492899477482,0.00530101265758276
0.008497572503983974,0.003991818521171808,-0.007743563503026962,0.00112872663885355,0.0013209492899477482,0.00530101265758276
0.008131829090416431,0.004082969855517149,-0.007683495059609413,0.0010827842634171247,0.0012010505888611078,0.005338456481695175
0.00853737536817789,0.004505265969783068,-0.008198481053113937,0.0010514045134186745,0.0011851518647745252,0.005065428093075752
0.008355267345905304,0.00427275151014328,-0.007683555129915476,0.001042326563037932,0.0011573205702006817,0.004920849576592445
0.008870096877217293,0.004660310689359903,-0.007628577761352062,0.0010975481709465384,0.001285980106331408,0.005083660129457712
0.008870096877217293,0.004660310689359903,-0.007628577761352062,0.0010975481709465384,0.001285980106331408,0.005083660129457712
0.008613158017396927,0.004291139543056488,-0.008247812278568745,0.0010701249120756984,0.0012462532613426447,0.005236877128481865
0.008429626002907753,0.0040486217476427555,-0.007757539860904217,0.0010495873866602778,0.001190101495012641,0.005509266629815102
0.008067633025348186,0.004328575916588306,-0.007510898169130087,0.0010689218761399388,0.00126868044026196,0.005118283908814192
0.008699888363480568,0.004911493975669146,-0.00758290896192193,0.0010636481456458569,0.0012130283284932375,0.005257460288703442
0.008720734156668186,0.0044812955893576145,-0.008241327479481697,0.0010501163778826594,0.001198957790620625,0.004987319000065327
0.008112261071801186,0.004569160286337137,-0.0076597994193434715,0.001191344577819109,0.0011649386724457145,0.00505574606359005
0.008679800666868687,0.004291719291359186,-0.007004983257502317,0.0011590595822781324,0.0012203645892441273,0.005290037486702204
0.008849718607962132,0.003970985766500235,-0.007303323596715927,0.0011549534974619746,0.001182574313133955,0.005180190317332745
0.008511420339345932,0.004075714386999607,-0.008173023350536823,0.0011535000521689653,0.001188289956189692,0.005648777820169926
0.008912873454391956,0.0040103113278746605,-0.0075927372090518475,0.0011400593211874366,0.0012185433879494667,0.005447700619697571
0.008584687486290932,0.004426121711730957,-0.007362950127571821,0.0010998749639838934,0.001256341696716845,0.005101316142827272
0.008636579848825932,0.004588405601680279,-0.007566781714558601,0.0010696970857679844,0.0012785146245732903,0.005543332081288099
0.00924784317612648,0.004851615987718105,-0.008070925250649452,0.000992275308817625,0.0013028433313593268,0.005653559695929289
0.00846041925251484,0.004339370410889387,-0.007257561665028334,0.0009163921931758523,0.0013266406022012234,0.0053792051039636135
0.007584798615425825,0.004167255479842424,-0.006980522070080042,0.00084299425361678,0.0012898319400846958,0.005043765064328909
0.008977482095360756,0.004050825722515583,-0.0074938274919986725,0.0008375289035029709,0.0012804644647985697,0.00514842988923192
0.009319111704826355,0.004406456369906664,-0.007760985754430294,0.0008033086196519434,0.001306252903304994,0.005623404867947102
0.008529331535100937,0.004716124851256609,-0.007634361274540424,0.0007647830061614513,0.0012970410753041506,0.005361077841371298
0.008359067142009735,0.0047252848744392395,-0.007100639399141073,0.0007123991963453591,0.0014139378909021616,0.005174634046852589
0.008990153670310974,0.004771651700139046,-0.008028694428503513,0.0006511505926027894,0.0013300410937517881,0.004926695954054594
0.009181715548038483,0.004735056310892105,-0.007478243205696344,0.0006551649421453476,0.0012768091401085258,0.005535476375371218
0.009121323004364967,0.004362508654594421,-0.006998815108090639,0.0006133591523393989,0.0012062237365171313,0.005529132671654224
0.009255577810108662,0.0045203352347016335,-0.007394062355160713,0.000634510419331491,0.001156203798018396,0.005890095606446266
0.009285373613238335,0.004521649330854416,-0.007857473567128181,0.0005876270588487387,0.0010306847980245948,0.005437177140265703
0.009285373613238335,0.004521649330854416,-0.007857473567128181,0.0005876270588487387,0.0010306847980245948,0.005437177140265703
0.008834528736770153,0.004793100990355015,-0.007445123977959156,0.0005900263204239309,0.0010841735638678074,0.005638169590383768
0.009513424709439278,0.004850509576499462,-0.006955143064260483,0.0005297415191307664,0.0010958408238366246,0.006303730420768261
0.009196961298584938,0.004883652087301016,-0.007427181117236614,0.0005559849669225514,0.0010818324517458677,0.005919154267758131
0.00946972519159317,0.004307035356760025,-0.00797705166041851,0.0005140959401614964,0.0010980888037011027,0.005772838369011879
0.00957618746906519,0.004223147872835398,-0.007234680932015181,0.000527439930010587,0.0011627416824921966,0.005313667934387922
0.009263203479349613,0.004249534569680691,-0.006661240477114916,0.0005031009204685688,0.001235772157087922,0.00521117402240634
0.009087721817195415,0.004816558677703142,-0.007275389041751623,0.0004993001348339021,0.0014043261762708426,0.005870369262993336
0.00919934269040823,0.00447530671954155,-0.007774465251713991,0.0004946490516886115,0.001365777920000255,0.00600348599255085
0.009384904988110065,0.004520312417298555,-0.007362378295511007,0.0004886667593382299,0.0013341564917936921,0.0056183114647865295
0.009038165211677551,0.00406899768859148,-0.006720821838825941,0.00046503610792569816,0.001282176119275391,0.00542439753189683
0.009715346619486809,0.004051925614476204,-0.006885821465402842,0.0005015709903091192,0.0012924813199788332,0.005215343087911606
0.010148068889975548,0.004103370942175388,-0.007642993703484535,0.0005010897293686867,0.0011868204455822706,0.005165981128811836
0.00923129916191101,0.004445014987140894,-0.007335128262639046,0.0004959371872246265,0.001188427908346057,0.005811239127069712
0.009509172290563583,0.004555306397378445,-0.007113090716302395,0.0005102994036860764,0.0011727951932698488,0.0056534456089138985
0.009746870957314968,0.00467797601595521,-0.007571239490061998,0.0004907307447865605,0.001141466898843646,0.005801280960440636
0.010508506558835506,0.005141304340213537,-0.00768427224829793,0.0004603368870448321,0.001276328694075346,0.005506217014044523
0.010973108001053333,0.004871778655797243,-0.007383083458989859,0.00054185651242733,0.0012377107050269842,0.005734351463615894
0.010805954225361347,0.004883031826466322,-0.007370032835751772,0.0004990947199985385,0.001197393168695271,0.0055932835675776005
0.010233127512037754,0.004702615085989237,-0.007519702892750502,0.0004502304072957486,0.0013189477613195777,0.005924507975578308
0.010824175551533699,0.004858739674091339,-0.00789305754005909,0.00040930008981376886,0.0012703095562756062,0.006262199487537146
0.010802590288221836,0.005279097240418196,-0.007039085030555725,0.0003462530148681253,0.0015745413256809115,0.005589508917182684
0.01108812540769577,0.005187629256397486,-0.007349175866693258,0.00038127342122606933,0.0017421308439224958,0.005600865464657545
0.010873663239181042,0.004801993258297443,-0.008175652474164963,0.00035975975333712995,0.0018505844054743648,0.005948194302618504
0.01111930888146162,0.004642960615456104,-0.007523821201175451,0.00033751773298718035,0.0017259980086237192,0.00579887256026268
0.011339862830936909,0.00503502506762743,-0.007114468142390251,0.0003176683676429093,0.0014328014804050326,0.005772327072918415
0.010660267435014248,0.005203820765018463,-0.007348640356212854,0.00030001404229551554,0.001459655468352139,0.005447666626423597
0.011210122145712376,0.005151998717337847,-0.007732075173407793,0.00028421697788871825,0.0013832870172336698,0.005789673421531916
0.010952111333608627,0.005045564379543066,-0.007043494377285242,0.0002700022014323622,0.001416414394043386,0.005421033129096031
0.010952111333608627,0.005045564379543066,-0.007043494377285242,0.0002700022014323622,0.001416414394043386,0.005421033129096031
0.010727917775511742,0.0049082329496741295,-0.0069750151596963406,0.00025714075309224427,0.001439152518287301,0.005938896909356117
0.010885730385780334,0.004645791370421648,-0.007388697005808353,0.00024544933694414794,0.0014542742865160108,0.005201837047934532
0.010634390637278557,0.004847929812967777,-0.007455350365489721,0.0002347764966543764,0.0015686254482716322,0.005574376322329044
0.010986953973770142,0.005256061442196369,-0.007203201297670603,0.00022499221086036414,0.0015159863978624344,0.006356983911246061
0.011087431572377682,0.0052669718861579895,-0.0071706147864460945,0.00021599074534606189,0.0014954701764509082,0.006246226839721203
0.010613314807415009,0.005243023857474327,-0.007470930926501751,0.00020768291142303497,0.0013755825348198414,0.006161865778267384
0.010846124961972237,0.0049256980419158936,-0.007486231159418821,0.00019998983771074563,0.0013282416621223092,0.00594306131824851
0.010782226920127869,0.004748357459902763,-0.00729054631665349,0.00019284742302261293,0.0012145903892815113,0.0059340461157262325
0.010521062649786472,0.005102620925754309,-0.007205855567008257,0.00018619629554450512,0.0012563815107569098,0.006458650808781385
0.010807312093675137,0.005173085257411003,-0.007684410084038973,0.00017998975818045437,0.0012612973805516958,0.00592408562079072
0.010427438654005527,0.005336069967597723,-0.007659479975700378,0.00017418368952348828,0.0014592899242416024,0.005859543569386005
0.010802021250128746,0.005265573505312204,-0.007261401508003473,0.00016873990534804761,0.0015047596534714103,0.005734019912779331
0.010986587032675743,0.004638234619051218,-0.007206194568425417,0.00016362624592147768,0.0014526823069900274,0.0060111284255981445
0.010520394891500473,0.004554447717964649,-0.007334226276725531,0.00015881411673035473,0.0015200613997876644,0.006514716427773237
0.010784012265503407,0.004933567717671394,-0.007450296077877283,0.0001542763493489474,0.0014641721500083804,0.006321966182440519
0.010627505369484425,0.005520360078662634,-0.007364105433225632,0.0001499907812103629,0.0015874530654400587,0.006191720254719257
0.010559440590441227,0.005613525863736868,-0.007324286736547947,0.00014593705418519676,0.0016550723230466247,0.006490202154964209
0.01090705394744873,0.005340901203453541,-0.008146757259964943,0.00012454592797439545,0.0019306183094158769,0.006515605840831995
0.011088774539530277,0.004863060545176268,-0.0070978794246912,0.00011251960677327588,0.0016117949271574616,0.005852033384144306
0.011088774539530277,0.004863060545176268,-0.0070978794246912,0.00011251960677327588,0.0016117949271574616,0.005852033384144306
0.010839325375854969,0.005088349338620901,-0.007198723033070564,0.00010975127224810421,0.0016062459908425808,0.005949375685304403
0.010813942179083824,0.005641200579702854,-0.007689733523875475,0.00010713676601881161,0.0015266862465068698,0.006192624103277922
0.011278253979980946,0.005323977675288916,-0.0081147700548172,0.00010464510705787688,0.0015979462768882513,0.006530883722007275
0.011474519968032837,0.0052508763037621975,-0.007716468069702387,0.00010226691665593535,0.0015450046630576253,0.0062879170291125774
0.01071450486779213,0.005010603461414576,-0.008172949776053429,9.782062988961115e-05,0.0016157098580151796,0.006055041216313839
0.01071450486779213,0.005010603461414576,-0.008172949776053429,9.782062988961115e-05,0.0016157098580151796,0.006055041216313839
0.010840699076652527,0.0052745831198990345,-0.008021020330488682,8.153681119438261e-05,0.0015412606298923492,0.005862909369170666
0.01043680775910616,0.005289122462272644,-0.007055152673274279,7.531884330091998e-05,0.0015727231511846185,0.006160383578389883
0.010662894695997238,0.005781133193522692,-0.00734003446996212,7.348663348238915e-05,0.0016478182515129447,0.006177560891956091
0.010543121956288815,0.005420268047600985,-0.007644191849976778,7.199779065558687e-05,0.0015938910655677319,0.006011940073221922
0.010930092073976994,0.005703214555978775,-0.007415770087391138,7.058469782350585e-05,0.001722578308545053,0.006105433683842421
0.01078152284026146,0.0052887569181621075,-0.007289774250239134,6.922780448803678e-05,0.0017650485970079899,0.005992688704282045
0.010386004112660885,0.005136623978614807,-0.007394920103251934,5.9565179981291294e-05,0.0018738192738965154,0.006004482973366976
0.011231117881834507,0.005784882698208094,-0.00817209854722023,5.056105146650225e-05,0.0018743525724858046,0.006436487194150686
0.011020266450941563,0.00539430184289813,-0.007930357940495014,4.912571603199467e-05,0.0019395825220271945,0.00663720490410924
0.010814931243658066,0.005317009519785643,-0.007106202654540539,4.8214827984338626e-05,0.0018752138130366802,0.006678852718323469
0.010706862434744835,0.005164129193872213,-0.00718573946505785,4.746182094095275e-05,0.0019041730556637049,0.00650342833250761
0.010458233766257763,0.005704435985535383,-0.008225053548812866,-3.0036771931918338e-05,0.0017282378394156694,0.006371662952005863
0.011048735119402409,0.0054873074404895306,-0.007957025431096554,-3.445684342295863e-05,0.0016724731540307403,0.006138104014098644
0.011060671880841255,0.005785739049315453,-0.007023092359304428,-3.412976730032824e-05,0.0016679265536367893,0.006269348785281181
0.010648653842508793,0.005810724105685949,-0.007236094679683447,-4.9159123591380194e-05,0.0017674993723630905,0.006252041552215815
0.01152463722974062,0.006137209944427013,-0.008216903544962406,-4.928369162371382e-05,0.0017375226598232985,0.006313071586191654
0.011494988575577736,0.005557979457080364,-0.007857253775000572,-6.354835204547271e-05,0.001806718297302723,0.006739049684256315
0.011286577209830284,0.005896579008549452,-0.007341619580984116,-7.122961687855422e-05,0.0018425594316795468,0.0070760310627520084
0.011492815800011158,0.005879534408450127,-0.007653327193111181,-0.0003860729339066893,0.001778269186615944,0.006124054081737995
0.011856568045914173,0.005705511197447777,-0.00790221244096756,-0.0005219032755121589,0.0017912901239469647,0.006314954720437527
0.012015445157885551,0.005846325773745775,-0.007303125690668821,-0.0005513911601155996,0.0018813284114003181,0.006271017249673605
0.012015445157885551,0.005846325773745775,-0.007303125690668821,-0.0005513911601155996,0.0018813284114003181,0.006271017249673605
0.012309851124882698,0.005745004862546921,-0.007187315728515387,-0.0005802466766908765,0.0018815385410562158,0.006779316812753677
0.012437599711120129,0.005732585210353136,-0.007492152974009514,-0.0008801521616987884,0.0021107869688421488,0.006462692748755217
0.012232891283929348,0.005726917646825314,-0.00712553458288312,-0.001082531176507473,0.0020564068108797073,0.0063237519934773445
0.012232891283929348,0.005726917646825314,-0.00712553458288312,-0.001082531176507473,0.0020564068108797073,0.0063237519934773445
0.0123679144307971,0.005984230898320675,-0.007620602380484343,-0.0015715097542852163,0.0020068702287971973,0.007134260144084692
0.012227746658027172,0.006013273727148771,-0.007646611426025629,-0.0018774778582155704,0.0021274425089359283,0.006774415262043476
0.012227746658027172,0.006013273727148771,-0.007646611426025629,-0.0018774778582155704,0.0021274425089359283,0.006774415262043476
0.011975904926657677,0.005765499547123909,-0.007356694433838129,-0.0018991001415997744,0.0020658913999795914,0.006392806302756071
0.012328827753663063,0.005737547762691975,-0.00734437583014369,-0.0019166258862242103,0.001874621375463903,0.0065334513783454895
0.012025381438434124,0.006005505099892616,-0.007748930715024471,-0.001904087490402162,0.001724193338304758,0.0069192866794764996
0.012414500117301941,0.005823048762977123,-0.007807090878486633,-0.002104288199916482,0.0016405086498707533,0.006892711855471134
0.012004189193248749,0.005709442775696516,-0.007402497809380293,-0.002513355342671275,0.0017082950798794627,0.006272162310779095
0.012588836252689362,0.00550442049279809,-0.007261110935360193,-0.0026421211659908295,0.0015882155857980251,0.0060801198706030846
0.012456200085580349,0.005558760371059179,-0.008242767304182053,-0.002849963726475835,0.0016550219152122736,0.006462873890995979
0.01237086858600378,0.005647849291563034,-0.008341150358319283,-0.0028141222428530455,0.00163561780937016,0.006761062424629927
0.01269542146474123,0.006061543710529804,-0.007903157733380795,-0.002914621727541089,0.0014855057233944535,0.006548997014760971
0.012266435660421848,0.00644379248842597,-0.007747957017272711,-0.0027535008266568184,0.0015012288931757212,0.006476199254393578
0.012968801893293858,0.005674912128597498,-0.0078048259019851685,-0.0027821282856166363,0.001433809520676732,0.006620297208428383
0.012602481059730053,0.0059754387475550175,-0.00790497101843357,-0.0031379691790789366,0.0015534511767327785,0.006948484107851982
0.012863273732364178,0.00584830017760396,-0.0075509860180318356,-0.003408839227631688,0.00163206085562706,0.007001745980232954
0.013047895394265652,0.0063512297347188,-0.007349428720772266,-0.003419804386794567,0.002126287203282118,0.006608706898987293
0.013109728693962097,0.006594733335077763,-0.007562711834907532,-0.0035746085923165083,0.0019521510694175959,0.006592189893126488
0.013350012712180614,0.005677657667547464,-0.007574784103780985,-0.0037276779767125845,0.0018342429539188743,0.006572754122316837
0.013086342252790928,0.005993013270199299,-0.007410513702780008,-0.0033675378654152155,0.0018261703662574291,0.00699725141748786
0.013089814223349094,0.005983354523777962,-0.007712234277278185,-0.0031707908492535353,0.0018441813299432397,0.007287200540304184
0.013232974335551262,0.006123218685388565,-0.008027265779674053,-0.003123849630355835,0.002155739115551114,0.006719511467963457
0.0128564964979887,0.0060749719850718975,-0.008312485180795193,-0.0030553771648555994,0.0022538057528436184,0.006969178095459938
0.013307590037584305,0.005653367377817631,-0.008151472546160221,-0.0031956552993506193,0.00226866127923131,0.007056975271552801
0.013307590037584305,0.005653367377817631,-0.008151472546160221,-0.0031956552993506193,0.00226866127923131,0.007056975271552801
0.01314881257712841,0.005773924291133881,-0.007952150888741016,-0.003125762799754739,0.0020352087449282408,0.007065538316965103
0.013319813646376133,0.006544187664985657,-0.007827375084161758,-0.0034580440260469913,0.0018691107397899032,0.007163396570831537
0.013308714143931866,0.006285424344241619,-0.007593778893351555,-0.0036648567765951157,0.0017126690363511443,0.007402404677122831
0.01345915999263525,0.0058122859336435795,-0.008254960179328918,-0.0037026451900601387,0.0016439397586509585,0.007497831247746944
0.013309890404343605,0.005444440990686417,-0.008290549740195274,-0.003720137756317854,0.0017263860208913684,0.007007320411503315
0.013549789786338806,0.005618540570139885,-0.008017690852284431,-0.003752934979274869,0.0021547707729041576,0.007124300114810467
0.013722115196287632,0.006149758584797382,-0.007831034250557423,-0.003399111330509186,0.0021074162796139717,0.00750639196485281
0.013346543535590172,0.006131638772785664,-0.007878998294472694,-0.0033054568339139223,0.0022521449718624353,0.007194231264293194
0.0137035446241498,0.0061407373286783695,-0.008135927841067314,-0.003329192055389285,0.0022201105020940304,0.007104383781552315
0.013747435063123703,0.006271428894251585,-0.008313888683915138,-0.003632073989138007,0.0021294723264873028,0.00670316768810153
0.01390919741243124,0.006043537985533476,-0.00851490255445242,-0.004005393944680691,0.002128849970176816,0.006987353786826134
0.01317382138222456,0.006410312373191118,-0.008294306695461273,-0.003937065601348877,0.0020553714130073786,0.007131910417228937
0.013577024452388287,0.0065868026576936245,-0.008202176541090012,-0.0036391671746969223,0.0018997682491317391,0.007121569011360407
0.013535217382013798,0.006189077626913786,-0.008461584337055683,-0.003401269903406501,0.0018754731863737106,0.007163232658058405
0.014125422574579716,0.006159553304314613,-0.008708319626748562,-0.0031799045391380787,0.0018923849565908313,0.00717035261914134
0.013731206767261028,0.006427321583032608,-0.008754751645028591,-0.003444585483521223,0.0019792404491454363,0.007101618219166994
0.013901913538575172,0.006590153090655804,-0.008387920446693897,-0.00369201204739511,0.002303909743204713,0.007176297251135111
0.013732405379414558,0.006314887199550867,-0.008620788343250751,-0.0038188302423805,0.002139727585017681,0.007025687489658594
0.013777976855635643,0.005845707841217518,-0.00826845970004797,-0.00383942062035203,0.002217148896306753,0.0071268826723098755
0.013883174397051334,0.005903082434087992,-0.008339900523424149,-0.004215293098241091,0.0020512929186224937,0.00607196893543005
0.014577296562492847,0.006119729485362768,-0.008563347160816193,-0.0042070928029716015,0.002031719544902444,0.006860911846160889
0.01382884569466114,0.00668634008616209,-0.008909380994737148,-0.00442130072042346,0.0022465374786406755,0.0074655585922300816
0.014215726405382156,0.0066997939720749855,-0.008562641218304634,-0.0041738697327673435,0.0022759551648050547,0.00743758212774992
0.01400117576122284,0.006186234299093485,-0.008598657324910164,-0.0037439402658492327,0.002408426720649004,0.007246681954711676
0.014510800130665302,0.006456701084971428,-0.008645129390060902,-0.0033842420671135187,0.002205564407631755,0.006723812315613031
0.014333224855363369,0.006536271423101425,-0.008588328026235104,-0.003917265217751265,0.0024439413100481033,0.007318122778087854
0.01453820988535881,0.006537320092320442,-0.00810878723859787,-0.004118360113352537,0.002426325576379895,0.007709495723247528
0.014784338884055614,0.00648791017010808,-0.008775010704994202,-0.00438227504491806,0.0024156132712960243,0.007165808696299791
0.014784338884055614,0.00648791017010808,-0.008775010704994202,-0.00438227504491806,0.0024156132712960243,0.007165808696299791
0.014211708679795265,0.006374396849423647,-0.008087776601314545,-0.0041113728657364845,0.00214856187812984,0.007098756264895201
0.014955916441977024,0.00618451414629817,-0.008198341354727745,-0.003920263145118952,0.002043029060587287,0.006707604508846998
0.014435181394219398,0.006365703418850899,-0.008664346300065517,-0.003486363682895899,0.0019365472253412008,0.007128688972443342
0.01511882059276104,0.007486582268029451,-0.008877679705619812,-0.0034702285192906857,0.002108400920405984,0.008233188651502132
0.01480829156935215,0.007169784978032112,-0.008443166501820087,-0.004180994350463152,0.00227872421965003,0.007892715744674206
0.014553816989064217,0.006156744435429573,-0.008262889459729195,-0.004640496801584959,0.0022449439857155085,0.007013997063040733
0.012998703867197037,0.0065766265615820885,-0.008659186773002148,-0.004536112770438194,0.0023390233982354403,0.007067694328725338
0.01495871227234602,0.006391282659024,-0.00806385651230812,-0.004405674524605274,0.0023945963475853205,0.00737738236784935
0.01516976673156023,0.007102824281901121,-0.008335676044225693,-0.004123497288674116,0.0023107128217816353,0.00738777220249176
0.015144352801144123,0.006579515524208546,-0.008472693152725697,-0.004258300643414259,0.0024791471660137177,0.0073164766654372215
0.014658791013062,0.006738803815096617,-0.008515313267707825,-0.004441326018422842,0.0022773887030780315,0.008031927980482578
0.014975314028561115,0.007110307924449444,-0.008312107063829899,-0.004663384985178709,0.0021805635187774897,0.0077457427978515625
0.014552569948136806,0.006855122745037079,-0.00837050098925829,-0.004828671924769878,0.002067460212856531,0.007922455668449402
0.015382343903183937,0.007161376532167196,-0.00883984100073576,-0.004560292698442936,0.001949337194673717,0.007786470931023359
0.015002235770225525,0.006966855842620134,-0.008763071149587631,-0.004511663690209389,0.0018472273368388414,0.007705498952418566
0.015476399101316929,0.00728785851970315,-0.008471735753118992,-0.004595933947712183,0.0019445978105068207,0.007636533118784428
0.014856074005365372,0.008015702478587627,-0.008676823228597641,-0.004584207199513912,0.002281970577314496,0.007872013375163078
0.015194845385849476,0.007768426090478897,-0.008763442747294903,-0.0043259370140731335,0.0023253653198480606,0.007495096419006586
0.014903672970831394,0.0075911576859653,-0.00850764848291874,-0.004399559460580349,0.0024733298923820257,0.007445874623954296
0.015052571892738342,0.007833556272089481,-0.008471587672829628,-0.004670439288020134,0.002573837758973241,0.007527583744376898
0.014859586954116821,0.0074611688032746315,-0.008904294110834599,-0.005012931302189827,0.0026539787650108337,0.007243006024509668
0.014859691262245178,0.007397152483463287,-0.008537729270756245,-0.0052202679216861725,0.003002028912305832,0.0077474224381148815
0.015124845318496227,0.008379590697586536,-0.008705217391252518,-0.004895626101642847,0.0027383510023355484,0.008025563322007656
0.015356041491031647,0.007832701317965984,-0.008599227294325829,-0.004781016614288092,0.002521233633160591,0.008035059086978436
0.015356041491031647,0.007832701317965984,-0.008599227294325829,-0.004781016614288092,0.002521233633160591,0.008035059086978436
0.015121657401323318,0.007670508697628975,-0.008464092388749123,-0.004870190750807524,0.0022504248190671206,0.007731064688414335
0.015309439972043037,0.007703035604208708,-0.009209238924086094,-0.004887155257165432,0.002158652525395155,0.007832103408873081
0.014992675743997097,0.00812891311943531,-0.008759811520576477,-0.005141861271113157,0.0021109902299940586,0.008305159397423267
0.015292840078473091,0.007792362943291664,-0.008273388259112835,-0.004991927184164524,0.001988657284528017,0.007907090708613396
0.015125900506973267,0.007595879025757313,-0.00836255680769682,-0.004740588366985321,0.002162114018574357,0.007731215097010136
0.015311290509998798,0.007780685089528561,-0.008670804090797901,-0.004420060198754072,0.0023749438114464283,0.007724558934569359
0.015170575119554996,0.007954143919050694,-0.008677912876009941,-0.004173278342932463,0.002268316689878702,0.007827047258615494
0.015612637624144554,0.007882404141128063,-0.007986427284777164,-0.004527456592768431,0.0021923393942415714,0.007711812388151884
0.01534393522888422,0.007577694486826658,-0.008767066523432732,-0.004729590378701687,0.002169643994420767,0.008104158565402031
0.015658531337976456,0.008022475987672806,-0.008975896053016186,-0.004794003441929817,0.002304599154740572,0.00791316106915474
0.01544388011097908,0.008125079795718193,-0.008562488481402397,-0.00507779698818922,0.002426536288112402,0.00825006514787674
0.015703434124588966,0.007824379950761795,-0.008459043689072132,-0.005054033827036619,0.002410204615443945,0.008275419473648071
0.016031695529818535,0.0077484045177698135,-0.008501097559928894,-0.0052256276831030846,0.002595023950561881,0.00825874600559473
0.015988783910870552,0.008034850470721722,-0.008380507118999958,-0.0055039990693330765,0.002294813748449087,0.008290263824164867
0.015944115817546844,0.008095141500234604,-0.008751792833209038,-0.005416961386799812,0.00229507964104414,0.00848239753395319
0.015517456457018852,0.0076911840587854385,-0.009023146703839302,-0.005589070729911327,0.002205339726060629,0.008375566452741623
0.016200924292206764,0.008992009796202183,-0.008928322233259678,-0.005403724033385515,0.0021110656671226025,0.008855722844600677
0.01604101061820984,0.008137158118188381,-0.008568049408495426,-0.005418363027274609,0.0020212598610669374,0.008463333360850811
0.015989260748028755,0.007496431935578585,-0.008300510235130787,-0.005029430612921715,0.002042943611741066,0.008120911195874214
0.015710825100541115,0.00744381221011281,-0.008782533928751945,-0.0055866180919110775,0.0022684887517243624,0.008551107719540596
0.01624741218984127,0.0079558240249753,-0.008780740201473236,-0.005513888783752918,0.0021570557728409767,0.00831072498112917
0.016042878851294518,0.007519046775996685,-0.008703112602233887,-0.005546305328607559,0.0023309371899813414,0.007808339316397905
0.016140785068273544,0.007914440706372261,-0.009027243591845036,-0.005843580234795809,0.0023330131080001593,0.00818923581391573
0.016018260270357132,0.00849300716072321,-0.008172428235411644,-0.005430102348327637,0.002699388423934579,0.007829166017472744
0.016359327360987663,0.008505537174642086,-0.00847380980849266,-0.005754739511758089,0.0029340009205043316,0.00789104588329792
0.016359327360987663,0.008505537174642086,-0.00847380980849266,-0.005754739511758089,0.0029340009205043316,0.00789104588329792
0.015886642038822174,0.007858476601541042,-0.009213229641318321,-0.005444884300231934,0.00293873087503016,0.007657269481569529
0.016148893162608147,0.008046230301260948,-0.008300868794322014,-0.005416638217866421,0.0027142497710883617,0.00812850147485733
0.01620786264538765,0.008301489986479282,-0.008096405304968357,-0.005741774570196867,0.0024964665062725544,0.008324713446199894
0.016165679320693016,0.007712648715823889,-0.008772275410592556,-0.0060810511931777,0.0022713865619152784,0.007988658733665943
0.01601448841392994,0.007380039431154728,-0.008488682098686695,-0.00556804146617651,0.002425091341137886,0.008367223665118217
0.01614059880375862,0.008184054866433144,-0.008207573555409908,-0.0053638857789337635,0.002485421020537615,0.008487427607178688
0.01643652282655239,0.008249091915786266,-0.008477132767438889,-0.005593595094978809,0.002466636709868908,0.00853943545371294
0.016165900975465775,0.00794093869626522,-0.008905764669179916,-0.006003346294164658,0.0025990859139710665,0.008039322681725025
0.016678232699632645,0.007862153463065624,-0.00841810554265976,-0.006096875295042992,0.0024958227295428514,0.00866838451474905
0.01627042517066002,0.007965723983943462,-0.008293560706079006,-0.005839042831212282,0.002419403987005353,0.00861272681504488
0.016603292897343636,0.007853100076317787,-0.009160196408629417,-0.005481221247464418,0.0026188469491899014,0.008611478842794895
0.016792044043540955,0.007855606265366077,-0.008311910554766655,-0.005727898329496384,0.002803264884278178,0.00894729234278202
0.016626330092549324,0.007919618859887123,-0.008292311802506447,-0.005899988580495119,0.002885635942220688,0.007917329668998718
0.016682883724570274,0.008654833771288395,-0.008581486530601978,-0.006392622832208872,0.0027911593206226826,0.009093941189348698
0.0170118510723114,0.008513810113072395,-0.008739982731640339,-0.006542201153934002,0.002874637022614479,0.009254245087504387
0.017520049586892128,0.008119616657495499,-0.008616832084953785,-0.006331556476652622,0.00267690303735435,0.008964038453996181
0.017128828912973404,0.008948423899710178,-0.008941812440752983,-0.005948745179921389,0.002565566450357437,0.008067489601671696
0.016523452475667,0.008028862066566944,-0.008264997974038124,-0.00652466481551528,0.0026370687410235405,0.008639792911708355
0.017799504101276398,0.007884134538471699,-0.008484752848744392,-0.006436360999941826,0.0029011061415076256,0.008486345410346985
0.017367765307426453,0.00799974799156189,-0.008611230179667473,-0.006400790065526962,0.0028865591157227755,0.008464034646749496
0.01791103556752205,0.00843674037605524,-0.008754839189350605,-0.006415160372853279,0.002867303788661957,0.008759958669543266
0.017297234386205673,0.00810334924608469,-0.007879070937633514,-0.006683847866952419,0.0031456316355615854,0.0091440100222826
0.017297234386205673,0.00810334924608469,-0.007879070937633514,-0.006683847866952419,0.0031456316355615854,0.0091440100222826
0.018116667866706848,0.008827409707009792,-0.008834127336740494,-0.006475670728832483,0.0030793389305472374,0.008700142614543438
0.017748365178704262,0.008528785780072212,-0.008948678150773048,-0.006213828921318054,0.0029757714364677668,0.00869582686573267
0.017345694825053215,0.007855514995753765,-0.008481527678668499,-0.005970098078250885,0.002755496185272932,0.009097988717257977
0.017553145065903664,0.008042286150157452,-0.008635853417217731,-0.006043282337486744,0.002744677010923624,0.008721897378563881
0.01763029769062996,0.008726011030375957,-0.008473760448396206,-0.006334179546684027,0.0028109552804380655,0.008446934632956982
0.018050417304039,0.008388238959014416,-0.008748022839426994,-0.00665656290948391,0.003059547394514084,0.009001185186207294
0.017717156559228897,0.007828578352928162,-0.008745555765926838,-0.006550585851073265,0.002876495011150837,0.008776429109275341
0.017433637753129005,0.008536781184375286,-0.008215169422328472,-0.006307603791356087,0.0028102993965148926,0.009024121798574924
0.017854338511824608,0.008533211424946785,-0.008606739342212677,-0.006556974723935127,0.0028198319487273693,0.0088728666305542
0.01799662597477436,0.00842951238155365,-0.00887417420744896,-0.007100717630237341,0.0026676692068576813,0.008986451663076878
0.019058603793382645,0.008339859545230865,-0.008171694353222847,-0.006987075321376324,0.0027231706771999598,0.008910834789276123
0.01811281591653824,0.008661298081278801,-0.0088283009827137,-0.006247158162295818,0.002791640115901828,0.009233531542122364
0.01765529066324234,0.008735425770282745,-0.009143576957285404,-0.006359998602420092,0.0028703701682388783,0.009486520662903786
0.018632719293236732,0.008183125406503677,-0.008239354006946087,-0.007127405609935522,0.0028637717477977276,0.009018698707222939
0.01810513809323311,0.008787495084106922,-0.008795817382633686,-0.007311445660889149,0.002918425714597106,0.008847849443554878
0.01799015887081623,0.008914816193282604,-0.00911420863121748,-0.0069146109744906425,0.0032217747066169977,0.00927026104182005
0.01828501932322979,0.008490193635225296,-0.008175782859325409,-0.006742514204233885,0.0036827693693339825,0.009456085041165352
0.018450310453772545,0.008405424654483795,-0.008534117601811886,-0.007516590878367424,0.0034356701653450727,0.009318912401795387
0.018706191331148148,0.008913149125874043,-0.009267078712582588,-0.007877436466515064,0.003306264989078045,0.00938932504504919
0.018819816410541534,0.008442433550953865,-0.00848674401640892,-0.0070799896493554115,0.0032979054376482964,0.009566930122673512
0.01841314323246479,0.008359083905816078,-0.00835553091019392,-0.006940600462257862,0.0030292572919279337,0.008959037251770496
0.01890183985233307,0.009148741140961647,-0.009076926857233047,-0.007428745273500681,0.0030721710063517094,0.009064123965799809
0.018917400389909744,0.008808419108390808,-0.009123750030994415,-0.007568374276161194,0.003150586737319827,0.009346943348646164
0.018559394404292107,0.0088077737018466,-0.00904653687030077,-0.007430476602166891,0.0032635803800076246,0.009594660252332687
0.01919153891503811,0.009474742226302624,-0.009051017463207245,-0.0069826217368245125,0.0031365049071609974,0.009616311639547348
0.018902475014328957,0.00893447920680046,-0.008992291986942291,-0.007741524372249842,0.0030528123024851084,0.009309048764407635
0.019021950662136078,0.009270219132304192,-0.008641961961984634,-0.007450265344232321,0.0032693520188331604,0.009069683961570263
0.01878315955400467,0.009427630342543125,-0.0093411635607481,-0.0071877832524478436,0.003240669146180153,0.009745059534907341
0.0185712780803442,0.009057425893843174,-0.00967420544475317,-0.0075276982970535755,0.0028344138991087675,0.009726394899189472
0.0185712780803442,0.009057425893843174,-0.00967420544475317,-0.0075276982970535755,0.0028344138991087675,0.009726394899189472
0.018956134095788002,0.009962208569049835,-0.008649623021483421,-0.007826861925423145,0.0027020438574254513,0.009563335217535496
0.018678637221455574,0.009745113551616669,-0.009322612546384335,-0.00802601408213377,0.0027197718154639006,0.009234637022018433
0.019136328250169754,0.009279987774789333,-0.008938220329582691,-0.007065005600452423,0.0025941573549062014,0.009234393946826458
0.0192582868039608,0.00884391088038683,-0.008927170187234879,-0.007984434254467487,0.0025942509528249502,0.00933048129081726
0.01889537274837494,0.00945193786174059,-0.009500420652329922,-0.008546791039407253,0.002783253090456128,0.00951508991420269
0.019183961674571037,0.009108839556574821,-0.009091382846236229,-0.007731863297522068,0.0032517865765839815,0.00955233909189701
0.019627807661890984,0.009182856418192387,-0.008459935896098614,-0.0073489900678396225,0.00338852871209383,0.009366335347294807
0.018129386007785797,0.009580273181200027,-0.008839050307869911,-0.007540870923548937,0.003202050691470504,0.00940146204084158
0.019822951406240463,0.009280615486204624,-0.010124430060386658,-0.007915738970041275,0.003401554422453046,0.009258486330509186
0.02044515311717987,0.009261664934456348,-0.008946928195655346,-0.007732050959020853,0.0033891447819769382,0.009389635175466537
0.01990833878517151,0.010029125027358532,-0.008948133327066898,-0.007923627272248268,0.003375161439180374,0.009942292235791683
0.019900623708963394,0.0097862733528018,-0.00962290819734335,-0.00853776652365923,0.0032236152328550816,0.01059403270483017
0.020285535603761673,0.009454252198338509,-0.009216354228556156,-0.008650485426187515,0.0031329472549259663,0.010171564295887947
0.0204477496445179,0.010158185847103596,-0.009162051603198051,-0.008206619881093502,0.0031234235502779484,0.01007448323071003
0.020113319158554077,0.00944032147526741,-0.009358608163893223,-0.00832659937441349,0.0031127554830163717,0.009724896401166916
0.02007182501256466,0.009232666343450546,-0.008936845697462559,-0.008623700588941574,0.00312066450715065,0.01053103618323803
0.020696796476840973,0.009986652992665768,-0.008909066207706928,-0.008563905954360962,0.002871302654966712,0.010421434417366982
0.02129882574081421,0.010107538662850857,-0.009516383521258831,-0.007864395156502724,0.00296423165127635,0.010030754841864109
0.020135775208473206,0.010248277336359024,-0.00971127487719059,-0.00827466044574976,0.00339725473895669,0.009810958988964558
0.02109329216182232,0.01000970508903265,-0.009522448293864727,-0.009294846095144749,0.0036032993812114,0.009521829895675182
0.02065536566078663,0.009514833800494671,-0.009342602454125881,-0.008641197346150875,0.0036370335146784782,0.00937911681830883
0.02026020921766758,0.009427334181964397,-0.00940019078552723,-0.00847340002655983,0.0035987349692732096,0.009639628231525421
0.02116456627845764,0.010389267466962337,-0.008844447322189808,-0.00902988389134407,0.003582872450351715,0.009898301213979721
0.021697361022233963,0.010011100210249424,-0.009642619639635086,-0.008763238787651062,0.003416728228330612,0.009659633971750736
0.021114977076649666,0.010585494339466095,-0.008495391346514225,-0.009005141444504261,0.003412805264815688,0.009761069901287556
0.021448418498039246,0.010892457328736782,-0.008768747560679913,-0.009036851115524769,0.003654810367152095,0.010341119952499866
0.022388702258467674,0.01012091152369976,-0.010012784972786903,-0.009045817889273167,0.0036678360775113106,0.010219075717031956
0.022135913372039795,0.010273660533130169,-0.00842888094484806,-0.00902685895562172,0.003725545248016715,0.009826081804931164
0.022135913372039795,0.010273660533130169,-0.00842888094484806,-0.00902685895562172,0.003725545248016715,0.009826081804931164
0.021626189351081848,0.010413769632577896,-0.008060035295784473,-0.009386451914906502,0.003383109113201499,0.009521537460386753
0.02167441137135029,0.010290182195603848,-0.009603251703083515,-0.008678960613906384,0.0031299509573727846,0.009847432374954224
0.02177545800805092,0.010382735170423985,-0.009401536546647549,-0.0089181587100029,0.0029787037055939436,0.01004762202501297
0.02233087830245495,0.011041248217225075,-0.009342138655483723,-0.008959456346929073,0.0031334504019469023,0.010323326103389263
0.022614113986492157,0.010552428662776947,-0.009618079289793968,-0.009121737442910671,0.003797524143010378,0.010788069106638432
0.022584985941648483,0.010386966168880463,-0.009324295446276665,-0.008757335133850574,0.004154313821345568,0.011237370781600475
0.022561419755220413,0.009926537051796913,-0.008880146779119968,-0.008955888450145721,0.003935409709811211,0.010320141911506653
0.022641241550445557,0.010647878050804138,-0.009603439830243587,-0.009187397547066212,0.0036232052370905876,0.009871050715446472
0.022797122597694397,0.010626413859426975,-0.009895678609609604,-0.008928446099162102,0.003471202217042446,0.0099533312022686
0.022655272856354713,0.010405625216662884,-0.009039727039635181,-0.009643164463341236,0.0035102805122733116,0.010197916068136692
0.022502891719341278,0.010951974429190159,-0.009404257871210575,-0.009592561051249504,0.003289321204647422,0.010541502386331558
0.022830745205283165,0.010137861594557762,-0.009469346143305302,-0.009285565465688705,0.0034337309189140797,0.010156940668821335
0.022990411147475243,0.009962599724531174,-0.009683755226433277,-0.009069761261343956,0.003709129523485899,0.009701769798994064
0.022456690669059753,0.010610672645270824,-0.009165264666080475,-0.009503386914730072,0.003979830536991358,0.01035262644290924
0.02382439374923706,0.010077564045786858,-0.009499062784016132,-0.009451189078390598,0.004078134894371033,0.009873954579234123
0.023096377030014992,0.010382916778326035,-0.00928201712667942,-0.009298941120505333,0.004005470313131809,0.009342020377516747
0.023282339796423912,0.010816884227097034,-0.009298278950154781,-0.009228684939444065,0.003881169483065605,0.009669706225395203
0.02389134094119072,0.01028338260948658,-0.009586014784872532,-0.009016470983624458,0.004022649955004454,0.010082046501338482
0.023626212030649185,0.01084177102893591,-0.009083135984838009,-0.009313758462667465,0.003631956409662962,0.010082365013659
0.023462098091840744,0.010559778660535812,-0.009056681767106056,-0.010109500028192997,0.0033813007175922394,0.010154220275580883
0.02337075211107731,0.009925857186317444,-0.00949888862669468,-0.009478248655796051,0.0033658554311841726,0.01047269906848669
0.02373388223350048,0.01072775013744831,-0.009106936864554882,-0.009360888041555882,0.0035739801824092865,0.009992187842726707
0.024216528981924057,0.010078828781843185,-0.008892731741070747,-0.009747195988893509,0.0037852812092751265,0.010298959910869598
0.024154311046004295,0.010564745403826237,-0.009427820332348347,-0.009723231196403503,0.003896455280482769,0.010346315801143646
0.023959528654813766,0.010079407133162022,-0.008743771351873875,-0.009768014773726463,0.004204933065921068,0.010732567869126797
0.024001464247703552,0.010273673571646214,-0.009095301851630211,-0.009726068004965782,0.004044682718813419,0.010371181182563305
0.023889834061264992,0.010784638114273548,-0.009279201738536358,-0.009745537303388119,0.003882848657667637,0.010737272910773754
0.02418377622961998,0.010095388628542423,-0.00894363783299923,-0.010045193135738373,0.0034152953885495663,0.011100021190941334
0.02440432272851467,0.010664542205631733,-0.008731828071177006,-0.00982882920652628,0.0035324343480169773,0.010463117621839046
0.02440432272851467,0.010664542205631733,-0.008731828071177006,-0.00982882920652628,0.0035324343480169773,0.010463117621839046
0.024395670741796494,0.011056979186832905,-0.009367983788251877,-0.010394337587058544,0.0037348889745771885,0.010876020416617393
0.02449725940823555,0.011037406511604786,-0.009305888786911964,-0.010378589853644371,0.004099580459296703,0.010960526764392853
0.0248566921800375,0.01049495954066515,-0.009014036506414413,-0.009763292968273163,0.00419811112806201,0.010890389792621136
0.024681752547621727,0.010405627079308033,-0.009493294171988964,-0.009797768667340279,0.004029683768749237,0.010554207488894463
0.024921631440520287,0.010097458958625793,-0.009041735902428627,-0.010514289140701294,0.003849706379696727,0.010275868698954582
0.02524820901453495,0.01077175885438919,-0.008687414228916168,-0.009879523888230324,0.003708400996401906,0.010326326824724674
0.025142060592770576,0.010624297894537449,-0.00935765914618969,-0.009831653907895088,0.0034149016719311476,0.01072611566632986
0.02504248172044754,0.010061581619083881,-0.009444513358175755,-0.010104727931320667,0.0035183806903660297,0.010761256329715252
0.024970531463623047,0.010821963660418987,-0.00866944994777441,-0.010493087582290173,0.004160348325967789,0.009930425323545933
0.025238435715436935,0.010702831670641899,-0.009109475649893284,-0.010068539530038834,0.004160525742918253,0.011103780008852482
0.025701815262436867,0.010941540822386742,-0.009242529980838299,-0.010259108617901802,0.004060449078679085,0.01145584974437952
0.025254830718040466,0.010951749980449677,-0.008967753499746323,-0.010260926559567451,0.003943640738725662,0.011310615576803684
0.022933121770620346,0.010826768353581429,-0.00917873252183199,-0.010319218970835209,0.004054104443639517,0.010800004936754704
0.025411367416381836,0.011184489354491234,-0.009189345873892307,-0.010372783057391644,0.00425725569948554,0.010760708712041378
0.025588059797883034,0.011084072291851044,-0.009240268729627132,-0.009945745579898357,0.004107691813260317,0.010982411913573742
0.0256061889231205,0.010228392668068409,-0.009030818939208984,-0.010321414098143578,0.003576417453587055,0.010865957476198673
0.02510286495089531,0.012052777223289013,-0.009621880017220974,-0.01013161987066269,0.0038584175053983927,0.011037944816052914
0.025406410917639732,0.011554624885320663,-0.009333320893347263,-0.010314522311091423,0.004208327736705542,0.011002172715961933
0.02590026892721653,0.010520069859921932,-0.00923287682235241,-0.010429207235574722,0.004455365240573883,0.01097793411463499
0.02537699230015278,0.011751016601920128,-0.009068227373063564,-0.010520989075303078,0.004505283664911985,0.011691959574818611
0.025051215663552284,0.011438877321779728,-0.009405804798007011,-0.01008017547428608,0.0042870547622442245,0.011267648078501225
0.024658458307385445,0.01150140818208456,-0.008973786607384682,-0.010162786580622196,0.0044358158484101295,0.010990601032972336
0.025743689388036728,0.010981958359479904,-0.009750625118613243,-0.009903701953589916,0.0036884688306599855,0.011798543855547905
0.02641119807958603,0.012169542722404003,-0.008900546468794346,-0.010395918972790241,0.0035330094397068024,0.011549090035259724
0.025945931673049927,0.011359442956745625,-0.00974494032561779,-0.011109215207397938,0.004235964734107256,0.011372269131243229
0.025989055633544922,0.010891357436776161,-0.011065303348004818,-0.01044775452464819,0.004645865876227617,0.011295153759419918
0.026161925867199898,0.01187374908477068,-0.009611619636416435,-0.010979941114783287,0.004765464924275875,0.011416515335440636
0.026161925867199898,0.01187374908477068,-0.009611619636416435,-0.010979941114783287,0.004765464924275875,0.011416515335440636
0.0261565949767828,0.012882069684565067,-0.010188975371420383,-0.010534168221056461,0.003620442235842347,0.011755412444472313
0.02627750113606453,0.013201507739722729,-0.010161262936890125,-0.010666856542229652,0.00354573642835021,0.011353223584592342
0.02619134820997715,0.012947176583111286,-0.010743948630988598,-0.010932596400380135,0.0037528257817029953,0.011615823954343796
0.02619134820997715,0.012947176583111286,-0.010743948630988598,-0.010932596400380135,0.0037528257817029953,0.011615823954343796
0.026353642344474792,0.012880070134997368,-0.010601624846458435,-0.012688105925917625,0.0046058278530836105,0.0114622563123703
0.02634410560131073,0.012830358929932117,-0.010983750224113464,-0.011145462282001972,0.004376907367259264,0.01215785089880228
0.02634410560131073,0.012830358929932117,-0.010983750224113464,-0.011145462282001972,0.004376907367259264,0.01215785089880228
0.02664906717836857,0.012497511692345142,-0.01054463628679514,-0.011079391464591026,0.004083001986145973,0.01198511105030775
0.02621019445359707,0.01284772902727127,-0.010477396659553051,-0.011619423516094685,0.004445672035217285,0.011691438034176826
0.026101773604750633,0.01252885814756155,-0.010718673467636108,-0.011723188683390617,0.00415832968428731,0.011751540005207062
0.026405492797493935,0.012967181392014027,-0.01062076911330223,-0.011354547925293446,0.003841074649244547,0.011987029574811459
0.02623058296740055,0.013206114061176777,-0.011251850984990597,-0.011463497765362263,0.0037193545140326023,0.012069755233824253
0.024839427322149277,0.012958548963069916,-0.01065121777355671,-0.011353771202266216,0.0041054533794522285,0.011799084022641182
0.026972364634275436,0.012718133628368378,-0.010734633542597294,-0.011311385780572891,0.00449009146541357,0.011570793576538563
0.027290258556604385,0.012651016004383564,-0.010974443517625332,-0.011260858736932278,0.004121366888284683,0.012263345532119274
0.02788427472114563,0.013156046159565449,-0.010669020935893059,-0.011523619294166565,0.004323911387473345,0.011725031770765781
0.027312325313687325,0.013003699481487274,-0.011088719591498375,-0.011530186049640179,0.004123396705836058,0.01186391618102789
0.02639837935566902,0.013139685615897179,-0.01128009520471096,-0.011488489806652069,0.0039800540544092655,0.011610765010118484
0.027120858430862427,0.012899915687739849,-0.010264004580676556,-0.011441306211054325,0.003928000573068857,0.012249474413692951
0.02768036723136902,0.013096227310597897,-0.010649583302438259,-0.011397846043109894,0.00435186643153429,0.012014670297503471
0.027799174189567566,0.012827428057789803,-0.010439341887831688,-0.011376109905540943,0.004419153556227684,0.011919951997697353
0.027624085545539856,0.013359904289245605,-0.010491362772881985,-0.011171852238476276,0.004898831248283386,0.012390882708132267
0.028242573142051697,0.012979785911738873,-0.010917054489254951,-0.011854700744152069,0.0048904577270150185,0.011992807500064373
0.028091277927160263,0.013215523213148117,-0.010371193289756775,-0.01173336710780859,0.004741630516946316,0.012204769998788834
0.02848992682993412,0.012905153445899487,-0.011007504537701607,-0.01220921240746975,0.0042798505164682865,0.012001080438494682
0.027513839304447174,0.012945604510605335,-0.01113935001194477,-0.01197037473320961,0.0041455733589828014,0.0124048525467515
0.027261294424533844,0.01326068677008152,-0.01074904017150402,-0.011768043972551823,0.004177958704531193,0.012885994277894497
0.027845285832881927,0.013036521151661873,-0.011054227128624916,-0.012318262830376625,0.004450975451618433,0.012035536579787731
0.02799735590815544,0.01277098711580038,-0.010283850133419037,-0.0124143585562706,0.004790144972503185,0.011799861676990986
0.027905723080039024,0.013372036628425121,-0.01100260391831398,-0.012587632052600384,0.004717813339084387,0.012494911439716816
0.027991026639938354,0.012986164540052414,-0.010879921726882458,-0.0136500159278512,0.004627047572284937,0.012721702456474304
0.027730993926525116,0.01355500053614378,-0.010420738719403744,-0.013635732233524323,0.004218359477818012,0.012335159815847874
0.027630601078271866,0.013074308633804321,-0.01094020251184702,-0.013922356069087982,0.004302094224840403,0.012532194145023823
0.02792244590818882,0.013575122691690922,-0.010596382431685925,-0.013262482360005379,0.004665737506002188,0.012288530357182026
0.02792244590818882,0.013575122691690922,-0.010596382431685925,-0.013262482360005379,0.004665737506002188,0.012288530357182026
0.028219860047101974,0.01327656302601099,-0.010958882048726082,-0.013371874578297138,0.005056440364569426,0.01239632535725832
0.02817675843834877,0.013269428163766861,-0.01059209369122982,-0.013251690194010735,0.004894535057246685,0.012036427855491638
0.028290489688515663,0.013609847985208035,-0.010229146108031273,-0.013220388442277908,0.00455026188865304,0.012187392450869083
0.028393579646945,0.013113252818584442,-0.010962250642478466,-0.01335000991821289,0.004315902478992939,0.012289434671401978
0.028607111424207687,0.013428115285933018,-0.010479828342795372,-0.013219743967056274,0.0044800532050430775,0.012391253374516964
0.028043055906891823,0.013054260984063148,-0.01059019099920988,-0.013557367958128452,0.004706998355686665,0.012577392160892487
0.028422778472304344,0.013362091034650803,-0.011103474535048008,-0.013255870901048183,0.005248859524726868,0.012685787864029408
0.029051898047327995,0.012640131637454033,-0.010178728960454464,-0.013559797778725624,0.005035446956753731,0.012661237269639969
0.028811126947402954,0.013072283007204533,-0.01039785798639059,-0.013183683156967163,0.004595355596393347,0.012650786899030209
0.02868928760290146,0.012985710985958576,-0.010218643583357334,-0.013512274250388145,0.004991087131202221,0.012789293192327023
0.028788236901164055,0.013112378306686878,-0.010045764036476612,-0.012958445586264133,0.00485159270465374,0.012860340997576714
0.02886936441063881,0.013190830126404762,-0.010525611229240894,-0.013493821024894714,0.004465186037123203,0.012992162257432938
0.029122915118932724,0.013566499575972557,-0.01067397277802229,-0.013393609784543514,0.0044977120123803616,0.013072904199361801
0.028937403112649918,0.013532320968806744,-0.010014892555773258,-0.013581646606326103,0.005126262083649635,0.012747641652822495
0.02912762202322483,0.014115400612354279,-0.010659062303602695,-0.013859352096915245,0.005057365633547306,0.012441150844097137
0.029019372537732124,0.013922818005084991,-0.009914490394294262,-0.013486593030393124,0.004795253276824951,0.012540958821773529
0.029014870524406433,0.013696608133614063,-0.009908999316394329,-0.013146452605724335,0.004666742403060198,0.012962046079337597
0.029348010197281837,0.013493960723280907,-0.011092949658632278,-0.013046578504145145,0.00454910472035408,0.012743944302201271
0.029268939048051834,0.012851809151470661,-0.010327727533876896,-0.013450374826788902,0.00455685006454587,0.012404331006109715
0.029350195080041885,0.012983296997845173,-0.010246551595628262,-0.013035695068538189,0.004643091931939125,0.012834247201681137
0.029217243194580078,0.013013445772230625,-0.010966090485453606,-0.013274718075990677,0.0047019608318805695,0.012797489762306213
0.02918810211122036,0.013200300745666027,-0.010127601213753223,-0.01367796491831541,0.004635067190974951,0.01248595304787159
0.03020087257027626,0.013686435297131538,-0.010713555850088596,-0.013422814197838306,0.00455884076654911,0.01315263006836176
0.03095475770533085,0.01334103662520647,-0.010532792657613754,-0.013702155090868473,0.004431616514921188,0.013059111312031746
0.02972748503088951,0.013538915663957596,-0.01131103653460741,-0.013411450199782848,0.0047908625565469265,0.01290868315845728
0.02972748503088951,0.013538915663957596,-0.01131103653460741,-0.013411450199782848,0.0047908625565469265,0.01290868315845728
0.0288328118622303,0.013010602444410324,-0.010394113138318062,-0.013559306971728802,0.00478458683937788,0.013164689764380455
0.030358966439962387,0.01353986095637083,-0.009879052639007568,-0.013826572336256504,0.004420983139425516,0.0132346386089921
0.03094501979649067,0.01360368449240923,-0.01061986479908228,-0.013921856880187988,0.0045739635825157166,0.012328952550888062
0.030542485415935516,0.013588525354862213,-0.010408966802060604,-0.014131352305412292,0.004757370799779892,0.013451747596263885
0.031157465651631355,0.013860255479812622,-0.01027748640626669,-0.013874358497560024,0.004880566615611315,0.013736149296164513
0.03051084280014038,0.013305365107953548,-0.010892091318964958,-0.014129536226391792,0.004438248462975025,0.013550443574786186
0.030502861365675926,0.013336343690752983,-0.010876855812966824,-0.014117342419922352,0.004455107264220715,0.01343534979969263
0.030100859701633453,0.01350798923522234,-0.011055960319936275,-0.014349432662129402,0.004266913514584303,0.01316207367926836
0.030106771737337112,0.014379873871803284,-0.011287495493888855,-0.014429069124162197,0.0044220080599188805,0.013124235905706882
0.03094104304909706,0.013090166263282299,-0.011214676313102245,-0.014421493746340275,0.004728680942207575,0.012849835678935051
0.030799586325883865,0.013787155970931053,-0.010493225418031216,-0.014373288489878178,0.0047769141383469105,0.012619764544069767
0.030976004898548126,0.013234409503638744,-0.010777841322124004,-0.013434017077088356,0.004713664762675762,0.012830658815801144
0.031657081097364426,0.014058934524655342,-0.010285616852343082,-0.013607417233288288,0.005171314347535372,0.012898995541036129
0.031204761937260628,0.013557611964643002,-0.010850975289940834,-0.014739980921149254,0.005060472059994936,0.013120323419570923
0.030790215358138084,0.014279430732131004,-0.010960321873426437,-0.014924909919500351,0.004869053605943918,0.013093523681163788
0.031087731942534447,0.013722782954573631,-0.011163662187755108,-0.014701204374432564,0.004724666476249695,0.013096233829855919
0.031926315277814865,0.014235484413802624,-0.01143862958997488,-0.014291423372924328,0.004914590157568455,0.013188475742936134
0.03135484457015991,0.014026903547346592,-0.010966290719807148,-0.01425576489418745,0.004597514867782593,0.013238808140158653
0.03163529932498932,0.014400647021830082,-0.010906762443482876,-0.014100550673902035,0.004622992128133774,0.012988464906811714
0.0319998525083065,0.013887242414057255,-0.011827993206679821,-0.014438479207456112,0.005074217915534973,0.013274449855089188
0.03194739297032356,0.014187229797244072,-0.011592737399041653,-0.01454894058406353,0.0050176759250462055,0.013087400235235691
0.031758736819028854,0.014096492901444435,-0.011681273579597473,-0.014470900408923626,0.004976966418325901,0.013273915275931358
0.03188212588429451,0.014383508823812008,-0.011347546242177486,-0.014625072479248047,0.0051446640864014626,0.01346172671765089
0.03297017142176628,0.013993644155561924,-0.011368044652044773,-0.015411841683089733,0.005198916420340538,0.01401540357619524
0.032117363065481186,0.01374734379351139,-0.010833607986569405,-0.015140299685299397,0.0049799466505646706,0.013634909875690937
0.03192628547549248,0.013984424993395805,-0.011051134206354618,-0.015033804811537266,0.004871333483606577,0.013706400990486145
0.03192628547549248,0.013984424993395805,-0.011051134206354618,-0.015033804811537266,0.004871333483606577,0.013706400990486145
0.0323786735534668,0.01445283554494381,-0.010593026876449585,-0.015737857669591904,0.005473659373819828,0.013565602712333202
0.0323786735534668,0.01445283554494381,-0.010593026876449585,-0.015737857669591904,0.005473659373819828,0.013565602712333202
0.033544499427080154,0.0140174375846982,-0.011198913678526878,-0.015842696651816368,0.004781096708029509,0.013553707860410213
0.033544499427080154,0.0140174375846982,-0.011198913678526878,-0.015842696651816368,0.004781096708029509,0.013553707860410213
0.03365449979901314,0.013904738239943981,-0.010947730392217636,-0.014827938750386238,0.004938745871186256,0.0134662427008152
0.03198709711432457,0.013752819038927555,-0.011374960653483868,-0.01522805169224739,0.005184109788388014,0.013407395221292973
0.03221935033798218,0.013869047164916992,-0.010805835947394371,-0.014257681556046009,0.0051238322630524635,0.013723713345825672
0.033656440675258636,0.014001377858221531,-0.011252240277826786,-0.014389581978321075,0.005228661000728607,0.01429991889744997
0.033072106540203094,0.013873737305402756,-0.011309347115457058,-0.013995467685163021,0.005278433207422495,0.01388156320899725
0.03252773731946945,0.013625554740428925,-0.010913506150245667,-0.014743873849511147,0.005050308536738157,0.013822397217154503
0.03322428837418556,0.014242435805499554,-0.011264040134847164,-0.014451260678470135,0.005240391008555889,0.013736097142100334
0.03311864659190178,0.013924147002398968,-0.01091772224754095,-0.015360889956355095,0.005432595033198595,0.013943936675786972
0.03333868086338043,0.014232502318918705,-0.010950211435556412,-0.015491384081542492,0.005454652477055788,0.01320147980004549
0.0331542007625103,0.013604382053017616,-0.011951818130910397,-0.015338600613176823,0.00512324832379818,0.015025006607174873
0.03329819068312645,0.014065830036997795,-0.011416907422244549,-0.014808645471930504,0.004905496258288622,0.01450780313462019
0.03300664573907852,0.013685530051589012,-0.011358220130205154,-0.015387101098895073,0.0050115808844566345,0.014303963631391525
0.03319710120558739,0.014161207713186741,-0.010922936722636223,-0.015110290609300137,0.005092992447316647,0.013785994611680508
0.033283721655607224,0.01363353244960308,-0.010768679901957512,-0.015599583275616169,0.005228138994425535,0.013855197466909885
0.03353682532906532,0.014172470197081566,-0.011425848118960857,-0.01547054573893547,0.005264930427074432,0.013472274877130985
0.03374724090099335,0.014016557484865189,-0.011149687692523003,-0.015424521639943123,0.004930905066430569,0.014011572115123272
0.03362773731350899,0.01530920248478651,-0.011733698658645153,-0.014874856919050217,0.004879566840827465,0.014037160202860832
0.03347451239824295,0.014931106008589268,-0.011495922692120075,-0.01452262420207262,0.005317991133779287,0.014627084136009216
0.03325847163796425,0.015367485582828522,-0.010909613221883774,-0.014848138205707073,0.005187878385186195,0.014501510187983513
0.03343215957283974,0.01483343355357647,-0.012077237479388714,-0.014895085245370865,0.0051878588274121284,0.014524558559060097
0.03436271846294403,0.015393592417240143,-0.011261423118412495,-0.015451966784894466,0.005098220892250538,0.01394135132431984
0.03436271846294403,0.015393592417240143,-0.011261423118412495,-0.015451966784894466,0.005098220892250538,0.01394135132431984
0.03384501487016678,0.015019289217889309,-0.011577906087040901,-0.015361534431576729,0.005384149495512247,0.014495434239506721
0.03361811861395836,0.015188595280051231,-0.01167134940624237,-0.015722742304205894,0.00552843464538455,0.015225469134747982
0.03361811861395836,0.015188595280051231,-0.01167134940624237,-0.015722742304205894,0.00552843464538455,0.015225469134747982
0.033559639006853104,0.015212973579764366,-0.011653594672679901,-0.01531343162059784,0.005411785561591387,0.014624912291765213
0.03396076336503029,0.015322339721024036,-0.012390504591166973,-0.015764180570840836,0.005773760844022036,0.014408641494810581
0.033268339931964874,0.015689857304096222,-0.011904031969606876,-0.015794094651937485,0.005338415037840605,0.014097841456532478
0.03314763680100441,0.015765445306897163,-0.01198527030646801,-0.015537206083536148,0.005112020298838615,0.014238166622817516
0.03314763680100441,0.015765445306897163,-0.01198527030646801,-0.015537206083536148,0.005112020298838615,0.014238166622817516
0.033020492643117905,0.014752144925296307,-0.011439838446676731,-0.01675228960812092,0.005321376025676727,0.014010757207870483
0.034147847443819046,0.014994004741311073,-0.012316592037677765,-0.015619109384715557,0.005513788666576147,0.01435457356274128
