davideferrari95/blind_handover_controller/data/Test 245 - [2024-02-08 -- 12-36-37]/joint_states_data.csv
shoulder_pan_joint,shoulder_lift_joint,elbow_joint,wrist_1_joint,wrist_2_joint,wrist_3_joint
0.0050092036835849285,0.006847299635410309,-0.010257240384817123,0.0023630650248378515,6.723564729327336e-05,0.0055313194170594215
0.005661506671458483,0.007551248650997877,-0.009146804921329021,0.0026062072720378637,6.624591333093122e-05,0.005416289437562227
0.005661506671458483,0.007551248650997877,-0.009146804921329021,0.0026062072720378637,6.624591333093122e-05,0.005416289437562227
0.0054271528497338295,0.007621368393301964,-0.009396654553711414,0.0031270182225853205,7.171716424636543e-05,0.0050462703220546246
0.0053658876568078995,0.006721958518028259,-0.009570716880261898,0.0028304236475378275,7.678886322537437e-05,0.005137125961482525
0.005486678332090378,0.006671050563454628,-0.009232081472873688,0.002746076788753271,7.610447210026905e-05,0.0055067031644284725
0.005140515044331551,0.007205731701105833,-0.00894228182733059,0.002610540948808193,7.507243572035804e-05,0.00520782545208931
0.005123252980411053,0.0075304084457457066,-0.010334108024835587,0.002466561971232295,7.4044794018846e-05,0.0051666004583239555
0.005858158227056265,0.0067727286368608475,-0.009127022698521614,0.0025729790795594454,7.206847658380866e-05,0.005235316697508097
0.005377617198973894,0.007045770529657602,-0.009264296852052212,0.0024406963493674994,7.111933518899605e-05,0.00567681435495615
0.005195043981075287,0.007504264358431101,-0.00998325552791357,0.002540381858125329,7.019488839432597e-05,0.005636399146169424
0.005248816218227148,0.007416532374918461,-0.009312538430094719,0.0026605622842907906,7.498613558709621e-05,0.005681446287781
0.004949221387505531,0.006813239771872759,-0.009573138318955898,0.0024972250685095787,7.943650416564196e-05,0.00536624388769269
0.005444468464702368,0.006553745362907648,-0.0092123718932271,0.002518989145755768,7.879533222876489e-05,0.004906970076262951
0.005346084479242563,0.0069137923419475555,-0.008922667242586613,0.0023170600179582834,7.784469926264137e-05,0.005001427605748177
0.005134190432727337,0.007248267065733671,-0.009439261630177498,0.002383642364293337,7.689606718486175e-05,0.005103101022541523
0.00539396284148097,0.007017259020358324,-0.009470994584262371,0.0027135899290442467,7.596892100991681e-05,0.005390041042119265
0.005067254416644573,0.0066262842155992985,-0.009873536415398121,0.0025566117838025093,7.506372639909387e-05,0.005594072863459587
0.005284702405333519,0.00677961390465498,-0.009434566833078861,0.0024600676260888577,7.417994493152946e-05,0.0055702547542750835
0.005504215136170387,0.007161111570894718,-0.009373306296765804,0.002590776653960347,7.331671804422513e-05,0.005147249437868595
0.005677626468241215,0.007277988363057375,-0.009309140034019947,0.0031241222750395536,7.247325993375853e-05,0.005363292060792446
0.005677626468241215,0.007277988363057375,-0.009309140034019947,0.0031241222750395536,7.247325993375853e-05,0.005363292060792446
0.005691737402230501,0.007147711236029863,-0.009371633641421795,0.0027572789695113897,7.084336539264768e-05,0.006016068626195192
0.005691737402230501,0.007147711236029863,-0.009371633641421795,0.0027572789695113897,7.084336539264768e-05,0.006016068626195192
0.005304486956447363,0.007629910949617624,-0.008782741613686085,0.002748063299804926,7.875995652284473e-05,0.005475880578160286
0.0053525385446846485,0.0067792246118187904,-0.00918012484908104,0.0027875062078237534,2.025998583121691e-05,0.005044511053711176
0.005620640702545643,0.00653691403567791,-0.009449392557144165,0.0027436264790594578,1.3228325315139955e-06,0.004932874348014593
0.005170319229364395,0.006487185601145029,-0.00914049707353115,0.0027319511864334345,8.637150727963672e-08,0.004958622623234987
0.005155031103640795,0.007179447915405035,-0.008877895772457123,0.0028003219049423933,5.639442246518911e-09,0.0052487654611468315
0.0052412585355341434,0.006945358589291573,-0.00905493926256895,0.0028267730958759785,3.682153193462767e-10,0.005673568230122328
0.005577719304710627,0.006594796199351549,-0.008938207291066647,0.0029129451140761375,2.4041827556553486e-11,0.005373538937419653
0.00529728177934885,0.0066621266305446625,-0.008803924545645714,0.0028133057057857513,1.5697594049277064e-12,0.005299095995724201
0.0058227418921887875,0.006924171466380358,-0.009246110916137695,0.002778485184535384,3.6322238884167746e-05,0.005016630981117487
0.005381191615015268,0.007165324408560991,-0.008668191730976105,0.0026976088993251324,8.949908806243911e-05,0.004781750030815601
0.0053033409640192986,0.007079349830746651,-0.008532519452273846,0.002871287288144231,9.120314643951133e-05,0.004922082647681236
0.005104014649987221,0.0068902745842933655,-0.00817300844937563,0.0029847866389900446,8.78813152667135e-05,0.005104472860693932
0.005423940718173981,0.007221841719001532,-0.009130158461630344,0.0028705329168587923,8.619895379524678e-05,0.005202965345233679
0.005440233740955591,0.006719149183481932,-0.00954003818333149,0.002671420807018876,8.45788890728727e-05,0.004946147091686726
0.005528249312192202,0.006722460966557264,-0.008606832474470139,0.0025656840298324823,8.301844354718924e-05,0.005027420818805695
0.005187139846384525,0.006805761251598597,-0.00847561750560999,0.0027078513521701097,8.151466317940503e-05,0.0048752776347100735
0.004948611371219158,0.007170197553932667,-0.008693834766745567,0.0024808296002447605,8.006428834050894e-05,0.005007255356758833
0.0052774278447031975,0.006960327737033367,-0.008991452865302563,0.002410334534943104,7.866470696171746e-05,0.005698023363947868
0.0055141872726380825,0.006770993582904339,-0.008655843324959278,0.0024589579552412033,9.174841397907585e-05,0.005342959892004728
0.005573758855462074,0.007192697376012802,-0.008769907988607883,0.002521878806874156,9.114164276979864e-05,0.004933649208396673
0.0052188243716955185,0.006731795612722635,-0.009003394283354282,0.00258951960131526,8.968935435405001e-05,0.005109219346195459
0.005294492933899164,0.006862272042781115,-0.008823302574455738,0.002785937860608101,8.822791278362274e-05,0.005096920765936375
0.005616362206637859,0.006621949840337038,-0.008376386016607285,0.002737712813541293,8.680994505994022e-05,0.00511069456115365
0.0057011074386537075,0.006978058721870184,-0.00823993980884552,0.0027392052579671144,8.543641888536513e-05,0.005620605777949095
0.005586429499089718,0.006868358235806227,-0.008603447116911411,0.002626606961712241,8.410571172134951e-05,0.005196847021579742
0.0053944350220263,0.007263516541570425,-0.008488725870847702,0.002642222447320819,8.281595364678651e-05,0.004953399300575256
0.005828313995152712,0.006495791021734476,-0.008471175096929073,0.002588106319308281,8.156499825417995e-05,0.005133902654051781
0.005828313995152712,0.006495791021734476,-0.008471175096929073,0.002588106319308281,8.156499825417995e-05,0.005133902654051781
0.005427458323538303,0.006419172510504723,-0.009367803111672401,0.002468109829351306,8.035132486838847e-05,0.00507897837087512
0.005389519035816193,0.0069299181923270226,-0.00872828345745802,0.002524950774386525,9.149436664301902e-05,0.005336133763194084
0.0056924945674836636,0.006959753576666117,-0.008117824792861938,0.0026447814889252186,9.097703150473535e-05,0.005133957136422396
0.005445556249469519,0.007313787471503019,-0.008686887100338936,0.002505640499293804,8.973366493592039e-05,0.004902639426290989
0.005267513915896416,0.006564919371157885,-0.008586796000599861,0.002556207124143839,8.847688877722248e-05,0.005056591704487801
0.005583351012319326,0.006440524011850357,-0.00777758564800024,0.0023327164817601442,8.725169027457014e-05,0.005051879212260246
0.005394484847784042,0.006818135268986225,-0.007684276904910803,0.0023237692657858133,8.605990296928212e-05,0.00509240198880434
0.005997898522764444,0.007156612817198038,-0.008207525126636028,0.002356076380237937,8.49001226015389e-05,0.005423417780548334
0.0057389759458601475,0.00677748816087842,-0.007863955572247505,0.0023043761029839516,8.37712359498255e-05,0.005148707423359156
0.005202819127589464,0.006538785994052887,-0.008371870964765549,0.002638471545651555,9.286734712077305e-05,0.0047148447483778
0.005341316573321819,0.007087987847626209,-0.008938530460000038,0.002567566931247711,9.204047091770917e-05,0.00470953481271863
0.005683972034603357,0.0069755385629832745,-0.00836013350635767,0.0025454971473664045,9.090197272598743e-05,0.004835537634789944
0.00595426419749856,0.006930229719728231,-0.007684138137847185,0.0025092174764722586,8.977013931144029e-05,0.005370750091969967
0.005347792990505695,0.0065940371714532375,-0.008200086653232574,0.002517997520044446,8.866474672686309e-05,0.005164619069546461
0.004997874144464731,0.0069929491728544235,-0.008356510661542416,0.0027069838251918554,8.758622425375506e-05,0.004885505419224501
0.005612844135612249,0.006845633964985609,-0.008259383961558342,0.002605991903692484,8.653356780996546e-05,0.004832152277231216
0.005823034327477217,0.00672489870339632,-0.008759419433772564,0.002594844438135624,8.561065624235198e-05,0.00479535898193717
0.005951068364083767,0.00644815806299448,-0.00939213577657938,0.002735051093623042,0.00011635684495558962,0.004876273218542337
0.005934028420597315,0.006254516541957855,-0.00914813857525587,0.002765761688351631,0.00011552221985766664,0.005119881592690945
0.005871959030628204,0.006463556084781885,-0.008181295357644558,0.0027191881090402603,0.00011276784061919898,0.005305414088070393
0.005459137260913849,0.006459569092839956,-0.008773526176810265,0.002574856858700514,0.00011001968232449144,0.004978439770638943
0.005443108733743429,0.006521092262119055,-0.008837742730975151,0.0026173568330705166,0.00010739455319708213,0.004906601272523403
0.006088645197451115,0.006303306668996811,-0.008371108211576939,0.002640669234097004,0.0001048911944963038,0.00480680912733078
0.0064336517825722694,0.006381761748343706,-0.009034737944602966,0.0025453364942222834,0.00010250190098304302,0.00458679860457778
0.005624470300972462,0.006750635802745819,-0.008964643813669682,0.002520477632060647,0.0001002190329018049,0.004476915113627911
0.005358687601983547,0.0065712942741811275,-0.008734965696930885,0.0025667778681963682,9.803553257370368e-05,0.004563650116324425
0.005607818718999624,0.006494827568531036,-0.008658668026328087,0.002483237534761429,0.0001138541119871661,0.004536008462309837
0.005607818718999624,0.006494827568531036,-0.008658668026328087,0.002483237534761429,0.0001138541119871661,0.004536008462309837
0.006109813693910837,0.006342362612485886,-0.009057851508259773,0.002648626221343875,0.00011264732893323526,0.004491599276661873
0.005898724775761366,0.006644365377724171,-0.009284110739827156,0.002593892626464367,0.00011042002006433904,0.00436042295768857
0.006004407070577145,0.006532163359224796,-0.008839208632707596,0.002404347760602832,0.0001082121380022727,0.004483317956328392
0.0058291275054216385,0.006213633809238672,-0.008999206125736237,0.0022694880608469248,0.00010608660522848368,0.004613303113728762
0.0057789236307144165,0.006098943762481213,-0.008712316863238811,0.0022202765103429556,0.00010404243221273646,0.004640067927539349
0.006209826562553644,0.006847206968814135,-0.008531293831765652,0.0024891297798603773,0.0001020759082166478,0.004584387876093388
0.00592139083892107,0.0069994572550058365,-0.009214933961629868,0.002453629393130541,0.00010018209286499768,0.004380304832011461
0.006407735403627157,0.006575966719537973,-0.008648444898426533,0.002395190531387925,9.83572899713181e-05,0.004295022692531347
0.005985633935779333,0.006261420901864767,-0.008394608274102211,0.0023558710236102343,0.00010452209244249389,0.004443136043846607
0.005908358376473188,0.006568564102053642,-0.009070766158401966,0.0022781845182180405,0.00011018305667676032,0.004662743303924799
0.006681197788566351,0.006838081870228052,-0.008796143345534801,0.002407501917332411,0.00010876984742935747,0.004666261374950409
0.006063919980078936,0.006579944863915443,-0.008324100635945797,0.002265137853100896,0.00010517171176616102,0.004700621124356985
0.005912465043365955,0.006580648012459278,-0.00902397558093071,0.0025980856735259295,0.00010344506154069677,0.00423389719799161
0.005869394633919001,0.0064401403069496155,-0.008839365094900131,0.0026178176049143076,0.00010177389776799828,0.004264509305357933
0.006200520321726799,0.007102332543581724,-0.00794700626283884,0.002643211279064417,0.00010015597945312038,0.0041257767006754875
0.006208939012140036,0.006596391089260578,-0.008281547576189041,0.002796148881316185,9.858860721578822e-05,0.003958975430577993
0.0061531527899205685,0.006580643821507692,-0.009029241278767586,0.0031153636518865824,9.706954006105661e-05,0.004360118880867958
0.00605201069265604,0.00673832930624485,-0.008394469507038593,0.0030620929319411516,9.559659520164132e-05,0.004810191225260496
0.006649743299931288,0.007080015726387501,-0.008132818154990673,0.0026437868364155293,9.416766988579184e-05,0.0046636867336928844
0.0068177818320691586,0.007419122848659754,-0.008581713773310184,0.0025704680010676384,9.278082870878279e-05,0.0044843535870313644
0.0066536422818899155,0.006994358263909817,-0.00876534078270197,0.00258600409142673,9.143433999270201e-05,0.0042079146951437
0.00629147794097662,0.006413804367184639,-0.008312219753861427,0.0024631537962704897,9.012623195303604e-05,0.004380400292575359
0.006581111811101437,0.006766526959836483,-0.00875317957252264,0.0025575226172804832,8.885520219337195e-05,0.004158754367381334
0.006860555615276098,0.0069267647340893745,-0.008524774573743343,0.0028053962159901857,8.761940989643335e-05,0.004448442719876766
0.006719975266605616,0.0067874654196202755,-0.008294393308460712,0.003150945296511054,9.250058064935729e-05,0.0045857299119234085
0.006653057876974344,0.006636124569922686,-0.008591700345277786,0.002818839391693473,9.70175678958185e-05,0.004172518849372864
0.006485005374997854,0.006251134909689426,-0.009387926198542118,0.002722886623814702,9.60990582825616e-05,0.003795447526499629
0.006851670797914267,0.0068426611833274364,-0.008401081897318363,0.0023991877678781748,9.485764167038724e-05,0.0037165561225265265
0.006851670797914267,0.0068426611833274364,-0.008401081897318363,0.0023991877678781748,9.485764167038724e-05,0.0037165561225265265
0.006779902148991823,0.006630690302699804,-0.008346499875187874,0.002303578658029437,9.362569835502654e-05,0.004177630413323641
0.0071024964563548565,0.006400755140930414,-0.009269991889595985,0.0023377176839858294,9.242390660801902e-05,0.004551545716822147
0.00671742856502533,0.006206816527992487,-0.00929686613380909,0.002545200986787677,9.125264477916062e-05,0.004218449350446463
0.006704906467348337,0.00658939266577363,-0.008333995938301086,0.002953870687633753,9.011050860863179e-05,0.004277179948985577
0.007112863007932901,0.006729938089847565,-0.008383634500205517,0.002878171857446432,8.899672684492543e-05,0.004151970613747835
0.006912784185260534,0.006382381543517113,-0.009201607666909695,0.0030560416635125875,8.791022992227226e-05,0.003992509562522173
0.007046426180750132,0.006259742192924023,-0.008874163031578064,0.0030316344927996397,8.684971544425935e-05,0.0038519082590937614
0.007054971531033516,0.00630473205819726,-0.008268370293080807,0.002703556092455983,8.581464499002323e-05,0.003839760785922408
0.0074593196623027325,0.006800267845392227,-0.009067465551197529,0.0027502079028636217,8.480385440634564e-05,0.0038156851660460234
0.006927983369678259,0.006617689970880747,-0.008861592039465904,0.0026813296135514975,8.381672523682937e-05,0.004037435166537762
0.007210989017039537,0.006245789118111134,-0.008798290975391865,0.0027159517630934715,8.285217336378992e-05,0.004068255424499512
0.007230582647025585,0.0067983465269207954,-0.009288424625992775,0.002800926798954606,8.098833495751023e-05,0.003745397087186575
0.007426912430673838,0.0068668476305902,-0.008588581345975399,0.002930524991825223,8.00874549895525e-05,0.003621848300099373
0.0071793291717767715,0.00624631205573678,-0.009095492772758007,0.0030524341855198145,2.03511390282074e-05,0.0040190564468503
0.00705028185620904,0.006335252430289984,-0.00902316439896822,0.0028469793032854795,1.3287839237818844e-06,0.004129753448069096
0.007174125872552395,0.006350811570882797,-0.008755037561058998,0.002740803873166442,8.676009599639656e-08,0.004036823287606239
0.00668859900906682,0.006301809102296829,-0.009445767849683762,0.0025381199084222317,5.6648143953452745e-09,0.0036390942987054586
0.007002838887274265,0.0063636451959609985,-0.00979220774024725,0.002442289376631379,3.698718831213199e-10,0.0034961458295583725
0.007056908216327429,0.00611457321792841,-0.00925075076520443,0.0026655085384845734,2.414999103472759e-11,0.003583751153200865
0.006901475600898266,0.006008108612149954,-0.008875834755599499,0.0028545809909701347,1.5768220062994942e-12,0.0035836962051689625
0.007966076023876667,0.0064438022673130035,-0.009513916447758675,0.0029808967374265194,1.0295520133044717e-13,0.0036004038993269205
0.007205961737781763,0.006951708812266588,-0.009682899340987206,0.0031726681627333164,6.782638229196891e-05,0.00361258490011096
0.00734051875770092,0.00638986099511385,-0.008947049267590046,0.0029387243557721376,7.117290078895167e-05,0.003636973677203059
0.006918220780789852,0.00634546484798193,-0.01018919050693512,0.0027205348014831543,7.034896407276392e-05,0.003597470698878169
0.008032798767089844,0.006150349043309689,-0.009169820696115494,0.002717289375141263,6.928467337274924e-05,0.0036534802056849003
0.007841763086616993,0.006612706929445267,-0.009398533962666988,0.002594099845737219,6.82352838339284e-05,0.0037771647330373526
0.006788869388401508,0.007162356283515692,-0.009797438979148865,0.002786970464512706,6.72161258989945e-05,0.0036089520435780287
0.007027316372841597,0.006886813323944807,-0.009576922282576561,0.0030388878658413887,6.62269230815582e-05,0.003469688119366765
0.007480158470571041,0.006398207973688841,-0.009233147837221622,0.003332591848447919,6.526642391690984e-05,0.003608693601563573
0.007480158470571041,0.006398207973688841,-0.009233147837221622,0.003332591848447919,6.526642391690984e-05,0.003608693601563573
0.006952013820409775,0.006268194876611233,-0.009440275840461254,0.0032053436152637005,6.433328962884843e-05,0.003796630073338747
0.00701490230858326,0.006806473713368177,-0.009807015769183636,0.0028977058827877045,6.342652341118082e-05,0.0037007532082498074
0.0071835764683783054,0.006797528360038996,-0.008878867141902447,0.002635918091982603,6.254503387026489e-05,0.0035090979654341936
0.007466922979801893,0.006312407553195953,-0.009993941523134708,0.00264841690659523,6.168762047309428e-05,0.0032089652959257364
0.007357953581959009,0.006321385502815247,-0.009295296855270863,0.003132975660264492,6.085347558837384e-05,0.003039741888642311
0.007157417945563793,0.006813063286244869,-0.00943391490727663,0.003100612433627248,6.004151873639785e-05,0.0030035306699573994
0.007491232827305794,0.006787375546991825,-0.009714039973914623,0.0033565594349056482,5.925094592384994e-05,0.0031307805329561234
0.007733520120382309,0.00619808305054903,-0.008496822789311409,0.0032864497043192387,5.848095315741375e-05,0.003093984443694353
0.007876736111938953,0.0061223506927490234,-0.00983334332704544,0.0031404602341353893,5.7730718253878877e-05,0.003058741567656398
0.00747963460162282,0.006413535214960575,-0.009764163754880428,0.003086224664002657,5.6999495427589864e-05,0.0029951022006571293
0.0069240182638168335,0.006556064356118441,-0.009657480753958225,0.0032234350219368935,5.628649887512438e-05,0.0030134974513202906
0.007696434855461121,0.005976460408419371,-0.009028480388224125,0.003181878011673689,5.4912827181397006e-05,0.0030090822838246822
0.007465237285941839,0.006037040147930384,-0.009754890576004982,0.0031689428724348545,5.425083145382814e-05,0.0030072187073528767
0.007891747169196606,0.006133445538580418,-0.009271010756492615,0.003151328768581152,5.360460272640921e-05,0.00330638000741601
0.007910370826721191,0.006437924690544605,-0.009159150533378124,0.0033770285081118345,5.297356256050989e-05,0.003615256864577532
0.007446717470884323,0.0063043758273124695,-0.009434467181563377,0.003232459304854274,5.2357201639097184e-05,0.003323920536786318
0.007100348360836506,0.005960382986813784,-0.009270746260881424,0.0034373679663985968,5.175507249077782e-05,0.0031222079414874315
0.00731230154633522,0.006205791141837835,-0.008652625605463982,0.0032348467502743006,5.116657484904863e-05,0.002863796893507242
0.0078067719005048275,0.005763770546764135,-0.009786692447960377,0.0033530776854604483,5.0591341278050095e-05,0.002845147391781211
0.008128294721245766,0.005948235280811787,-0.008989259600639343,0.003379531903192401,5.00289534102194e-05,0.0032904359977692366
0.007512266281992197,0.005644650664180517,-0.008975858800113201,0.0034378955606371164,1.271296241611708e-05,0.0031179767102003098
0.008059381507337093,0.005502868443727493,-0.009193395264446735,0.0036514997482299805,8.300655736093177e-07,0.0031238915398716927
0.007813713513314724,0.005506949033588171,-0.010015343315899372,0.003377363784238696,5.4197350607410044e-08,0.002973918803036213
0.007763016503304243,0.0060810791328549385,-0.008718430064618587,0.0031334764789789915,3.5386997776498674e-09,0.002880366751924157
0.007763016503304243,0.0060810791328549385,-0.008718430064618587,0.0031334764789789915,3.5386997776498674e-09,0.002880366751924157
0.007407618220895529,0.005763235501945019,-0.009414655156433582,0.0032918390352278948,2.3105180269045178e-10,0.0027560892049223185
0.007727284450083971,0.005687698256224394,-0.009321173653006554,0.0033186934888362885,1.508603311717316e-11,0.003044373355805874
0.008022861555218697,0.005333657842129469,-0.008968842215836048,0.003344614990055561,9.850101420280644e-13,0.0029883000534027815
0.008127016946673393,0.005825391970574856,-0.008856421336531639,0.0034463899210095406,6.431412070658296e-14,0.002836124738678336
0.0076271179132163525,0.005523177795112133,-0.01023078802973032,0.003436543745920062,4.1992526568902875e-15,0.002608434297144413
0.008235041052103043,0.0059344107285141945,-0.009216944687068462,0.0034067637752741575,2.741812033642076e-16,0.0025497740134596825
0.007897366769611835,0.00561261922121048,-0.009868582710623741,0.0032844506204128265,1.7902072773082915e-17,0.002613451797515154
0.007906653918325901,0.00583080155774951,-0.009815322235226631,0.003396148094907403,1.1688774464676842e-18,0.002532457932829857
0.007978463545441628,0.0052713025361299515,-0.009306133724749088,0.003613485023379326,7.631935392811054e-20,0.002646923763677478
0.008363542146980762,0.005467800423502922,-0.008891047909855843,0.0036161819007247686,4.983108473945982e-21,0.0026195989921689034
0.008296766318380833,0.005242284387350082,-0.009817716665565968,0.0037056910805404186,3.2536137633330743e-22,0.002611665055155754
0.007923994213342667,0.005904083140194416,-0.009578809142112732,0.0038953267503529787,2.1243771742112177e-23,0.002747334772720933
0.008157322183251381,0.005870519205927849,-0.008975603617727757,0.0037324351724237204,1.3870664556017491e-24,0.002830066252499819
0.00840400718152523,0.005369462538510561,-0.00913021806627512,0.0035678378771990538,5.9132824714232495e-27,0.0025960414204746485
0.00786629132926464,0.005499171558767557,-0.008868119679391384,0.0036724244710057974,3.8609505188532225e-28,0.002439669566228986
0.008565391413867474,0.005883847363293171,-0.00955953449010849,0.0037727521266788244,2.5209247853836287e-29,0.002343835774809122
0.00913079734891653,0.006063530221581459,-0.009466199204325676,0.0038392862770706415,1.6459836137502064e-30,0.002312279539182782
0.008092417381703854,0.005647172220051289,-0.009202338755130768,0.003425092902034521,1.0747096986220511e-31,0.0024273518938571215
0.007906021550297737,0.005789920222014189,-0.00944616086781025,0.0034340231213718653,7.017086343926783e-33,0.0024929025676101446
0.008479871787130833,0.006121231708675623,-0.009594843722879887,0.003567890962585807,4.581655913755392e-34,0.002743731252849102
0.008423388004302979,0.005828841123729944,-0.009300857782363892,0.003644573735073209,2.991493934668857e-35,0.0025982328224927187
0.008165381848812103,0.005754489917308092,-0.009785667061805725,0.0035289220977574587,1.9532315898963786e-36,0.0024097443092614412
0.008393721655011177,0.005695529282093048,-0.009669291786849499,0.003269667737185955,1.2753207234471217e-37,0.0024157101288437843
0.00882825069129467,0.006048502400517464,-0.009195865131914616,0.003261332865804434,8.326933061960432e-39,0.0024341214448213577
0.008510791696608067,0.005487940274178982,-0.010592513717710972,0.0036588229704648256,5.436897911733858e-40,0.002324732718989253
0.008213728666305542,0.0058526890352368355,-0.009947091341018677,0.0038065488915890455,3.549909399674059e-41,0.002151621738448739
0.008634290657937527,0.005673747044056654,-0.009276562370359898,0.0035079617518931627,2.3177476599932474e-42,0.002059810096397996
0.008634290657937527,0.005673747044056654,-0.009276562370359898,0.0035079617518931627,2.3177476599932474e-42,0.002059810096397996
0.008805627934634686,0.0054192086681723595,-0.008760419674217701,0.003192267846316099,1.5134023414708024e-43,0.0019786013290286064
0.007938015274703503,0.005547478795051575,-0.009834391996264458,0.00398068455979228,9.80908925027372e-45,0.0019504526862874627
0.008707070723176003,0.0060220095328986645,-0.009598110802471638,0.004140897653996944,0.0,0.002131047425791621
0.009067071601748466,0.005929198581725359,-0.00918009877204895,0.0039126393385231495,0.0,0.002108308020979166
0.008153085596859455,0.005944603122770786,-0.009314429946243763,0.0037357599940150976,0.0,0.002269544405862689
0.008587938733398914,0.006081798113882542,-0.009218402206897736,0.003886373247951269,0.0,0.0020083747804164886
0.008445287123322487,0.005495649296790361,-0.0094350790604949,0.004047703463584185,0.0,0.0018600544426590204
0.008378186263144016,0.0058007086627185345,-0.009682406671345234,0.0040456620045006275,0.0,0.0018438834231346846
0.00832558237016201,0.0057883127592504025,-0.009510999545454979,0.0035761117469519377,0.0,0.0019244796130806208
0.008648093789815903,0.0061808740720152855,-0.00929477158933878,0.004121589474380016,0.0,0.0019136988557875156
0.008668997325003147,0.005622111726552248,-0.009982055053114891,0.004115307703614235,0.0,0.0019257486565038562
0.008602017536759377,0.005676605273038149,-0.009679075330495834,0.00405288627371192,0.0,0.001907647238112986
0.00911805685609579,0.005581074394285679,-0.009826910682022572,0.0039331382140517235,0.0,0.0018225702224299312
0.008874556981027126,0.0063300468027591705,-0.009529992006719112,0.0035795257426798344,0.0,0.0016901014605537057
0.008619919419288635,0.005971762351691723,-0.009743479080498219,0.0041448320262134075,0.0,0.001709143747575581
0.0088831577450037,0.0055611953139305115,-0.010471287183463573,0.004099674057215452,0.0,0.0015876523684710264
0.008516604080796242,0.005541088990867138,-0.00991219375282526,0.003936171531677246,0.0,0.0015980034368112683
0.00827517919242382,0.006220618728548288,-0.0097691984847188,0.003769863862544298,0.0,0.0016130795702338219
0.008532775565981865,0.006179502233862877,-0.010676370933651924,0.0037212148308753967,0.0,0.0017569450428709388
0.009394840337336063,0.005802340339869261,-0.010141200385987759,0.0038814744912087917,0.0,0.0017321838531643152
0.008601660840213299,0.005325919948518276,-0.010031955316662788,0.004156727809458971,0.0,0.0016075754538178444
0.008574203588068485,0.005533664952963591,-0.010105183348059654,0.00445012329146266,0.0,0.0016401808243244886
0.008971511386334896,0.006219351198524237,-0.009976105764508247,0.004457282368093729,0.0,0.0015207127435132861
0.008407827466726303,0.006047836504876614,-0.00985044240951538,0.004375122487545013,0.0,0.0014497741358354688
0.008816640824079514,0.0056767244823277,-0.010156061500310898,0.004050895571708679,0.0,0.0014164741151034832
0.008976641111075878,0.005495102144777775,-0.009807384572923183,0.003754930105060339,0.0,0.0014895083149895072
0.00918873306363821,0.005510970018804073,-0.010731491260230541,0.0036324651446193457,0.0,0.0017995355883613229
0.00853746384382248,0.005831374321132898,-0.010140241123735905,0.0038847289979457855,0.0,0.0020512808114290237
0.008932945318520069,0.006134340539574623,-0.009366787038743496,0.004181306343525648,0.0,0.002130356850102544
0.008932945318520069,0.006134340539574623,-0.009366787038743496,0.004181306343525648,0.0,0.002130356850102544
0.009410778060555458,0.006064782850444317,-0.010137846693396568,0.004092646297067404,0.0,0.0018082347232848406
0.00942253042012453,0.0059349313378334045,-0.009740246459841728,0.004085900261998177,0.0,0.0015267635462805629
0.00942253042012453,0.0059349313378334045,-0.009740246459841728,0.004085900261998177,0.0,0.0015267635462805629
0.009080170653760433,0.005504388827830553,-0.010622871108353138,0.0039120567962527275,0.0,0.0013569159200415015
0.009562646970152855,0.006033575627952814,-0.010566949844360352,0.003863060148432851,0.0,0.001126892981119454
0.008847782388329506,0.005797191523015499,-0.010000258684158325,0.004232772160321474,0.0,0.0011176069965586066
0.00913798063993454,0.005762766115367413,-0.010348605923354626,0.004034365527331829,0.0,0.0011069898027926683
0.008891625329852104,0.005345531739294529,-0.010653751902282238,0.004309557378292084,0.0,0.0012817899696528912
0.008757846429944038,0.005683394148945808,-0.009949235245585442,0.004564591683447361,0.0,0.0012440044665709138
0.009068858809769154,0.006385715678334236,-0.010140418075025082,0.0042318920604884624,0.0,0.0012869748752564192
0.00901375338435173,0.006129770074039698,-0.010096227750182152,0.003959408029913902,0.0,0.0012161473277956247
0.009145062416791916,0.005699466913938522,-0.010752654634416103,0.003716511884704232,0.0,0.0011618153657764196
0.00920646358281374,0.005570592358708382,-0.01019606925547123,0.0036755085457116365,0.0,0.0010716955875977874
0.009360005147755146,0.005577579606324434,-0.010902668349444866,0.0036330122966319323,0.0,0.0010052117286249995
0.008954093791544437,0.006212600506842136,-0.01100633293390274,0.0035675307735800743,0.0,0.0009852666407823563
0.009067079983651638,0.005773060489445925,-0.010737545788288116,0.003994771279394627,0.0,0.001005421276204288
0.008953575976192951,0.005594898015260696,-0.011029637418687344,0.004553561564534903,0.0,0.0010695370147004724
0.00967911072075367,0.005094177555292845,-0.011318719945847988,0.004691284615546465,0.0,0.00107396743260324
0.00947768148034811,0.005124499090015888,-0.010297907516360283,0.004678867291659117,0.0,0.001129673095420003
0.009640808217227459,0.005573992617428303,-0.010462642647325993,0.004637063015252352,0.0,0.0011801962973549962
0.009761464782059193,0.006156661082059145,-0.010515126399695873,0.0042171054519712925,0.0,0.0012051959056407213
0.009485527873039246,0.005511600989848375,-0.010598910041153431,0.004373855888843536,0.0,0.0011528689647093415
0.00926466379314661,0.005296618677675724,-0.010819054208695889,0.004782410804182291,0.0,0.0011126023018732667
0.009330355562269688,0.005406462121754885,-0.010533521883189678,0.004827670753002167,0.0,0.0009929205989465117
0.009847219102084637,0.00567282410338521,-0.011258896440267563,0.004555907100439072,0.0,0.00088026950834319
0.009765290655195713,0.005797179415822029,-0.011037545278668404,0.004083513747900724,0.0,0.0008498518727719784
0.009572652168571949,0.006066660396754742,-0.010470596142113209,0.004310273099690676,0.0,0.0007623613346368074
0.009671764448285103,0.0054983519949018955,-0.011193227022886276,0.004473751410841942,0.0,0.0007654834189452231
0.009502206929028034,0.005347719881683588,-0.010352090001106262,0.004856204614043236,0.0,0.000766540237236768
0.009337212890386581,0.005442157853394747,-0.01027504913508892,0.0049987551756203175,0.0,0.0007170437020249665
0.009337212890386581,0.005442157853394747,-0.01027504913508892,0.0049987551756203175,0.0,0.0007170437020249665
0.010134252719581127,0.006193581037223339,-0.010964491404592991,0.005102621391415596,0.0,0.0006868194323033094
0.009678144007921219,0.005673035513609648,-0.010591070167720318,0.004856374114751816,0.0,0.0006874697282910347
0.009387822821736336,0.005732241086661816,-0.011029318906366825,0.0048234956339001656,0.0,0.0006335637299343944
0.010549849830567837,0.005471106618642807,-0.010960295796394348,0.005299254786223173,0.0,0.0006563776987604797
0.00973289180546999,0.00576710095629096,-0.009983031079173088,0.005331477150321007,0.0,0.0005996819818392396
0.00940500944852829,0.00557990837842226,-0.010816370137035847,0.005198812577873468,0.0,0.0006153068970888853
0.010541141964495182,0.005899601615965366,-0.011124849319458008,0.00562601862475276,0.0,0.0005753034492954612
0.0094570592045784,0.005395282059907913,-0.010722623206675053,0.005127465818077326,0.0,0.0005332643631845713
0.01046991627663374,0.005845746025443077,-0.010345445945858955,0.004956269171088934,0.0,0.00046445842599496245
0.009809576906263828,0.005888422951102257,-0.009078343398869038,0.005263359285891056,0.0,0.0004192305204924196
0.009718704968690872,0.006148031912744045,-0.010782215744256973,0.00550734531134367,0.0,0.00038049768772907555
0.010102525353431702,0.005423141177743673,-0.010870539583265781,0.005222199019044638,0.0,0.0003506099455989897
0.009899668395519257,0.005903820041567087,-0.011107445694506168,0.005264450795948505,0.0,0.00032523588743060827
0.009976170025765896,0.005423032213002443,-0.010986401699483395,0.004971735645085573,0.0,0.000303298351354897
0.01004407461732626,0.005430847872048616,-0.010360254906117916,0.004925337620079517,0.0,0.00028413586551323533
0.010101993568241596,0.0057256692089140415,-0.010998343117535114,0.005762393120676279,0.0,0.00026725264615379274
0.00979446992278099,0.005547240376472473,-0.010545522905886173,0.005519818048924208,0.0,0.0002522647846490145
0.010012086480855942,0.005507756024599075,-0.010265473276376724,0.005293460562825203,0.0,0.0002741011558100581
0.009778988547623158,0.0054060546681284904,-0.011307641863822937,0.004945034626871347,0.0,0.00027137043070979416
0.009793700650334358,0.005591996014118195,-0.01044382993131876,0.004730583634227514,0.0,0.00025907071540132165
0.009924480691552162,0.005637272261083126,-0.010657069273293018,0.004707637242972851,0.0,0.00024725208641029894
0.009699518792331219,0.0057528093457221985,-0.010780220851302147,0.005575371906161308,0.0,0.00023642717860639095
0.010755104944109917,0.005568549036979675,-0.010881045833230019,0.005815525539219379,0.0,0.0002265081275254488
0.009960721246898174,0.00567621411755681,-0.011638914234936237,0.005817194934934378,0.0,0.0002173873654101044
0.009452790021896362,0.005455926991999149,-0.010705038905143738,0.005406765732914209,0.0,0.000208973404369317
0.009452790021896362,0.005455926991999149,-0.010705038905143738,0.005406765732914209,0.0,0.000208973404369317
0.01014463510364294,0.00603942945599556,-0.011885232292115688,0.005583770107477903,0.0,0.00019395891285967082
0.01014463510364294,0.00603942945599556,-0.011885232292115688,0.005583770107477903,0.0,0.00019395891285967082
0.009421030059456825,0.0058004409074783325,-0.01132518146187067,0.005724189803004265,0.0,0.0001872330904006958
0.01089754793792963,0.005640252027660608,-0.010572060942649841,0.005249588750302792,0.0,0.00018095796986017376
0.010619597509503365,0.005595998372882605,-0.01089730579406023,0.005014657974243164,0.0,0.00017508982273284346
0.009971337392926216,0.006107730325311422,-0.010715137235820293,0.004810314625501633,0.0,0.00016959030472207814
0.010960052721202374,0.005939343012869358,-0.011904544197022915,0.004860853776335716,0.0,0.00013886693341191858
0.01211739145219326,0.005817105993628502,-0.011297228746116161,0.005574412643909454,0.0,0.00013309286441653967
0.012121233157813549,0.006080028600990772,-0.01093953475356102,0.005477855913341045,0.0,0.00012916329433210194
0.011770305223762989,0.005921991541981697,-0.010989378206431866,0.0058131772093474865,0.0,0.00012555210560094565
0.011493325233459473,0.006204624660313129,-0.010490082204341888,0.005480130203068256,0.0,0.00012214355228934437
0.01179921068251133,0.0059152995236217976,-0.011176480911672115,0.005656551569700241,0.0,0.00011891571193700656
0.012400537729263306,0.005283654201775789,-0.010380198247730732,0.005302750039845705,0.0,9.186955139739439e-05
0.01292068138718605,0.005670869257301092,-0.011321797035634518,0.005631129257380962,0.0,8.824311225907877e-05
0.012043256312608719,0.005849779117852449,-0.010792366228997707,0.006066210102289915,0.0,8.604402682976797e-05
0.012142539024353027,0.005857941694557667,-0.010735719464719296,0.005649589002132416,0.0,8.402959065278992e-05
0.011954632587730885,0.005980877671390772,-0.011025513522326946,0.005795591976493597,0.0,8.211255044443533e-05
0.012429794296622276,0.005419386550784111,-0.010539104230701923,0.005548549350351095,0.0,6.155130540719256e-05
0.012466151267290115,0.006006474606692791,-0.01123019214719534,0.006261320319026709,0.0,5.8984984207199886e-05
0.012303913943469524,0.005852352827787399,-0.011254793033003807,0.005984156392514706,0.0,-3.549124812707305e-05
0.012175881303846836,0.006358388811349869,-0.010710116475820541,0.005667477380484343,0.0,-4.735556649393402e-05
0.011975335888564587,0.005723986309021711,-0.011004909873008728,0.005235477350652218,0.0,-5.850213347002864e-05
0.012300655245780945,0.005679189693182707,-0.010315550491213799,0.005418880842626095,0.0,-6.794394721509889e-05
0.012038998305797577,0.0054901898838579655,-0.010392812080681324,0.00580338342115283,0.0,-6.69714791001752e-05
0.012805634178221226,0.005792273208498955,-0.010960714891552925,0.0058967554941773415,0.0,-8.432764298049733e-05
0.01219150424003601,0.00579892098903656,-0.010696392506361008,0.005492234602570534,0.0,-0.00010343444591853768
0.01198059506714344,0.005751523654907942,-0.01117417961359024,0.0056621902622282505,0.0,-0.0003392171929590404
0.012279746122658253,0.005996715743094683,-0.011389649473130703,0.005717199761420488,0.0,-0.0006035525002516806
0.011922531761229038,0.0054162670858204365,-0.010558066889643669,0.006221420131623745,0.0,-0.0006479480653069913
0.012381527572870255,0.00507285026833415,-0.010793324559926987,0.006577207241207361,0.0,-0.0005990549107082188
0.011979514732956886,0.005681557115167379,-0.010492420755326748,0.005974499974399805,0.0,-0.0005477533559314907
0.012345517054200172,0.005570275243371725,-0.009916604496538639,0.005838240496814251,0.0,-0.0005567768821492791
0.012533471919596195,0.005723946262151003,-0.011760362423956394,0.006404380314052105,0.0,-0.0005320023046806455
0.012533471919596195,0.005723946262151003,-0.011760362423956394,0.006404380314052105,0.0,-0.0005320023046806455
0.01245739683508873,0.005382118280977011,-0.011163049377501011,0.0066133406944572926,0.0,-0.0005860620294697583
0.012937952764332294,0.005320028401911259,-0.011046476662158966,0.005999000743031502,0.0,-0.0006262625101953745
0.012193647213280201,0.005417567677795887,-0.01089391577988863,0.00586286373436451,0.0,-0.000668912660330534
0.012814893387258053,0.005548314191401005,-0.010856677778065205,0.006028316915035248,0.0,-0.000704582198522985
0.012338319793343544,0.005483719520270824,-0.011211567558348179,0.0067411744967103004,0.0,-0.001115479739382863
0.012755142524838448,0.0054628257639706135,-0.011053280904889107,0.0066658612340688705,0.0,-0.0011344726663082838
0.012326051481068134,0.005507736466825008,-0.01123374979943037,0.006357564125210047,0.0,-0.0011175377294421196
0.012299505062401295,0.005627742037177086,-0.011610785499215126,0.0059061190113425255,0.0,-0.0012915108818560839
0.012465604580938816,0.005686258431524038,-0.011079332791268826,0.006308130919933319,6.859228278699447e-07,-0.0012515479465946555
0.012799736112356186,0.005469606723636389,-0.011595345102250576,0.006759359035640955,2.9241966625903615e-09,-0.0012253540335223079
0.012448875233530998,0.005369752179831266,-0.01125362329185009,0.006358891259878874,1.9092914749219148e-10,-0.0012213591253384948
0.012856687419116497,0.005402142647653818,-0.011796805076301098,0.006299154367297888,1.2466308367542478e-11,-0.001201391569338739
0.01250628661364317,0.005645557772368193,-0.011520490050315857,0.006894629914313555,8.139608778656715e-13,-0.0014420278603211045
0.013199114240705967,0.005682588089257479,-0.01152623537927866,0.0069472333416342735,5.314582866670914e-14,-0.0015275301411747932
0.012818822637200356,0.005601612851023674,-0.01135663315653801,0.006499778013676405,3.4700426278737708e-15,-0.001742796739563346
0.012251249514520168,0.005205586552619934,-0.010701743885874748,0.006636211182922125,2.2656900494301055e-16,-0.0017876244382932782
0.012738245539367199,0.0048867338337004185,-0.011738467961549759,0.00665656290948391,1.4793336125206524e-17,-0.0018376759253442287
0.012937059625983238,0.00532197579741478,-0.011739804409444332,0.007088115904480219,9.658991114709001e-19,-0.0019151183078065515
0.012795521877706051,0.005390686448663473,-0.01216026209294796,0.0068948776461184025,6.306631785257421e-20,-0.001988570671528578
0.012675845995545387,0.005829014349728823,-0.012340810149908066,0.006619805935770273,4.117780214090698e-21,-0.001961850095540285
0.012841517105698586,0.005691879894584417,-0.011586900800466537,0.00648794649168849,2.688615932013426e-22,-0.00197004247456789
0.013266641646623611,0.005558406002819538,-0.011864042840898037,0.007011054083704948,1.7554742604936638e-23,-0.0019405445782467723
0.013312567956745625,0.005280647426843643,-0.011720709502696991,0.007104408461600542,1.1461992166756389e-24,-0.0019153391476720572
0.013468880206346512,0.005696244537830353,-0.012303347699344158,0.006536146160215139,7.483861778073519e-26,-0.0019068787805736065
0.013468880206346512,0.005696244537830353,-0.012303347699344158,0.006536146160215139,7.483861778073519e-26,-0.0019068787805736065
0.013503775000572205,0.00604880228638649,-0.012591972015798092,0.006342987064272165,4.886427084440518e-27,-0.002153883222490549
0.0135037237778306,0.005335999187082052,-0.01181548461318016,0.006806625984609127,3.1904878421521174e-28,-0.002392239635810256
0.01302485540509224,0.005164289381355047,-0.012070859782397747,0.00690597016364336,-0.00011789333802880719,-0.0023556652013212442
0.013691633008420467,0.005596522241830826,-0.011830185540020466,0.006745608523488045,-0.0002120202116202563,-0.0021701997611671686
0.01313951425254345,0.005595838185399771,-0.01250268891453743,0.007075219880789518,-0.00020869939180556685,-0.0019024725770577788
0.013441917486488819,0.005633060820400715,-0.01173241063952446,0.006911866832524538,-0.0002193942345911637,-0.001966888317838311
0.013496055267751217,0.005202838685363531,-0.012288057245314121,0.007872109301388264,-0.00022832340619061142,-0.0025448878295719624
0.014177419245243073,0.005181834101676941,-0.013120138086378574,0.007691298611462116,-0.00022020161850377917,-0.003100480418652296
0.013742527924478054,0.0052748192101716995,-0.012064770795404911,0.007036571390926838,-0.0002116472605848685,-0.0036438999231904745
0.014080503955483437,0.005214147735387087,-0.012345838360488415,0.0073782941326498985,-0.0002353095478611067,-0.0034802500158548355
0.014003214426338673,0.0058012353256344795,-0.012142475694417953,0.007622099947184324,-0.0002448474697303027,-0.003222899278625846
0.014112322591245174,0.0054970672354102135,-0.01252282690256834,0.008009733632206917,-0.000251565856160596,-0.002982419915497303
0.013467522338032722,0.005231888964772224,-0.012813925743103027,0.007225670386105776,-0.00042679524631239474,-0.0028981342911720276
0.014387416653335094,0.005643312819302082,-0.012597582302987576,0.007037567440420389,-0.00044277586857788265,-0.0029980905819684267
0.014490613713860512,0.0051520271226763725,-0.01230902224779129,0.007965371944010258,-0.00044292648090049624,-0.003035281552001834
0.014340728521347046,0.0053936392068862915,-0.012399491854012012,0.007247352506965399,-0.00044212560169398785,-0.0034359635319560766
0.014703672379255295,0.005668126046657562,-0.011894969269633293,0.00676935538649559,-0.0004149730084463954,-0.003688860684633255
0.014599421992897987,0.005135867744684219,-0.012522700242698193,0.006904434412717819,-0.0003894382971338928,-0.0034873809199780226
0.01481114886701107,0.005233733914792538,-0.012582056224346161,0.007116554770618677,-0.0003667642595246434,-0.003360976465046406
0.014321424067020416,0.005160400178283453,-0.012717406265437603,0.006951673422008753,-0.0003465796762611717,-0.0030608519446104765
0.014578920789062977,0.005809304770082235,-0.012723605148494244,0.006811128463596106,-0.0003691198362503201,-0.0033258162438869476
0.014164152555167675,0.005842905025929213,-0.011750170961022377,0.007480249740183353,-0.00035640582791529596,-0.003709106706082821
0.014729867689311504,0.005541466176509857,-0.012276641093194485,0.007197239436209202,-0.00033993780380114913,-0.0037931082770228386
0.014886782504618168,0.005173181649297476,-0.012425144203007221,0.006894634570926428,-0.0003439922002144158,-0.003742516739293933
0.015295078046619892,0.005670960992574692,-0.01297388132661581,0.006699877325445414,-0.000326269626384601,-0.0041508967988193035
0.014547555707395077,0.005799808073788881,-0.012292495928704739,0.007161246612668037,-0.00033423869172111154,-0.003788470523431897
0.014547555707395077,0.005799808073788881,-0.012292495928704739,0.007161246612668037,-0.00033423869172111154,-0.003788470523431897
0.014896808192133904,0.0054647307842969894,-0.012022474780678749,0.007659745868295431,-0.0003682623791974038,-0.0034681831020861864
0.014896808192133904,0.0054647307842969894,-0.012022474780678749,0.007659745868295431,-0.0003682623791974038,-0.0034681831020861864
0.015436398796737194,0.005211038049310446,-0.012035838328301907,0.007398450281471014,-0.00037869493826292455,-0.0036619778256863356
0.014694711193442345,0.005043978337198496,-0.012429400347173214,0.007498950231820345,-0.00038182904245331883,-0.003902183845639229
0.015256041660904884,0.00541823823004961,-0.012167152017354965,0.007643973454833031,-0.0004750787338707596,-0.00430971197783947
0.015231819823384285,0.005807432811707258,-0.01266744825989008,0.00790917407721281,-0.0005243171472102404,-0.004149505868554115
0.015522715635597706,0.005574105307459831,-0.01248074509203434,0.007236038334667683,-0.00056401954498142,-0.003953198902308941
0.015395044349133968,0.005622552242130041,-0.01248416118323803,0.00702917855232954,-0.0005577756091952324,-0.004132587928324938
0.015828708186745644,0.005293435882776976,-0.0122525654733181,0.007852806709706783,-0.000547219708096236,-0.004231141414493322
0.015585513785481453,0.005687241442501545,-0.011767386458814144,0.008151540532708168,-0.0005680829635821283,-0.004048918839544058
0.015377729199826717,0.0058176955208182335,-0.012495588511228561,0.007771192118525505,-0.0005345339886844158,-0.004361697472631931
0.015597272664308548,0.005860407371073961,-0.012318750843405724,0.007642269134521484,-0.0006113891722634435,-0.004550702404230833
0.015864813700318336,0.005144813098013401,-0.012124784290790558,0.00785751175135374,-0.0006393544026650488,-0.004688628949224949
0.015668991953134537,0.005398621782660484,-0.012089384719729424,0.007528610527515411,-0.0006206539692357183,-0.004618906881660223
0.016006628051400185,0.005555833224207163,-0.012587621808052063,0.008083052933216095,-0.0006428849301300943,-0.004442466422915459
0.015487903729081154,0.005712824873626232,-0.012431633658707142,0.008018112741410732,-0.0007336157141253352,-0.004522616043686867
0.016168074682354927,0.006041449960321188,-0.012827670201659203,0.007753831334412098,-0.0007382052717730403,-0.0050141289830207825
0.0158858485519886,0.005608825944364071,-0.012265448458492756,0.008077175356447697,-0.0007019590120762587,-0.005027769133448601
0.016016382724046707,0.005657684523612261,-0.012663635425269604,0.008427292108535767,-0.0007004613871686161,-0.00486058508977294
0.01612459123134613,0.0054444666020572186,-0.012325826101005077,0.007714837323874235,-0.0006514328997582197,-0.00470145046710968
0.016203926876187325,0.0058482326567173,-0.012354500591754913,0.0075692120008170605,-0.0006535882130265236,-0.004677436780184507
0.016310065984725952,0.005605112761259079,-0.01275750994682312,0.008494113571941853,-0.0006167453248053789,-0.004752879496663809
0.016078108921647072,0.005598938558250666,-0.01223295833915472,0.008550280705094337,-0.0005692074191756546,-0.005296076647937298
0.016660546883940697,0.004917970858514309,-0.012720274738967419,0.008358314633369446,-0.0005358254420571029,-0.005446153227239847
0.016318809241056442,0.004186649341136217,-0.012335460633039474,0.008238312788307667,-0.0004836448351852596,-0.005384291522204876
0.016599038615822792,0.003837223630398512,-0.012805277481675148,0.008893678896129131,-0.00047907576663419604,-0.005230506882071495
0.016203658655285835,0.004779088776558638,-0.012625874020159245,0.00865350104868412,-0.0004749702347908169,-0.004963901825249195
0.016115635633468628,0.005126454867422581,-0.012598433531820774,0.008227517828345299,-0.00043883739272132516,-0.005256769713014364
0.016627633944153786,0.0044448780827224255,-0.01312908437103033,0.008335091173648834,-0.000464381038909778,-0.005475824233144522
0.01639714278280735,0.004274336621165276,-0.01240267138928175,0.008738716132938862,-0.00043990943231619895,-0.005462644621729851
0.016764741390943527,0.004542776849120855,-0.012465656735002995,0.008361885324120522,-0.0004402545455377549,-0.005670737475156784
0.016764741390943527,0.004542776849120855,-0.012465656735002995,0.008361885324120522,-0.0004402545455377549,-0.005670737475156784
0.01647980883717537,0.004674339201301336,-0.012096205726265907,0.007959684357047081,-0.00043967063538730145,-0.005254173185676336
0.01691756583750248,0.004879024811089039,-0.012897210195660591,0.008639110252261162,-0.0004159823292866349,-0.005330149549990892
0.016196951270103455,0.004694855306297541,-0.012235083617269993,0.008596005849540234,-0.00042026795563288033,-0.005249231122434139
0.016743957996368408,0.004884602967649698,-0.012828684411942959,0.008282029069960117,-0.0003938246227335185,-0.005420062690973282
0.017011500895023346,0.004302149172872305,-0.012820525094866753,0.008275280706584454,-0.00042531234794296324,-0.005775848403573036
0.01672803983092308,0.004423525184392929,-0.012593002989888191,0.008395833894610405,-0.00040218152571469545,-0.0059869857504963875
0.01736210286617279,0.004617754835635424,-0.012939820066094398,0.00829907413572073,-0.00042074680095538497,-0.005581455770879984
0.01668938621878624,0.004287688992917538,-0.013172385282814503,0.008219180628657341,-0.00040784169686958194,-0.005704184528440237
0.01726534776389599,0.004231847357004881,-0.013172751292586327,0.008908434771001339,-0.0004243112343829125,-0.005631309933960438
0.01695788837969303,0.004655608907341957,-0.012779733166098595,0.008752894587814808,-0.00041267002234235406,-0.005678960122168064
0.015233493410050869,0.004807616118341684,-0.0137192877009511,0.008793194778263569,-0.0005133906379342079,-0.0053978580981493
0.017527516931295395,0.004438719246536493,-0.013007870875298977,0.008578287437558174,-0.0004778043366968632,-0.005744668655097485
0.017841367051005363,0.004238979425281286,-0.013422668911516666,0.009507962502539158,-0.00045292681897990406,-0.006136761978268623
0.017782017588615417,0.004240976646542549,-0.013629907742142677,0.009262477047741413,-0.0004343806649558246,-0.00621399562805891
0.017233697697520256,0.004203806631267071,-0.013765953481197357,0.009616146795451641,-0.0004031046701129526,-0.006484450306743383
0.01834380067884922,0.004933520220220089,-0.013550372794270515,0.009074017405509949,-0.0004291619698051363,-0.006287218537181616
0.017915349453687668,0.004938993602991104,-0.013467149809002876,0.00954001396894455,-0.00040868352516554296,-0.006454321555793285
0.017742378637194633,0.004511058330535889,-0.01304114144295454,0.009719254449009895,-0.0004316918784752488,-0.006533080246299505
0.018026066944003105,0.004472748376429081,-0.013598674908280373,0.009296116419136524,-0.00041341411997564137,-0.00649656867608428
0.017878897488117218,0.004495571833103895,-0.013167601078748703,0.008397496305406094,-0.0003913625259883702,-0.006504276767373085
0.017943868413567543,0.00449990201741457,-0.01455722190439701,0.008780884556472301,-0.00037120492197573185,-0.0066750734113156796
0.01786540076136589,0.004832969047129154,-0.013893397524952888,0.009254024364054203,-0.0003546636435203254,-0.006892802659422159
0.01761845499277115,0.0048586530610919,-0.013873692601919174,0.009802666492760181,-0.0003280714154243469,-0.0068399421870708466
0.018201012164354324,0.004685145802795887,-0.013427137397229671,0.009317781776189804,-0.0003057205176446587,-0.0070386310108006
0.018582068383693695,0.004650149494409561,-0.01408897154033184,0.009519836865365505,-0.0002862580004148185,-0.006467343773692846
0.01821514591574669,0.004790894687175751,-0.01342074666172266,0.008836789056658745,-0.0003156736493110657,-0.0065967668779194355
0.01821514591574669,0.004790894687175751,-0.01342074666172266,0.008836789056658745,-0.0003156736493110657,-0.0065967668779194355
0.01857307180762291,0.004686274565756321,-0.014115877449512482,0.008983041159808636,-0.0003042467578779906,-0.006892653182148933
0.018344484269618988,0.005068606231361628,-0.013470000587403774,0.008935945108532906,-0.0003118463500868529,-0.007145910058170557
0.018281184136867523,0.005085481330752373,-0.0138534652069211,0.009096242487430573,-0.0003178335027769208,-0.0072148991748690605
0.018402425572276115,0.004715961404144764,-0.01360330730676651,0.008817726746201515,-0.0003251231973990798,-0.007301268167793751
0.018389992415905,0.004356538411229849,-0.014084532856941223,0.009181595407426357,-0.0003299966629128903,-0.0076769497245550156
0.01881004311144352,0.00483350083231926,-0.013931041583418846,0.00922301597893238,-0.0003171199350617826,-0.007202149834483862
0.01885940693318844,0.005025669001042843,-0.014599707908928394,0.009005832485854626,-0.0004029254778288305,-0.007158001884818077
0.01879734732210636,0.004651382099837065,-0.014018305577337742,0.009590922854840755,-0.0003766784502658993,-0.007535755634307861
0.019017139449715614,0.004921098239719868,-0.014105018228292465,0.009834709577262402,-0.000348012923495844,-0.007570161018520594
0.019584812223911285,0.004841504152864218,-0.013601867482066154,0.010326161980628967,-0.000370525085600093,-0.00805811956524849
0.019591810181736946,0.004755641333758831,-0.014604580588638783,0.010169523768126965,-0.0003605550737120211,-0.00801852997392416
0.019371163100004196,0.004808295052498579,-0.013890751637518406,0.009701705537736416,-0.0003388849727343768,-0.00830927025526762
0.019420254975557327,0.005175046622753143,-0.014068697579205036,0.009393911808729172,-0.0003189255658071488,-0.00789764802902937
0.019639750942587852,0.0047821709886193275,-0.014425607398152351,0.009926849976181984,-0.0003325355355627835,-0.00761046027764678
0.019828595221042633,0.004767928272485733,-0.014278325252234936,0.009551715105772018,-0.00031604705145582557,-0.007926871068775654
0.019347911700606346,0.005057341884821653,-0.014776332303881645,0.010308626107871532,-0.00034100396442227066,-0.008355892263352871
0.019715171307325363,0.004720738623291254,-0.014592370949685574,0.010233109816908836,-0.00032807450043037534,-0.008022602647542953
0.020021578297019005,0.005048917140811682,-0.014271522872149944,0.010491617023944855,-0.0003405177849344909,-0.008579868823289871
0.019576113671064377,0.004843954928219318,-0.014226564206182957,0.010053690522909164,-0.00032570626353845,-0.00859456043690443
0.019679583609104156,0.004790453240275383,-0.014740459620952606,0.009569128975272179,-0.00030431151390075684,-0.008661079220473766
0.02020866610109806,0.0047849793918430805,-0.014647696167230606,0.00968786422163248,-0.0003343464923091233,-0.008684435859322548
0.02037760615348816,0.00521382549777627,-0.01493789441883564,0.010843961499631405,-0.0003211878065485507,-0.008144550956785679
0.01977928727865219,0.005169187672436237,-0.014320668764412403,0.01043500192463398,-0.0003506634966470301,-0.008265758864581585
0.02028007246553898,0.0050469390116631985,-0.014835862442851067,0.010153311304748058,-0.00033510796492919326,-0.008748769760131836
0.020605968311429024,0.005142438691109419,-0.014397984370589256,0.010642223991453648,-0.0003405628667678684,-0.0086439223960042
0.020345501601696014,0.005035994108766317,-0.014753013849258423,0.010157953016459942,-0.0003448369971010834,-0.008307994343340397
0.020298341289162636,0.005306465085595846,-0.013975434005260468,0.010581214912235737,-0.00033035926753655076,-0.00877954252064228
0.020298341289162636,0.005306465085595846,-0.013975434005260468,0.010581214912235737,-0.00033035926753655076,-0.00877954252064228
0.020327294245362282,0.005323661956936121,-0.014780879020690918,0.010585731826722622,-0.0004022972716484219,-0.008668969385325909
0.02029947005212307,0.004712193738669157,-0.014712522737681866,0.010021021589636803,-0.00039603683399036527,-0.008547036908566952
0.020588774234056473,0.0050705247558653355,-0.015217271633446217,0.010338996537029743,-0.00036573814577423036,-0.008808921091258526
0.020653167739510536,0.005407796241343021,-0.014275050722062588,0.010555152781307697,-0.00033834276837296784,-0.008559201844036579
0.020588573068380356,0.005326537415385246,-0.014579588547348976,0.010088451206684113,-0.00037318962858989835,-0.008684534579515457
0.020817242562770844,0.005274251103401184,-0.014539629220962524,0.01017756387591362,-0.000352626433596015,-0.008515029214322567
0.020544175058603287,0.005013406276702881,-0.015012542717158794,0.01015633437782526,-0.000358096556738019,-0.00856830459088087
0.02129822038114071,0.004951173905283213,-0.014717734418809414,0.010213074274361134,-0.00036226390511728823,-0.008620615117251873
0.021098677068948746,0.0057052974589169025,-0.015084165148437023,0.011033217422664165,-0.0003440936270635575,-0.009045573882758617
0.021069997921586037,0.005380592774599791,-0.014333192259073257,0.010452666319906712,-0.0003697811043821275,-0.009316527284681797
0.02135656774044037,0.005288978572934866,-0.014984112232923508,0.01054619811475277,-0.0003924946067854762,-0.008602079935371876
0.021317968145012856,0.005057056434452534,-0.01459241658449173,0.011732892133295536,-0.00043423258466646075,-0.008414695970714092
0.020687896758317947,0.0046937791630625725,-0.014848793856799603,0.010559196583926678,-0.00043654622277244925,-0.008870799094438553
0.021039871498942375,0.005329811945557594,-0.01528614666312933,0.01018995139747858,-0.0004402424965519458,-0.008811663836240768
0.021474691107869148,0.005108240991830826,-0.014670459553599358,0.01001875102519989,-0.000462831900222227,-0.008795096538960934
0.021448375657200813,0.005601779092103243,-0.014739270322024822,0.010996412485837936,-0.0004414237628225237,-0.008808759972453117
0.020757336169481277,0.005151695106178522,-0.014208929613232613,0.010448734275996685,-0.0006006811745464802,-0.008416899479925632
0.02132268249988556,0.005436817184090614,-0.01505220029503107,0.009397394955158234,-0.0006083679036237299,-0.00817355327308178
0.0217528585344553,0.005284741520881653,-0.014974917285144329,0.009929612278938293,-0.0005910744657739997,-0.008640829473733902
0.02158292382955551,0.005425658542662859,-0.015309165231883526,0.0105024054646492,-0.0006124578067101538,-0.008735790848731995
0.02094152942299843,0.005777384154498577,-0.014963118359446526,0.009289698675274849,-0.0006273415638133883,-0.008674309588968754
0.021482104435563087,0.005509244743734598,-0.015343115665018559,0.010234632529318333,-0.0005945826414972544,-0.008656388148665428
0.0213687215000391,0.005356916226446629,-0.014617547392845154,0.010123427957296371,-0.0006480423617176712,-0.008715619333088398
0.021047793328762054,0.005052071996033192,-0.014998854137957096,0.010569453239440918,-0.0006539407186210155,-0.008869051933288574
0.02113744243979454,0.005405467469245195,-0.015468617901206017,0.01095212809741497,-0.000630485184956342,-0.008599143475294113
0.02167733758687973,0.0053396932780742645,-0.015269676223397255,0.010917840525507927,-0.000567602866794914,-0.008402868174016476
0.02201426587998867,0.00572976004332304,-0.015947706997394562,0.010427298955619335,-0.0005764042143709958,-0.007679509464651346
0.021491944789886475,0.005147616378962994,-0.015034281648695469,0.01085145678371191,-0.0005457706865854561,-0.008070128969848156
0.02188631147146225,0.005223737098276615,-0.015708526596426964,0.010786125436425209,-0.0005702116177417338,-0.008248518221080303
0.021847670897841454,0.005511938128620386,-0.015250926837325096,0.011653671972453594,-0.0005785793182440102,-0.008345307782292366
0.02206680178642273,0.005204749759286642,-0.015371528454124928,0.010820696130394936,-0.0005297105526551604,-0.008281124755740166
0.02206680178642273,0.005204749759286642,-0.015371528454124928,0.010820696130394936,-0.0005297105526551604,-0.008281124755740166
0.021786710247397423,0.0054687014780938625,-0.015016796998679638,0.010655537247657776,-0.0005630566156469285,-0.008413552306592464
0.021961254999041557,0.005695511121302843,-0.01571560651063919,0.01183844543993473,-0.0005779886851087213,-0.00879248883575201
0.02216969057917595,0.005507254507392645,-0.015119783580303192,0.011441664770245552,-0.000547489442396909,-0.009149810299277306
0.02254457212984562,0.0050601232796907425,-0.015876026824116707,0.011552264913916588,-0.0005397917702794075,-0.008883223868906498
0.021992677822709084,0.005662343464791775,-0.015729321166872978,0.012167699635028839,-0.0005318199982866645,-0.008859563618898392
0.021664416417479515,0.005334322806447744,-0.015598715282976627,0.0117238350212574,-0.0005834344192408025,-0.008715969510376453
0.022326143458485603,0.005419660359621048,-0.015820840373635292,0.011854386888444424,-0.0005967288743704557,-0.008707152679562569
0.022318797186017036,0.005549152381718159,-0.01615685597062111,0.011367744766175747,-0.0005812020390294492,-0.009038889780640602
0.022146092727780342,0.0051557570695877075,-0.01686246506869793,0.011557473801076412,-0.0005275599542073905,-0.008765854872763157
0.022398127242922783,0.005171393509954214,-0.016487715765833855,0.011707084253430367,-0.0005551273352466524,-0.008851751685142517
0.02074521593749523,0.005544296000152826,-0.01614970900118351,0.012075291015207767,-0.0005392188904806972,-0.009190361015498638
0.02338252030313015,0.005515711847692728,-0.01652076654136181,0.011393102817237377,-0.0005843909457325935,-0.009414750151336193
0.02281179092824459,0.00511669646948576,-0.016254708170890808,0.011215757578611374,-0.0006223678938113153,-0.00950615108013153
0.02273348532617092,0.0053377458825707436,-0.016571585088968277,0.011169152334332466,-0.0005814659525640309,-0.009540911763906479
0.02266981638967991,0.005168240983039141,-0.017017526552081108,0.011038468219339848,-0.0005264230421744287,-0.009129293262958527
0.02286490611732006,0.005705271847546101,-0.0164952389895916,0.011519460007548332,-0.0005382832023315132,-0.00968397781252861
0.02258785255253315,0.006489835679531097,-0.017057355493307114,0.011585288681089878,-0.0005125729949213564,-0.009315949864685535
0.02249377779662609,0.006249385420233011,-0.016592321917414665,0.01145173516124487,-0.0005381620721891522,-0.009077530354261398
0.023544782772660255,0.0053883702494204044,-0.01673649065196514,0.012041917070746422,-0.0005046183941885829,-0.009258072823286057
0.02376287803053856,0.0049202595837414265,-0.016828078776597977,0.011818413622677326,-0.0005198089638724923,-0.00933133251965046
0.023594575002789497,0.004243432078510523,-0.016754906624555588,0.012182694859802723,-0.0004819745954591781,-0.009560314007103443
0.02291041798889637,0.004362808540463448,-0.016986362636089325,0.01195478904992342,-0.00043633527820929885,-0.00898305419832468
0.022153325378894806,0.004942138679325581,-0.016195759177207947,0.011825470253825188,-0.0004362203471828252,-0.009293613024055958
0.02316885255277157,0.004927200265228748,-0.01695125177502632,0.011994203552603722,-0.0004358647274784744,-0.009385225363075733
0.02363666705787182,0.004641846753656864,-0.01690187118947506,0.011562700383365154,-0.00043817507685162127,-0.00973350927233696
0.023657875135540962,0.004572345409542322,-0.01715976558625698,0.012297647073864937,-0.00043781602289527655,-0.009741864167153835
0.023657875135540962,0.004572345409542322,-0.01715976558625698,0.012297647073864937,-0.00043781602289527655,-0.009741864167153835
0.02321922592818737,0.004640445113182068,-0.01734345778822899,0.011887762695550919,-0.00043975820881314576,-0.00953022763133049
0.0234384723007679,0.004867302253842354,-0.016851335763931274,0.012008284218609333,-0.00043930026004090905,-0.009774715639650822
0.023773323744535446,0.004860156215727329,-0.01726842112839222,0.01219093892723322,-0.0004157812800258398,-0.009446906857192516
0.02395070716738701,0.0048028468154370785,-0.016696685925126076,0.012188400141894817,-0.0004277093685232103,-0.009602080099284649
0.024404002353549004,0.004756126552820206,-0.016980169340968132,0.012594429776072502,-0.0004615156212821603,-0.009737183339893818
0.023570341989398003,0.004734181333333254,-0.01694316603243351,0.012273677624762058,-0.00048701040213927627,-0.009623049758374691
0.024051213636994362,0.004526549484580755,-0.016674453392624855,0.01268477737903595,-0.0004679351986851543,-0.010131292976439
0.024384550750255585,0.004363063722848892,-0.017379973083734512,0.012041290290653706,-0.0004946141852997243,-0.010209419764578342
0.024568600580096245,0.004904003348201513,-0.016962390393018723,0.012292732484638691,-0.00046860604197718203,-0.009905379265546799
0.024556096643209457,0.0051048146560788155,-0.017260391265153885,0.012600105255842209,-0.0006478436407633126,-0.009859040379524231
0.024758417159318924,0.004782687872648239,-0.016653593629598618,0.012915311381220818,-0.0006662859232164919,-0.00956995040178299
0.02464704029262066,0.004792348947376013,-0.017046380788087845,0.012525346130132675,-0.0006433495436795056,-0.010777081362903118
0.02464704029262066,0.004792348947376013,-0.017046380788087845,0.012525346130132675,-0.0006433495436795056,-0.010777081362903118
0.024636751040816307,0.004622639622539282,-0.017182322219014168,0.012350787408649921,-0.0006103923660703003,-0.010363089852035046
0.022768108174204826,0.004915816243737936,-0.017174558714032173,0.012174862436950207,-0.0005648646038025618,-0.009709397330880165
0.024934440851211548,0.004790379665791988,-0.017118103802204132,0.012155677191913128,-0.000523901719134301,-0.009941895492374897
0.02538249082863331,0.004839342553168535,-0.017349252477288246,0.012346555478870869,-0.0004951203591190279,-0.010575860738754272
0.02522164210677147,0.004626868758350611,-0.016623277217149734,0.01278072502464056,-0.0004547506105154753,-0.010013618506491184
0.025238053873181343,0.0048319194465875626,-0.017232270911335945,0.012751160189509392,-0.00045344108366407454,-0.00991814211010933
0.025171738117933273,0.004771469160914421,-0.01740673929452896,0.01317067164927721,-0.0004516944754868746,-0.0101569639518857
0.025284284725785255,0.0048718019388616085,-0.01728045381605625,0.012893292121589184,-0.000470285362098366,-0.010595005005598068
0.025269797071814537,0.004829644225537777,-0.01721246726810932,0.013173859566450119,-0.0004839988541789353,-0.010898946784436703
0.02504713460803032,0.004664611537009478,-0.01665376126766205,0.01279965229332447,-0.0004814889107365161,-0.01132166851311922
0.02553568407893181,0.004727496299892664,-0.01746489107608795,0.012988590635359287,-0.0006061461172066629,-0.010999717749655247
0.02559041418135166,0.004800629336386919,-0.017135383561253548,0.013092104345560074,-0.0006510519306175411,-0.01080054696649313
0.02601434662938118,0.004331094678491354,-0.01735394075512886,0.01309469435364008,-0.0005938896792940795,-0.010407098568975925
0.026065992191433907,0.004395638592541218,-0.017303921282291412,0.013274837285280228,-0.0006011236691847444,-0.010704324580729008
0.026398152112960815,0.005102559924125671,-0.0165952667593956,0.013178345747292042,-0.0005671349354088306,-0.011205127462744713
0.02613051049411297,0.004512612242251635,-0.017328377813100815,0.013635819777846336,-0.0005761139327660203,-0.010535192675888538
0.02642872929573059,0.004514085128903389,-0.017218776047229767,0.013018338941037655,-0.0005491646588779986,-0.010603869333863258
0.02642872929573059,0.004514085128903389,-0.017218776047229767,0.013018338941037655,-0.0005491646588779986,-0.010603869333863258
0.02616073749959469,0.004564901348203421,-0.017320115119218826,0.01312246173620224,-0.0005112573853693902,-0.010517027229070663
0.026153571903705597,0.004600000102072954,-0.017270641401410103,0.012513063848018646,-0.0005112746148370206,-0.010556565597653389
0.026698123663663864,0.00458312314003706,-0.01710268296301365,0.012592379003763199,-0.00046521011972799897,-0.010645892471075058
0.026727285236120224,0.004553499165922403,-0.01799415796995163,0.012704147025942802,-0.0004837314481846988,-0.010759579949080944
0.026806052774190903,0.004401981830596924,-0.017538031563162804,0.012849741615355015,-0.000461469404399395,-0.010348325595259666
0.027164865285158157,0.00447238190099597,-0.017560133710503578,0.013040991500020027,-0.0004606600268743932,-0.010640865191817284
0.02689143642783165,0.004586999304592609,-0.017519740387797356,0.013109282590448856,-0.0004585931310430169,-0.010728106833994389
0.027320485562086105,0.004147942177951336,-0.017196398228406906,0.013391545042395592,-0.00047451109276153147,-0.01072883140295744
0.028377169743180275,0.004101295955479145,-0.018812770023941994,0.01335818599909544,-0.000507797347381711,-0.010792393237352371
0.0285265501588583,0.0044213877990841866,-0.01757236197590828,0.012825598008930683,-0.0005362726515159011,-0.011096618138253689
0.025920290499925613,0.004555072635412216,-0.018198123201727867,0.012693742290139198,-0.0005486278678290546,-0.011072141118347645
0.02730359137058258,0.004334060940891504,-0.01838161051273346,0.012258036062121391,-0.0005400560912676156,-0.011047670617699623
0.0283246748149395,0.004319644067436457,-0.018054893240332603,0.012457453645765781,-0.0005660636816173792,-0.011062352918088436
0.02830425091087818,0.0045761712826788425,-0.01786109432578087,0.012724904343485832,-0.0005289448308758438,-0.011005573906004429
0.027814557775855064,0.004206704441457987,-0.017370637506246567,0.012510007247328758,-0.0006563197239302099,-0.010918714106082916
0.02881808578968048,0.004347435664385557,-0.018867217004299164,0.012998497113585472,-0.000652623362839222,-0.011401396244764328
0.029678555205464363,0.004438548814505339,-0.018869947642087936,0.012755108065903187,-0.0006288369186222553,-0.011136293411254883
0.028847618028521538,0.004303808324038982,-0.01768610067665577,0.012968238443136215,-0.0006474196561612189,-0.01116361003369093
0.027312807738780975,0.004344342742115259,-0.017913343384861946,0.012593146413564682,-0.0005972160142846406,-0.01099141500890255
0.027977293357253075,0.004556729458272457,-0.018012171611189842,0.013057960197329521,-0.0006033079698681831,-0.011118333786725998
0.029305394738912582,0.004726172890514135,-0.01864524930715561,0.013121673837304115,-0.0005730012198910117,-0.011290167458355427
0.02869308739900589,0.004299808759242296,-0.018350990489125252,0.013324371539056301,-0.0005318109760992229,-0.011064644902944565
0.02869308739900589,0.004299808759242296,-0.018350990489125252,0.013324371539056301,-0.0005318109760992229,-0.011064644902944565
0.028766946867108345,0.004729556385427713,-0.018505696207284927,0.013158926740288734,-0.0004664197622332722,-0.011886438354849815
0.02884606644511223,0.004758026450872421,-0.01885860785841942,0.013181868009269238,-0.00042571662925183773,-0.011469267308712006
0.02884606644511223,0.004758026450872421,-0.01885860785841942,0.013181868009269238,-0.00042571662925183773,-0.011469267308712006
0.028450578451156616,0.004317605402320623,-0.01760002225637436,0.013227537274360657,-0.0004266862233635038,-0.01179333496838808
0.02878209389746189,0.003940807655453682,-0.018035661429166794,0.014099113643169403,-0.00042710648267529905,-0.011495858430862427
0.028857382014393806,0.0043047526851296425,-0.01873522624373436,0.012838269583880901,-0.0004465988604351878,-0.011688323691487312
0.028937319293618202,0.0044211745262146,-0.0183383971452713,0.013009445741772652,-0.0004313129174988717,-0.012073975056409836
0.029284708201885223,0.004724425729364157,-0.01860411837697029,0.012767119333148003,-0.0004545611154753715,-0.0117833586409688
0.029423953965306282,0.004326262511312962,-0.018135804682970047,0.013705302029848099,-0.0004340418672654778,-0.011846021749079227
0.02938811667263508,0.004118356853723526,-0.019186154007911682,0.013585398904979229,-0.0004802596231456846,-0.011586824432015419
0.029774412512779236,0.004385093692690134,-0.018394261598587036,0.014368275180459023,-0.0004995552590116858,-0.011714012362062931
0.02956037037074566,0.004488990642130375,-0.01844685524702072,0.015128154307603836,-0.0004753420362249017,-0.011803594417870045
0.029460061341524124,0.004636879079043865,-0.01898551732301712,0.014797992072999477,-0.000501024245750159,-0.011655140668153763
0.02868557907640934,0.004732875619083643,-0.018655583262443542,0.014983519911766052,-0.0005048435414209962,-0.011566237546503544
0.0304022915661335,0.004401823505759239,-0.01881462335586548,0.014494574628770351,-0.0005002607358619571,-0.011853638105094433
0.031166812404990196,0.004498173017054796,-0.018645549193024635,0.014825617894530296,-0.0005687735392712057,-0.011980369687080383
0.030222948640584946,0.004142002668231726,-0.01825469732284546,0.014450086280703545,-0.0005354228196665645,-0.012064947746694088
0.02902212180197239,0.00422003585845232,-0.018943477421998978,0.014699066057801247,-0.0005695271538570523,-0.012337272986769676
0.029716307297348976,0.004676653537899256,-0.019554490223526955,0.013668868690729141,-0.0005840546218678355,-0.01192527450621128
0.030579062178730965,0.004315338563174009,-0.018552258610725403,0.013867332600057125,-0.0005527423927560449,-0.011896808631718159
0.029874766245484352,0.00457688607275486,-0.0185945276170969,0.013663622550666332,-0.0005769307026639581,-0.012310571037232876
0.030033156275749207,0.004767464939504862,-0.01877846196293831,0.014132860116660595,-0.0006680223159492016,-0.011837036348879337
0.030033156275749207,0.004767464939504862,-0.01877846196293831,0.014132860116660595,-0.0006680223159492016,-0.011837036348879337
0.030653703957796097,0.004344950895756483,-0.018647300079464912,0.013808103278279305,-0.0007123129907995462,-0.012960640713572502
0.029653416946530342,0.004259162582457066,-0.018833748996257782,0.014017272740602493,-0.0007353212567977607,-0.012134906835854053
0.029564179480075836,0.004109932109713554,-0.018393563106656075,0.013812022283673286,-0.0007463354850187898,-0.012067188508808613
0.02943499945104122,0.00444864621385932,-0.018607569858431816,0.014264754951000214,-0.000935251300688833,-0.012333269231021404
0.029775453731417656,0.0044869366101920605,-0.018852345645427704,0.01458270475268364,-0.0009239091887138784,-0.012583625502884388
0.029775453731417656,0.0044869366101920605,-0.018852345645427704,0.01458270475268364,-0.0009239091887138784,-0.012583625502884388
0.029982877895236015,0.004660728387534618,-0.018885308876633644,0.014407766982913017,-0.0008329894626513124,-0.01271340623497963
0.02971487306058407,0.004466187674552202,-0.019197434186935425,0.014686240814626217,-0.000814113300293684,-0.012424055486917496
0.029902910813689232,0.004154436755925417,-0.018226701766252518,0.014325486496090889,-0.000752527208533138,-0.012430604547262192
0.029850643128156662,0.0044486201368272305,-0.01861238293349743,0.014590230770409107,-0.0006852435180917382,-0.012757673859596252
0.02985772117972374,0.0046594454906880856,-0.01921294629573822,0.014429652132093906,-0.0006001139990985394,-0.013069506734609604
0.02991553582251072,0.004933393094688654,-0.01927294209599495,0.01482174638658762,-0.0006278380169533193,-0.012865480035543442
0.030344707891345024,0.004709504544734955,-0.019975677132606506,0.014936252497136593,-0.000640526763163507,-0.013077368959784508
0.030681662261486053,0.004723940044641495,-0.019364207983016968,0.014542353339493275,-0.0006231828592717648,-0.013219688087701797
0.031012633815407753,0.004436688032001257,-0.018755119293928146,0.014931055717170238,-0.0006687999702990055,-0.01299456600099802
0.031118104234337807,0.004589930642396212,-0.019303305074572563,0.014373769983649254,-0.0007021347410045564,-0.013312344439327717
0.02925744466483593,0.004674131516367197,-0.01959182322025299,0.014785997569561005,-0.0006991254049353302,-0.012742625549435616
0.03080540895462036,0.005195613019168377,-0.020062321797013283,0.014455920085310936,-0.0007431480335071683,-0.012562116608023643
0.030958209186792374,0.004999242722988129,-0.019738946110010147,0.014762058854103088,-0.0008531383937224746,-0.012400820851325989
0.030742328613996506,0.005021847318857908,-0.019378213211894035,0.014612573198974133,-0.000846589682623744,-0.012921031564474106
0.030500411987304688,0.00488786306232214,-0.019760023802518845,0.015416274778544903,-0.0008539053378626704,-0.012852919287979603
0.03110889345407486,0.0049807233735919,-0.020520443096756935,0.015258688479661942,-0.0008353529847227037,-0.012817616574466228
0.030942173674702644,0.004780842922627926,-0.01986018940806389,0.015762310475111008,-0.0007621237309649587,-0.012907897122204304
0.031025376170873642,0.005404824856668711,-0.019206106662750244,0.015773504972457886,-0.0007650615298189223,-0.012837440706789494
0.03144805133342743,0.005256655625998974,-0.020481029525399208,0.015714775770902634,-0.0007018482428975403,-0.012829343788325787
0.03134194388985634,0.004858267959207296,-0.019846191629767418,0.015422599390149117,-0.0006402424187399447,-0.012797610834240913
0.03142935782670975,0.004576804116368294,-0.018852487206459045,0.015250669792294502,-0.0005610152147710323,-0.012904837727546692
0.03142935782670975,0.004576804116368294,-0.018852487206459045,0.015250669792294502,-0.0005610152147710323,-0.012904837727546692
0.031679775565862656,0.005022733937948942,-0.01957000233232975,0.015001922845840454,-0.0004987602587789297,-0.012776808813214302
0.031784068793058395,0.0049141328781843185,-0.020459916442632675,0.015193582512438297,-0.0005261660553514957,-0.012845614925026894
0.031661439687013626,0.005015536677092314,-0.019712166860699654,0.015444186516106129,-0.0004889611736871302,-0.013371304608881474
0.03159106895327568,0.004844630602747202,-0.019387802109122276,0.015397191978991032,-0.00044895464088767767,-0.013483215123414993
0.03140293434262276,0.004732653498649597,-0.019590578973293304,0.01606021262705326,-0.00047412104322575033,-0.013596979901194572
0.032310765236616135,0.004701025318354368,-0.019569823518395424,0.015535186044871807,-0.0004484782984945923,-0.013751938939094543
0.03265172615647316,0.0049948375672101974,-0.01992170140147209,0.015410494059324265,-0.00047484756214544177,-0.013509676791727543
0.032196130603551865,0.004941555671393871,-0.020077625289559364,0.014695506542921066,-0.0004943156964145601,-0.01301397942006588
0.0309401024132967,0.00468257162719965,-0.019641226157546043,0.01549253985285759,-0.0005054740468040109,-0.013263980858027935
0.032431941479444504,0.004737551789730787,-0.019190620630979538,0.015336994081735611,-0.0005402932874858379,-0.013239733874797821
0.03272845223546028,0.004711959045380354,-0.019895903766155243,0.016010748222470284,-0.0005338083719834685,-0.013376337476074696
0.03314642235636711,0.005082983057945967,-0.019800426438450813,0.015060518868267536,-0.0006676823832094669,-0.013372914865612984
0.03199605271220207,0.005043656565248966,-0.02027972787618637,0.01519116759300232,-0.0008016908541321754,-0.013182573951780796
0.03191331401467323,0.004818139132112265,-0.020251542329788208,0.015372178517282009,-0.0008377308840863407,-0.013414984568953514
0.03201419860124588,0.004896628204733133,-0.019287453964352608,0.014788132160902023,-0.0008467008592560887,-0.013593947514891624
0.03288646414875984,0.005211474373936653,-0.019943132996559143,0.015055122785270214,-0.0009751035831868649,-0.013394098728895187
0.033381570130586624,0.004836523439735174,-0.020223477855324745,0.01559672225266695,-0.0010103238746523857,-0.013020912185311317
0.03207232803106308,0.004713952075690031,-0.019243229180574417,0.015480480156838894,-0.0008715418516658247,-0.013074100948870182
0.033570464700460434,0.0051298364996910095,-0.02007998898625374,0.016274135559797287,-0.0008672387339174747,-0.01368397194892168
0.033106729388237,0.005058329086750746,-0.020351404324173927,0.01602279394865036,-0.0007688535843044519,-0.01378592848777771
0.032265786081552505,0.005306608509272337,-0.01991450972855091,0.016773434355854988,-0.0007762935711070895,-0.01366348285228014
0.03314758837223053,0.005226590670645237,-0.019645215943455696,0.016883675009012222,-0.0007060334901325405,-0.013527574948966503
0.033918749541044235,0.004832365084439516,-0.02000696025788784,0.01700560189783573,-0.0006247141282074153,-0.013785895891487598
0.03290742635726929,0.004914278630167246,-0.02013271115720272,0.017101705074310303,-0.0005364040844142437,-0.013081851415336132
0.03338131681084633,0.0047732810489833355,-0.020002910867333412,0.016641322523355484,-0.0005243285559117794,-0.012802345678210258
0.03357387334108353,0.004615847487002611,-0.02007102407515049,0.016937529668211937,-0.0005154868122190237,-0.01272386871278286
0.03323816508054733,0.004333605524152517,-0.01961272582411766,0.01669924147427082,-0.0005307920509949327,-0.01289922371506691
0.03323816508054733,0.004333605524152517,-0.01961272582411766,0.01669924147427082,-0.0005307920509949327,-0.01289922371506691
0.033313166350126266,0.004939781967550516,-0.01959068886935711,0.01695927232503891,-0.0005412596510723233,-0.01315996889024973
0.033380456268787384,0.004831785336136818,-0.02012195996940136,0.016720155254006386,-0.0005342494114302099,-0.013550344854593277
0.03471793234348297,0.004370845854282379,-0.01998331770300865,0.015984712168574333,-0.0006077807629480958,-0.013588334433734417
0.0346938818693161,0.004543032497167587,-0.019466985017061234,0.01621314324438572,-0.0006535926950164139,-0.01371831726282835
0.033070314675569534,0.004441180266439915,-0.02020161785185337,0.01581236720085144,-0.0006745479768142104,-0.013922722078859806
0.03336244821548462,0.0042715235613286495,-0.020265771076083183,0.016299091279506683,-0.0006963948253542185,-0.013886830769479275
0.03442062810063362,0.00487178610637784,-0.019272126257419586,0.015687959268689156,-0.0009925966151058674,-0.014109491370618343
0.03424521163105965,0.0049472227692604065,-0.019895587116479874,0.016161130741238594,-0.0010143507970497012,-0.013919150456786156
0.03526747226715088,0.004351594019681215,-0.020304081961512566,0.015891660004854202,-0.0009360118419863284,-0.014090814627707005
0.034979093819856644,0.004354298114776611,-0.020271766930818558,0.016239330172538757,-0.0009271021699532866,-0.014178301207721233
0.03403184562921524,0.005022671539336443,-0.020040567964315414,0.01637808233499527,-0.0008277161396108568,-0.014419803395867348
0.035151299089193344,0.004543015267699957,-0.020394878461956978,0.016649071127176285,-0.0006878337590023875,-0.014268521219491959
0.035314034670591354,0.0044828010722994804,-0.020975828170776367,0.016380267217755318,-0.0006999251781962812,-0.014087537303566933
0.033881109207868576,0.004609224386513233,-0.02113761380314827,0.016566770151257515,-0.0006318009691312909,-0.014015723951160908
0.03446907177567482,0.004717844072729349,-0.020569371059536934,0.01658105105161667,-0.0006352745112963021,-0.014079487882554531
0.03412110358476639,0.004771539010107517,-0.020105093717575073,0.01704064942896366,-0.0005963281146250665,-0.014405744150280952
0.034799788147211075,0.004370577167719603,-0.020318012684583664,0.016827942803502083,-0.0006132170092314482,-0.014621463604271412
0.034550756216049194,0.004373596049845219,-0.02069421298801899,0.01619528979063034,-0.0005735674640163779,-0.014770830981433392
0.034420453011989594,0.00521028321236372,-0.02101578190922737,0.01664555072784424,-0.0005285695660859346,-0.01466672495007515
0.03460794687271118,0.004602715373039246,-0.02089378423988819,0.0164246316999197,-0.0004748169449158013,-0.01458116713911295
0.03465050831437111,0.0045435004867613316,-0.020691683515906334,0.016903145238757133,-0.0005035173962824047,-0.01462376955896616
0.03515196964144707,0.00419584708288312,-0.02092329040169716,0.016857029870152473,-0.0004697318945545703,-0.014653056859970093
0.03511587530374527,0.004389491863548756,-0.020774155855178833,0.016689889132976532,-0.00043271968024782836,-0.014484847895801067
0.03507202863693237,0.004913799464702606,-0.021473119035363197,0.017061492428183556,-0.00044968168367631733,-0.0148331793025136
0.03507202863693237,0.004913799464702606,-0.021473119035363197,0.017061492428183556,-0.00044968168367631733,-0.0148331793025136
0.035377539694309235,0.004977912176400423,-0.021536551415920258,0.01688912883400917,-0.00043394608655944467,-0.014637266285717487
0.035101186484098434,0.004911188036203384,-0.021404823288321495,0.017455056309700012,-0.0004571469617076218,-0.01498782355338335
0.034071069210767746,0.00496720103546977,-0.020155075937509537,0.017393184825778008,-0.0004788422374986112,-0.015110533684492111
0.0360635407269001,0.004464244470000267,-0.021081382408738136,0.01759088784456253,-0.0005163501482456923,-0.01514085941016674
0.03571116179227829,0.004532041028141975,-0.02029123343527317,0.017655856907367706,-0.0005112023209221661,-0.014844979159533978
0.035369861871004105,0.004281287547200918,-0.021701112389564514,0.017119813710451126,-0.0005269586690701544,-0.014608222991228104
0.03583985194563866,0.004449194762855768,-0.021453462541103363,0.017640365287661552,-0.0005028165760450065,-0.014690231531858444
0.035810746252536774,0.0050725690089166164,-0.021109484136104584,0.017730364575982094,-0.0005157051491551101,-0.014755378477275372
0.03571080416440964,0.0049710809253156185,-0.021265769377350807,0.01761002652347088,-0.0004955040058121085,-0.014813549816608429
0.03608473390340805,0.004314326215535402,-0.02124101296067238,0.0181959830224514,-0.0006014413083903491,-0.014647222124040127
0.03601576387882233,0.004283712711185217,-0.020673979073762894,0.017835883423686028,-0.0006304143462330103,-0.014859013259410858
0.035714294761419296,0.0046646930277347565,-0.021400192752480507,0.017672643065452576,-0.0005877232761122286,-0.014465735293924809
0.03534179925918579,0.004895464982837439,-0.021205656230449677,0.01770615205168724,-0.0005630218074657023,-0.014478210359811783
0.036997534334659576,0.004584047012031078,-0.020877422764897346,0.0181206576526165,-0.0005180056905373931,-0.015156358480453491
0.03683928772807121,0.004284450318664312,-0.021400395780801773,0.017429402098059654,-0.0005118352128192782,-0.015241054818034172
0.03494786471128464,0.004461103584617376,-0.021385211497545242,0.017569655552506447,-0.0005061262636445463,-0.01554071344435215
0.03483777493238449,0.004712756723165512,-0.02107466384768486,0.01756402477622032,-0.0004760265874210745,-0.015394453890621662
0.03615375608205795,0.004988005850464106,-0.021449830383062363,0.016705196350812912,-0.0004709000058937818,-0.015544355846941471
0.036360204219818115,0.004659132566303015,-0.0215165913105011,0.017354998737573624,-0.0004289104836061597,-0.015502842143177986
0.03741234168410301,0.004493654239922762,-0.021526440978050232,0.017432108521461487,-0.000459237489849329,-0.015011107549071312
0.03681521862745285,0.004410268738865852,-0.020792219787836075,0.01809646375477314,-0.00048457711818628013,-0.014908172190189362
0.03545355424284935,0.0045278361067175865,-0.020767712965607643,0.018538882955908775,-0.0004657449317164719,-0.015721332281827927
0.03542342036962509,0.004669402725994587,-0.02143322117626667,0.017882486805319786,-0.0004924561362713575,-0.015450292266905308
0.03542342036962509,0.004669402725994587,-0.02143322117626667,0.017882486805319786,-0.0004924561362713575,-0.015450292266905308
0.03667125105857849,0.004012128338217735,-0.021457117050886154,0.018491799011826515,-0.0006726997089572251,-0.015523191541433334
0.03667125105857849,0.004012128338217735,-0.021457117050886154,0.018491799011826515,-0.0006726997089572251,-0.015523191541433334
0.036797549575567245,0.004230482038110495,-0.021372457966208458,0.018592853099107742,-0.0006859427667222917,-0.015130682848393917
0.03690725564956665,0.004562795627862215,-0.021659310907125473,0.018693776801228523,-0.0007069816347211599,-0.014878938905894756
0.036269500851631165,0.004568084143102169,-0.021210677921772003,0.01849369890987873,-0.0008831972954794765,-0.01500692032277584
0.03700212016701698,0.0040933131240308285,-0.021217886358499527,0.01816219836473465,-0.000942416547331959,-0.015622897073626518
0.036784540861845016,0.004377773031592369,-0.02148897759616375,0.018265435472130775,-0.0009216985781677067,-0.01591300033032894
0.03632790595293045,0.0041549839079380035,-0.021479573100805283,0.017883289605379105,-0.0008314083679579198,-0.015595540404319763
0.0367019958794117,0.004215921275317669,-0.02170640416443348,0.01814373768866062,-0.0008264160132966936,-0.014916643500328064
0.036927007138729095,0.0045865620486438274,-0.02147199772298336,0.019052401185035706,-0.0007522988598793745,-0.014982624910771847
0.0368281714618206,0.004818739835172892,-0.021649792790412903,0.018748123198747635,-0.0007124493131414056,-0.015036179684102535
0.03784593567252159,0.004775572568178177,-0.021961085498332977,0.01859542913734913,-0.0007121863891370595,-0.01559519860893488
0.03719942271709442,0.0043909624218940735,-0.021729717031121254,0.018607504665851593,-0.00073336431523785,-0.015510880388319492
0.03731468319892883,0.004551930818706751,-0.021494656801223755,0.018425874412059784,-0.0007000446203164756,-0.015625398606061935
0.036916330456733704,0.004705969709903002,-0.02170587331056595,0.01823219284415245,-0.0007620953256264329,-0.015194871462881565
0.03816383704543114,0.00480558630079031,-0.021918704733252525,0.018376294523477554,-0.0007344333571381867,-0.015296083875000477
0.03834451362490654,0.004793665371835232,-0.021364010870456696,0.018984053283929825,-0.0006970568210817873,-0.015521752648055553
0.03629239276051521,0.004742069635540247,-0.022041425108909607,0.018961101770401,-0.0006960125174373388,-0.015681486576795578
0.03621947765350342,0.004751213826239109,-0.023340879008173943,0.018495427444577217,-0.0007154972408898175,-0.0158061683177948
0.03824968263506889,0.004755118861794472,-0.02281082049012184,0.018757086247205734,-0.0007655565277673304,-0.015810303390026093
0.038157638162374496,0.004533400759100914,-0.0215932447463274,0.0185348242521286,-0.0008050318574532866,-0.015672001987695694
0.03798068314790726,0.004842104855924845,-0.021821342408657074,0.018458977341651917,-0.0008189319632947445,-0.016181934624910355
0.03783978894352913,0.004960106685757637,-0.02168518304824829,0.01858360320329666,-0.0008285324438475072,-0.015695640817284584
0.037913478910923004,0.004841148387640715,-0.022334931418299675,0.018223287537693977,-0.0007600929820910096,-0.01579931005835533
0.03807360306382179,0.004600821528583765,-0.022905146703124046,0.01833510398864746,-0.0008398884674534202,-0.015634557232260704
0.03807360306382179,0.004600821528583765,-0.022905146703124046,0.01833510398864746,-0.0008398884674534202,-0.015634557232260704
0.03813497722148895,0.004770769737660885,-0.02242901735007763,0.017916986718773842,-0.0008032167097553611,-0.015813492238521576
0.03813497722148895,0.004770769737660885,-0.02242901735007763,0.017916986718773842,-0.0008032167097553611,-0.015813492238521576
0.038397058844566345,0.004783431999385357,-0.02257235161960125,0.018372220918536186,-0.0007596581126563251,-0.015846431255340576
0.03825798258185387,0.004562888760119677,-0.022501330822706223,0.01873011887073517,-0.0007645691512152553,-0.0160161554813385
0.03878242149949074,0.0048825787380337715,-0.022710800170898438,0.01850310154259205,-0.0007318367715924978,-0.016057034954428673
0.039129383862018585,0.004825800657272339,-0.02233033999800682,0.0185293797403574,-0.000653427850920707,-0.01621086709201336
0.03900153189897537,0.00442024040967226,-0.022565919905900955,0.018416473641991615,-0.000670090492349118,-0.016262471675872803
0.03918513283133507,0.0045844377018511295,-0.022319113835692406,0.018585696816444397,-0.0006565986550413072,-0.016451824456453323
0.03940223529934883,0.004520840011537075,-0.02202538773417473,0.01899244263768196,-0.0006348509341478348,-0.01614060252904892
0.03934331610798836,0.004718795884400606,-0.022073745727539062,0.018648559227585793,-0.0006561707123182714,-0.016067905351519585
0.03900827094912529,0.004918641876429319,-0.022843632847070694,0.01886165700852871,-0.0007052651490084827,-0.01614944450557232
0.03974439576268196,0.004761265125125647,-0.022508831694722176,0.018952855840325356,-0.0007522600353695452,-0.016239633783698082
0.03923744708299637,0.004457416944205761,-0.022723110392689705,0.018317099660634995,-0.0008336518076248467,-0.016504747793078423
0.03940016031265259,0.004819855093955994,-0.021959366276860237,0.018579384312033653,-0.0010389324743300676,-0.01616353541612625
0.03954221308231354,0.004359315615147352,-0.022268319502472878,0.019430803135037422,-0.0011600313009694219,-0.016324952244758606
0.03978046029806137,0.004492161795496941,-0.022936919704079628,0.01961721107363701,-0.0010651801712810993,-0.01662038266658783
0.04004949331283569,0.004635659512132406,-0.022681882604956627,0.019361363723874092,-0.00098034564871341,-0.016080491244792938
0.03923151269555092,0.0045827412977814674,-0.021951226517558098,0.018789518624544144,-0.0008661432657390833,-0.015975166112184525
0.04036598280072212,0.004574161488562822,-0.022040683776140213,0.018663818016648293,-0.0007266020402312279,-0.016349196434020996
0.04135432094335556,0.004674529191106558,-0.022434426471590996,0.019147027283906937,-0.0007137998472899199,-0.016556836664676666
0.04037671908736229,0.004316411446779966,-0.02235293574631214,0.019530553370714188,-0.0007340991869568825,-0.016698738560080528
0.03868699446320534,0.00445746211335063,-0.02220182679593563,0.019994620233774185,-0.0007276521646417677,-0.016333188861608505
0.04031825810670853,0.00450344942510128,-0.0223556999117136,0.019523508846759796,-0.0007005684892646968,-0.01643434539437294
0.04060925170779228,0.004516203887760639,-0.022508621215820312,0.018755057826638222,-0.0007777095888741314,-0.0164101030677557
0.04069389030337334,0.004631991032510996,-0.02259952388703823,0.019482523202896118,-0.0008098177495412529,-0.016393577679991722
0.042379818856716156,0.0043462119065225124,-0.022292425855994225,0.020404614508152008,-0.0008144332095980644,-0.016518374904990196
0.03938131406903267,0.004416961222887039,-0.021765034645795822,0.020431632176041603,-0.0008103005238808692,-0.016607657074928284
0.04015529155731201,0.004423531703650951,-0.02263864129781723,0.019738811999559402,-0.0007587930886074901,-0.016925323754549026
0.04015529155731201,0.004423531703650951,-0.02263864129781723,0.019738811999559402,-0.0007587930886074901,-0.016925323754549026
0.0413428358733654,0.0045130071230232716,-0.02290031686425209,0.0195557102560997,-0.0008514985092915595,-0.01675613783299923
0.04116695746779442,0.004314026795327663,-0.022225990891456604,0.019044766202569008,-0.0008634924306534231,-0.016578441485762596
0.040783315896987915,0.003983825910836458,-0.022316686809062958,0.019079992547631264,-0.000812891754321754,-0.01630806364119053
0.04068110138177872,0.004290228243917227,-0.02270512282848358,0.019886838272213936,-0.0008195382542908192,-0.016510995104908943
0.04051078110933304,0.004519060254096985,-0.02310696616768837,0.02034042216837406,-0.001019724877551198,-0.016695940867066383
0.04104149341583252,0.004733852110803127,-0.023143671452999115,0.019967829808592796,-0.0010320424335077405,-0.016570337116718292
0.04045110568404198,0.004287677817046642,-0.023110993206501007,0.020068224519491196,-0.0010240001138299704,-0.016744282096624374
0.040766797959804535,0.004485337063670158,-0.021985353901982307,0.019876424223184586,-0.0011469644960016012,-0.016440652310848236
0.04256480932235718,0.00464618718251586,-0.02247978374361992,0.01955031231045723,-0.0011243511689826846,-0.016757627949118614
0.03940318524837494,0.004616657271981239,-0.023275654762983322,0.019680935889482498,-0.0010495389578863978,-0.018073873594403267
0.04106013476848602,0.0047928160056471825,-0.02243049070239067,0.019586974754929543,-0.0009377129608765244,-0.01752721518278122
0.0415249764919281,0.004866260569542646,-0.022478578612208366,0.019882893189787865,-0.0007902835495769978,-0.016716349869966507
0.04214101657271385,0.004474447574466467,-0.023376746103167534,0.020093172788619995,-0.0007970642764121294,-0.01717694103717804
0.04218624159693718,0.004407572094351053,-0.023145094513893127,0.01973641663789749,-0.0007573385373689234,-0.01699993945658207
0.040133606642484665,0.004651439841836691,-0.023501724004745483,0.01938963122665882,-0.000720690528396517,-0.017145460471510887
0.041171006858348846,0.004245394840836525,-0.02258104830980301,0.01920849271118641,-0.0007356477435678244,-0.01718604378402233
0.0418018214404583,0.004456964321434498,-0.02222900651395321,0.01917935535311699,-0.0007210422772914171,-0.01723608747124672
0.04141053929924965,0.004163552075624466,-0.022606467828154564,0.01934928447008133,-0.0007476414320990443,-0.017538776621222496
0.041144754737615585,0.0044554308988153934,-0.023525087162852287,0.01948089338839054,-0.0007664375589229167,-0.017390210181474686
0.04130926728248596,0.004155679605901241,-0.02339673601090908,0.019759375602006912,-0.0007815883145667613,-0.017719270661473274
0.041657768189907074,0.004244286101311445,-0.022904425859451294,0.01983950473368168,-0.0010757828131318092,-0.01762518845498562
0.04170867055654526,0.004067857284098864,-0.022591477259993553,0.020059434697031975,-0.0010840495815500617,-0.01727217622101307
0.04146179184317589,0.004338280763477087,-0.022943241521716118,0.020183900371193886,-0.0010682344436645508,-0.017573053017258644
0.04127570241689682,0.004553382750600576,-0.023094581440091133,0.019839510321617126,-0.001151281874626875,-0.01786361075937748
0.04127570241689682,0.004553382750600576,-0.023094581440091133,0.019839510321617126,-0.001151281874626875,-0.01786361075937748
0.04174473136663437,0.004408371169120073,-0.023087775334715843,0.019933441653847694,-0.001123531605117023,-0.017854735255241394
0.042026814073324203,0.004558291286230087,-0.022918574512004852,0.02010965533554554,-0.0010747944470494986,-0.018124083057045937
0.04191507771611214,0.004258838482201099,-0.022751040756702423,0.01988035999238491,-0.0009338466334156692,-0.01702449843287468
0.042023323476314545,0.004392758943140507,-0.02298811636865139,0.020097441971302032,-0.0008695951546542346,-0.017025934532284737
0.04209063947200775,0.004483358934521675,-0.023423511534929276,0.020042575895786285,-0.0008197984425351024,-0.016909580677747726
0.04220958426594734,0.004483713768422604,-0.023411786183714867,0.019888391718268394,-0.0007388006197288632,-0.01684659533202648
0.04204917699098587,0.004283207003027201,-0.022980524227023125,0.020031724125146866,-0.0005937785608693957,-0.017961997538805008
0.04270722717046738,0.004248224664479494,-0.023099059239029884,0.020386837422847748,-0.000598830811213702,-0.017767932265996933
0.042980391532182693,0.004017991479486227,-0.023291271179914474,0.020193954929709435,-0.0005848231958225369,-0.017921509221196175
0.04280368983745575,0.00393607746809721,-0.023565368726849556,0.02063242718577385,-0.000603827997110784,-0.0179755799472332
0.043191660195589066,0.004237736575305462,-0.023851651698350906,0.020682107657194138,-0.0006734399939887226,-0.018024761229753494
0.04445439577102661,0.00410878611728549,-0.023654824122786522,0.0203689057379961,-0.000740784511435777,-0.017865410074591637
0.04309333488345146,0.0038069000001996756,-0.02336994558572769,0.02093222551047802,-0.0007641587872058153,-0.01778409443795681
0.042511794716119766,0.004259723704308271,-0.023632189258933067,0.021187126636505127,-0.0007299903081730008,-0.01805473119020462
0.0428435243666172,0.004216421395540237,-0.02399086393415928,0.021063389256596565,-0.0007443924550898373,-0.01794520579278469
0.04377923160791397,0.0039251940324902534,-0.024070799350738525,0.020956983789801598,-0.0008119491976685822,-0.017843415960669518
0.04468642920255661,0.004143317695707083,-0.02349214255809784,0.02205514907836914,-0.0008537177927792072,-0.017986582592129707
0.042675744742155075,0.004221938084810972,-0.023599747568368912,0.021975738927721977,-0.0008706431253813207,-0.017916209995746613
0.042872533202171326,0.004577975254505873,-0.023916106671094894,0.020938469097018242,-0.0008748521795496345,-0.018114319071173668
