davideferrari95/blind_handover_controller/data/Test 111 - [2024-02-07 -- 16-26-12]/joint_states_data.csv
shoulder_pan_joint,shoulder_lift_joint,elbow_joint,wrist_1_joint,wrist_2_joint,wrist_3_joint
0.004991455469280481,0.008851369842886925,-0.010899531655013561,0.0036533952224999666,0.0,0.004859385080635548
0.004991455469280481,0.008851369842886925,-0.010899531655013561,0.0036533952224999666,0.0,0.004859385080635548
0.004933304153382778,0.009051557630300522,-0.011235391721129417,0.004242434166371822,0.0,0.0047738999128341675
0.00522570637986064,0.00862073339521885,-0.011306016705930233,0.004368006717413664,0.0,0.004714617505669594
0.0049118772149086,0.008639184758067131,-0.010621736757457256,0.004033572506159544,0.0,0.004869341384619474
0.0047157155349850655,0.008608759380877018,-0.01074154395610094,0.00378018687479198,0.0,0.004864888731390238
0.004949252121150494,0.008796745911240578,-0.010341755114495754,0.00417184317484498,0.0,0.004740065895020962
0.005100321024656296,0.008719292469322681,-0.01022404059767723,0.00417407276108861,0.0,0.005167955998331308
0.005082726012915373,0.00895825494080782,-0.010283523239195347,0.0037821123842149973,0.0,0.005284016486257315
0.004815417341887951,0.009277550503611565,-0.010222155600786209,0.003507723333314061,0.0,0.004958688747137785
0.004754060413688421,0.008888420648872852,-0.010914715938270092,0.00364825502038002,0.0,0.004711446352303028
0.0047212569043040276,0.008522498421370983,-0.01011459156870842,0.003859752556309104,0.0,0.004265004303306341
0.0050464291125535965,0.009510216303169727,-0.009587477892637253,0.003908638376742601,0.0,0.004483524709939957
0.0050464291125535965,0.009510216303169727,-0.009587477892637253,0.003908638376742601,0.0,0.004483524709939957
0.005023091100156307,0.009107730351388454,-0.010318699292838573,0.003340424969792366,0.0,0.0048292651772499084
0.004703298676759005,0.008641397580504417,-0.010365217924118042,0.0029681106097996235,0.0,0.005054038483649492
0.004682411905378103,0.009142762050032616,-0.011128111742436886,0.00301003223285079,0.0,0.004869663622230291
0.00504097156226635,0.008640618063509464,-0.01013755239546299,0.003382885828614235,0.0,0.004468478728085756
0.005034246481955051,0.008088070899248123,-0.009911321103572845,0.0032696605194360018,0.0,0.004326788708567619
0.004935788456350565,0.008845144882798195,-0.010272656567394733,0.0032057773787528276,0.0,0.004188657272607088
0.004806096665561199,0.00871350709348917,-0.010483160614967346,0.0029162964783608913,0.0,0.004907490219920874
0.004937676712870598,0.008285229094326496,-0.009954549372196198,0.0028816054109483957,0.0,0.0052331313490867615
0.004944784566760063,0.008348037488758564,-0.00992510188370943,0.0028564375825226307,0.0,0.004793607164174318
0.004704104270786047,0.008905504830181599,-0.00990979839116335,0.0027251681312918663,0.0,0.004424761980772018
0.004698367789387703,0.008126147091388702,-0.010793176479637623,0.0026996878441423178,0.0,0.004784769378602505
0.0049278452061116695,0.0081607885658741,-0.011055969633162022,0.0028063547797501087,0.0,0.004712014924734831
0.004933913238346577,0.008802673779428005,-0.0100230248644948,0.002767031081020832,0.0,0.004471568390727043
0.004999794531613588,0.007849261164665222,-0.010312143713235855,0.003006981685757637,0.0,0.004442272707819939
0.004867127165198326,0.008201143704354763,-0.010382276959717274,0.003204542212188244,0.0,0.00458088843151927
0.004928392358124256,0.008057580329477787,-0.010106311179697514,0.0036090866196900606,0.0,0.004684201441705227
0.00477915583178401,0.00845725741237402,-0.010900860652327538,0.0033583887852728367,0.0,0.004696418531239033
0.005359239876270294,0.007868590764701366,-0.010686106979846954,0.003275930881500244,0.0,0.004717809613794088
0.005289820022881031,0.008021560497581959,-0.009735841304063797,0.0033034244552254677,0.0,0.004590436816215515
0.004916579462587833,0.008370471186935902,-0.01070091500878334,0.003555209841579199,0.0,0.0045708860270679
0.005112641956657171,0.008124709129333496,-0.01017537247389555,0.00338550703600049,0.0,0.004835700616240501
0.005004944279789925,0.007924087345600128,-0.01012338511645794,0.003125471528619528,0.0,0.004732709378004074
0.004807532299309969,0.007568058557808399,-0.01029887329787016,0.002786692464724183,0.0,0.00438857264816761
0.00462183216586709,0.008164860308170319,-0.010630487464368343,0.002849406562745571,0.0,0.004735898692160845
0.004620089195668697,0.008131923153996468,-0.011488677002489567,0.0029508820734918118,0.0,0.0044952197931706905
0.004566892050206661,0.007951930165290833,-0.011347576044499874,0.0034436602145433426,0.0,0.0045082224532961845
0.00467689661309123,0.00814604852348566,-0.010219228453934193,0.003288355888798833,0.0,0.004485992714762688
0.004958528559654951,0.008080431260168552,-0.010931024327874184,0.003077097237110138,0.0,0.004587025847285986
0.004560001194477081,0.007138489279896021,-0.009884095750749111,0.0028043247293680906,0.0,0.003992958460003138
0.004625061992555857,0.008260127156972885,-0.010413788259029388,0.0028119145426899195,0.0,0.004136920440942049
0.004625061992555857,0.008260127156972885,-0.010413788259029388,0.0028119145426899195,0.0,0.004136920440942049
0.004749958869069815,0.007832049392163754,-0.010741710662841797,0.0026854523457586765,0.0,0.004738521296530962
0.004613275174051523,0.006806112825870514,-0.011200283654034138,0.0026463873218744993,0.0,0.005408605094999075
0.004562253598123789,0.006833414081484079,-0.010579613968729973,0.002735947025939822,0.0,0.005121876485645771
0.0046274662017822266,0.007344219833612442,-0.010530561208724976,0.0028865032363682985,0.0,0.004823893774300814
0.004694703035056591,0.007385560777038336,-0.011104240082204342,0.0030240064952522516,0.0,0.004347732290625572
0.004669668152928352,0.007023804821074009,-0.01099412515759468,0.003136412939056754,0.0,0.004481584299355745
0.00512322410941124,0.007250848226249218,-0.01062367856502533,0.003070426406338811,0.0,0.004693973809480667
0.004677492659538984,0.007669411133974791,-0.010702955536544323,0.00293352291919291,0.0,0.004339858889579773
0.005003169644623995,0.008345785550773144,-0.010623768903315067,0.0027317781932651997,0.0,0.004010228905826807
0.005020916927605867,0.007889026775956154,-0.010383740067481995,0.0027758379001170397,0.0,0.004199110437184572
0.004660603124648333,0.007076903246343136,-0.010838140733540058,0.0028896464500576258,0.0,0.004597797058522701
0.0048428126610815525,0.008028920739889145,-0.010368523187935352,0.002652540570124984,0.0,0.0046162777580320835
0.005356224253773689,0.007841142825782299,-0.010375368408858776,0.0027395153883844614,0.0,0.004429961089044809
0.004962589591741562,0.007406462449580431,-0.010723168030381203,0.0029934144113212824,0.0,0.0044845291413366795
0.004907366819679737,0.007379462011158466,-0.010122615844011307,0.0031986325047910213,0.0,0.0042107924818992615
0.004845464136451483,0.008409855887293816,-0.010648895055055618,0.0034135763999074697,0.0,0.004247708711773157
0.004778340924531221,0.008063474670052528,-0.009727874770760536,0.0036529533099383116,0.0,0.004069271497428417
0.0046789199113845825,0.007606009487062693,-0.010671223513782024,0.0033287128899246454,0.0,0.004254933446645737
0.004799192305654287,0.00755124120041728,-0.011116750538349152,0.003082983661442995,0.0,0.004152408801019192
0.00516018969938159,0.008097763173282146,-0.009964387863874435,0.0031925539951771498,0.0,0.004473755601793528
0.004930822178721428,0.007692061830312014,-0.009564920328557491,0.003234155010432005,0.0,0.004682803060859442
0.005008041858673096,0.007736266124993563,-0.010618611238896847,0.0030728301499038935,0.0,0.004356655292212963
0.004806132521480322,0.0074739898554980755,-0.010998054407536983,0.002917839679867029,0.0,0.003989027347415686
0.005144686438143253,0.007640660274773836,-0.01090396847575903,0.0027751268353313208,0.0,0.003945867531001568
0.0052324621938169,0.008008440025150776,-0.010697230696678162,0.0027123205363750458,0.0,0.003942290786653757
0.004882073495537043,0.008283019065856934,-0.009903864935040474,0.0026906055863946676,0.0,0.004410641733556986
0.004916808567941189,0.007979266345500946,-0.010478337295353413,0.0027329162694513798,0.0,0.004859010223299265
0.004916808567941189,0.007979266345500946,-0.010478337295353413,0.0027329162694513798,0.0,0.004859010223299265
0.005214556585997343,0.007798252161592245,-0.010048127733170986,0.0025610271841287613,0.0,0.004824922885745764
0.005001508165150881,0.007329887710511684,-0.01113892812281847,0.002448024693876505,0.0,0.0042933514341712
0.0055860658176243305,0.007556252181529999,-0.010464013554155827,0.002573418663814664,0.0,0.0038687202613800764
0.0052526588551700115,0.007875777781009674,-0.009548891335725784,0.002812649356201291,0.0,0.003918739035725594
0.0053701624274253845,0.007523121777921915,-0.01030540931969881,0.0029311871621757746,0.0,0.004005919676274061
0.005642200354486704,0.008122870698571205,-0.010515752248466015,0.0028835823759436607,0.0,0.004431966692209244
0.005091622471809387,0.007897978648543358,-0.009657509624958038,0.0028619347140192986,0.0,0.004313616547733545
0.005198781378567219,0.007438783533871174,-0.009966108947992325,0.002815444953739643,0.0,0.004429434426128864
0.00514681451022625,0.00803801603615284,-0.010062693618237972,0.002776541979983449,0.0,0.004176422022283077
0.005356035195291042,0.007864817976951599,-0.010218094103038311,0.002673550508916378,0.0,0.004178713075816631
0.005639892537146807,0.00819107610732317,-0.010165219195187092,0.002819600747898221,0.0,0.004241371992975473
0.005158227402716875,0.008020705543458462,-0.009820017032325268,0.002933086361736059,0.0,0.004069548565894365
0.0051034120842814445,0.0076903305016458035,-0.00968965608626604,0.0029424866661429405,0.0,0.003906684927642345
0.00554903969168663,0.007554908748716116,-0.010042964480817318,0.002720726653933525,0.0,0.004095838405191898
0.005472412332892418,0.008703685365617275,-0.01047546323388815,0.002505871932953596,0.0,0.004083811771124601
0.005112261511385441,0.007971040904521942,-0.009799348190426826,0.0025281510315835476,0.0,0.004361736122518778
0.005670766346156597,0.007825437001883984,-0.009911131113767624,0.0024525655899196863,0.0,0.004182484932243824
0.00533875310793519,0.008008286356925964,-0.010586266405880451,0.0026559759862720966,0.0,0.00394949596375227
0.005299102049320936,0.008051145821809769,-0.009409989230334759,0.0028045838698744774,0.0,0.003841784317046404
0.005299102049320936,0.008051145821809769,-0.009409989230334759,0.0028045838698744774,0.0,0.003841784317046404
0.005522140767425299,0.00754221947863698,-0.009986885823309422,0.0030719712376594543,0.0,0.0038383903447538614
0.005335983820259571,0.007879987359046936,-0.010058552026748657,0.0028297335375100374,0.0,0.00426880968734622
0.005335983820259571,0.007879987359046936,-0.010058552026748657,0.0028297335375100374,0.0,0.00426880968734622
0.005592672619968653,0.007458223961293697,-0.009176293388009071,0.002658362500369549,0.0,0.00388910504989326
0.005630950443446636,0.008087903261184692,-0.00972716324031353,0.0029054353944957256,0.0,0.0038150371983647346
0.005630950443446636,0.008087903261184692,-0.00972716324031353,0.0029054353944957256,0.0,0.0038150371983647346
0.005178580991923809,0.008066062815487385,-0.009660724550485611,0.0029325829818844795,0.0,0.003840211546048522
0.005241660866886377,0.007720259018242359,-0.009391971863806248,0.00290502468124032,0.0,0.003920596558600664
0.005377729423344135,0.007680617738515139,-0.01017079409211874,0.0029586446471512318,0.0,0.0037562770303338766
0.005606642924249172,0.008248708210885525,-0.009143763221800327,0.0031484959181398153,0.0,0.003581115510314703
0.005248112138360739,0.00791566539555788,-0.00886416807770729,0.003082544542849064,0.0,0.00403440510854125
0.005169709213078022,0.0075533948838710785,-0.010060412809252739,0.002904582070186734,0.0,0.0042237788438797
0.0053734867833554745,0.00762968510389328,-0.009395095519721508,0.0028079969342797995,0.0,0.0044542280957102776
0.005187504459172487,0.008113523945212364,-0.009115573950111866,0.002807132201269269,0.0,0.004009021446108818
0.005328167229890823,0.007768181152641773,-0.00967479683458805,0.0028541155625134706,0.0,0.00361522170715034
0.005311054643243551,0.007426547352224588,-0.00997714139521122,0.0028622562531381845,0.0,0.0033933043014258146
0.005735289305448532,0.008273575454950333,-0.008983537554740906,0.002778539899736643,0.0,0.0035697652492672205
0.0052965665236115456,0.008431382477283478,-0.009721835143864155,0.00279459566809237,0.0,0.004044634755700827
0.0057398369535803795,0.007746491115540266,-0.009838766418397427,0.0026149482000619173,0.0,0.004521818831562996
0.00537702813744545,0.007645117584615946,-0.009260292164981365,0.002496074652299285,0.0,0.004678618628531694
0.00543078500777483,0.008575299754738808,-0.010053143836557865,0.0026454550679773092,0.0,0.004343585576862097
0.005710922181606293,0.008275244385004044,-0.009630712680518627,0.0028121755458414555,0.0,0.0036992174573242664
0.0059982179664075375,0.007761818822473288,-0.009121355600655079,0.0028871202375739813,0.0,0.0034469831734895706
0.0053479853086173534,0.008175809867680073,-0.009417393244802952,0.0027772774919867516,0.0,0.003635900793597102
0.005049611441791058,0.008080417290329933,-0.00989616010338068,0.002672971226274967,0.0,0.003813274437561631
0.005633584223687649,0.0077368468046188354,-0.009663060307502747,0.0025544047821313143,0.0,0.004145710729062557
0.005633584223687649,0.0077368468046188354,-0.009663060307502747,0.0025544047821313143,0.0,0.004145710729062557
0.006410927511751652,0.00748418690636754,-0.009611464105546474,0.0024870785418897867,0.0,0.004197884351015091
0.00568670779466629,0.008140590973198414,-0.009639069437980652,0.002729008672758937,0.0,0.0036205491051077843
0.005438006948679686,0.00792570412158966,-0.009725517593324184,0.0024566983338445425,0.0,0.0037264327984303236
0.005768480710685253,0.0076134949922561646,-0.010295961052179337,0.0026735125575214624,0.0,0.00393706327304244
0.005717174615710974,0.008112945593893528,-0.009966717101633549,0.002884569112211466,0.0,0.0040070414543151855
0.0056576975621283054,0.007764778565615416,-0.00915393978357315,0.0031370031647384167,0.0,0.003958502784371376
0.00549732893705368,0.007762641180306673,-0.009801271371543407,0.003233124502003193,0.0,0.003455173224210739
0.0056845443323254585,0.007398908492177725,-0.009678015485405922,0.0029357424937188625,0.0,0.0033816583454608917
0.005288190208375454,0.007540683727711439,-0.009512756019830704,0.0027202358469367027,0.0,0.0035123678389936686
0.005847705528140068,0.00741948327049613,-0.00962604396045208,0.002656749915331602,0.0,0.003734193742275238
0.005903922487050295,0.0073630851693451405,-0.00922726932913065,0.0026058938819915056,0.0,0.003592761931940913
0.006219818256795406,0.008264307864010334,-0.009090197272598743,0.003005616832524538,0.0,0.003619325812906027
0.00561383506283164,0.008572421036660671,-0.010526021011173725,0.003035944886505604,0.0,0.0037121367640793324
0.005304512567818165,0.00775099964812398,-0.0096643241122365,0.002894849516451359,0.0,0.004099835176020861
0.005537593737244606,0.007495386991649866,-0.0092765549197793,0.002715841867029667,0.0,0.0039781625382602215
0.006301118526607752,0.007584557868540287,-0.010591249912977219,0.0027668620459735394,0.0,0.003779922379180789
0.006246740464121103,0.007897225208580494,-0.009851330891251564,0.00280563160777092,0.0,0.003751800861209631
0.0055471365340054035,0.007353681139647961,-0.009632483124732971,0.0028214850462973118,0.0,0.003650170750916004
0.005155628081411123,0.007321099750697613,-0.010202045552432537,0.0027771180029958487,0.0,0.0033950351644307375
0.005621713120490313,0.00795217975974083,-0.009576965123414993,0.002841203473508358,0.0,0.0032636215910315514
0.006409608293324709,0.008247697725892067,-0.009600022807717323,0.0027876272797584534,0.0,0.003356663044542074
0.005692224483937025,0.007681533228605986,-0.010439889505505562,0.0028287628665566444,0.0,0.003658880712464452
0.0059232464991509914,0.008134507574141026,-0.009768637828528881,0.002712070243433118,0.0,0.003794233314692974
0.005538019817322493,0.008041076362133026,-0.009721098467707634,0.00267238961532712,0.0,0.0038474269676953554
0.00583166629076004,0.007972326129674911,-0.010313876904547215,0.002588247414678335,0.0,0.0034614689648151398
0.006138947792351246,0.007621574681252241,-0.010472137480974197,0.00257781776599586,0.0,0.0035814077127724886
0.0060227070935070515,0.0074961138889193535,-0.009915572591125965,0.002725195838138461,0.0,0.003693444887176156
0.0060549709014594555,0.008132894523441792,-0.010026044212281704,0.002826280426234007,0.0,0.0034373041708022356
0.0060549709014594555,0.008132894523441792,-0.010026044212281704,0.002826280426234007,0.0,0.0034373041708022356
0.0057991016656160355,0.008234184235334396,-0.009740701876580715,0.002927792025730014,0.0,0.003295465838164091
0.005623237695544958,0.007950538769364357,-0.011017014272511005,0.003234387608245015,0.0,0.0033969252835959196
0.0060469480231404305,0.007622944191098213,-0.009319868870079517,0.0028298250399529934,0.0,0.003515384392812848
0.006272619124501944,0.00801992416381836,-0.010336554609239101,0.002680383622646332,0.0,0.003309273859485984
0.00592605909332633,0.00785160344094038,-0.010111693292856216,0.0026397877372801304,0.0,0.0031504849903285503
0.0063512916676700115,0.007917121052742004,-0.009630945511162281,0.0028131562285125256,0.0,0.0029200981371104717
0.006637497339397669,0.007776268757879734,-0.009801683016121387,0.0029075071215629578,0.0,0.002906492445617914
0.006308098789304495,0.0073703136295080185,-0.009813331067562103,0.0027605737559497356,0.0,0.0028434584382921457
0.0063617234118282795,0.007276894059032202,-0.010012472979724407,0.003229769179597497,0.0,0.0030592407565563917
0.006631762254983187,0.007709510158747435,-0.010320538654923439,0.003330201841890812,0.0,0.0030349292792379856
0.006013558711856604,0.007385865319520235,-0.009657185524702072,0.0029946565628051758,0.0,0.003026113612577319
0.006219677627086639,0.006993209943175316,-0.010388080030679703,0.0027896545361727476,0.0,0.0031866945791989565
0.006644303910434246,0.007289857603609562,-0.01103109773248434,0.002615878125652671,0.0,0.003180267522111535
0.00663823913782835,0.007564793806523085,-0.00992780365049839,0.0027996357530355453,0.0,0.0032448074780404568
0.006230575032532215,0.007547349203377962,-0.009360523894429207,0.0029987203888595104,0.0,0.0032888194546103477
0.006420380435883999,0.0073312087915837765,-0.010176469571888447,0.0031486342195421457,0.0,0.0031872696708887815
0.006273139733821154,0.007332151290029287,-0.01028074324131012,0.003064650809392333,0.0,0.003072303719818592
0.005953520070761442,0.007553215138614178,-0.009582257829606533,0.002912539755925536,0.0,0.0029524913989007473
0.006251140963286161,0.00761554017663002,-0.010209660977125168,0.0029301149770617485,0.0,0.0028347307816147804
0.006377147510647774,0.006908394396305084,-0.009734878316521645,0.002985397819429636,0.0,0.002820675726979971
0.007212992757558823,0.007221248000860214,-0.009506737813353539,0.0030978366266936064,0.0,0.0031892249826341867
0.006552731618285179,0.007635126821696758,-0.010076649487018585,0.00282074767164886,0.0,0.0035907384008169174
0.006235693581402302,0.007667160127311945,-0.010639766231179237,0.00262607098557055,0.0,0.003758686827495694
0.006230879575014114,0.006597067229449749,-0.009845823980867863,0.002660735510289669,0.0,0.0033600707538425922
0.006368402857333422,0.006595737766474485,-0.009825858287513256,0.002885035937651992,0.0,0.003120626788586378
0.006368402857333422,0.006595737766474485,-0.009825858287513256,0.002885035937651992,0.0,0.003120626788586378
0.006832428276538849,0.007121899165213108,-0.010093565098941326,0.003284618491306901,0.0,0.002901514060795307
0.006527259014546871,0.00743428710848093,-0.009308990091085434,0.0031554929446429014,0.0,0.0028618897777050734
0.006720507517457008,0.007035460788756609,-0.010237411595880985,0.0029624621383845806,0.0,0.00273764762096107
0.005974261090159416,0.006766928359866142,-0.010079411789774895,0.003001958830282092,0.0,0.0029778280295431614
0.006747307255864143,0.00707660336047411,-0.010046221315860748,0.0032061857637017965,0.0,0.003483293578028679
0.006996867246925831,0.006856629624962807,-0.009838312864303589,0.002820936730131507,0.0,0.0034517296589910984
0.006147912237793207,0.00669323792681098,-0.009852751158177853,0.0028393298853188753,0.0,0.0028813297394663095
0.006250003818422556,0.007012767251580954,-0.010287769138813019,0.0028595691546797752,0.0,0.0028052828274667263
0.006914999336004257,0.007011642679572105,-0.009648703038692474,0.0030902130529284477,0.0,0.0026850781869143248
0.006913783494383097,0.007574386429041624,-0.010170608758926392,0.0031046513468027115,0.0,0.0029148655012249947
0.006746913306415081,0.006496273446828127,-0.010292883962392807,0.0030523957684636116,0.0,0.002867623697966337
0.006273273378610611,0.0063366941176354885,-0.00995195284485817,0.003061531111598015,0.0,0.002948326524347067
0.006606289651244879,0.006000699009746313,-0.009817804209887981,0.0029528040904551744,0.0,0.0030678114853799343
0.006780587136745453,0.006511526647955179,-0.010312805883586407,0.0028527204412966967,-5.339348717825487e-05,0.0030079318676143885
0.007117911241948605,0.006670023314654827,-0.00968093704432249,0.0027425619773566723,-9.338192467112094e-05,0.0029376880265772343
0.006958898156881332,0.0065818787552416325,-0.009673958644270897,0.0028094325680285692,-9.411180508323014e-05,0.0027817157097160816
0.006448410917073488,0.0068260799162089825,-0.010178728960454464,0.00272996979765594,-9.235553443431854e-05,0.002856414532288909
0.00691059697419405,0.0066843233071267605,-0.010358970612287521,0.0026598607655614614,-9.050943481270224e-05,0.002944209845736623
0.0069779143668711185,0.007097087800502777,-0.009799637831747532,0.002510878024622798,-8.872545004123822e-05,0.002911397023126483
0.006812465842813253,0.0068708620965480804,-0.009971597231924534,0.0026691907551139593,-8.701009210199118e-05,0.003221130697056651
0.0065956711769104,0.006629716604948044,-0.009821038693189621,0.002660256577655673,-0.0001001943601295352,0.0030928333289921284
0.007542627863585949,0.006456533446907997,-0.011045610532164574,0.003077478613704443,-0.00010037850006483495,0.0031107717659324408
0.006729293614625931,0.006519565358757973,-0.010349675081670284,0.0030350200831890106,-9.867789049167186e-05,0.0026659213472157717
0.006574348546564579,0.006674142088741064,-0.009362374432384968,0.003135391976684332,-9.691554441815242e-05,0.0023816919419914484
0.006675330922007561,0.006581832654774189,-0.010166041553020477,0.0030769200529903173,-9.520741150481626e-05,0.002071174094453454
0.006759722251445055,0.006932209245860577,-0.010106408968567848,0.0029578539542853832,-9.355798829346895e-05,0.0019851727411150932
0.006759722251445055,0.006932209245860577,-0.010106408968567848,0.0029578539542853832,-9.355798829346895e-05,0.0019851727411150932
0.0073698740452528,0.006887209136039019,-0.009639865718781948,0.002791092498227954,-9.196459723170847e-05,0.0020945677533745766
0.0066649336367845535,0.00681739766150713,-0.010005932301282883,0.0030626978259533644,-8.893534686649218e-05,0.00316027388907969
0.00658696424216032,0.006717996206134558,-0.00964314304292202,0.0031374292448163033,-9.467497147852555e-05,0.003146980656310916
0.007194212172180414,0.006837955676019192,-0.010197519324719906,0.0031334725208580494,-9.99660260276869e-05,0.003039152594283223
0.00735766114667058,0.0070945341140031815,-0.01017820369452238,0.0033459339756518602,-9.884124301606789e-05,0.0025058831088244915
0.007138174958527088,0.006742668803781271,-0.009821668267250061,0.003248636145144701,-9.734296327224001e-05,0.0022565240506082773
0.006907107308506966,0.007098589092493057,-0.011187788099050522,0.003279279451817274,-9.586357919033617e-05,0.0020493222400546074
0.00734841451048851,0.0067953672260046005,-0.010367941111326218,0.00320498482324183,-9.442693408345804e-05,0.002046353416517377
0.0074998014606535435,0.0068047381937503815,-0.009642110206186771,0.0030493680387735367,-9.303254046244547e-05,0.002362251514568925
0.007629119325429201,0.006780917290598154,-0.010409281589090824,0.0029655052348971367,-9.167871030513197e-05,0.002571025164797902
0.007123383693397045,0.0067517864517867565,-0.01036068145185709,0.002781054237857461,-9.995035361498594e-05,0.002537128981202841
0.007547902408987284,0.0066364421509206295,-0.009816020727157593,0.002997953211888671,-0.00010159552039112896,0.0025154275353997946
0.007467521820217371,0.007153283804655075,-0.010709092952311039,0.003341316943988204,-0.00010037876199930906,0.002266214694827795
0.007137896493077278,0.007394588086754084,-0.0105645302683115,0.003314786357805133,-9.901142766466364e-05,0.0023742420598864555
0.007371252868324518,0.006723756901919842,-0.01004656683653593,0.0034033574629575014,-9.766915172804147e-05,0.002329328330233693
0.007554192561656237,0.0066830869764089584,-0.010197912342846394,0.003656783839687705,-9.646967373555526e-05,0.0023287648800760508
0.0077979909256100655,0.006656361743807793,-0.010606658644974232,0.003824498737230897,-0.00014577832189388573,0.002465413650497794
0.007268769200891256,0.006999163422733545,-0.010156700387597084,0.003788934787735343,-0.00014452097821049392,0.0025211265310645103
0.00701512536033988,0.006806095130741596,-0.01066833920776844,0.0033716782927513123,-0.00014024054689798504,0.0024192379787564278
0.007417777553200722,0.006216859444975853,-0.01015065610408783,0.003108647186309099,-0.00013601566024590284,0.002209935337305069
0.007980067282915115,0.006458803080022335,-0.010639790445566177,0.003098768647760153,-0.00013202578702475876,0.0020271679386496544
0.00772887235507369,0.007079555187374353,-0.010296684689819813,0.0032130780164152384,-0.00012826421880163252,0.0018448118353262544
0.007479635998606682,0.007048680447041988,-0.010279669426381588,0.0034432783722877502,-0.0001247081527253613,0.0018249365966767073
0.00770781422033906,0.006122519262135029,-0.011302582919597626,0.0034588975831866264,-0.0001424140646122396,0.002062397077679634
0.00770781422033906,0.006122519262135029,-0.011302582919597626,0.0034588975831866264,-0.0001424140646122396,0.002062397077679634
0.008250691927969456,0.00633144611492753,-0.011251903139054775,0.0034074028953909874,-0.00014158101112116128,0.0020865437109023333
0.008465291932225227,0.006705442909151316,-0.01016845554113388,0.0035963377449661493,-0.00013814872363582253,0.002323086839169264
0.007918058894574642,0.0064570000395178795,-0.010173840448260307,0.003909126855432987,-0.0001314358232775703,0.001881805364973843
0.007837442681193352,0.00604213448241353,-0.010316187515854836,0.003474777564406395,-0.00012831356434617192,0.001821468467824161
0.007835501804947853,0.006283245515078306,-0.010594718158245087,0.0032291566021740437,-0.00014082316192798316,0.002094768453389406
0.00864524208009243,0.006950390059500933,-0.010222434997558594,0.003179697785526514,-0.0001425538066541776,0.0024965053889900446
0.008644293062388897,0.0070943525061011314,-0.011019017547369003,0.0033764508552849293,-0.00013971507723908871,0.0024646560195833445
0.00777481822296977,0.00687821302562952,-0.01095883920788765,0.003434152342379093,-0.00013670316548086703,0.0022520788479596376
0.007599332369863987,0.006712219677865505,-0.01073004025965929,0.0035084986593574286,-0.00013380216842051595,0.0020557763054966927
0.008150942623615265,0.006724931299686432,-0.01111700851470232,0.0036770205479115248,-0.00013101943477522582,0.001711105229333043
0.008025672286748886,0.006818389520049095,-0.01100877858698368,0.003888629376888275,-0.0001283501769648865,0.0016091290162876248
0.008135827258229256,0.006699750199913979,-0.011176524683833122,0.0035225767642259598,-0.00013911895803175867,0.0015473805833607912
0.008605406619608402,0.006568946875631809,-0.010704560205340385,0.003545992076396942,-0.0001406400988344103,0.0017443557735532522
0.008130298927426338,0.006125887390226126,-0.010687096044421196,0.003422914072871208,-0.00013821716129314154,0.0016814193222671747
0.008145655505359173,0.006483482196927071,-0.010954665951430798,0.003342107404023409,-0.0001356313150608912,0.001802612910978496
0.00805749837309122,0.00689760921522975,-0.011033141985535622,0.0035632532089948654,-0.00013312492228578776,0.001748416107147932
0.008360728621482849,0.006111495662480593,-0.010595062747597694,0.0038377034943550825,-0.00013070800923742354,0.0015344071434810758
0.008526692166924477,0.005994743667542934,-0.01129883248358965,0.003970486111938953,-0.00012837756366934627,0.0013851088006049395
0.008428611792623997,0.006369865033775568,-0.011746561154723167,0.003987992648035288,-0.000143079727422446,0.0013849601382389665
0.007905607111752033,0.006846211850643158,-0.010475610382854939,0.003950202371925116,-0.00015448853082489222,0.001298318151384592
0.008692980743944645,0.006505852099508047,-0.011078963056206703,0.003894967492669821,-0.0001503916719229892,0.001365197473205626
0.008402222767472267,0.0062666698358953,-0.011678772047162056,0.0038524542469531298,-0.00014559499686583877,0.0013618413358926773
0.00817325059324503,0.006198238115757704,-0.01179539691656828,0.003744726534932852,-0.00014103589637670666,0.0017719250172376633
0.009376644156873226,0.006184632424265146,-0.01146499440073967,0.0037497300654649734,-0.00013674989168066531,0.0019801717717200518
0.008771758526563644,0.006782288663089275,-0.011434260755777359,0.00388043699786067,-0.00013271650823298842,0.002030933741480112
0.008580157533288002,0.006599329877644777,-0.011465176939964294,0.003932392690330744,-0.00012891409278381616,0.0018189139664173126
0.008816923014819622,0.006260461639612913,-0.010962171480059624,0.0038645255845040083,-0.0001253235968761146,0.0014756579184904695
0.009256360121071339,0.00608297111466527,-0.011120795272290707,0.0037507396191358566,-0.00012192760914331302,0.0011278060264885426
0.009256360121071339,0.00608297111466527,-0.011120795272290707,0.0037507396191358566,-0.00012192760914331302,0.0011278060264885426
0.009217265993356705,0.006346036214381456,-0.011075019836425781,0.003685222938656807,-0.00011871122842421755,0.0010670783231034875
0.008610457181930542,0.006411559414118528,-0.011469544842839241,0.0036966227926313877,-0.0001352123508695513,0.0010280616115778685
0.008558804169297218,0.006045208312571049,-0.011300306767225266,0.003543859114870429,-0.000131999229779467,0.0009777258383110166
0.008432087488472462,0.006206977646797895,-0.01078367792069912,0.0036467339377850294,-0.0001288552157348022,0.001096264342777431
0.009517302736639977,0.0069131203927099705,-0.01079013105481863,0.003782125422731042,-0.00012585231161210686,0.0016689489129930735
0.008959764614701271,0.006815353408455849,-0.009883607737720013,0.004309338051825762,-0.00012298599176574498,0.0017647439381107688
0.008551186881959438,0.006227435544133186,-0.009594439528882504,0.004130367189645767,-0.00012024727038806304,0.0017811536090448499
0.00810210220515728,0.006330407690256834,-0.010932950302958488,0.003918745089322329,-0.00011762764916056767,0.0016394000267609954
0.008928332477807999,0.006793452892452478,-0.010636277496814728,0.003914988599717617,-0.00012935110135003924,0.001511882757768035
0.009049580432474613,0.006796912755817175,-0.010142534039914608,0.0035281877499073744,-0.00013117972412146628,0.0012528271181508899
0.008626117371022701,0.006391699891537428,-0.010831302031874657,0.0038616613019257784,-0.0001287933555431664,0.001120439381338656
0.009263379499316216,0.0062148976139724255,-0.010309365577995777,0.004230719991028309,-0.00012623182556126267,0.0010771462693810463
0.008893510326743126,0.00661652022972703,-0.01028453279286623,0.0044072032906115055,-0.0001237535907421261,0.0010500391945242882
0.008811304345726967,0.006970234215259552,-0.010331242345273495,0.0043245465494692326,-0.00012136934674344957,0.0010065872920677066
0.009040557779371738,0.006534097716212273,-0.010764063335955143,0.004043088294565678,-0.0001190754264825955,0.0010243913857266307
0.01000998541712761,0.006258049048483372,-0.009344254620373249,0.00379442167468369,-0.0001168665403383784,0.0010862997733056545
0.008770118467509747,0.006126880180090666,-0.011832967400550842,0.004052658565342426,-0.00012690215953625739,0.0011665852507576346
0.009275651536881924,0.006033496465533972,-0.01049894280731678,0.00403717253357172,-0.00012850775965489447,0.0012358565581962466
0.00917679164558649,0.006858108099550009,-0.010718273930251598,0.004427922889590263,-0.00012650276767089963,0.0011800458887591958
0.009199326857924461,0.006658017169684172,-0.010900936089456081,0.004741868004202843,-0.0001243346050614491,0.0011353022418916225
0.009199326857924461,0.006658017169684172,-0.010900936089456081,0.004741868004202843,-0.0001243346050614491,0.0011353022418916225
0.010309997946023941,0.0062476457096636295,-0.011534457094967365,0.004549819510430098,-0.00012018485722364858,0.0008725212537683547
0.009404487907886505,0.006579000968486071,-0.01039694994688034,0.004294384270906448,-0.00013126734120305628,0.0007338483119383454
0.009404487907886505,0.006579000968486071,-0.01039694994688034,0.004294384270906448,-0.00013126734120305628,0.0007338483119383454
0.00949089601635933,0.006715310271829367,-0.011025840416550636,0.0040061757899820805,-0.00013178821245674044,0.0007388108060695231
0.009673836641013622,0.006573499646037817,-0.011589846573770046,0.0038005171809345484,-0.0001283152523683384,0.0007154727354645729
0.009011143818497658,0.006393935531377792,-0.010603991337120533,0.004082936327904463,-0.00012141044135205448,0.0007034200825728476
0.009576866403222084,0.006850235164165497,-0.010572277940809727,0.003970715217292309,-0.0001182205232908018,0.0006512820837087929
0.00999055989086628,0.006572399288415909,-0.010236302390694618,0.004344390705227852,-0.00012651103315874934,0.0007335025584325194
0.009483624249696732,0.006669446360319853,-0.010712847113609314,0.004190295469015837,-0.00013401720207184553,0.0007557597709819674
0.009378128685057163,0.0066540418192744255,-0.010391990654170513,0.0040442426688969135,-0.0001314500841544941,0.0009513589320704341
0.009627164341509342,0.006476158741861582,-0.011018343269824982,0.003928007557988167,-0.0001283704914385453,0.001100065652281046
0.00957680493593216,0.0063049984164536,-0.010913035832345486,0.004141052253544331,-0.00012539252929855138,0.0009596573654562235
0.010176559910178185,0.006525256671011448,-0.010282612405717373,0.004646511748433113,-0.00012254700413905084,0.0008175199036486447
0.010095659643411636,0.006662071216851473,-0.010941619984805584,0.005389511119574308,-0.00013717554975301027,0.0007099374779500067
0.009469200856983662,0.0066244094632565975,-0.010603873990476131,0.005173929035663605,-0.00013659274554811418,0.0006272830651141703
0.009816898964345455,0.00672309473156929,-0.010668149217963219,0.004881657660007477,-0.00013384694466367364,0.0006069302908144891
0.010044869966804981,0.006455977447330952,-0.010888548567891121,0.005001695826649666,-0.00013107214181218296,0.000590501178521663
0.009780189953744411,0.0068077645264565945,-0.010698597878217697,0.0051194606348872185,-0.00012840139970649034,0.0005422855610959232
0.010242334567010403,0.006855273153632879,-0.011112503707408905,0.004946785047650337,-0.00012583672651089728,0.0004994333139620721
0.009792924858629704,0.0073975143022835255,-0.0110960453748703,0.004843016620725393,-0.00012337251973804086,0.0005112997605465353
0.009369275532662868,0.0067201475612819195,-0.010587227530777454,0.005167115014046431,-0.00012100292224204168,0.0004914830788038671
0.010141460224986076,0.006579380948096514,-0.010966533794999123,0.004781302995979786,-0.00011872258619405329,0.0004609891038853675
0.00992895569652319,0.006521419622004032,-0.01080070436000824,0.004618545528501272,-0.0001288796920562163,0.0004344153276178986
0.010073494166135788,0.006834794767200947,-0.011026237159967422,0.004484177101403475,-0.0001304744218941778,0.00032443099189549685
0.009955220855772495,0.007449992001056671,-0.011318441480398178,0.004470907151699066,-0.00012840413546655327,0.0002977770345751196
0.009870663285255432,0.006975529249757528,-0.010636973194777966,0.004834091756492853,-0.0001261707511730492,0.0002789664431475103
0.010072771459817886,0.006294923834502697,-0.010942606255412102,0.00491902744397521,-0.00012399893603287637,0.00030808872543275356
0.009963243268430233,0.006353592034429312,-0.011028215289115906,0.005172280594706535,-0.00012189972039777786,0.0002973305236082524
0.009889061562716961,0.007127177435904741,-0.0108643202111125,0.005056856665760279,-0.00011987028847215697,0.00028219589148648083
0.010026436299085617,0.0062659624963998795,-0.011553666554391384,0.004781287629157305,-0.00011790722783189267,0.0003069047525059432
0.010026436299085617,0.0062659624963998795,-0.011553666554391384,0.004781287629157305,-0.00011790722783189267,0.0003069047525059432
0.009904560633003712,0.005996124353259802,-0.011215846985578537,0.004735990893095732,-0.00014346014359034598,0.00029770215041935444
0.009901032783091068,0.006549931596964598,-0.010963761247694492,0.004799237474799156,-0.00014771765563637018,0.0002845984126906842
0.009871752001345158,0.006801547482609749,-0.010945599526166916,0.0048164608888328075,-0.00014358971384353936,0.00027231607236899436
0.009985137730836868,0.006151474546641111,-0.011042520403862,0.0048974924720823765,-0.0001350125385215506,0.00028628602740354836
0.010019177570939064,0.005973680876195431,-0.011332320980727673,0.00446962658315897,-0.0001310795923927799,0.0002754782617557794
0.010313518345355988,0.006361872889101505,-0.010542050004005432,0.00448148837313056,-0.00012736917415168136,0.0002653347619343549
0.010823089629411697,0.00664130412042141,-0.011157904751598835,0.004572208039462566,-0.0001238630648003891,0.0002962563303299248
0.009637472219765186,0.006497047375887632,-0.01094374991953373,0.005082572344690561,-0.00012054482795065269,0.0002838897053152323
0.01035380084067583,0.006781592033803463,-0.01067571435123682,0.005136549938470125,-0.00012893207895103842,0.0002674265415407717
0.010243630968034267,0.00612596282735467,-0.011052905581891537,0.004954763688147068,-0.00013651758490595967,0.00025244452990591526
0.010427943430840969,0.006092732306569815,-0.010851484723389149,0.005186726339161396,-0.00013384221529122442,0.00023903264082036912
0.010056670755147934,0.006770980078727007,-0.011162284761667252,0.005169641692191362,-0.00013065004895906895,0.00022697150416206568
0.009891065768897533,0.006581757217645645,-0.01135990396142006,0.005392864346504211,-0.00013801577733829618,0.0002160704170819372
0.010044259950518608,0.005742504261434078,-0.010937660001218319,0.0056726448237895966,-0.0001446871174266562,0.0002061683189822361
0.010971207171678543,0.0063255359418690205,-0.011001084931194782,0.005577103700488806,-0.00014206748164724559,0.00019713524670805782
0.010039926506578922,0.006855445448309183,-0.01020736526697874,0.005537013988941908,-0.00013897517055738717,0.0001888595725176856
0.00975063256919384,0.00649932399392128,-0.010703003033995628,0.00473222229629755,-0.0001359782909275964,0.00018125078349839896
0.010017307475209236,0.00637863902375102,-0.011280756443738937,0.004531518556177616,-0.00014962471323087811,0.00017423216195311397
0.009805992245674133,0.006362515036016703,-0.011037505231797695,0.005120868794620037,-0.00014880976232234389,0.00016773672541603446
0.010277249850332737,0.005932693835347891,-0.011920676566660404,0.005250897724181414,-0.00014594233653042465,0.00016170802700798959
0.010041999630630016,0.006383182015269995,-0.01157037541270256,0.005088068079203367,-0.0002011387696256861,0.0001269900967599824
0.009764653630554676,0.00653797434642911,-0.011217501945793629,0.005308648105710745,-0.0002004991110879928,0.00012082938337698579
0.010922631248831749,0.006350734271109104,-0.011581950820982456,0.005061432719230652,-0.00019246719602961093,0.00011678504961309955
0.010109403170645237,0.006057351361960173,-0.010773100890219212,0.00502636656165123,-0.00018460505816619843,0.00011310733680147678
0.009753523394465446,0.006039175670593977,-0.011082245968282223,0.005341529846191406,-0.00021038659906480461,0.00010966096306219697
0.009753523394465446,0.006039175670593977,-0.011082245968282223,0.005341529846191406,-0.00021038659906480461,0.00010966096306219697
0.010613938793540001,0.0062038167379796505,-0.01084301806986332,0.0053098686039447784,-0.0001972390164155513,0.00010336332343285903
0.010613938793540001,0.0062038167379796505,-0.01084301806986332,0.0053098686039447784,-0.0001972390164155513,0.00010336332343285903
0.00990272406488657,0.0060210758820176125,-0.011308829300105572,0.005461771972477436,-0.00020583593868650496,7.704591553192586e-05
0.010208677500486374,0.006101347040385008,-0.01129149366170168,0.005260913632810116,-0.00020732521079480648,7.138152432162315e-05
0.010208677500486374,0.006101347040385008,-0.01129149366170168,0.005260913632810116,-0.00020732521079480648,7.138152432162315e-05
0.010498352348804474,0.00615753373131156,-0.011037839576601982,0.005869161803275347,-0.00019458163296803832,6.791697524022311e-05
0.010666623711585999,0.006346588023006916,-0.011692426167428493,0.005728501360863447,-0.00018875146633945405,-5.8768466260517016e-05
0.010008007287979126,0.0063763633370399475,-0.011437163688242435,0.005545876454561949,-0.00020265144121367484,-8.891984907677397e-05
0.01074985135346651,0.006047040689736605,-0.011331457644701004,0.005315722431987524,-0.00020307670638430864,-9.398494148626924e-05
0.010171763598918915,0.006383679341524839,-0.012048570439219475,0.005712194833904505,-0.000197895904420875,-0.00010626952280290425
0.01014640647917986,0.006508848629891872,-0.011341615580022335,0.005477332975715399,-0.00019262747082393616,-0.00011683121556416154
0.01018660981208086,0.006180833093822002,-0.012353313155472279,0.00531868077814579,-0.00021927100897300988,-0.00011404533870518208
0.010042211972177029,0.0061520361341536045,-0.0122695816680789,0.0052414932288229465,-0.00023817586770746857,-0.00013459658657666296
0.010247481055557728,0.006505714729428291,-0.011982070282101631,0.0057096960954368114,-0.00022809668735135347,-0.0001338997099082917
0.010080291889607906,0.006668594665825367,-0.01217102911323309,0.006353156175464392,-0.00021721466328017414,-0.000478170724818483
0.010016363114118576,0.006060994695872068,-0.01160381454974413,0.0060988981276750565,-0.00020721797773148865,-0.0005200516316108406
0.010682943277060986,0.005963131319731474,-0.012350186705589294,0.005942148622125387,-0.00019809389777947217,-0.0005343363736756146
0.010995717719197273,0.00607641926035285,-0.011819089762866497,0.0054742321372032166,-0.00018973917758557945,-0.000527180905919522
0.010186240077018738,0.00632081413641572,-0.01215654332190752,0.005899391602724791,-0.0001820617908379063,-0.0005536219687201083
0.010484376922249794,0.006793202366679907,-0.012017560191452503,0.005920326802879572,-0.000174980828887783,-0.0007404643693007529
0.010195298120379448,0.006414164789021015,-0.011990788392722607,0.006309620104730129,-0.00016843040066305548,-0.0007897662580944598
0.01013482641428709,0.005959710106253624,-0.012490853667259216,0.005861395504325628,-0.00016235295333899558,-0.0007977373315952718
0.011202436871826649,0.006219309754669666,-0.01202703919261694,0.006023137364536524,-0.0001566986902616918,-0.000809044751804322
0.012138555757701397,0.006654059514403343,-0.012311745434999466,0.006121664308011532,-0.00015142490155994892,-0.0008444589329883456
0.012384463101625443,0.006338214501738548,-0.012742750346660614,0.006342559587210417,-0.00014649517834186554,-0.000944994215387851
0.012914215214550495,0.006069521885365248,-0.01206928864121437,0.006156361196190119,-0.0001557920768391341,-0.001008853898383677
0.01211276464164257,0.006275555118918419,-0.012368643656373024,0.005997742526233196,-0.00016410253010690212,-0.0009498588624410331
0.011901646852493286,0.006145264022052288,-0.011834668926894665,0.00579896429553628,-0.00016009002865757793,-0.0011971144704148173
0.011901646852493286,0.006145264022052288,-0.011834668926894665,0.00579896429553628,-0.00016009002865757793,-0.0011971144704148173
0.01263915654271841,0.006607712712138891,-0.011673077940940857,0.005811006762087345,-0.00015118294686544687,-0.001316229347139597
0.012470637448132038,0.006672834511846304,-0.012299483641982079,0.006062147207558155,-0.00014706583169754595,-0.0015391040360555053
0.012524924241006374,0.006301040295511484,-0.012172863818705082,0.006046885158866644,-0.00014316629676613957,-0.0017230418743565679
0.012340405024588108,0.006521193310618401,-0.011766383424401283,0.005965891294181347,-0.00013946846593171358,-0.001919114962220192
0.012487653642892838,0.0068549602292478085,-0.012366247363388538,0.006099082063883543,-0.0001359567540930584,-0.0017621811712160707
0.012640285305678844,0.006175504997372627,-0.01211349107325077,0.00658569298684597,-0.00013261775893624872,-0.0016661055851727724
0.01223689690232277,0.006062696687877178,-0.012697029858827591,0.006493070162832737,-0.000129438703879714,-0.0016202080296352506
0.012751273810863495,0.006376685108989477,-0.011839430779218674,0.006404672749340534,-0.00014606796321459115,-0.001481502316892147
0.01125298161059618,0.006688056048005819,-0.012178781442344189,0.006119216792285442,-0.00014401116641238332,-0.0015024380991235375
0.013185199350118637,0.00625788327306509,-0.012371036224067211,0.006077643018215895,-0.0001408747339155525,-0.0014653498074039817
0.013090541586279869,0.006094159558415413,-0.012050716206431389,0.006212641019374132,-0.00013779877917841077,-0.0017665732884779572
0.0127030024304986,0.006505323573946953,-0.012493704445660114,0.006022245157510042,-0.0001348494115518406,-0.0016601545503363013
0.012890290468931198,0.006262100767344236,-0.01193062961101532,0.005734088830649853,-0.00014601332077290863,-0.0017974055372178555
0.012423875741660595,0.006521959789097309,-0.01251099444925785,0.006004441063851118,-0.00014746877423021942,-0.0018203883664682508
0.01261341292411089,0.0062332735396921635,-0.012108651921153069,0.006474674213677645,-0.00014479365199804306,-0.0018452100921422243
0.012537682428956032,0.006098559591919184,-0.012187759391963482,0.006291585508733988,-0.00014195773110259324,-0.0019249757751822472
0.012962567619979382,0.006201454903930426,-0.012186871841549873,0.006265556439757347,-0.00013921414210926741,-0.002645500237122178
0.013107700273394585,0.0066263447515666485,-0.011901161633431911,0.006273484323173761,-0.0001365734206046909,-0.002986642299219966
0.013360077515244484,0.006770840846002102,-0.012650166638195515,0.006059648003429174,-0.00013403105549514294,-0.002905193017795682
0.013283767737448215,0.005918093025684357,-0.012168371118605137,0.006267939694225788,-0.000126529936096631,-0.0027466746978461742
0.013050736859440804,0.005823004525154829,-0.012143959291279316,0.006746531929820776,-0.00011866266868310049,-0.00279242149554193
0.013011304661631584,0.00583201227709651,-0.011845543049275875,0.006791273131966591,-0.00011532556527527049,-0.002737846691161394
0.013107220642268658,0.006239222828298807,-0.011935797519981861,0.006014625541865826,-0.00011242464825045317,-0.0024082784075289965
0.01338757574558258,0.006816348992288113,-0.012234607711434364,0.005814064294099808,-0.00010968313290504739,-0.0024330555461347103
0.012984506785869598,0.005959928501397371,-0.011779414489865303,0.005967114120721817,-0.00010707297769840807,-0.002612014999613166
0.01331255678087473,0.0057788752019405365,-0.012427423149347305,0.006499162875115871,-0.00010458455653861165,-0.0027830027975142
0.01276362780481577,0.005811121314764023,-0.011921281926333904,0.006734792608767748,-0.00011996443208772689,-0.002846761606633663
0.01323551032692194,0.006302462890744209,-0.012503473088145256,0.0066338200122118,-0.00011975131928920746,-0.002919819438830018
0.01323551032692194,0.006302462890744209,-0.012503473088145256,0.0066338200122118,-0.00011975131928920746,-0.002919819438830018
0.013236152939498425,0.00640476169064641,-0.01201179251074791,0.006580226588994265,-0.00011482558329589665,-0.003172449767589569
0.013194487430155277,0.006028946489095688,-0.012356099672615528,0.006790671031922102,-0.0001299250143347308,-0.0032404072117060423
0.01331182662397623,0.0057772621512413025,-0.011849689297378063,0.006604899186640978,-0.00012841745046898723,-0.003378514666110277
0.013491361401975155,0.006287730764597654,-0.012391936965286732,0.006062905769795179,-0.00012592508574016392,-0.0031337079126387835
0.013352659530937672,0.006064285058528185,-0.012305541895329952,0.006364915519952774,-0.00013878736353944987,-0.003183505265042186
0.013462739065289497,0.005995884537696838,-0.012234678491950035,0.007103096228092909,-0.00013823698100168258,-0.0030388764571398497
0.013010027818381786,0.005965199321508408,-0.012352912686765194,0.007012902293354273,-0.00013597866927739233,-0.0031319588888436556
0.013389870524406433,0.0059286803007125854,-0.011738785542547703,0.006493382155895233,-0.00025465316139161587,-0.003105439944192767
0.013355338014662266,0.006512975785881281,-0.012514269910752773,0.006554886233061552,-0.00028560846112668514,-0.003076668828725815
0.013835446909070015,0.006153215188533068,-0.01216344814747572,0.007366214878857136,-0.00028271457995288074,-0.003221551887691021
0.013461263850331306,0.0062098633497953415,-0.012135744094848633,0.007324574049562216,-0.0003112174745183438,-0.0035194093361496925
0.013632755726575851,0.005691111087799072,-0.011748741380870342,0.006944016553461552,-0.0003362566640134901,-0.0037639671936631203
0.013398276641964912,0.005901250056922436,-0.01192463282495737,0.007267470937222242,-0.0005279285833239555,-0.0035632294602692127
0.013791636563837528,0.006392075680196285,-0.012539520859718323,0.007089189253747463,-0.000637774879578501,-0.0034452953841537237
0.013916006311774254,0.0064543685875833035,-0.011515173129737377,0.007417846936732531,-0.000674714392516762,-0.0036368458531796932
0.013741590082645416,0.006052367854863405,-0.011995786800980568,0.0068804421462118626,-0.0006065240013413131,-0.0038456516340374947
0.013582879677414894,0.005952154751867056,-0.01182523649185896,0.007024018093943596,-0.0005456451908685267,-0.0034712660126388073
0.013936873525381088,0.006091378629207611,-0.012255901470780373,0.007269272115081549,-0.0005721901543438435,-0.003316430142149329
0.014163444750010967,0.006308911833912134,-0.012507773004472256,0.007026380859315395,-0.0005290974513627589,-0.0033258122857660055
0.013955102302134037,0.006388795096427202,-0.011932393535971642,0.007064200937747955,-0.0005395936314016581,-0.003857966046780348
0.013887026347219944,0.0058335307985544205,-0.012414050288498402,0.00717715872451663,-0.0005167711642570794,-0.004224116448312998
0.013819428160786629,0.005933057051151991,-0.012132499366998672,0.007485148962587118,-0.00048739934572950006,-0.004429900553077459
0.014384238049387932,0.0061299558728933334,-0.01245940662920475,0.0074981870129704475,-0.00044485321268439293,-0.004213505890220404
0.014403247274458408,0.006011373829096556,-0.012318769469857216,0.007099933456629515,-0.0004803420160897076,-0.004017431754618883
0.014320562593638897,0.006062556058168411,-0.012877555564045906,0.006879431661218405,-0.0004456082242541015,-0.003867492312565446
0.013814113102853298,0.005827872548252344,-0.01291967649012804,0.007343412842601538,-0.00047571631148457527,-0.004018906969577074
0.014194848947227001,0.004907927941530943,-0.012469890527427197,0.007570871151983738,-0.00046838089474476874,-0.003949514124542475
0.014621266163885593,0.004624984692782164,-0.012262330390512943,0.007079531438648701,-0.0004463744699023664,-0.004255753941833973
0.014621266163885593,0.004624984692782164,-0.012262330390512943,0.007079531438648701,-0.0004463744699023664,-0.004255753941833973
0.014680464752018452,0.005084599368274212,-0.012790987268090248,0.006843056995421648,-0.0004207412130199373,-0.004244111478328705
0.014824958518147469,0.005095686763525009,-0.012790793552994728,0.006867760326713324,-0.00039753163582645357,-0.004550997167825699
0.014673897996544838,0.0053617884404957294,-0.012942556291818619,0.007001188118010759,-0.00042207102524116635,-0.00415826914831996
0.014840970747172832,0.005499123129993677,-0.013007511384785175,0.007122742012143135,-0.00040080881444737315,-0.0041513461619615555
0.014550318010151386,0.00555209256708622,-0.012494338676333427,0.006931615527719259,-0.00042313020094297826,-0.004267867188900709
0.014799430966377258,0.005158149171620607,-0.012882072478532791,0.007284931838512421,-0.0004079977807123214,-0.004259915091097355
0.014572805725038052,0.004924833308905363,-0.011066058650612831,0.007547211367636919,-0.00038034794852137566,-0.004144541919231415
0.014843448996543884,0.005183767527341843,-0.013608342036604881,0.007603879552334547,-0.000410462380386889,-0.004492954351007938
0.014798669144511223,0.004947674460709095,-0.013060622848570347,0.007550456561148167,-0.00038872426375746727,-0.004714491777122021
0.014968355186283588,0.005146603565663099,-0.013016113080084324,0.007162407971918583,-0.0003663446696009487,-0.004688527900725603
0.015141669660806656,0.004905404523015022,-0.01311881747096777,0.007822468876838684,-0.0003703228139784187,-0.0043219346553087234
0.015389516018331051,0.004858963191509247,-0.013703987933695316,0.008296744897961617,-0.00037340540438890457,-0.004272197373211384
0.015093383379280567,0.004735908471047878,-0.013291005045175552,0.007836802862584591,-0.00035637704422697425,-0.004786342848092318
0.014604678377509117,0.005138027016073465,-0.013229161500930786,0.007970350794494152,-0.00033965552574954927,-0.0048175351694226265
0.015284663066267967,0.005175329744815826,-0.013286951929330826,0.007641936652362347,-0.0003525482607074082,-0.004899560008198023
0.015411138534545898,0.004920742474496365,-0.013046521693468094,0.0074721393175423145,-0.000336328346747905,-0.005043179728090763
0.0156362634152174,0.004820467438548803,-0.013385419733822346,0.007427312433719635,-0.0003135428123641759,-0.0049528758972883224
0.015229799784719944,0.005305647384375334,-0.012723076157271862,0.008001884445548058,-0.000293149147182703,-0.004787759855389595
0.015793094411492348,0.004980132915079594,-0.013361110351979733,0.007982561364769936,-0.0003019958676304668,-0.004574799910187721
0.01540458481758833,0.004776418674737215,-0.013196617364883423,0.007621740456670523,-0.00030936821713112295,-0.004751037806272507
0.016123231500387192,0.005271298345178366,-0.013707592152059078,0.007534642703831196,-0.00029412840376608074,-0.0050294240936636925
0.015500019304454327,0.0051969559863209724,-0.01310616172850132,0.008008492179214954,-0.00027903003501705825,-0.004967294633388519
0.015576723031699657,0.0058240205980837345,-0.013310916721820831,0.007995628751814365,-0.0002653234696481377,-0.004723128862679005
0.015475401654839516,0.005310253240168095,-0.013022377155721188,0.007459293119609356,-0.0002921554842032492,-0.004885438363999128
0.015660112723708153,0.00540876341983676,-0.013498526997864246,0.007379768881946802,-0.0002816519991029054,-0.004878260660916567
0.015683406963944435,0.004969595465809107,-0.012906919233500957,0.008060343563556671,-0.0002953085058834404,-0.005405176896601915
0.01612156070768833,0.005365433171391487,-0.013897905126214027,0.007696878165006638,-0.0002839599037542939,-0.005326736252754927
0.01612156070768833,0.005365433171391487,-0.013897905126214027,0.007696878165006638,-0.0002839599037542939,-0.005326736252754927
0.015899306163191795,0.005261953454464674,-0.013433133251965046,0.00815931148827076,-0.0002910253533627838,-0.005697356536984444
0.016428383067250252,0.005337048321962357,-0.013646003790199757,0.00808230135589838,-0.00029017668566666543,-0.005407507065683603
0.016058681532740593,0.005380701739341021,-0.013452775776386261,0.00779134314507246,-0.0003246437117923051,-0.005390248727053404
0.016492145135998726,0.005106848664581776,-0.013753964565694332,0.00799286924302578,-0.0003345741133671254,-0.005603864789009094
0.016061102971434593,0.00547206262126565,-0.01246665045619011,0.008955506607890129,-0.0003399539855308831,-0.005637399852275848
0.01616201177239418,0.005207280162721872,-0.013673732057213783,0.008197097107768059,-0.0003240006626583636,-0.005536708049476147
0.016361504793167114,0.0058546955697238445,-0.012926789000630379,0.007604555226862431,-0.00034637359203770757,-0.005400674883276224
0.016278916969895363,0.005306504666805267,-0.013388806022703648,0.008028377778828144,-0.0003354621585458517,-0.005827049259096384
0.01666213758289814,0.005284280050545931,-0.013038378208875656,0.00833722110837698,-0.00032085180282592773,-0.005548940505832434
0.016509339213371277,0.005070890299975872,-0.013610735535621643,0.008548125624656677,-0.00046733819181099534,-0.005719998851418495
0.016902875155210495,0.005284368991851807,-0.013162126764655113,0.007980010472238064,-0.00044492381857708097,-0.005582320969551802
0.016589349135756493,0.006032184232026339,-0.013137878850102425,0.00840347446501255,-0.000445511017460376,-0.005617337767034769
0.016717413440346718,0.005840398836880922,-0.013339576311409473,0.0092603275552392,-0.00044449171400628984,-0.005505827255547047
0.016819344833493233,0.005700075998902321,-0.013235622085630894,0.008481857366859913,-0.0004128275904804468,-0.005696054548025131
0.016442496329545975,0.005206814035773277,-0.01363463792949915,0.008079458959400654,-0.00043884539627470076,-0.0054727173410356045
0.016796736046671867,0.005376988556236029,-0.013024593703448772,0.008757799863815308,-0.0004173048655502498,-0.005825384054332972
0.016758698970079422,0.005638617090880871,-0.01380966417491436,0.008568378165364265,-0.00039183060289360583,-0.005468240473419428
0.01683744043111801,0.006120944861322641,-0.01332769263535738,0.008140366524457932,-0.0003689067962113768,-0.005601138342171907
0.017371147871017456,0.0057704332284629345,-0.013818302191793919,0.009253348223865032,-0.00034849566873162985,-0.005888044368475676
0.01712067238986492,0.0056893182918429375,-0.013176334090530872,0.008951205760240555,-0.00033022044226527214,-0.005891707725822926
0.01741930842399597,0.006147888023406267,-0.013598339632153511,0.008741095662117004,-0.000313770113280043,-0.006005177274346352
0.017214292660355568,0.0056744287721812725,-0.013507763855159283,0.009404299780726433,-0.0003197306068614125,-0.0058801984414458275
0.017482008785009384,0.0064660003408789635,-0.013770932331681252,0.00948847271502018,-0.00032467517303302884,-0.006105091422796249
0.017677463591098785,0.006103971973061562,-0.013589882291853428,0.00865109171718359,-0.0003118756285402924,-0.00642818957567215
0.017476346343755722,0.005796903278678656,-0.013832202181220055,0.008695976808667183,-0.0002990041102748364,-0.006231398321688175
0.017476346343755722,0.005796903278678656,-0.013832202181220055,0.008695976808667183,-0.0002990041102748364,-0.006231398321688175
0.017710812389850616,0.0056646778248250484,-0.013664445839822292,0.009281312115490437,-0.00028708449099212885,-0.00660725636407733
0.017626602202653885,0.006176476366817951,-0.013970336876809597,0.009126605466008186,-0.00026587891625240445,-0.006080451421439648
0.018086476251482964,0.005809296388179064,-0.014016042463481426,0.008940462954342365,-0.00025640902458690107,-0.00649303151294589
0.01811278983950615,0.005568886175751686,-0.013553778640925884,0.009392705745995045,-0.0002475902729202062,-0.0068056159652769566
0.018219774588942528,0.005543890409171581,-0.013487833552062511,0.009051507338881493,-0.00024013911024667323,-0.006733880378305912
0.01744270883500576,0.005607078783214092,-0.014108040370047092,0.009433696046471596,-0.00020131398923695087,-0.006122481543570757
0.017746010795235634,0.005768097937107086,-0.013714702799916267,0.009209872223436832,-0.00019093265291303396,-0.006234308704733849
0.018410606309771538,0.006176310125738382,-0.013943715021014214,0.00906419288367033,-0.00018304453988093883,-0.006070688366889954
0.018763361498713493,0.006221671588718891,-0.013442739844322205,0.00948793813586235,-0.00017588103946764022,-0.006406157743185759
0.018338188529014587,0.00555227417498827,-0.014166307635605335,0.0093368049710989,-0.00016926358512137085,-0.006596660707145929
0.018417850136756897,0.005927312653511763,-0.013680288568139076,0.009098856709897518,-0.0001631271734368056,-0.006411089561879635
0.018345944583415985,0.00609829556196928,-0.014356854371726513,0.009218118153512478,-0.00018677266780287027,-0.006546448450535536
0.018054336309432983,0.006295780651271343,-0.013600103557109833,0.009459344670176506,-0.00018237884796690196,-0.006697966251522303
0.018293356522917747,0.005683207418769598,-0.014248909428715706,0.009393648244440556,-0.00017654069233685732,-0.006832811050117016
0.01937911845743656,0.005653257481753826,-0.013644034042954445,0.010058925487101078,-0.00018493270908948034,-0.0069397687911987305
0.019336873665452003,0.0060637397691607475,-0.014237985014915466,0.010133333504199982,-0.00019238349341321737,-0.007023008540272713
0.019081739708781242,0.005660617258399725,-0.013774653896689415,0.009444426745176315,-0.00018751289462670684,-0.007432691752910614
0.0182765144854784,0.005922114010900259,-0.01422523707151413,0.009743671864271164,-0.00019491769489832222,-0.007494921796023846
0.019491661339998245,0.005697191227227449,-0.01391289010643959,0.010014727711677551,-0.00020145736925769597,-0.007441851310431957
0.01924138143658638,0.005575701594352722,-0.014973928220570087,0.009699568152427673,-0.0002467135200276971,-0.007439891807734966
0.018928855657577515,0.005497974809259176,-0.014215287752449512,0.009767219424247742,-0.0002788382989820093,-0.007526536472141743
0.019477296620607376,0.005695353262126446,-0.015128166414797306,0.009655117988586426,-0.00031144931563176215,-0.007677563466131687
0.01946546696126461,0.005925167351961136,-0.014139899984002113,0.009439765475690365,-0.00032504514092579484,-0.007576262578368187
0.01868155412375927,0.0060703991912305355,-0.014550591818988323,0.00998056773096323,-0.00033098968560807407,-0.007849546149373055
0.01940341852605343,0.00566061120480299,-0.014064628630876541,0.010470380075275898,-0.0003158962063025683,-0.007756963837891817
0.01947069726884365,0.005681884940713644,-0.014732561074197292,0.009069383144378662,-0.0003409415076021105,-0.008120269514620304
0.019295265898108482,0.0061253635212779045,-0.014252811670303345,0.0093091931194067,-0.00032811780693009496,-0.008259322494268417
0.019295265898108482,0.0061253635212779045,-0.014252811670303345,0.0093091931194067,-0.00032811780693009496,-0.008259322494268417
0.020043406635522842,0.00623307703062892,-0.01511166151612997,0.009791992604732513,-0.0005336437607184052,-0.0078137731179595
0.02007422037422657,0.005623175296932459,-0.014923479408025742,0.010144141502678394,-0.0005746028036810458,-0.008224288932979107
0.019964070990681648,0.005681868176907301,-0.014611567370593548,0.010792948305606842,-0.0005626592319458723,-0.008219560608267784
0.01996910758316517,0.006140199024230242,-0.015592950396239758,0.01007070206105709,-0.0005828087450936437,-0.008299654349684715
0.019956208765506744,0.0060776895843446255,-0.015247611328959465,0.010186525993049145,-0.0006526326760649681,-0.008243001066148281
0.0201296154409647,0.006112238392233849,-0.015757262706756592,0.010454602539539337,-0.0007563164108432829,-0.008230991661548615
0.020567767322063446,0.005557218566536903,-0.01534789428114891,0.0101235406473279,-0.0007794744451530278,-0.008443920873105526
0.02001679129898548,0.005800445098429918,-0.01596885174512863,0.009928141720592976,-0.0007936338079161942,-0.008128348737955093
0.020073918625712395,0.005525816697627306,-0.016057759523391724,0.01020825281739235,-0.0007461757049895823,-0.009050805121660233
0.020444395020604134,0.005908810067921877,-0.01484669093042612,0.010142005048692226,-0.0009960359893739223,-0.009416080079972744
0.02068658359348774,0.005578345153480768,-0.015772666782140732,0.010296866297721863,-0.0009581322665326297,-0.008309553377330303
0.020753880962729454,0.005578518379479647,-0.015152634121477604,0.010533644817769527,-0.0009484952315688133,-0.008694460615515709
0.020903322845697403,0.005352400243282318,-0.016034787520766258,0.009964466094970703,-0.0008890413446351886,-0.009026550687849522
0.021062711253762245,0.004873380064964294,-0.015483888797461987,0.010222628712654114,-0.0008382394444197416,-0.00900594238191843
0.02121920697391033,0.004922657739371061,-0.016093600541353226,0.010082019492983818,-0.0007498016348108649,-0.008903304114937782
0.020742066204547882,0.004884778056293726,-0.015787577256560326,0.010422058403491974,-0.0007388977101072669,-0.008594761602580547
0.02123948186635971,0.00508855888620019,-0.015806427225470543,0.010857225395739079,-0.0006749603198841214,-0.008869454264640808
0.021092960610985756,0.00505145825445652,-0.015061387792229652,0.011006230488419533,-0.0006944175693206489,-0.00894562341272831
0.020645858719944954,0.0048669627867639065,-0.01548939198255539,0.010424874722957611,-0.0006969087407924235,-0.009057882241904736
0.020942555740475655,0.0047637587413191795,-0.01558942161500454,0.00997636653482914,-0.000655332172755152,-0.00929256621748209
0.02142813801765442,0.005206715781241655,-0.015442155301570892,0.009677749127149582,-0.0006339646643027663,-0.009157678112387657
0.021535057574510574,0.004892167169600725,-0.015634702518582344,0.009912295266985893,-0.0006633135490119457,-0.009533163160085678
0.021148813888430595,0.004513780120760202,-0.01544673927128315,0.010370641946792603,-0.0006696035852655768,-0.009026387706398964
0.021339410915970802,0.004848425276577473,-0.016233330592513084,0.00983530655503273,-0.0006689203437417746,-0.009520565159618855
0.021998509764671326,0.004487167112529278,-0.01518271490931511,0.01014559343457222,-0.0006490089581348002,-0.00921840500086546
0.02206495776772499,0.004539971239864826,-0.015995711088180542,0.010514837689697742,-0.0006770833279006183,-0.009522119536995888
0.02174307592213154,0.0044868458062410355,-0.015359839424490929,0.00973396748304367,-0.0006588331307284534,-0.009294038638472557
0.02160554565489292,0.004705749452114105,-0.015987342223525047,0.009866585955023766,-0.0005792049923911691,-0.009479036554694176
0.02160554565489292,0.004705749452114105,-0.015987342223525047,0.009866585955023766,-0.0005792049923911691,-0.009479036554694176
0.022148778662085533,0.004252416547387838,-0.016052918508648872,0.010095173493027687,-0.0005733520374633372,-0.009800598956644535
0.022148778662085533,0.004252416547387838,-0.016052918508648872,0.010095173493027687,-0.0005733520374633372,-0.009800598956644535
0.02177164889872074,0.004326988011598587,-0.015885863453149796,0.009861357510089874,-0.0005344977253116667,-0.009633067063987255
0.020735958591103554,0.004660879261791706,-0.01655682548880577,0.009876084513962269,-0.0004932581796310842,-0.0094850342720747
0.022810133174061775,0.004785861819982529,-0.01568697765469551,0.010812790133059025,-0.0004891501739621162,-0.00981544516980648
0.022709304466843605,0.004702307749539614,-0.015939908102154732,0.010513787157833576,-0.000485195720102638,-0.008369626477360725
0.02250250242650509,0.0045027052983641624,-0.015698855742812157,0.009937025606632233,-0.0004572461184579879,-0.008210706524550915
0.022043591365218163,0.0046424283646047115,-0.016408804804086685,0.010792904533445835,-0.0004097979108337313,-0.008409598842263222
0.022600622847676277,0.004674761090427637,-0.015906019136309624,0.01075606420636177,-0.00037521313061006367,-0.00885418988764286
0.02220265194773674,0.004787696525454521,-0.016420522704720497,0.010738094337284565,-0.0003462905588094145,-0.00841051246970892
0.021515287458896637,0.004479856695979834,-0.016456756740808487,0.011617783457040787,-0.0003215245669707656,-0.008734631352126598
0.022188490256667137,0.004586370661854744,-0.016081547364592552,0.011258559301495552,-0.0003292276232969016,-0.009377282112836838
0.023089276626706123,0.005007913801819086,-0.016580047085881233,0.011953398585319519,-0.000335548393195495,-0.009481324814260006
0.022389499470591545,0.00484333373606205,-0.015737228095531464,0.011837827041745186,-0.0003175624879077077,-0.009630817919969559
0.02249991148710251,0.004467342980206013,-0.016244299709796906,0.011448746547102928,-0.0003000252472702414,-0.009640661999583244
0.023116594180464745,0.004442526027560234,-0.015954654663801193,0.011625568382441998,-0.0002842344401869923,-0.009848659858107567
0.022998113185167313,0.004617545288056135,-0.01600930653512478,0.011626984924077988,-0.0003119290340691805,-0.0094071039929986
0.022643810138106346,0.00482559809461236,-0.016346104443073273,0.012093332596123219,-0.0002998130221385509,-0.009685525670647621
0.02294296771287918,0.004886311944574118,-0.016276272013783455,0.011994440108537674,-0.00031657423824071884,-0.010367341339588165
0.02271297574043274,0.0050103929825127125,-0.016350064426660538,0.011775885708630085,-0.0003123509814031422,-0.009994409047067165
0.022643228992819786,0.004825083538889885,-0.015742022544145584,0.012120155617594719,-0.0002999582211486995,-0.009912470355629921
0.022681057453155518,0.004866735078394413,-0.016324013471603394,0.011468445882201195,-0.0002954148512799293,-0.00992830190807581
0.02345569245517254,0.004376827273517847,-0.015804873779416084,0.011871138587594032,-0.00028425027267076075,-0.009875676594674587
0.02330002374947071,0.0044602639973163605,-0.016303351148962975,0.011646650731563568,-0.0003141422930639237,-0.010029862634837627
0.023102574050426483,0.0049779764376580715,-0.01597883366048336,0.012328624725341797,-0.0003028821374755353,-0.009694831445813179
0.023101646453142166,0.004936998710036278,-0.016249507665634155,0.01168781891465187,-0.0002871861506719142,-0.010356676764786243
0.023353343829512596,0.004677043296396732,-0.016451546922326088,0.011144840158522129,-0.0003120534820482135,-0.01024830061942339
0.023486455902457237,0.005101687740534544,-0.01595142111182213,0.01142968237400055,-0.00030246120877563953,-0.01044838223606348
0.02338683232665062,0.005130122881382704,-0.016694145277142525,0.011245212517678738,-0.00028893776470795274,-0.010526780039072037
0.023432685062289238,0.005021114833652973,-0.01576075702905655,0.011091360822319984,-0.00031305974698625505,-0.010750893503427505
0.023193785920739174,0.005155546125024557,-0.01628703624010086,0.011753703467547894,-0.0004181436961516738,-0.010374798439443111
0.023193785920739174,0.005155546125024557,-0.01628703624010086,0.011753703467547894,-0.0004181436961516738,-0.010374798439443111
0.023141663521528244,0.004972290713340044,-0.016398107632994652,0.011538682505488396,-0.00045885329018346965,-0.01040082611143589
0.023872779682278633,0.004827500786632299,-0.017096323892474174,0.01154167391359806,-0.00044081403757445514,-0.010776564478874207
0.023713385686278343,0.0047431327402591705,-0.01683540642261505,0.011669009923934937,-0.00047202061978168786,-0.01108317356556654
0.023371882736682892,0.005084655713289976,-0.016809867694973946,0.012416299432516098,-0.00047376335714943707,-0.010362951084971428
0.023691648617386818,0.005446034949272871,-0.016038402915000916,0.01188947819173336,-0.00047119951341301203,-0.010469148866832256
0.02336791530251503,0.005065849516540766,-0.01686166599392891,0.01242038607597351,-0.0006465619662776589,-0.010351808741688728
0.02340785041451454,0.004820843227207661,-0.01728251948952675,0.012155108153820038,-0.0007030984270386398,-0.010303400456905365
0.024721162393689156,0.004775037057697773,-0.01696033962070942,0.012157334014773369,-0.0007068346021696925,-0.010316808708012104
0.024116646498441696,0.00482568284496665,-0.017263643443584442,0.012604453600943089,-0.0006570802652277052,-0.010870947502553463
0.024021102115511894,0.005217933561652899,-0.016805075109004974,0.0120562007650733,-0.0006754458881914616,-0.010867029428482056
0.023841943591833115,0.005500733852386475,-0.017141178250312805,0.012403846718370914,-0.0006240868824534118,-0.01086699403822422
0.024125264957547188,0.0054020509123802185,-0.01660464145243168,0.01202579215168953,-0.0006812681094743311,-0.010802127420902252
0.0238279327750206,0.0051039825193583965,-0.017052235081791878,0.012662500143051147,-0.0007032151333987713,-0.010806411504745483
0.024462567642331123,0.005020107142627239,-0.01738462597131729,0.012813718989491463,-0.0007121847593225539,-0.010620549321174622
0.02522859163582325,0.0056351968087255955,-0.017172805964946747,0.012528317980468273,-0.0006618558545596898,-0.010615605860948563
0.024868637323379517,0.005368711892515421,-0.017089897766709328,0.01251012273132801,-0.0006416650721803308,-0.010898864828050137
0.024875853210687637,0.0050538345240056515,-0.01685057207942009,0.01232573390007019,-0.0006235371110960841,-0.01121043786406517
0.02343716099858284,0.005099119618535042,-0.017475182190537453,0.012575440108776093,-0.0006454636459238827,-0.010536327958106995
0.024533545598387718,0.005041845142841339,-0.017652876675128937,0.012144370004534721,-0.0006313237827271223,-0.010572537779808044
0.025274869054555893,0.005091406870633364,-0.01748913712799549,0.012838760390877724,-0.0006098186713643372,-0.010507205501198769
0.025259774178266525,0.0049671754240989685,-0.01757378689944744,0.012877058237791061,-0.0006298099178820848,-0.010861571878194809
0.02501053363084793,0.0049646091647446156,-0.01712704449892044,0.01416946854442358,-0.0005824532127007842,-0.011577509343624115
0.025325344875454903,0.005157547537237406,-0.017556674778461456,0.012737167999148369,-0.000599507475271821,-0.011437925510108471
0.025873025879263878,0.005432582926005125,-0.017487311735749245,0.012055269442498684,-0.0006187024991959333,-0.010838345624506474
0.025873025879263878,0.005432582926005125,-0.017487311735749245,0.012055269442498684,-0.0006187024991959333,-0.010838345624506474
0.025872336700558662,0.004956996068358421,-0.0172699224203825,0.012738046236336231,-0.0006799209513701499,-0.011709687300026417
0.025194479152560234,0.005211651790887117,-0.01778550259768963,0.012422450818121433,-0.0006474722176790237,-0.011457766406238079
0.025367742404341698,0.005279574077576399,-0.017921006307005882,0.012084840796887875,-0.0006596847088076174,-0.011592492461204529
0.026375826448202133,0.005393501371145248,-0.017678065225481987,0.012850034050643444,-0.0006226041587069631,-0.011612160131335258
0.02650441788136959,0.005039496812969446,-0.016935674473643303,0.013247659429907799,-0.0006791541818529367,-0.011789201758801937
0.026097221300005913,0.004847703035920858,-0.017649367451667786,0.012927595525979996,-0.0006226369296200573,-0.011825202964246273
0.02648104354739189,0.005224024876952171,-0.017877528443932533,0.013009613379836082,-0.0006506602512672544,-0.011701835319399834
0.02642074041068554,0.0054145557805895805,-0.01769707165658474,0.012613941915333271,-0.000586674374062568,-0.011718913912773132
0.026434777304530144,0.005650690291076899,-0.01766050234436989,0.012994091026484966,-0.0006054515833966434,-0.011442942544817924
0.026425272226333618,0.005258915945887566,-0.016909681260585785,0.012376079335808754,-0.0005617536953650415,-0.01145578920841217
0.0248209610581398,0.005244857165962458,-0.017708081752061844,0.013016450218856335,-0.0005799598293378949,-0.01194668561220169
0.02719406597316265,0.005450076423585415,-0.018107043579220772,0.012619830667972565,-0.0005447561270557344,-0.011910918168723583
0.026979217305779457,0.005242886021733284,-0.017341215163469315,0.012956901453435421,-0.0005173367098905146,-0.012166177853941917
0.02684088423848152,0.0052536483854055405,-0.01770924963057041,0.012997862882912159,-0.0004751569649670273,-0.011909423395991325
0.027331121265888214,0.005467488430440426,-0.01751887984573841,0.012366728857159615,-0.0005045849247835577,-0.012224028818309307
0.027229396626353264,0.005490978714078665,-0.017769616097211838,0.012511588633060455,-0.00047068638377822936,-0.012120603583753109
0.027281027287244797,0.005145721603184938,-0.018267888575792313,0.012610170990228653,-0.00046850452781654894,-0.01221205573529005
0.02765796147286892,0.005042380653321743,-0.017605619505047798,0.013634053990244865,-0.0004657776444219053,-0.011837045662105083
0.027999835088849068,0.005603584926575422,-0.017553195357322693,0.012746687978506088,-0.0004356461577117443,-0.011945013888180256
0.027857795357704163,0.00579761853441596,-0.017392495647072792,0.012966087087988853,-0.000407581654144451,-0.011808461509644985
0.02777385525405407,0.0055993348360061646,-0.017786752432584763,0.012673687189817429,-0.0004336945712566376,-0.01170964166522026
0.027976619079709053,0.004914276767522097,-0.017588656395673752,0.01324846688657999,-0.00041217950638383627,-0.011878110468387604
0.02820507436990738,0.00495215505361557,-0.01670394279062748,0.013278926722705364,-0.00039005724829621613,-0.01179825235158205
0.028079049661755562,0.005376014858484268,-0.01775374263525009,0.013694101013243198,-0.0003980144392699003,-0.012238342314958572
0.02856788970530033,0.005057724192738533,-0.017655370756983757,0.013585926033556461,-0.00037037624861113727,-0.01224519219249487
0.02853257581591606,0.004936967045068741,-0.01778356172144413,0.014254187233746052,-0.00039280412602238357,-0.01221807673573494
0.028484268113970757,0.00459818821400404,-0.01822838932275772,0.014369449578225613,-0.0003807461471296847,-0.011909264139831066
0.028484268113970757,0.00459818821400404,-0.01822838932275772,0.014369449578225613,-0.0003807461471296847,-0.011909264139831066
0.0292578786611557,0.004411421716213226,-0.01781546324491501,0.014524015597999096,-0.0003898104769177735,-0.012404587119817734
0.029069025069475174,0.004675704520195723,-0.01772920973598957,0.014694517478346825,-0.000416389899328351,-0.012592216953635216
0.02926194854080677,0.0049213869497179985,-0.01766432449221611,0.014542702585458755,-0.0005335441092029214,-0.012840261682868004
0.02944331057369709,0.00534160528331995,-0.018326226621866226,0.014149029739201069,-0.0005947168101556599,-0.012595493346452713
0.02924894168972969,0.0050006890669465065,-0.018593331798911095,0.0135208023712039,-0.0006044236361049116,-0.012862863950431347
0.030260268598794937,0.0046934220008552074,-0.01821340247988701,0.013284213840961456,-0.000630880706012249,-0.012566770426928997
0.030553841963410378,0.004749723710119724,-0.018686568364501,0.013838937506079674,-0.0006173626170493662,-0.01261655893176794
0.027804376557469368,0.004786997567862272,-0.017914345487952232,0.013878712430596352,-0.000830946781206876,-0.012705455534160137
0.02935296855866909,0.004725887440145016,-0.01819262094795704,0.0142824063077569,-0.0009209464187733829,-0.012492628768086433
0.03043181262910366,0.00473796809092164,-0.018476340919733047,0.01380937360227108,-0.0008642723551020026,-0.012783647514879704
0.029735838994383812,0.0046602049842476845,-0.01831776648759842,0.01397677417844534,-0.0008161069708876312,-0.012578307650983334
0.02972252480685711,0.0046513695269823074,-0.019113056361675262,0.013515297323465347,-0.0007750298245809972,-0.012380233965814114
0.030566072091460228,0.004207064397633076,-0.018970955163240433,0.013677719980478287,-0.0007024001097306609,-0.01261711586266756
0.030741795897483826,0.004279102198779583,-0.017917485907673836,0.013401785865426064,-0.0006585892988368869,-0.012462356127798557
0.029717817902565002,0.004648531321436167,-0.018892236053943634,0.014006933197379112,-0.000664066756144166,-0.012664287351071835
0.028862420469522476,0.004717990756034851,-0.019232897087931633,0.013670532032847404,-0.0006144860526546836,-0.012531952001154423
0.029972445219755173,0.004782840609550476,-0.018853068351745605,0.014458643272519112,-0.0006205361569300294,-0.01248510368168354
0.030557358637452126,0.004471050575375557,-0.018470607697963715,0.014364569447934628,-0.0005838135257363319,-0.012482997961342335
0.03027837537229061,0.004055046942085028,-0.01843894273042679,0.014814341440796852,-0.000535505881998688,-0.01259941142052412
0.030046002939343452,0.004119517281651497,-0.01890556700527668,0.013819673098623753,-0.0005591189838014543,-0.012827453203499317
0.030314091593027115,0.004081631079316139,-0.01860007457435131,0.013983974233269691,-0.0005227768560871482,-0.012833070941269398
0.029618654400110245,0.004297908395528793,-0.01811698079109192,0.013702345080673695,-0.0005158731946721673,-0.01285572350025177
0.029783735051751137,0.00401340564712882,-0.01858934946358204,0.014301581308245659,-0.0005134143284521997,-0.012739906087517738
0.029791463166475296,0.004390552174299955,-0.019409220665693283,0.014170955866575241,-0.0005062230047769845,-0.01268522348254919
0.029852796345949173,0.0046320222318172455,-0.01867057941854,0.014606272801756859,-0.0005221175961196423,-0.012465632520616055
0.030087972059845924,0.004280417691916227,-0.018833260983228683,0.014309421181678772,-0.0005331239080987871,-0.01263362541794777
0.03032250516116619,0.0039649587124586105,-0.019081680104136467,0.014642342925071716,-0.0005295693990774453,-0.012967683374881744
0.030238991603255272,0.004141571931540966,-0.018517062067985535,0.014195156283676624,-0.0007338032010011375,-0.012768839485943317
0.029850976541638374,0.00463167205452919,-0.018685385584831238,0.014234021306037903,-0.0007658609538339078,-0.012864460237324238
0.029850976541638374,0.00463167205452919,-0.018685385584831238,0.014234021306037903,-0.0007658609538339078,-0.012864460237324238
0.03026345930993557,0.004437955096364021,-0.018391277641057968,0.014344132505357265,-0.0007575644413009286,-0.01315622590482235
0.030119754374027252,0.004550967365503311,-0.01874988153576851,0.014965894632041454,-0.0010317614069208503,-0.013249675743281841
0.03008570522069931,0.004392380826175213,-0.01902397722005844,0.015514289028942585,-0.0010260747512802482,-0.013519310392439365
0.030526572838425636,0.004141952842473984,-0.01858893223106861,0.015202932059764862,-0.0009139746543951333,-0.01315902266651392
0.031369589269161224,0.004487670958042145,-0.01942005194723606,0.01578168384730816,-0.000883176748175174,-0.013092128559947014
0.030876176431775093,0.004671917296946049,-0.01936456747353077,0.01524184737354517,-0.0008092444622889161,-0.013172763399779797
0.029470406472682953,0.004824877716600895,-0.018548505380749702,0.014952042140066624,-0.0007486211252398789,-0.013492169789969921
0.029677730053663254,0.004643161781132221,-0.018959105014801025,0.01432584784924984,-0.0007097746129147708,-0.013235693797469139
0.031242497265338898,0.004433850292116404,-0.01923631690442562,0.01478658802807331,-0.0006756664370186627,-0.012986164540052414
0.030611520633101463,0.004359724931418896,-0.018803082406520844,0.014473369345068932,-0.0006968768429942429,-0.013372712768614292
0.030620630830526352,0.00461367703974247,-0.01897411048412323,0.015194149687886238,-0.0006992378039285541,-0.013569905422627926
0.03122124820947647,0.004613514523953199,-0.018866965547204018,0.015013834461569786,-0.0006562322378158569,-0.013822305016219616
0.031382955610752106,0.004386184271425009,-0.018827419728040695,0.01535156648606062,-0.000607138208579272,-0.013983567245304585
0.030660729855298996,0.0044931634329259396,-0.01932010054588318,0.015108884312212467,-0.000588758965022862,-0.014081270433962345
0.03070996142923832,0.0050984774716198444,-0.019274920225143433,0.01456066407263279,-0.0006005114992149174,-0.013717913068830967
0.031120849773287773,0.004910476505756378,-0.018604638054966927,0.014847544953227043,-0.0005616367561742663,-0.013624712824821472
0.03088025376200676,0.004431704059243202,-0.019032273441553116,0.015168759040534496,-0.0005832811584696174,-0.013682343997061253
0.031074561178684235,0.004367132671177387,-0.019276540726423264,0.014681811444461346,-0.0005430091987363994,-0.013690834864974022
0.031214110553264618,0.004704629071056843,-0.01905692182481289,0.015101798810064793,-0.0005621751770377159,-0.01392468810081482
0.030887126922607422,0.004306236747652292,-0.019073760136961937,0.01482307817786932,-0.0005835411138832569,-0.01388038881123066
0.03065122477710247,0.004521073307842016,-0.018901029601693153,0.015046193264424801,-0.0006187268299981952,-0.01388169638812542
0.031269244849681854,0.004754150286316872,-0.019031858071684837,0.015166454017162323,-0.0006016558618284762,-0.01396865677088499
0.031174687668681145,0.004993651062250137,-0.01923283562064171,0.014484317973256111,-0.0005443422123789787,-0.013701386749744415
0.031155681237578392,0.004843299277126789,-0.019129082560539246,0.014667567797005177,-0.0005711566191166639,-0.014008049853146076
0.03175555542111397,0.004403950180858374,-0.018992792814970016,0.014759525656700134,-0.0005647457437589765,-0.01367971021682024
0.03192431479692459,0.004576567560434341,-0.019504155963659286,0.015397045761346817,-0.0005547592299990356,-0.013809829950332642
0.030543705448508263,0.004515484441071749,-0.018918167799711227,0.015819290652871132,-0.0005399836809374392,-0.014166133478283882
0.03251231834292412,0.004931989125907421,-0.01928756572306156,0.015606816858053207,-0.000491211365442723,-0.01384179200977087
0.0320674292743206,0.004984075669199228,-0.0193520188331604,0.016154438257217407,-0.0005197288701310754,-0.013709376566112041
0.0320674292743206,0.004984075669199228,-0.0193520188331604,0.016154438257217407,-0.0005197288701310754,-0.013709376566112041
0.03166371211409569,0.004426194354891777,-0.019338255748152733,0.01575843244791031,-0.0005225256318226457,-0.013780233450233936
0.03190271928906441,0.004376462660729885,-0.019930774345993996,0.015958698466420174,-0.000515750958584249,-0.01407531462609768
0.03207940235733986,0.004501611925661564,-0.019596822559833527,0.01615990325808525,-0.0005379440262913704,-0.014126286841928959
0.03260036185383797,0.004179378040134907,-0.01899748109281063,0.016411108896136284,-0.0005125433090142906,-0.014113050885498524
0.03248549625277519,0.004455803893506527,-0.01935005746781826,0.01686869189143181,-0.0005763027584180236,-0.01417861133813858
0.032656650990247726,0.004581957124173641,-0.0202805008739233,0.016649413853883743,-0.000607496069278568,-0.014370781369507313
0.032723523676395416,0.004371218383312225,-0.01962749846279621,0.01693323627114296,-0.0006373716751113534,-0.014197071082890034
0.032695163041353226,0.00426718033850193,-0.019627340137958527,0.015744458884000778,-0.0006300359382294118,-0.013935033231973648
0.03295327350497246,0.004459619056433439,-0.019761599600315094,0.01596146821975708,-0.000613846757914871,-0.014067194424569607
0.032979439944028854,0.0046190363354980946,-0.019327130168676376,0.015700751915574074,-0.0007920720963738859,-0.014513369649648666
0.03300947695970535,0.004782382398843765,-0.02004195749759674,0.015519923530519009,-0.000767041346989572,-0.014687084592878819
0.03292744234204292,0.004397587850689888,-0.020114094018936157,0.015492506325244904,-0.000780944770667702,-0.015038097277283669
0.03338555991649628,0.004399632569402456,-0.01968722604215145,0.015711164101958275,-0.0007872085552662611,-0.014935677871108055
0.034137994050979614,0.004459677264094353,-0.019397897645831108,0.01631021685898304,-0.0008801781223155558,-0.014766383916139603
0.03432564064860344,0.0046242414973676205,-0.020197702571749687,0.015911703929305077,-0.0008999395649880171,-0.014605028554797173
0.03244685009121895,0.00461450032889843,-0.019928710535168648,0.01624494232237339,-0.0008676430443301797,-0.014305747114121914
0.033253781497478485,0.004259258974343538,-0.020556235685944557,0.0155700808390975,-0.000813959282822907,-0.013854640536010265
0.03440986946225166,0.004405319225043058,-0.020405180752277374,0.01641021855175495,-0.0007995237247087061,-0.014272662810981274
0.034152232110500336,0.005085643380880356,-0.02015117183327675,0.016371233388781548,-0.0007405304932035506,-0.014721984043717384
0.035090647637844086,0.004581856075674295,-0.019271954894065857,0.016581876203417778,-0.0006977561861276627,-0.01490757241845131
0.03402364253997803,0.004393274430185556,-0.021862341091036797,0.01635296642780304,-0.0006735412171110511,-0.014946438372135162
0.03378351777791977,0.004315825179219246,-0.019593076780438423,0.01585271954536438,-0.0006974856369197369,-0.01480908878147602
0.03349711745977402,0.004248723387718201,-0.019500186666846275,0.016135303303599358,-0.0006726704305037856,-0.014262222684919834
0.034683577716350555,0.0042260861955583096,-0.02093270979821682,0.016015732660889626,-0.0006916238344274461,-0.014634626917541027
0.03385228291153908,0.004514168947935104,-0.01964387856423855,0.016286134719848633,-0.0006880904547870159,-0.015101234428584576
0.035010818392038345,0.004355994984507561,-0.02012552134692669,0.01661028154194355,-0.000708774896338582,-0.015127545222640038
0.03520585596561432,0.004558003041893244,-0.02064490132033825,0.016832178458571434,-0.0007171001052483916,-0.015114257112145424
0.03520585596561432,0.004558003041893244,-0.02064490132033825,0.016832178458571434,-0.0007171001052483916,-0.015114257112145424
0.03465941920876503,0.00427456758916378,-0.020151423290371895,0.01655539870262146,-0.0007118011708371341,-0.014508786611258984
0.03516083210706711,0.00406980374827981,-0.020040040835738182,0.016798723489046097,-0.0006866985349915922,-0.014405573718249798
0.03449484333395958,0.004257189575582743,-0.02043842151761055,0.016306964680552483,-0.0006877779960632324,-0.014424310065805912
0.03455015644431114,0.00445246696472168,-0.020549189299345016,0.017020709812641144,-0.0006476956186816096,-0.01530114933848381
0.035295695066452026,0.004444247577339411,-0.02006477117538452,0.017240503802895546,-0.0006748818559572101,-0.015462633222341537
0.035280000418424606,0.004298804793506861,-0.020572809502482414,0.01724766194820404,-0.0006061563617549837,-0.015471592545509338
0.034917619079351425,0.004616573918610811,-0.02076183632016182,0.01751607470214367,-0.0006296014762483537,-0.01609182544052601
0.03442750126123428,0.004367078188806772,-0.02056739665567875,0.016395358368754387,-0.0005773796583525836,-0.014742506667971611
0.03587263077497482,0.004398717544972897,-0.020457761362195015,0.016493521630764008,-0.0005994007806293666,-0.014613403007388115
0.03684128075838089,0.0045000771060585976,-0.020390495657920837,0.016270412132143974,-0.0005575565155595541,-0.015015941113233566
0.034332275390625,0.004623267333954573,-0.020391063764691353,0.01661846414208412,-0.0005411473102867603,-0.015254811383783817
0.034398458898067474,0.004358327481895685,-0.020246366038918495,0.016919557005167007,-0.0004920263891108334,-0.01559311430901289
0.035862427204847336,0.004402021877467632,-0.020284298807382584,0.01676711067557335,-0.0005264499341137707,-0.015201360918581486
0.03543046861886978,0.004336322657763958,-0.020598676055669785,0.017423750832676888,-0.0005437888903543353,-0.014971360564231873
0.03678257763385773,0.004442459903657436,-0.020560646429657936,0.017240535467863083,-0.0005177250714041293,-0.01541687361896038
0.036018550395965576,0.004580729175359011,-0.02015461027622223,0.017284801229834557,-0.0005298240575939417,-0.015367003157734871
0.03511389344930649,0.004201685078442097,-0.02032341994345188,0.017531003803014755,-0.0005120733985677361,-0.015393446199595928
0.034891363233327866,0.004324529320001602,-0.02084566280245781,0.017666611820459366,-0.0005923121352680027,-0.015108566731214523
0.0364159531891346,0.004252583719789982,-0.020081976428627968,0.018224501982331276,-0.0006306117284111679,-0.015431524254381657
0.03614289313554764,0.004017268307507038,-0.02057470753788948,0.01729004457592964,-0.0006528213270939887,-0.015322602353990078
0.03534436970949173,0.004356807563453913,-0.02080194465816021,0.017461327835917473,-0.0006019466673023999,-0.015550014562904835
0.03634563460946083,0.0041886926628649235,-0.020088860765099525,0.01722310483455658,-0.0006230570143088698,-0.01550658605992794
0.036115534603595734,0.0039632623083889484,-0.020173832774162292,0.016644319519400597,-0.0006575568113476038,-0.016014132648706436
0.03606175258755684,0.004072173032909632,-0.020423652604222298,0.01734747365117073,-0.0007027344545349479,-0.016075322404503822
0.03632219880819321,0.0038477140478789806,-0.02035556361079216,0.018019646406173706,-0.0006959373131394386,-0.01563657820224762
0.03632219880819321,0.0038477140478789806,-0.02035556361079216,0.018019646406173706,-0.0006959373131394386,-0.01563657820224762
0.03655628487467766,0.0041912333108484745,-0.02089446224272251,0.018441321328282356,-0.0006323415436781943,-0.015807881951332092
0.03663109987974167,0.0040061259642243385,-0.01989859715104103,0.017896145582199097,-0.0006075112032704055,-0.015608474612236023
0.03663109987974167,0.0040061259642243385,-0.01989859715104103,0.017896145582199097,-0.0006075112032704055,-0.015608474612236023
0.036969657987356186,0.003927495330572128,-0.020340751856565475,0.017928671091794968,-0.0006199583294801414,-0.015866387635469437
0.03666622191667557,0.004351630341261625,-0.02077735774219036,0.018469855189323425,-0.0006448570638895035,-0.0158474650233984
0.03642497584223747,0.004523511044681072,-0.02085232548415661,0.01863189972937107,-0.000587768096011132,-0.01603809744119644
0.03581664711236954,0.004357493948191404,-0.020179536193609238,0.01817048154771328,-0.0006128436652943492,-0.015744000673294067
0.03732626885175705,0.0040072230622172356,-0.020863009616732597,0.018449684605002403,-0.0006022811285220087,-0.01589713990688324
0.03744516894221306,0.003989367745816708,-0.021693164482712746,0.018615849316120148,-0.0005886384169571102,-0.015922050923109055
0.03663849085569382,0.004067413974553347,-0.021488023921847343,0.01789732277393341,-0.0006136791198514402,-0.016103772446513176
0.03705913573503494,0.003949758596718311,-0.020421400666236877,0.018289024010300636,-0.000563022680580616,-0.015789153054356575
0.037246543914079666,0.0037750951014459133,-0.02158043347299099,0.01888515241444111,-0.0005948591278865933,-0.01574130356311798
0.03693452849984169,0.004255867563188076,-0.021150603890419006,0.018639499321579933,-0.0006685609114356339,-0.015903668478131294
0.037323568016290665,0.004066173452883959,-0.020818239077925682,0.01834208145737648,-0.0006548090022988617,-0.016097918152809143
0.037498656660318375,0.004366925451904535,-0.021387090906500816,0.017973516136407852,-0.0009120370959863067,-0.01623602584004402
0.037395358085632324,0.004090233240276575,-0.021785862743854523,0.017711909487843513,-0.0008564257295802236,-0.01579190231859684
0.03701823949813843,0.004020138643682003,-0.021462013944983482,0.018683763220906258,-0.0008587106713093817,-0.016064198687672615
0.037781111896038055,0.004000270273536444,-0.020999491214752197,0.018633129075169563,-0.0008418218931183219,-0.01604224555194378
0.03880740702152252,0.003907729871571064,-0.021314116194844246,0.01867050491273403,-0.0007757527055218816,-0.015966974198818207
0.03880740702152252,0.003907729871571064,-0.021314116194844246,0.01867050491273403,-0.0007757527055218816,-0.015966974198818207
0.037869591265916824,0.0042635537683963776,-0.02166152559220791,0.01836714707314968,-0.0007610126049257815,-0.01580025814473629
0.03673947602510452,0.004209636244922876,-0.021731499582529068,0.018018869683146477,-0.0007753361715003848,-0.016198452562093735
0.03742701932787895,0.0039842622354626656,-0.021029526367783546,0.018397245556116104,-0.0007471095304936171,-0.016221970319747925
0.037572380155324936,0.003795305034145713,-0.021278848871588707,0.01857263408601284,-0.0007125698612071574,-0.01626046933233738
0.03893161937594414,0.003900789190083742,-0.021342623978853226,0.01819426380097866,-0.0007101766532287002,-0.016392260789871216
0.03763941675424576,0.0037619746290147305,-0.021294400095939636,0.018531570211052895,-0.0006660171202383935,-0.01644175685942173
0.03710726648569107,0.0037039644084870815,-0.02178768999874592,0.01821373961865902,-0.0005904102581553161,-0.01658031903207302
0.03845510259270668,0.0037489745300263166,-0.021361524239182472,0.018483618274331093,-0.0006693637114949524,-0.01635514199733734
0.03851171210408211,0.0039034702349454165,-0.021501706913113594,0.018281877040863037,-0.000696288188919425,-0.01626642234623432
0.03821061551570892,0.003895231056958437,-0.020969051867723465,0.018089452758431435,-0.0006748613668605685,-0.01592617854475975
0.038649022579193115,0.0037948153913021088,-0.021198084577918053,0.018131928518414497,-0.0007841631304472685,-0.016259800642728806
0.0382746197283268,0.003699904540553689,-0.021686218678951263,0.0179193876683712,-0.0008105491288006306,-0.016238385811448097
0.03861185535788536,0.004168775863945484,-0.021652866154909134,0.01815333031117916,-0.0008230773964896798,-0.016464190557599068
0.03840350732207298,0.004039329010993242,-0.021122729405760765,0.01817859336733818,-0.0007919581839814782,-0.017496353015303612
0.03806721046566963,0.0038727440405637026,-0.021565817296504974,0.01807384192943573,-0.0007622402627021074,-0.01630193181335926
0.03864406421780586,0.003947532270103693,-0.021528007462620735,0.01851959340274334,-0.0008819923386909068,-0.01659775897860527
0.03836905583739281,0.0040954784490168095,-0.021201927214860916,0.018268419429659843,-0.0008255827706307173,-0.017109209671616554
0.038688480854034424,0.004069156013429165,-0.020849507302045822,0.018109118565917015,-0.0008232613909058273,-0.017180943861603737
0.03978351876139641,0.003982122056186199,-0.021530603989958763,0.018525555729866028,-0.0007405447540804744,-0.01675509475171566
0.03793957829475403,0.003998016472905874,-0.021714944392442703,0.018630612641572952,-0.0007512224838137627,-0.016199558973312378
0.037539541721343994,0.004070821683853865,-0.021263593807816505,0.018635721877217293,-0.0007445933879353106,-0.016409585252404213
0.03891144320368767,0.004104861058294773,-0.021175775676965714,0.018455153331160545,-0.0007617246592417359,-0.016782421618700027
0.03840971365571022,0.004072665236890316,-0.021201711148023605,0.018620701506733894,-0.0007357015856541693,-0.0174460057169199
0.039714548736810684,0.004049520939588547,-0.021424246951937675,0.01929127424955368,-0.0007028999971225858,-0.01766263134777546
0.03922484442591667,0.004162043798714876,-0.021129615604877472,0.020056050270795822,-0.0007193718338385224,-0.017035504803061485
0.03739013895392418,0.0039707086980342865,-0.021519305184483528,0.01910930871963501,-0.0008622863097116351,-0.0171063132584095
0.03823142871260643,0.003794687567278743,-0.021477581933140755,0.01900595985352993,-0.000920201709959656,-0.017447782680392265
0.0394250713288784,0.004269957076758146,-0.021255219355225563,0.0187747310847044,-0.0009210696443915367,-0.017649441957473755
0.039070919156074524,0.0041764578782022,-0.021215049549937248,0.018318643793463707,-0.0008513822103850543,-0.01744278334081173
0.03838900849223137,0.003995881415903568,-0.021625325083732605,0.019598696380853653,-0.001075373264029622,-0.017220625653862953
0.039121128618717194,0.004297466017305851,-0.022172987461090088,0.019266709685325623,-0.0009363732533529401,-0.01678803376853466
0.039461445063352585,0.004073253367096186,-0.02238447591662407,0.018946832045912743,-0.0009191532153636217,-0.016674606129527092
0.039461445063352585,0.004073253367096186,-0.02238447591662407,0.018946832045912743,-0.0009191532153636217,-0.016674606129527092
0.039106618613004684,0.003855667542666197,-0.022182118147611618,0.01947391964495182,-0.0008367850095964968,-0.01676606945693493
0.03894399479031563,0.004053628537803888,-0.022142237052321434,0.019348839297890663,-0.000755343004129827,-0.017277171835303307
0.03944755718111992,0.0041062235832214355,-0.022977517917752266,0.02006550319492817,-0.0007610307657159865,-0.017308847978711128
0.03940901532769203,0.004332860931754112,-0.02280837669968605,0.02019141986966133,-0.0007627970771864057,-0.017288729548454285
0.0394517257809639,0.003973598126322031,-0.021476048976182938,0.019329391419887543,-0.0007036697352305055,-0.01743192970752716
0.03955177962779999,0.0038371894042938948,-0.022748233750462532,0.01886017620563507,-0.0007184899295680225,-0.017191119492053986
0.039932798594236374,0.0038409021217375994,-0.023401636630296707,0.019294273108243942,-0.0007378107984550297,-0.017310315743088722
0.03972303867340088,0.004280326422303915,-0.022938020527362823,0.01902928575873375,-0.0007417535525746644,-0.017321355640888214
0.03974924981594086,0.004220842849463224,-0.022028207778930664,0.019209643825888634,-0.0007605045102536678,-0.017235856503248215
0.040005024522542953,0.0044369990937411785,-0.021930309012532234,0.019880102947354317,-0.0007509835413657129,-0.017786063253879547
0.04034425690770149,0.004194207489490509,-0.02228035405278206,0.019716642796993256,-0.0007281647413037717,-0.01787962019443512
0.04005321487784386,0.003953318577259779,-0.022496085613965988,0.019286295399069786,-0.0009158460306935012,-0.017844341695308685
0.04002189263701439,0.003779231570661068,-0.022984178736805916,0.018821822479367256,-0.0009241056977771223,-0.01778273843228817
0.040553752332925797,0.004002496600151062,-0.022733185440301895,0.0188006404787302,-0.0009473907412029803,-0.017721282318234444
