davideferrari95/blind_handover_controller/data/Test 258 - [2024-02-08 -- 12-46-54]/joint_states_data.csv
shoulder_pan_joint,shoulder_lift_joint,elbow_joint,wrist_1_joint,wrist_2_joint,wrist_3_joint
0.005535096395760775,0.009242197498679161,-0.012650140561163425,0.004609202966094017,-0.00011169151548529044,0.0066728233359754086
0.005535096395760775,0.009242197498679161,-0.012650140561163425,0.004609202966094017,-0.00011169151548529044,0.0066728233359754086
0.005857133772224188,0.009051085449755192,-0.012377533130347729,0.00465348968282342,-0.00010976225166814402,0.006711970549076796
0.005857133772224188,0.009051085449755192,-0.012377533130347729,0.00465348968282342,-0.00010976225166814402,0.006711970549076796
0.005455485079437494,0.009446379728615284,-0.01287190243601799,0.00426510302349925,-0.00010788373037939891,0.006476064678281546
0.005534642841666937,0.00904648844152689,-0.012545785866677761,0.003955877851694822,-0.00010606741852825508,0.006328538991510868
0.005543973296880722,0.008968275040388107,-0.013293905183672905,0.004043448716402054,-0.00010431119153508916,0.006448008585721254
0.005205441266298294,0.009956276044249535,-0.012664352543652058,0.003982769791036844,-0.00010261223360430449,0.006542803253978491
0.006132050883024931,0.009089292958378792,-0.013316026888787746,0.003939465619623661,-0.00011443446419434622,0.006095091812312603
0.005548061337321997,0.008828384801745415,-0.012937691062688828,0.00428724754601717,-0.00011350891145411879,0.006140951998531818
0.0053326222114264965,0.00916801393032074,-0.012773623690009117,0.004371313843876123,-0.00011180378351127729,0.0064329043962061405
0.005054175388067961,0.009636581875383854,-0.013046519830822945,0.00431452551856637,-0.00011009785521309823,0.006331492681056261
0.005348361562937498,0.009394465945661068,-0.012567423284053802,0.004103792365640402,-0.00010845556244021282,0.006544122472405434
0.005552380811423063,0.009257418103516102,-0.013084842823445797,0.004046064801514149,-0.00013747744378633797,0.006691310554742813
0.005407313350588083,0.009217910468578339,-0.012620662339031696,0.004056334029883146,-0.00013545132242143154,0.006341379601508379
0.0057081799022853374,0.009029188193380833,-0.013423152267932892,0.004074937663972378,-0.00013162687537260354,0.006136614363640547
0.00541316531598568,0.009172297082841396,-0.012540359050035477,0.0035792151466012,-0.00012789461470674723,0.0064245001412928104
0.005310703534632921,0.00946001335978508,-0.013262825086712837,0.003889061976224184,-0.00012436066754162312,0.007046439219266176
0.005451715085655451,0.009070337750017643,-0.013112946413457394,0.004160701762884855,-0.00012101608444936574,0.006934293545782566
0.0057210177183151245,0.009080055169761181,-0.013303510844707489,0.004505811724811792,-0.00011784651724155992,0.0056867823004722595
0.0055848583579063416,0.00975125003606081,-0.01309189572930336,0.004297505132853985,-0.00011483893467811868,0.005356982350349426
0.006043551489710808,0.00926937349140644,-0.013569076545536518,0.0039854212664067745,-0.0001314294058829546,0.005642347503453493
0.0056158131919801235,0.009039896540343761,-0.013535525649785995,0.0037572048604488373,-0.00013092187873553485,0.006109218578785658
0.0053823222406208515,0.009387987665832043,-0.012922556139528751,0.003986994735896587,-0.0001279937569051981,0.006190383341163397
0.0055127511732280254,0.009291989728808403,-0.01326778158545494,0.004086394794285297,-0.00012504115875344723,0.006504335440695286
0.0055156126618385315,0.008752275258302689,-0.01293094176799059,0.00392681360244751,-0.0001222119462909177,0.006573757156729698
0.0055156126618385315,0.008752275258302689,-0.01293094176799059,0.00392681360244751,-0.0001222119462909177,0.006573757156729698
0.00552993081510067,0.00990994181483984,-0.0134302768856287,0.004137804731726646,-0.00011950720363529399,0.006510008592158556
0.005592523608356714,0.008511853404343128,-0.012830764055252075,0.0035938851069658995,-0.0001310115767410025,0.0064608328975737095
0.005856780335307121,0.008787265978753567,-0.012820852920413017,0.004059725906699896,-0.00013058095646556467,0.0065042260102927685
0.005860382225364447,0.009332673624157906,-0.013395312242209911,0.004089453257620335,-0.0001280755241168663,0.006275494582951069
0.0058412556536495686,0.008907441049814224,-0.012869478203356266,0.0042806388810276985,-0.00012553302804008126,0.00658568786457181
0.0060061062686145306,0.008518289774656296,-0.013074315153062344,0.004266695119440556,-0.00012308117584325373,0.006415640003979206
0.005453818943351507,0.009679239243268967,-0.012470154091715813,0.004089078865945339,-0.00012072274694219232,0.006011149846017361
0.005780619103461504,0.008492954075336456,-0.011938987299799919,0.004324367735534906,-0.00011845280096167699,0.006164392456412315
0.005939370486885309,0.0084597272798419,-0.013171781785786152,0.004215278662741184,-0.00013070058776065707,0.006374330259859562
0.0059877862222492695,0.00932648777961731,-0.01233193650841713,0.003953169099986553,-0.00013032644346822053,0.006295821629464626
0.005858061369508505,0.008817583322525024,-0.012963282875716686,0.0037905178032815456,-0.00012813700595870614,0.0061278934590518475
0.005901756696403027,0.008426007814705372,-0.012673074379563332,0.0038264794275164604,-0.00012590477126650512,0.006400252226740122
0.006450253073126078,0.008884348906576633,-0.012353828176856041,0.003977544605731964,-0.00016202073311433196,0.006264830939471722
0.006678582634776831,0.008815309032797813,-0.01252834964543581,0.00416711438447237,-0.0001617085508769378,0.0063170213252305984
0.006275744643062353,0.008627018891274929,-0.012506338767707348,0.004086127504706383,-0.00015644605446141213,0.006271774414926767
0.006238826550543308,0.008515393361449242,-0.013297844678163528,0.0037692897021770477,-0.00015121237083803862,0.006122661288827658
0.00593079486861825,0.008961261250078678,-0.012170236557722092,0.003454452147707343,-0.0001716825063340366,0.006160943303257227
0.006026359274983406,0.008870217017829418,-0.012644258327782154,0.003544426755979657,-0.00016977555060293525,0.006083620712161064
0.006062289234250784,0.0085782241076231,-0.012310680001974106,0.004006849601864815,-0.00016482104547321796,0.006105079315602779
0.005893613211810589,0.009144260548055172,-0.01208755373954773,0.004091828595846891,-0.00015995326975826174,0.006298076827079058
0.0061227791011333466,0.008695085532963276,-0.012135784141719341,0.00432221544906497,-0.00015535247803200036,0.005823387764394283
0.006247699726372957,0.008591570891439915,-0.012266100384294987,0.004120337776839733,-0.0001744849287206307,0.006022534798830748
0.006102336570620537,0.008711687289178371,-0.012588843703269958,0.003965246025472879,-0.00017127228784374893,0.006122770253568888
0.006422117818146944,0.00885339267551899,-0.012069079093635082,0.00416042422875762,-0.00016683645662851632,0.006399139296263456
0.006252894178032875,0.008673541247844696,-0.012160513550043106,0.004232840146869421,-0.00016253850481007248,0.006182536482810974
0.005880327429622412,0.008370787836611271,-0.011902929283678532,0.004410552326589823,-0.00015845060988795012,0.005998190026730299
0.0059730131179094315,0.00882505252957344,-0.01197353471070528,0.004236644599586725,-0.0001737379061523825,0.006014865357428789
0.006646249443292618,0.008714255876839161,-0.012174195609986782,0.0039934320375323296,-0.00017222370661329478,0.006158557720482349
0.006646249443292618,0.008714255876839161,-0.012174195609986782,0.0039934320375323296,-0.00017222370661329478,0.006158557720482349
0.00627669133245945,0.008127222768962383,-0.011408771388232708,0.004148651380091906,-0.00016836872964631766,0.0066116261295974255
0.006355918478220701,0.008905080147087574,-0.012574026361107826,0.0037929811514914036,-0.00016085700190160424,0.0059739528223872185
0.006103875581175089,0.008808678947389126,-0.011862292885780334,0.003699052380397916,-0.00019253429491072893,0.005701135378330946
0.0066225831396877766,0.008316831663250923,-0.011647781357169151,0.004209548234939575,-0.0002166101330658421,0.005825828295201063
0.006423217710107565,0.008778047747910023,-0.011553972028195858,0.004389624577015638,-0.00020874119945801795,0.006497948430478573
0.006108230445533991,0.008778904564678669,-0.012431055307388306,0.0043859342113137245,-0.00019962187798228115,0.006622261367738247
0.006147386040538549,0.008322219364345074,-0.011505277827382088,0.0045300256460905075,-0.00019114944734610617,0.006238474044948816
0.006511499173939228,0.008555117063224316,-0.011761951260268688,0.004274421837180853,-0.00018336025823373348,0.005763177759945393
0.006520503666251898,0.008776736445724964,-0.011811706237494946,0.0039376565255224705,-0.00020223221508786082,0.005789436865597963
0.006107268389314413,0.008344534784555435,-0.012191584333777428,0.004013325087726116,-0.00020284971105866134,0.006092490162700415
0.006002478301525116,0.008913028053939342,-0.011725581251084805,0.004004970192909241,-0.0001960225054062903,0.006252497900277376
0.006329917814582586,0.008638571947813034,-0.011125163175165653,0.0038379996549338102,-0.00018918867863249034,0.0060811941511929035
0.006647769827395678,0.008123451843857765,-0.011560779996216297,0.00372354150749743,-0.00018278624338563532,0.0061923968605697155
0.006536118686199188,0.008062915876507759,-0.012054025195538998,0.0038038059137761593,-0.0001768012880347669,0.006456805858761072
0.006790699902921915,0.009240206331014633,-0.011779343709349632,0.0038201871793717146,-0.00017119557014666498,0.005994741339236498
0.005966025870293379,0.008510478772222996,-0.011924094520509243,0.0037064675707370043,-0.00016593420878052711,0.00588385621085763
0.0062486338429152966,0.008387605659663677,-0.011577976867556572,0.0037212029565125704,-0.00016098705236800015,0.0058528706431388855
0.006921470630913973,0.00852527841925621,-0.012799859046936035,0.004133389797061682,-0.00015632613212801516,0.006262975744903088
0.006487315986305475,0.008487832732498646,-0.011829257011413574,0.0040710256434977055,-0.00017068604938685894,0.00623026117682457
0.006111248396337032,0.008127313107252121,-0.01140128169208765,0.003923920914530754,-0.00017196954286191612,0.006204531993716955
0.006276518572121859,0.007927348837256432,-0.011763171292841434,0.0038492183666676283,-0.00016777787823230028,0.006061910185962915
0.00684370007365942,0.008558027446269989,-0.011302536353468895,0.0043119098991155624,-0.0001634503569221124,0.006112274713814259
0.007302029523998499,0.008512735366821289,-0.012073430232703686,0.004188516177237034,-0.0001593181659700349,0.005873178597539663
0.0069262366741895676,0.00813447218388319,-0.011924510821700096,0.003997581545263529,-0.00015538859588559717,0.006258997600525618
0.00633943360298872,0.007850524969398975,-0.012098369188606739,0.004281990230083466,-0.00015164806973189116,0.006599529180675745
0.0064261555671691895,0.008679408580064774,-0.011888048611581326,0.004236958920955658,-0.00014808325795456767,0.0063223824836313725
0.0064261555671691895,0.008679408580064774,-0.011888048611581326,0.004236958920955658,-0.00014808325795456767,0.0063223824836313725
0.006765402387827635,0.007963611744344234,-0.012056585401296616,0.004153240937739611,-0.00014143400767352432,0.006278335582464933
0.006426287814974785,0.007716121152043343,-0.01197441853582859,0.004381165839731693,-0.0001383286580676213,0.006391006987541914
0.006372514180839062,0.007979859597980976,-0.01218985952436924,0.0042375726625323296,-0.00013535642938222736,0.006409624591469765
0.006948545575141907,0.0076355477795004845,-0.011587874963879585,0.00445093959569931,-0.00013250933261588216,0.0061728996224701405
0.006936294492334127,0.007729565724730492,-0.011234026402235031,0.004581758752465248,-0.00012977953883819282,0.00589279318228364
0.0066420696675777435,0.007772011216729879,-0.012157388031482697,0.0045275273732841015,-0.00012716006312984973,0.006188281811773777
0.0064505827613174915,0.008030751720070839,-0.012068219482898712,0.004347043111920357,-0.00012464429892133921,0.006618160288780928
0.006401172839105129,0.007665229495614767,-0.01203234400600195,0.004469708073884249,-0.0001222259597852826,0.00662836292758584
0.006873359903693199,0.00750794867053628,-0.012233195826411247,0.004749278537929058,-0.00011989968334091827,0.006539579015225172
0.0063654277473688126,0.008300389163196087,-0.011404215358197689,0.004822169430553913,-0.00011766038369387388,0.006277063861489296
0.005847821943461895,0.007671743165701628,-0.011687218211591244,0.005144590046256781,-0.00011550325143616647,0.005922106094658375
0.006222175434231758,0.007265689317137003,-0.011432524770498276,0.004947823937982321,-0.0001134237099904567,0.006297742947936058
0.006709068547934294,0.007558011915534735,-0.012052417732775211,0.004787043668329716,-0.00011141773575218394,0.00638113496825099
0.006572140380740166,0.007476402912288904,-0.01242656260728836,0.004726071376353502,-0.00010948145063593984,0.0060224649496376514
0.006402354221791029,0.007105057593435049,-0.012156500481069088,0.004911921452730894,-0.0001076114276656881,0.00600601639598608
0.00667216582223773,0.007207819726318121,-0.01260762196034193,0.004498249385505915,-0.00010580414527794346,0.006399346049875021
0.006176752038300037,0.007808339316397905,-0.011631225235760212,0.004574737511575222,-0.0001040565621224232,0.00738376984372735
0.006485789082944393,0.007874373346567154,-0.012325896881520748,0.004375651478767395,-0.00010236581147182733,0.006126876454800367
0.006541905924677849,0.007580882403999567,-0.01190916821360588,0.004347313195466995,-0.00010072905570268631,0.005726019851863384
0.00638429494574666,0.00698428088799119,-0.012356684543192387,0.004441176541149616,-9.914386464515701e-05,0.005856010131537914
0.006201042793691158,0.007058240938931704,-0.012405304238200188,0.004132317844778299,-9.76078154053539e-05,0.0064696273766458035
0.006259114947170019,0.007297184318304062,-0.011417367495596409,0.004453869536519051,-9.611866698833182e-05,0.006932777352631092
0.006697667762637138,0.0069941747933626175,-0.012295040301978588,0.0047250185161828995,-9.467421477893367e-05,0.0066657522693276405
0.006592395715415478,0.007274992298334837,-0.011816359125077724,0.00476308586075902,-9.327250882051885e-05,0.0065388609655201435
0.006510257720947266,0.007483632303774357,-0.012153268791735172,0.004727227613329887,-9.191174467559904e-05,0.006320260465145111
0.006078642327338457,0.007900234311819077,-0.011798707768321037,0.004506325349211693,-9.059021977009252e-05,0.006608081515878439
0.006592712830752134,0.007398706395179033,-0.0117494473233819,0.004333564080297947,-8.930603507906199e-05,0.0066291471011936665
0.00715404050424695,0.007393223233520985,-0.012159314937889576,0.004399121273308992,-8.684392378199846e-05,0.006481538526713848
0.006439133081585169,0.007668466307222843,-0.012464889325201511,0.004404533188790083,-8.566307951696217e-05,0.006606708746403456
0.006320576649159193,0.007384186144918203,-0.011831681244075298,0.004966096021234989,-8.451387111563236e-05,0.0063218893483281136
0.007189031224697828,0.007428944576531649,-0.012284653261303902,0.004633746109902859,-8.339519990840927e-05,0.006063566543161869
0.007189031224697828,0.007428944576531649,-0.012284653261303902,0.004633746109902859,-8.339519990840927e-05,0.006063566543161869
0.0069183832965791225,0.007403549738228321,-0.012280578725039959,0.004041010048240423,-8.23056761873886e-05,0.006494299042969942
0.006482166703790426,0.00765933096408844,-0.011659881100058556,0.004232444800436497,-8.124429587041959e-05,0.00667585851624608
0.006172840017825365,0.007891282439231873,-0.012021507136523724,0.004340969026088715,-8.020988752832636e-05,0.00736474571749568
0.0066617997363209724,0.0076179965399205685,-0.011423110030591488,0.00442498316988349,-7.920156349427998e-05,0.006800249218940735
0.007164760492742062,0.007363077253103256,-0.012038307264447212,0.004465416073799133,-7.821818871889263e-05,0.006375279743224382
0.006918333936482668,0.008183257654309273,-0.012061171233654022,0.004363709129393101,-7.725901377853006e-05,0.006713792681694031
0.006568076554685831,0.0076600550673902035,-0.01177885476499796,0.00427875854074955,-7.632305641891435e-05,0.006755656562745571
0.006732468027621508,0.007620112504810095,-0.011942594312131405,0.004501506686210632,-7.540953083662316e-05,0.006736577022820711
0.006849511060863733,0.00819389894604683,-0.011458557099103928,0.004198175854980946,-7.45175639167428e-05,0.006269633304327726
0.006973449606448412,0.008016827516257763,-0.012070653028786182,0.0048105171881616116,-7.364647171925753e-05,0.006537646986544132
0.006500241346657276,0.0077622635290026665,-0.011691287159919739,0.004858930595219135,-7.279549754457548e-05,0.006573108024895191
0.006267345976084471,0.007380829658359289,-0.011582446284592152,0.0049573928117752075,-7.196395745268092e-05,0.006708118598908186
0.006835261359810829,0.007669629063457251,-0.012024047784507275,0.004636269994080067,-7.115117477951571e-05,0.006718361750245094
0.007235099095851183,0.007856946438550949,-0.011728559620678425,0.004269585013389587,-7.035665475996211e-05,0.006575082428753376
0.0069206515327095985,0.00733947241678834,-0.012040744535624981,0.004311618395149708,-6.957965524634346e-05,0.006411403883248568
0.006794611923396587,0.007273945491760969,-0.01166164968162775,0.0047013103030622005,-4.543054728856077e-06,0.006356020458042622
0.007046949118375778,0.007536550983786583,-0.011623070575296879,0.004759285598993301,-2.9662899692084466e-07,0.006434659939259291
0.007420394569635391,0.007509604562073946,-0.012537303380668163,0.004741573240607977,-1.9367755399457565e-08,0.0065361023880541325
0.006959300953894854,0.007213565520942211,-0.011461738497018814,0.004680650308728218,-1.26457588844886e-09,0.0066693443804979324
0.006401808932423592,0.00740582263097167,-0.012127014808356762,0.004513358231633902,-8.256776512505226e-11,0.0067200311459600925
0.0064405277371406555,0.00820604246109724,-0.011935354210436344,0.004765443503856659,-5.391084714062577e-12,0.00703637907281518
0.0071388850919902325,0.00823097676038742,-0.01206708699464798,0.004466565325856209,-3.5199929993359746e-13,0.007043374702334404
0.007298143580555916,0.007660905830562115,-0.012065601535141468,0.004871297162026167,-2.2983039625092128e-14,0.0065238140523433685
0.007298143580555916,0.007660905830562115,-0.012065601535141468,0.004871297162026167,-2.2983039625092128e-14,0.0065238140523433685
0.006953896954655647,0.007575960364192724,-0.011578858830034733,0.0049536875449121,-1.5006282391903073e-15,0.006325720343738794
0.007792388089001179,0.007545264437794685,-0.011521130800247192,0.004544264171272516,-6.3974140303045035e-18,0.006819393951445818
0.007874464616179466,0.007134733721613884,-0.011894697323441505,0.004742634017020464,-4.1770540057699444e-19,0.0066118924878537655
0.0071867527440190315,0.007368546910583973,-0.012105477973818779,0.004769856575876474,-2.7273178771639014e-20,0.00662852032110095
0.007401137612760067,0.007929629646241665,-0.011771303601562977,0.00493004871532321,-1.7807437598290743e-21,0.00650754664093256
0.007840038277208805,0.0075635602697730064,-0.012269767932593822,0.004946098662912846,-1.162698427890649e-22,0.006526969838887453
0.006945566274225712,0.006927064154297113,-0.011858547106385231,0.004968669265508652,-7.591590299619924e-24,0.006405106745660305
0.007162935566157103,0.007107863202691078,-0.012292370200157166,0.004778592381626368,-4.956765589720638e-25,0.006599536165595055
0.007157695014029741,0.007956325076520443,-0.011646422557532787,0.004462876822799444,-3.236413721680371e-26,0.007042224518954754
0.007271678186953068,0.007572390139102936,-0.011584188789129257,0.00409479346126318,-2.113146897979197e-27,0.006944018881767988
0.007418057881295681,0.007080054376274347,-0.012279624119400978,0.004307806957513094,-1.3797340454878283e-28,0.007320604752749205
0.008113997988402843,0.006909565068781376,-0.011866283603012562,0.004908355418592691,-9.008677245718818e-30,0.007507914211601019
0.007978376001119614,0.007862595841288567,-0.012161924503743649,0.005083499941974878,-5.882022327842341e-31,0.007118840701878071
0.008055135607719421,0.007652682717889547,-0.012084703892469406,0.004806016571819782,-3.840540172049641e-32,0.006931366864591837
0.007058033719658852,0.007196133490651846,-0.01234523020684719,0.00489234970882535,-2.5075979772947052e-33,0.007270342204719782
0.00814172811806202,0.007224844768643379,-0.01167314127087593,0.004803692456334829,-1.6372824851792749e-34,0.006902562454342842
0.007887407205998898,0.008413850329816341,-0.011497017927467823,0.004561502952128649,-1.0690285274220704e-35,0.0069045620039105415
0.007712827995419502,0.007792735006660223,-0.012416848912835121,0.004910938907414675,-6.9799923103133e-37,0.006958175450563431
0.0076513225212693214,0.007552020717412233,-0.011799345724284649,0.004969333298504353,-4.557435989031281e-38,0.007419422268867493
0.00750088831409812,0.006963489577174187,-0.011837645433843136,0.004830915946513414,-2.975679709769178e-39,0.007620398420840502
0.008023607544600964,0.008017202839255333,-0.011980402283370495,0.004683337640017271,-1.942900320786359e-40,0.00706828385591507
0.007894031703472137,0.0077040609903633595,-0.011743190698325634,0.004683454521000385,-1.268595499753257e-41,0.006684002932161093
0.007976535707712173,0.00756225036457181,-0.01208856888115406,0.0047599454410374165,-8.281673924159669e-43,0.006739953998476267
0.007692475337535143,0.0075712548568844795,-0.01157979667186737,0.004748654086142778,-5.465064010866787e-44,0.006745240651071072
0.0078715980052948,0.008235687389969826,-0.011992841958999634,0.004720894619822502,-4.203895392974451e-45,0.00676110340282321
0.0078715980052948,0.008235687389969826,-0.011992841958999634,0.004720894619822502,-4.203895392974451e-45,0.00676110340282321
0.007922910153865814,0.007185001391917467,-0.011991158127784729,0.004734130576252937,-0.0,0.007156134117394686
0.00815497525036335,0.007234746124595404,-0.011711819097399712,0.00471988320350647,-0.0,0.007538406644016504
0.008325732313096523,0.007708362303674221,-0.012075155973434448,0.0046818139962852,-0.0,0.007116529159247875
0.008030280470848083,0.006868231575936079,-0.012063825502991676,0.00436714431270957,-0.0,0.006834869273006916
0.008208397775888443,0.006986633408814669,-0.011849095113575459,0.004808296449482441,-0.0,0.0070997923612594604
0.008496479131281376,0.007220553699880838,-0.011948703788220882,0.0053221695125103,-0.0,0.007524594198912382
0.008686864748597145,0.007498910650610924,-0.012295892462134361,0.0054703643545508385,-0.0,0.007362103555351496
0.008493264205753803,0.007289794273674488,-0.011869536712765694,0.00525820255279541,-0.0,0.007369393017143011
0.008240992203354836,0.0069114831276237965,-0.012521305121481419,0.004869536496698856,-0.0,0.00825963169336319
0.009179063141345978,0.007167968433350325,-0.012005934491753578,0.005339904688298702,-0.0,0.007072544191032648
0.008631674572825432,0.0075975460931658745,-0.012444092892110348,0.005296863149851561,-0.0,0.006553038023412228
0.00840954389423132,0.007638684473931789,-0.012196219526231289,0.00526262866333127,-0.0,0.00703897699713707
0.008365676738321781,0.007014866918325424,-0.012154188938438892,0.004973964300006628,-0.0,0.0076350262388587
0.008649691008031368,0.007008565589785576,-0.01251637376844883,0.004872614052146673,-0.0,0.007751314900815487
0.008201461285352707,0.00744377076625824,-0.011902878060936928,0.0047532846219837666,-0.0,0.007430459372699261
0.008033446967601776,0.007082846947014332,-0.012664202600717545,0.004984478931874037,-0.0,0.00770356273278594
0.008569597266614437,0.007018196862190962,-0.01207487192004919,0.005408995319157839,-0.0,0.007574781775474548
0.00849500298500061,0.007014986127614975,-0.01289847306907177,0.005101625341922045,-0.0,0.007573979906737804
0.008584274910390377,0.007537477649748325,-0.013012944720685482,0.00470256432890892,-0.0,0.0071469321846961975
0.0078019751235842705,0.007014609407633543,-0.012753816321492195,0.004692229442298412,-0.0,0.0072396500036120415
0.009173606522381306,0.007226460613310337,-0.012739830650389194,0.00510001927614212,-0.0,0.007510745897889137
0.00857491884380579,0.006895999889820814,-0.012067539617419243,0.004683306440711021,-0.0,0.008124385960400105
0.008284121751785278,0.007137705106288195,-0.012856869027018547,0.005432386416941881,-0.0,0.008226376958191395
0.008634749799966812,0.007305685896426439,-0.012894048355519772,0.005911811720579863,-0.0,0.007708130404353142
0.00884033739566803,0.00719541497528553,-0.0131245581433177,0.005184626672416925,-0.0,0.0073584942147135735
0.008704609237611294,0.008071353659033775,-0.01266208291053772,0.004750318359583616,-0.0,0.007651993073523045
0.008704609237611294,0.008071353659033775,-0.01266208291053772,0.004750318359583616,-0.0,0.007651993073523045
0.008419976569712162,0.007121924310922623,-0.012572946958243847,0.005597549956291914,-0.0,0.007495517376810312
0.008622757159173489,0.006860209163278341,-0.012699736282229424,0.005493146367371082,-0.0,0.007403431460261345
0.00844675861299038,0.007170821074396372,-0.01322537288069725,0.005092642270028591,-0.0,0.00806090235710144
0.008717617020010948,0.007538415025919676,-0.01277709100395441,0.0049897595308721066,-0.0,0.007799243554472923
0.008869169279932976,0.007393745705485344,-0.012884020805358887,0.004861784167587757,-0.0,0.007154230959713459
0.00886391382664442,0.007087637670338154,-0.012287197634577751,0.005133443046361208,-0.0,0.00723026180639863
0.008745044469833374,0.007348406594246626,-0.013058601878583431,0.005539926700294018,-0.0,0.0076520126312971115
0.00929348636418581,0.007695467211306095,-0.012722678482532501,0.005207953043282032,-0.0,0.008107115514576435
0.009341676719486713,0.0073265740647912025,-0.012878365814685822,0.005249483976513147,-0.0,0.008186236023902893
0.008558033965528011,0.007126840762794018,-0.01320496667176485,0.005339235533028841,-0.0,0.008302737958729267
0.008844591677188873,0.006896559614688158,-0.012779916636645794,0.005173905752599239,-0.0,0.008295280858874321
0.009257029742002487,0.007277361117303371,-0.012046274729073048,0.005824456922709942,-0.0,0.008277719840407372
0.00878127571195364,0.007520537357777357,-0.011361738666892052,0.005801557097584009,-0.0,0.007723245304077864
0.009878387674689293,0.007113203406333923,-0.011946272104978561,0.005828347522765398,-0.0,0.007611390203237534
0.008843679912388325,0.007104367483407259,-0.013167309574782848,0.005288632120937109,-0.0,0.008070281706750393
0.008622094988822937,0.007327114697545767,-0.01321144588291645,0.00498118856921792,-0.0,0.008185998536646366
0.008777126669883728,0.007292752154171467,-0.012848098762333393,0.0054054539650678635,-0.0,0.007655520923435688
0.009098038077354431,0.007126746233552694,-0.01269849855452776,0.006080007180571556,-0.0,0.008152498863637447
0.009114252403378487,0.007084934506565332,-0.012685886584222317,0.005627870559692383,-0.0,0.008280416950583458
0.008709358982741833,0.007524946704506874,-0.012010451406240463,0.005150704178959131,-0.0,0.007788161281496286
0.009517354890704155,0.007629428058862686,-0.013080204837024212,0.004904020112007856,-0.0,0.008110621012747288
0.008874989114701748,0.0069008334539830685,-0.012559843249619007,0.004758063238114119,-0.0,0.008166645653545856
0.00881621241569519,0.00714266300201416,-0.012445494532585144,0.004731123801320791,-0.0,0.00832116138190031
0.009470781311392784,0.006823672913014889,-0.012397791258990765,0.005268794484436512,-0.0,0.008468328043818474
0.009594706818461418,0.007140868343412876,-0.012311229482293129,0.005553808528929949,-0.0,0.008292878977954388
0.00893728993833065,0.007164776790887117,-0.012382748536765575,0.0056250737980008125,-0.0,0.008092950098216534
0.009533233009278774,0.0071264347061514854,-0.012658491730690002,0.005415188614279032,-0.0,0.008042453788220882
0.009533233009278774,0.0071264347061514854,-0.012658491730690002,0.005415188614279032,-0.0,0.008042453788220882
0.00956704281270504,0.006975959055125713,-0.013107698410749435,0.005465472582727671,-0.0,0.008096214383840561
0.009127218276262283,0.006956000812351704,-0.01280447281897068,0.005721652880311012,-0.0,0.008092750795185566
0.009816681034862995,0.006950792856514454,-0.012272142805159092,0.005791998002678156,-0.0,0.008129800669848919
0.00961924809962511,0.006760709453374147,-0.012572217732667923,0.005981431342661381,-0.0,0.00896780751645565
0.009150678291916847,0.007244827691465616,-0.013016975484788418,0.005528055597096682,-0.0,0.008534792810678482
0.010163864120841026,0.007569130044430494,-0.012842169031500816,0.005765656009316444,-0.0,0.008542874827980995
0.009167169220745564,0.006739424075931311,-0.013137375004589558,0.005792762152850628,-0.0,0.008883873000741005
0.009653753601014614,0.006694053765386343,-0.012721416540443897,0.0060294512659311295,-0.0,0.008417539298534393
0.00981074944138527,0.007268356624990702,-0.013138613663613796,0.005531583912670612,-0.0,0.008485948666930199
0.009441524744033813,0.007749435491859913,-0.012396983802318573,0.005197028163820505,-0.0,0.008458160795271397
0.010136276483535767,0.0069840578362345695,-0.013227093033492565,0.0052972170524299145,-0.0,0.008496815338730812
0.009965422563254833,0.006769751664251089,-0.012814546935260296,0.005635707639157772,-0.0,0.008174387738108635
0.009676115587353706,0.007278081029653549,-0.012909662909805775,0.005357786081731319,-0.0,0.00849117524921894
0.01009040791541338,0.007149214390665293,-0.012649862095713615,0.0054813046008348465,-0.0,0.008381357416510582
0.009943387471139431,0.006698943674564362,-0.012435013428330421,0.005385350435972214,-0.0,0.008531628176569939
0.009523922577500343,0.007323215715587139,-0.012835053727030754,0.005772740580141544,-0.0,0.009522798471152782
0.010377607308328152,0.006755431182682514,-0.012303309515118599,0.005474799778312445,-0.0,0.007883270271122456
0.009936023503541946,0.007077364716678858,-0.01297855470329523,0.005958378780633211,-0.0,0.008096263743937016
0.009380030445754528,0.006761647295206785,-0.012706449255347252,0.0055961571633815765,-0.0,0.00865138415247202
0.009150165133178234,0.006802133284509182,-0.012773338705301285,0.00577402813360095,-0.0,0.008973820134997368
0.00980190560221672,0.007071562111377716,-0.012689927592873573,0.0056643178686499596,-0.0,0.008831934072077274
0.009815205819904804,0.0076308404095470905,-0.012610218487679958,0.00565715366974473,-0.0,0.008844705298542976
0.009600159712135792,0.007098990026861429,-0.012832819484174252,0.005749190226197243,-0.0,0.009441929869353771
0.009774116799235344,0.00665684137493372,-0.012566897086799145,0.0060851797461509705,-0.0,0.009003506042063236
0.00990727823227644,0.006454997695982456,-0.013166991993784904,0.00574389798566699,-0.0,0.009353894740343094
0.010455534793436527,0.007112997584044933,-0.012040482833981514,0.005321310367435217,-0.0,0.009246555157005787
0.009971057064831257,0.007282745558768511,-0.012690221890807152,0.005250866059213877,-0.0,0.009251953102648258
0.009669022634625435,0.006874386686831713,-0.01190987415611744,0.005584497470408678,-0.0,0.009594118222594261
0.010382010601460934,0.0068656825460493565,-0.012316434644162655,0.005774244200438261,-0.0,0.009446606040000916
0.009941179305315018,0.007452225778251886,-0.01293451152741909,0.00592703465372324,-0.0,0.009077483788132668
0.009941179305315018,0.007452225778251886,-0.01293451152741909,0.00592703465372324,-0.0,0.009077483788132668
0.009490570053458214,0.007324994076043367,-0.01306826900690794,0.005971536971628666,-0.0,0.009730263613164425
0.010127578862011433,0.006757419090718031,-0.01288551278412342,0.007016903255134821,-0.0,0.009371688589453697
0.009903899393975735,0.00705691147595644,-0.012911391444504261,0.007100055925548077,-0.0,0.009200471453368664
0.009944814257323742,0.007514794822782278,-0.012030152603983879,0.006737833376973867,-0.0,0.00860796868801117
0.011038205586373806,0.007207702845335007,-0.013220090419054031,0.006068942602723837,-0.0,0.009147802367806435
0.010150177404284477,0.00695663969963789,-0.01291749533265829,0.006029768846929073,-0.0,0.009096905589103699
0.00989136565476656,0.006827231030911207,-0.012804203666746616,0.005862695164978504,-0.0,0.009324559010565281
0.010229548439383507,0.007233410608023405,-0.012569529004395008,0.006117463111877441,-0.0,0.009133847430348396
0.010321969166398048,0.007157088723033667,-0.01214323379099369,0.0065406206995248795,-0.0,0.009994401596486568
0.009983973577618599,0.007121874485164881,-0.012489904649555683,0.006218121852725744,-0.0,0.009858056902885437
0.010745005682110786,0.007098386995494366,-0.012235176749527454,0.0060877627693116665,-0.0,0.00949722807854414
0.009687909856438637,0.007312311790883541,-0.013294202275574207,0.006406597793102264,-0.0,0.01042506005614996
0.010251037776470184,0.007217499893158674,-0.013228792697191238,0.006533622741699219,-0.0,0.010070404037833214
0.010147728957235813,0.007063176948577166,-0.013203534297645092,0.005834893323481083,-0.0,0.009297540411353111
0.009903065860271454,0.007214316166937351,-0.012300786562263966,0.005840394180268049,-0.0,0.009303971193730831
0.010322676040232182,0.007541507016867399,-0.012550046667456627,0.0062479604966938496,-0.0,0.009631197899580002
0.009970564395189285,0.007472827099263668,-0.013112989254295826,0.006320388521999121,-0.0,0.009447573684155941
0.009870422072708607,0.007437052670866251,-0.012964890338480473,0.00605771504342556,-0.0,0.009245006367564201
0.010415197350084782,0.007605545222759247,-0.014007733203470707,0.00582823995500803,-0.0,0.009913121350109577
0.009957714937627316,0.007944146171212196,-0.01298602856695652,0.005415205843746662,-0.0,0.009951700456440449
0.009828779846429825,0.007221016567200422,-0.013343549333512783,0.0058304741978645325,-0.0,0.009354721754789352
0.010048214346170425,0.007280035875737667,-0.012915586121380329,0.006273353472352028,-0.0,0.009681588038802147
0.010048214346170425,0.007280035875737667,-0.012915586121380329,0.006273353472352028,-0.0,0.009681588038802147
0.009599154815077782,0.007145763840526342,-0.012847846373915672,0.005630835425108671,-0.0,0.008983534760773182
0.010235399007797241,0.007210273761302233,-0.013257267884910107,0.00556418439373374,-0.0,0.009400341659784317
0.009909948334097862,0.006907460279762745,-0.013337104581296444,0.0058463397435843945,-0.0,0.009578272700309753
0.009550999850034714,0.0065134740434587,-0.013520858250558376,0.006574865430593491,-0.0,0.009719368070363998
0.009966219775378704,0.006726901512593031,-0.013359877280890942,0.006951534654945135,-3.8052435229474213e-06,0.009725562296807766
0.01001336332410574,0.007362565957009792,-0.013065827079117298,0.006527695804834366,-2.4845519419613993e-07,0.009601226076483727
0.009775226004421711,0.007034456357359886,-0.013348905369639397,0.00605391338467598,-1.6222351462147344e-08,0.009574458003044128
0.010380731895565987,0.007228196132928133,-0.013243966735899448,0.006472517736256123,-1.0592036137069272e-09,0.009796512313187122
0.009900443255901337,0.007704193703830242,-0.013760797679424286,0.00680608069524169,-6.915842898358449e-11,0.009934627451002598
0.010589353740215302,0.007174004800617695,-0.013081970624625683,0.006711478345096111,-4.515551127459716e-12,0.010186969302594662
0.010244430974125862,0.006836151238530874,-0.013221153058111668,0.00628154119476676,-2.948332496113121e-13,0.010131757706403732
0.009969865903258324,0.0067743100225925446,-0.012891946360468864,0.006452174391597509,-1.9250502545655433e-14,0.009908770211040974
0.010130532085895538,0.00697016716003418,-0.013391142711043358,0.0072446116246283054,-1.2569202372436552e-15,0.010036230087280273
0.010144234634935856,0.007344281300902367,-0.01311430148780346,0.007033641915768385,-8.206790391128099e-17,0.011760242283344269
0.010582424700260162,0.007065324578434229,-0.013642196543514729,0.006648724433034658,-5.3584478839776865e-18,0.010489418171346188
0.01008603349328041,0.00707307830452919,-0.013705660589039326,0.0063314298167824745,-3.498683443909148e-19,0.009733371436595917
0.009871087037026882,0.00693921186029911,-0.013614836148917675,0.006394331343472004,-2.2843901241230312e-20,0.009952974505722523
0.009992764331400394,0.007693660911172628,-0.0129100875928998,0.00665616849437356,-1.4915434644685104e-21,0.009959869086742401
0.009994874708354473,0.006993872579187155,-0.01283190120011568,0.007170524913817644,-9.738712542539198e-23,0.010518801398575306
0.010809287428855896,0.006364422384649515,-0.013336433097720146,0.007002661935985088,-6.35868353515453e-24,0.010383929125964642
0.01010442990809679,0.006574716418981552,-0.013448596931993961,0.006848486140370369,-4.151765576454936e-25,0.010617728345096111
0.010017023421823978,0.0071606445126235485,-0.013568791560828686,0.006910896394401789,-2.710806177590508e-26,0.010983406566083431
0.010193643160164356,0.0073824478313326836,-0.012475783005356789,0.006872035097330809,-1.7699629374799076e-27,0.010615676641464233
0.009817373938858509,0.007192542776465416,-0.01345136109739542,0.007017905358225107,-1.1556591983250434e-28,0.009912279434502125
0.010124889202415943,0.007274894509464502,-0.01251030433923006,0.007385664619505405,-7.545628764820979e-30,0.009676437824964523
0.010171277448534966,0.007491267751902342,-0.013379308395087719,0.0073954020626842976,-4.926756843646609e-31,0.010088641196489334
0.010171277448534966,0.007491267751902342,-0.013379308395087719,0.0073954020626842976,-4.926756843646609e-31,0.010088641196489334
0.009999117814004421,0.007683559786528349,-0.013347821310162544,0.007065048906952143,-3.2168202246410457e-32,0.009905765764415264
0.011653237044811249,0.006764554884284735,-0.012805868871510029,0.006574672646820545,-8.954137371748322e-36,0.009809181094169617
0.011653237044811249,0.006764554884284735,-0.012805868871510029,0.006574672646820545,-8.954137371748322e-36,0.009809181094169617
0.011986872181296349,0.0071190535090863705,-0.013124550692737103,0.00700335530564189,-5.846411805493862e-37,0.01017741672694683
0.011342938989400864,0.006949867121875286,-0.013196643441915512,0.006918498780578375,-3.817289758353413e-38,0.010303129442036152
0.011701068840920925,0.00703523401170969,-0.01374641340225935,0.006527317687869072,-2.4924167109744072e-39,0.009824244305491447
0.011793610639870167,0.007090098690241575,-0.012697871774435043,0.006345030851662159,-1.6273699455743398e-40,0.010515139438211918
0.012263800948858261,0.007320518605411053,-0.013310052454471588,0.006753440946340561,-7.965981785673648e-05,0.010149627923965454
0.012288954108953476,0.007109052501618862,-0.013005946762859821,0.006977160461246967,-0.00013864063657820225,0.009897098876535892
0.01145968958735466,0.006899778265506029,-0.013389013707637787,0.007171399425715208,-0.00013838855375070125,0.010797557421028614
0.011698741465806961,0.007220970466732979,-0.012853985652327538,0.007291043642908335,-0.00013451342238113284,0.010408631525933743
0.01158936321735382,0.00740003352984786,-0.013164680451154709,0.007072417996823788,-0.00013062545622233301,0.010566094890236855
0.011863505467772484,0.006494743283838034,-0.013583735562860966,0.006734461989253759,-0.00014897988876327872,0.010363170877099037
0.011702037416398525,0.005795019678771496,-0.013556074351072311,0.007181565277278423,-0.000147931685205549,0.010125185362994671
0.011763760820031166,0.005320594646036625,-0.013255693018436432,0.006926538422703743,-0.00014417995407711715,0.010422279126942158
0.011915495619177818,0.006044604815542698,-0.012442116625607014,0.007861020974814892,-0.00014044277486391366,0.010703105479478836
0.011373484507203102,0.00669102743268013,-0.012962874956429005,0.007698767352849245,-0.0001566935534356162,0.010295567102730274
0.012737469747662544,0.005999673157930374,-0.012288565747439861,0.00744273979216814,-0.00015555309073533863,0.010552429594099522
0.01219414733350277,0.005805728491395712,-0.013410646468400955,0.007232518866658211,-0.00015197874745354056,0.010795928537845612
0.011976333335042,0.005984804593026638,-0.012764492072165012,0.007400172762572765,-0.00016412916011177003,0.010501724667847157
0.012486886233091354,0.006119563244283199,-0.013165650889277458,0.007372746244072914,-0.00016535066242795438,0.010588642209768295
0.01182014774531126,0.006219619419425726,-0.01275611761957407,0.007304010447114706,-0.00016195728676393628,0.010718314908444881
0.012050078250467777,0.006012371741235256,-0.012784759514033794,0.0074146827682852745,-0.00027905197930522263,0.010596245527267456
0.012451901100575924,0.005821591708809137,-0.01286823209375143,0.007516794838011265,-0.0002789105346892029,0.01122524868696928
0.012025587260723114,0.006256632972508669,-0.012756786309182644,0.0074442531913518906,-0.00026368448743596673,0.010865152813494205
0.01238790713250637,0.00574427330866456,-0.013110590167343616,0.006940564140677452,-0.0002491526829544455,0.011094407178461552
0.01227556448429823,0.005980091635137796,-0.012616726569831371,0.006552433595061302,-0.00023608114861417562,0.010775640606880188
0.012583254836499691,0.006172704044729471,-0.01319139264523983,0.007053409703075886,-0.0002243098133476451,0.010890403762459755
0.012123619206249714,0.0056770010851323605,-0.012712397612631321,0.007426201831549406,-0.0002452027110848576,0.01087009534239769
0.012123619206249714,0.0056770010851323605,-0.012712397612631321,0.007426201831549406,-0.0002452027110848576,0.01087009534239769
0.012541931122541428,0.0060755121521651745,-0.013001407496631145,0.007176191546022892,-0.0002341001818422228,0.010656225495040417
0.0123467231169343,0.0063254693523049355,-0.013303796760737896,0.007447049021720886,-0.00022441247710958123,0.010865521617233753
0.012423780746757984,0.005912803579121828,-0.013063210062682629,0.007281608879566193,-0.00021545912022702396,0.010601688176393509
0.012362906709313393,0.00566853117197752,-0.013105303980410099,0.006992593873292208,-0.00020719120220746845,0.010715210810303688
0.012470608577132225,0.006284631323069334,-0.01322255004197359,0.0071360464207828045,-0.00019953399896621704,0.011937808245420456
0.012170000933110714,0.00641194824129343,-0.012492312118411064,0.0075837248004972935,-0.0002161487500416115,0.010907565243542194
0.012373657897114754,0.006291866302490234,-0.01348979864269495,0.0077284229919314384,-0.00021622296480927616,0.011145072057843208
0.012284263968467712,0.0060187894850969315,-0.01295977272093296,0.007681756746023893,-0.00020952141494490206,0.011634261347353458
0.012527678161859512,0.005801196675747633,-0.013720661401748657,0.007035661488771439,-0.0002028072194661945,0.011697478592395782
0.012704582884907722,0.005889910273253918,-0.013317519798874855,0.007336856797337532,-0.00019648380111902952,0.011731421574950218
0.012378329411149025,0.006517364643514156,-0.013556944206357002,0.00808650441467762,-0.00019054052245337516,0.011166811920702457
0.012739462777972221,0.006669232621788979,-0.013072305358946323,0.007963022217154503,-0.0001849468535510823,0.011678540147840977
0.012535864487290382,0.0062141502276062965,-0.013816879130899906,0.007010286208242178,-0.00019868514209520072,0.011765869334340096
0.012676685117185116,0.006318816915154457,-0.01357092522084713,0.007188828662037849,-0.00019921059720218182,0.01177447009831667
0.012542172335088253,0.006346655543893576,-0.013716308400034904,0.007426290772855282,-0.00019422969489824027,0.012123486027121544
0.01269607339054346,0.007280462887138128,-0.014365686103701591,0.007946857251226902,-0.00018915256077889353,0.012116790749132633
0.012817179784178734,0.006540777161717415,-0.013993507251143456,0.007894868031144142,-0.0001843118661781773,0.012054305523633957
0.012840835377573967,0.006262617651373148,-0.013454650528728962,0.007814362645149231,-0.00017971133638639003,0.011989708989858627
0.013021638616919518,0.006489302963018417,-0.014041122049093246,0.007677481975406408,-0.00017533499340061098,0.011532402597367764
0.012665343470871449,0.007241343148052692,-0.014361844398081303,0.007706824690103531,-0.00017116634990088642,0.011331533081829548
0.013244492001831532,0.006759678479284048,-0.013608417473733425,0.007055246736854315,-0.00015927899221424013,0.011036855168640614
0.01274800579994917,0.006285293959081173,-0.013814768753945827,0.007348994258791208,-0.00015162528143264353,0.011088469997048378
0.012863211333751678,0.00609000027179718,-0.013614973053336143,0.00785302184522152,-0.00014653753896709532,0.011244632303714752
0.012681324034929276,0.006379494443535805,-0.014151327311992645,0.007622735109180212,-0.00014190649380907416,0.011612427420914173
0.012880678288638592,0.007011388894170523,-0.01400744915008545,0.0078010777942836285,-0.00016006248188205063,0.011818604543805122
0.012880678288638592,0.007011388894170523,-0.01400744915008545,0.0078010777942836285,-0.00016006248188205063,0.011818604543805122
0.013172815553843975,0.006284905131906271,-0.013996150344610214,0.008012345992028713,-0.00015121106116566807,0.012361172586679459
0.012920370325446129,0.007195339538156986,-0.013413109816610813,0.008275034837424755,-0.00014709238894283772,0.012245487421751022
0.013211207464337349,0.007663629949092865,-0.013953782618045807,0.008037297055125237,-0.00014319163165055215,0.012230750173330307
0.013211207464337349,0.007663629949092865,-0.013953782618045807,0.008037297055125237,-0.00014319163165055215,0.012230750173330307
0.01317948754876852,0.006630142219364643,-0.013618781231343746,0.00800460483878851,-0.00013949260755907744,0.011951158754527569
0.013743615709245205,0.006415765266865492,-0.014166412875056267,0.007638938259333372,-0.00015565943613182753,0.012285653501749039
0.013396934606134892,0.006778554059565067,-0.013478713110089302,0.007872979156672955,-0.0001545512641314417,0.011893452145159245
0.013753904029726982,0.006824500393122435,-0.014188794419169426,0.008269368670880795,-0.00015102348697837442,0.012313034385442734
0.013373874127864838,0.007218841928988695,-0.013999382965266705,0.007937025278806686,-0.0001474989840062335,0.01240637619048357
0.013753869570791721,0.006365424487739801,-0.014153992757201195,0.00807447824627161,-0.00014412542805075645,0.012339761480689049
0.013502826914191246,0.0063721551559865475,-0.013708260841667652,0.007985785603523254,-0.0001409018150297925,0.01259696576744318
0.013506376184523106,0.006649441551417112,-0.01413000375032425,0.0080101964995265,-0.0001549223525216803,0.012277549132704735
0.01375109888613224,0.007448676973581314,-0.013234897516667843,0.007850966416299343,-0.0001539670629426837,0.012311309576034546
0.01384405605494976,0.006613883189857006,-0.013921915553510189,0.007840611971914768,-0.0001508944114902988,0.012388715520501137
0.013973286375403404,0.00644215801730752,-0.014157136902213097,0.0077703422866761684,-0.00014780655328650028,0.012376850470900536
0.014363055117428303,0.006782880052924156,-0.014308173209428787,0.008134622126817703,-0.00014483375707641244,0.012377223931252956
0.014250711537897587,0.007529971189796925,-0.013769692741334438,0.008351178839802742,-0.00017045406275428832,0.012245671823620796
0.01452157273888588,0.00710661057382822,-0.014169462025165558,0.00847744569182396,-0.00019032972340937704,0.012375880964100361
0.014406388625502586,0.0064544109627604485,-0.013850627467036247,0.008902031928300858,-0.0001843037607613951,0.012630500830709934
0.014113251119852066,0.006503248121589422,-0.014104618690907955,0.00853329710662365,-0.0001771627285052091,0.012520674616098404
0.01397197786718607,0.0067650624550879,-0.01376466453075409,0.007904504425823689,-0.0001704581518424675,0.012629933655261993
0.01455604750663042,0.007201903034001589,-0.013582734391093254,0.008116473443806171,-0.00019485753728076816,0.013828406110405922
0.014582988806068897,0.006868475116789341,-0.013921846635639668,0.008160252124071121,-0.0001899979542940855,0.012507694773375988
0.014641311950981617,0.006411594804376364,-0.013848107308149338,0.008184034377336502,-0.00018366514996159822,0.01208929531276226
0.014864576980471611,0.006292019970715046,-0.014425300061702728,0.008194009773433208,-0.00019214687927160412,0.012107089161872864
0.01474752090871334,0.00673455186188221,-0.014199155382812023,0.00730418786406517,-0.00019965146202594042,0.012693827971816063
0.014359384775161743,0.006593179423362017,-0.014345805160701275,0.008465560153126717,-0.00019437943410594016,0.012896534986793995
0.014762804843485355,0.006347720976918936,-0.01398171205073595,0.008519109338521957,-0.00018861738499253988,0.012730520218610764
0.01492779329419136,0.006278314162045717,-0.014466861262917519,0.008494153618812561,-0.00020754094293806702,0.012966549955308437
0.015239874832332134,0.006564856972545385,-0.014155692420899868,0.009008119814097881,-0.00025493549765087664,0.012642966583371162
0.015092164278030396,0.006406404078006744,-0.013984089717268944,0.008340327069163322,-0.00029265950433909893,0.012722976505756378
0.015092164278030396,0.006406404078006744,-0.013984089717268944,0.008340327069163322,-0.00029265950433909893,0.012722976505756378
0.014882992953062057,0.006462805438786745,-0.014183636754751205,0.008568362332880497,-0.00027812336338683963,0.01279553584754467
0.015220222063362598,0.006551859434694052,-0.013688549399375916,0.008408304303884506,-0.0002876842627301812,0.012965322472155094
0.014779668301343918,0.00647255964577198,-0.014245941303670406,0.00839954987168312,-0.0002955138043034822,0.01299180369824171
0.015177569352090359,0.006271344143897295,-0.01374544482678175,0.008571249432861805,-0.00028163971728645265,0.013299082405865192
0.014919908717274666,0.0061035677790641785,-0.014040467329323292,0.008700482547283173,-0.00026777060702443123,0.013377963565289974
0.01566782034933567,0.006028460338711739,-0.013536808080971241,0.008532705716788769,-0.000286514317849651,0.013541013933718204
0.015657106414437294,0.005853759124875069,-0.014534596353769302,0.008371998555958271,-0.00028348612249828875,0.013258837163448334
0.015815185382962227,0.006315167061984539,-0.013751211576163769,0.008621490560472012,-0.00027189520187675953,0.013806345872581005
0.015316823497414589,0.00571992015466094,-0.014293872751295567,0.008695623837411404,-0.00026068370789289474,0.013872561976313591
0.015823304653167725,0.005663591902703047,-0.013756227679550648,0.008678585290908813,-0.00026782817440107465,0.013814073987305164
0.015883302316069603,0.006098482757806778,-0.014390988275408745,0.009590930305421352,-0.00027396026416681707,0.013698435388505459
0.01576875150203705,0.005560205318033695,-0.01377132534980774,0.008605587296187878,-0.00026494526537135243,0.013496819883584976
0.01597602106630802,0.006472717504948378,-0.014608638361096382,0.008414126932621002,-0.0002556079998612404,0.0139990895986557
0.015933938324451447,0.005916154012084007,-0.014091463759541512,0.009171193465590477,-0.0002468481252435595,0.013991218991577625
0.015989843755960464,0.005903052631765604,-0.014618238434195518,0.009332948364317417,-0.00026902678655460477,0.01364410761743784
0.015845635905861855,0.005398895591497421,-0.013948546722531319,0.00914812833070755,-0.0002637869620230049,0.013666155748069286
0.01645590551197529,0.005658954847604036,-0.014240317046642303,0.008848265744745731,-0.0002498266694601625,0.013536099344491959
0.016172761097550392,0.005783512257039547,-0.014173170551657677,0.00905584916472435,-0.0002367242705076933,0.013449244201183319
0.016204465180635452,0.0056291259825229645,-0.014981421642005444,0.00868696253746748,-0.00022489319962915033,0.01389485877007246
0.01643660105764866,0.005442268680781126,-0.014482729136943817,0.008781859651207924,-0.0002512845385354012,0.013892015442252159
0.016439685598015785,0.005657286383211613,-0.01499485969543457,0.009180019609630108,-0.0002449672028888017,0.01403786987066269
0.01638784073293209,0.005369648337364197,-0.01425121445208788,0.008615240454673767,-0.00023465315462090075,0.013825244270265102
0.016190124675631523,0.0058616460300982,-0.01522543653845787,0.008455052971839905,-0.00025738554541021585,0.014307237230241299
0.016190124675631523,0.0058616460300982,-0.01522543653845787,0.008455052971839905,-0.00025738554541021585,0.014307237230241299
0.016779650002717972,0.005659373011440039,-0.014319352805614471,0.008885260671377182,-0.0002515651867724955,0.01417533215135336
0.016193734481930733,0.0055223810486495495,-0.014735247939825058,0.00893276184797287,-0.00024218478938564658,0.014302514493465424
0.016636483371257782,0.005797728430479765,-0.014947636052966118,0.00893619004637003,-0.00025675061624497175,0.014375658705830574
0.0164294745773077,0.005573768634349108,-0.014634961262345314,0.009765424765646458,-0.0002481600677128881,0.014242683537304401
0.01686735264956951,0.005885059479624033,-0.015313021838665009,0.009637191891670227,-0.00029409865965135396,0.014534911140799522
0.01657094806432724,0.006172372028231621,-0.014926407486200333,0.009700259193778038,-0.00029303287738002837,0.014983989298343658
0.017004990950226784,0.005590274930000305,-0.014892252162098885,0.010289246216416359,-0.0003031132509931922,0.01418894249945879
0.016917115077376366,0.005904999561607838,-0.01468921173363924,0.009435833431780338,-0.00031052532722242177,0.013117138296365738
0.01702854223549366,0.005320102442055941,-0.015289006754755974,0.009304783307015896,-0.00029517326038330793,0.013685609214007854
0.017182109877467155,0.005978364963084459,-0.015249587595462799,0.009327760897576809,-0.0003143911890219897,0.014105947688221931
0.01686752960085869,0.005688565317541361,-0.01585385762155056,0.009397170506417751,-0.00030973597313277423,0.01422184333205223
0.01704617589712143,0.005849591456353664,-0.015319201163947582,0.008991759270429611,-0.00029589212499558926,0.014385098591446877
0.016895612701773643,0.005668042693287134,-0.015100776217877865,0.00943480059504509,-0.00031248287996277213,0.014986139722168446
0.017290664836764336,0.00571864889934659,-0.015560041181743145,0.009892330504953861,-0.0003084783675149083,0.014795992523431778
0.017395921051502228,0.005813118070363998,-0.01494054775685072,0.00912594422698021,-0.00029639192507602274,0.014977231621742249
0.017157040536403656,0.006014236249029636,-0.015890412032604218,0.009444626979529858,-0.00036403234116733074,0.014658411964774132
0.01744535006582737,0.006389765068888664,-0.015386659651994705,0.008984793908894062,-0.0003613254230003804,0.015067020431160927
0.016959555447101593,0.005832682829350233,-0.015682751312851906,0.009324463084340096,-0.00033606469514779747,0.014635729603469372
0.01763475500047207,0.005871305242180824,-0.01503055915236473,0.009533022530376911,-0.0003128018870484084,0.01421007327735424
0.017830315977334976,0.006035592406988144,-0.01555232796818018,0.010019122622907162,-0.0002924667205661535,0.014100340195000172
0.017461638897657394,0.005993150174617767,-0.015155109576880932,0.010305250994861126,-0.00027461026911623776,0.014900573529303074
0.018378043547272682,0.006126020103693008,-0.015476087108254433,0.010021242313086987,-0.00025880965404212475,0.014869791455566883
0.017606010660529137,0.005440835375338793,-0.015170805156230927,0.009650024585425854,-0.00024472869699820876,0.015161514282226562
0.01780717819929123,0.005398670211434364,-0.015425588935613632,0.009987267665565014,-0.00023210150538943708,0.015236294828355312
0.017318272963166237,0.005874513182789087,-0.015027584508061409,0.010098363272845745,-0.0002589363430161029,0.01507212221622467
0.015532639808952808,0.006513385567814112,-0.015327113680541515,0.009739670902490616,-0.00025208338047377765,0.014794595539569855
0.015532639808952808,0.006513385567814112,-0.015327113680541515,0.009739670902490616,-0.00025208338047377765,0.014794595539569855
0.018398918211460114,0.005672627128660679,-0.01572389341890812,0.00943014770746231,-0.00024116541317198426,0.015243928879499435
0.017735371366143227,0.00568139785900712,-0.015532718040049076,0.010125530883669853,-0.00022140727378427982,0.015716977417469025
0.018082568421959877,0.006115297321230173,-0.015156732872128487,0.01019725389778614,-0.0002126858598785475,0.015771085396409035
0.018088651821017265,0.006332682445645332,-0.0159921757876873,0.010018166154623032,-0.0002046250010607764,0.015757719054818153
0.018423451110720634,0.006077413912862539,-0.015254195779561996,0.009433685801923275,-0.00022564761457033455,0.015306114219129086
0.018069393932819366,0.006040783133357763,-0.015679221600294113,0.009237464517354965,-0.0002216236462118104,0.015004378743469715
0.018395356833934784,0.0057563758455216885,-0.015132201835513115,0.009945560246706009,-0.00021433904475998133,0.015250008553266525
0.018930528312921524,0.005950246937572956,-0.0160765890032053,0.010714675299823284,-0.0002218211884610355,0.015442026779055595
0.018569236621260643,0.006446811370551586,-0.015527994371950626,0.009696455672383308,-0.00022838394215796143,0.01571054942905903
0.017969071865081787,0.005949454847723246,-0.015780601650476456,0.010669399984180927,-0.00022222330153454095,0.015488553792238235
0.018247636035084724,0.0058213272131979465,-0.01597362384200096,0.010301705449819565,-0.00021562512847594917,0.016126660630106926
0.01833181269466877,0.00601715873926878,-0.015893490985035896,0.009451967664062977,-0.00020955962827429175,0.015902169048786163
0.018581630662083626,0.0060403295792639256,-0.015742581337690353,0.010313529521226883,-0.0001859367621364072,0.01592164672911167
0.019317736849188805,0.006367542315274477,-0.015888338908553123,0.010661257430911064,-0.00017761712661013007,0.015893880277872086
0.018981676548719406,0.005759667605161667,-0.016458626836538315,0.010173356160521507,-0.00020265256171114743,0.015973689034581184
0.01876739412546158,0.005843750201165676,-0.015180732123553753,0.010661001317203045,-0.0001973189937416464,0.016076738014817238
0.018857527524232864,0.006565210875123739,-0.015934424474835396,0.010607863776385784,-0.0002180303999921307,0.01570357009768486
0.0187489353120327,0.00627980986610055,-0.015887752175331116,0.010098050348460674,-0.00023709853121545166,0.016526777297258377
0.018820764496922493,0.005958304740488529,-0.016070738434791565,0.010369330644607544,-0.0002368702262174338,0.015530908480286598
0.019352605566382408,0.005970116704702377,-0.015824172645807266,0.010498292744159698,-0.0005495910299941897,0.015692850574851036
0.019138554111123085,0.006067581009119749,-0.015671493485569954,0.010055329650640488,-0.0005843723774887621,0.015843989327549934
0.019225219264626503,0.006127381697297096,-0.015888435766100883,0.010523721575737,-0.000549217511434108,0.016243353486061096
0.01921776682138443,0.0064287493005394936,-0.015598622150719166,0.010189109481871128,-0.0005609175423160195,0.01615806668996811
0.019007645547389984,0.006033868994563818,-0.015778260305523872,0.010060097090899944,-0.0005324158119037747,0.016318660229444504
0.019358554854989052,0.005602638702839613,-0.015161179006099701,0.010268966667354107,-0.0005573679809458554,0.01653183624148369
0.019434843212366104,0.005732116289436817,-0.01605040952563286,0.010758506134152412,-0.0005219380254857242,0.016676275059580803
0.019422320649027824,0.0059099397622048855,-0.015553632751107216,0.010548274964094162,-0.0005701659247279167,0.017087673768401146
0.019752562046051025,0.006464515812695026,-0.015818214043974876,0.010584238916635513,-0.0006008208147250116,0.016573896631598473
0.02003168873488903,0.006292037665843964,-0.015635833144187927,0.010051028802990913,-0.0006190960411913693,0.016604147851467133
0.019384723156690598,0.006303090136498213,-0.015828821808099747,0.01015716977417469,-0.0006009859498590231,0.016621310263872147
0.019979484379291534,0.006144203711301088,-0.01577857881784439,0.010660503059625626,-0.0005630165687762201,0.01682259701192379
0.019979484379291534,0.006144203711301088,-0.01577857881784439,0.010660503059625626,-0.0005630165687762201,0.01682259701192379
0.01994345150887966,0.006458245683461428,-0.015980497002601624,0.010556661523878574,-0.0006408313638530672,0.01656077429652214
0.019449442625045776,0.006256049033254385,-0.015399042516946793,0.010407837107777596,-0.0005782819353044033,0.016781285405158997
0.019994014874100685,0.00577958021312952,-0.016135303303599358,0.009986983612179756,-0.0006016805418767035,0.01671142689883709
0.020077291876077652,0.005702854599803686,-0.01541189756244421,0.01041228324174881,-0.0005964583251625299,0.017086738720536232
0.01988549530506134,0.006286806892603636,-0.016255050897598267,0.010220921598374844,-0.000582037668209523,0.01705867052078247
0.02017713338136673,0.006697960197925568,-0.015809008851647377,0.010015388950705528,-0.0005722027271986008,0.01692955009639263
0.020294904708862305,0.006368389818817377,-0.016252851113677025,0.010732493363320827,-0.0005613466491922736,0.01705823466181755
0.020514540374279022,0.006232177373021841,-0.015872418880462646,0.010530353523790836,-0.0005227788933552802,0.01750655472278595
0.020192056894302368,0.005940900184214115,-0.015954263508319855,0.01041358895599842,-0.0005041980766691267,0.01765662431716919
0.020803725346922874,0.006358064245432615,-0.016112981364130974,0.010603265836834908,-0.00046866608317941427,0.01716901920735836
0.020624389871954918,0.005798016674816608,-0.0160762220621109,0.010267602279782295,-0.00042542224400676787,0.017272472381591797
0.020372886210680008,0.0055656107142567635,-0.016106173396110535,0.010784091427922249,-0.0003887053462676704,0.016667567193508148
0.020651349797844887,0.005178004968911409,-0.015619009733200073,0.010819814167916775,-0.0004242554714437574,0.01654377020895481
0.020720263943076134,0.00575262913480401,-0.01655440777540207,0.010733948089182377,-0.0003973536367993802,0.016967665404081345
0.020713012665510178,0.005553342867642641,-0.016760200262069702,0.011403612792491913,-0.00042369135189801455,0.017173856496810913
0.020854346454143524,0.005971095524728298,-0.016713803634047508,0.011271139606833458,-0.0004038189654238522,0.017919842153787613
0.01982312649488449,0.005341026466339827,-0.016467295587062836,0.011622067540884018,-0.0003799309488385916,0.018022214993834496
0.02109500952064991,0.005230720620602369,-0.01625736616551876,0.011343177407979965,-0.0003583439392969012,0.017398076131939888
0.021279776468873024,0.0052845412865281105,-0.016960328444838524,0.010893953032791615,-0.0003626677207648754,0.017671355977654457
0.021209824830293655,0.005551285110414028,-0.01613294519484043,0.011677680537104607,-0.0003660721704363823,0.01745826005935669
0.02147497795522213,0.005682813003659248,-0.016476742923259735,0.011284333653748035,-0.000349716458003968,0.017878979444503784
0.02180219255387783,0.005622062832117081,-0.01664023846387863,0.011104610748589039,-0.0003336029185447842,0.017923520877957344
0.02143254317343235,0.005184023641049862,-0.017344895750284195,0.01115794200450182,-0.0003188317350577563,0.017389360815286636
0.020789576694369316,0.005642774049192667,-0.016996556892991066,0.010995321907103062,-0.0003068790538236499,0.017180759459733963
0.02087382972240448,0.005355123430490494,-0.015958663076162338,0.011359325610101223,-0.00027826178120449185,0.017074164003133774
0.02130521833896637,0.005429411306977272,-0.01692955382168293,0.011449609883129597,-0.00026145580341108143,0.017986949533224106
0.02130521833896637,0.005429411306977272,-0.01692955382168293,0.011449609883129597,-0.00026145580341108143,0.017986949533224106
0.021709151566028595,0.005658728536218405,-0.016448847949504852,0.011749254539608955,-0.0002470548206474632,0.017283886671066284
0.021271662786602974,0.005649299826472998,-0.01681075245141983,0.010770211927592754,-0.0002640621969476342,0.018079586327075958
0.021753789857029915,0.00517092552036047,-0.01680491305887699,0.011603355407714844,-0.00025432679103687406,0.018675558269023895
0.021996134892106056,0.005225219298154116,-0.01757504604756832,0.011460564099252224,-0.00026285264175385237,0.018556177616119385
0.021623048931360245,0.005542706232517958,-0.016656596213579178,0.011249157600104809,-0.0002700068580452353,0.018248502165079117
0.02183755859732628,0.005592093802988529,-0.01679658703505993,0.011518174782395363,-0.0002600646985229105,0.01797647587954998
0.021650375798344612,0.00515231816098094,-0.016281725838780403,0.01130606234073639,-0.0002762131916824728,0.01806015707552433
0.021245552226901054,0.005105618387460709,-0.016856813803315163,0.01162540540099144,-0.00027402376872487366,0.018186651170253754
0.02126198075711727,0.00537043297663331,-0.017409464344382286,0.011526885442435741,-0.00026450041332282126,0.018254807218909264
0.0219521876424551,0.005217812489718199,-0.016752667725086212,0.011202564463019371,-0.0002551606157794595,0.01814843714237213
0.022210901603102684,0.006005138624459505,-0.017105162143707275,0.011782067827880383,-0.00031058210879564285,0.018322588875889778
0.02174617536365986,0.00541772460564971,-0.01618386246263981,0.01157644484192133,-0.000328788097249344,0.018076607957482338
0.02198205143213272,0.005425821524113417,-0.01673610880970955,0.011711092665791512,-0.00033577880822122097,0.018509838730096817
0.021934377029538155,0.005478457547724247,-0.016955068334937096,0.011733888648450375,-0.0003178067272529006,0.01875043846666813
0.02216886356472969,0.005650072358548641,-0.01708822511136532,0.01191932987421751,-0.00030024629086256027,0.018526313826441765
0.022085322067141533,0.005653079133480787,-0.01728091388940811,0.012226324528455734,-0.00032857133192010224,0.01890641637146473
0.022167367860674858,0.006270383484661579,-0.0166208203881979,0.012136601842939854,-0.0003150167176499963,0.018827898427844048
0.02216126024723053,0.005704104900360107,-0.01722242310643196,0.012445650063455105,-0.00034013597178272903,0.01852208748459816
0.02273806929588318,0.005396754015237093,-0.017076266929507256,0.012435025535523891,-0.0003272883768659085,0.018842725083231926
0.02227453514933586,0.005310763139277697,-0.017013315111398697,0.012505918741226196,-0.0004278483975213021,0.01904817670583725
0.021832598373293877,0.005542370490729809,-0.017061376944184303,0.012290230952203274,-0.00042560588917694986,0.018709447234869003
0.02241591177880764,0.005366919096559286,-0.01663941517472267,0.011958178132772446,-0.0004484418604988605,0.018721122294664383
0.022488202899694443,0.005687651224434376,-0.017550073564052582,0.012266725301742554,-0.00043057548464275897,0.01909525878727436
0.022193308919668198,0.005354688502848148,-0.01756340265274048,0.012173048220574856,-0.0004573824699036777,0.019201457500457764
0.022296037524938583,0.0058105746284127235,-0.01733621582388878,0.012337650172412395,-0.00043379186536185443,0.019351989030838013
0.022296037524938583,0.0058105746284127235,-0.01733621582388878,0.012337650172412395,-0.00043379186536185443,0.019351989030838013
0.022291723638772964,0.005532918497920036,-0.016649451106786728,0.01202772743999958,-0.0003817208926193416,0.01977546699345112
0.022291723638772964,0.005532918497920036,-0.016649451106786728,0.01202772743999958,-0.0003817208926193416,0.01977546699345112
0.023307111114263535,0.005963022354990244,-0.01738888956606388,0.011675586923956871,-0.0003404505259823054,0.01979660429060459
0.022677864879369736,0.005487217102199793,-0.0170375294983387,0.012063057161867619,-0.0003570293774828315,0.01955847442150116
0.02276688814163208,0.005732328165322542,-0.017210524529218674,0.012060769833624363,-0.0003503332263790071,0.019474804401397705
0.023378079757094383,0.005715921521186829,-0.016808632761240005,0.012139602564275265,-0.0003347406454849988,0.019587496295571327
0.02314283512532711,0.005622806027531624,-0.01735733076930046,0.012183623388409615,-0.0003199094790033996,0.019842203706502914
0.023129085078835487,0.005070024635642767,-0.017082052305340767,0.011761525645852089,-0.00031194451730698347,0.020148616284132004
0.02430596388876438,0.004931311123073101,-0.01733049936592579,0.01281061489135027,-0.0002946121385321021,0.02053230069577694
0.02388586476445198,0.005536237731575966,-0.017654389142990112,0.01211739331483841,-0.0003174403100274503,0.020147616043686867
0.023977303877472878,0.005178327672183514,-0.01715373620390892,0.012526705861091614,-0.00031185068655759096,0.019983230158686638
0.023487292230129242,0.005429813638329506,-0.017369886860251427,0.012729233130812645,-0.00029560751863755286,0.019944792613387108
0.023535510525107384,0.005568592809140682,-0.017418919131159782,0.01236354373395443,-0.0003207512490916997,0.020334064960479736
0.023962009698152542,0.005131750367581844,-0.01759006455540657,0.012360256165266037,-0.0003104805655311793,0.020342465490102768
0.02403176948428154,0.005652398336678743,-0.018304510042071342,0.011932328343391418,-0.0003328970924485475,0.02037775330245495
0.02370506152510643,0.005274163093417883,-0.01751338131725788,0.012841536663472652,-0.00032300761085934937,0.020830348134040833
0.024303168058395386,0.005466357339173555,-0.018221203237771988,0.012942028231918812,-0.00046032085083425045,0.021387699991464615
0.024862000718712807,0.005135765299201012,-0.017840584740042686,0.012960964813828468,-0.00043801727588288486,0.01982663944363594
0.025139525532722473,0.004942754283547401,-0.017382018268108368,0.012558883056044579,-0.00047484980314038694,0.020017269998788834
0.025061460211873055,0.005619673058390617,-0.018198823556303978,0.012419390492141247,-0.0004949524882249534,0.02048792876303196
0.024186471477150917,0.005371441133320332,-0.0179577749222517,0.012193102389574051,-0.000474693690193817,0.02105996198952198
0.024080751463770866,0.005349430721253157,-0.01862642541527748,0.011858576908707619,-0.0004731376830022782,0.021400876343250275
0.024818288162350655,0.005160728469491005,-0.018713943660259247,0.012278623878955841,-0.0004704127786681056,0.020881539210677147
0.025537122040987015,0.005309342872351408,-0.017481831833720207,0.012635995633900166,-0.0005126110627315938,0.019966313615441322
0.02556970715522766,0.005390849895775318,-0.018369954079389572,0.012784778140485287,-0.0005703856586478651,0.020416906103491783
0.025231892243027687,0.005190292373299599,-0.018570734187960625,0.012770392931997776,-0.0005605298792943358,0.021229932084679604
0.025554031133651733,0.005377925466746092,-0.01836244761943817,0.012240543961524963,-0.0005517724202945828,0.02135748416185379
0.025169335305690765,0.005123208276927471,-0.018009068444371223,0.01226041093468666,-0.0005416440544649959,0.020881861448287964
0.02550242654979229,0.005406826268881559,-0.017983589321374893,0.012566734105348587,-0.000562747532967478,0.020859116688370705
0.02398216351866722,0.005097271874547005,-0.01806248351931572,0.012160654179751873,-0.000686180021148175,0.022060826420783997
0.0257856585085392,0.005121822003275156,-0.017240747809410095,0.012444007210433483,-0.0006586479721590877,0.021276403218507767
0.0257856585085392,0.005121822003275156,-0.017240747809410095,0.012444007210433483,-0.0006586479721590877,0.021276403218507767
0.026422854512929916,0.005043528974056244,-0.01822025142610073,0.012001332826912403,-0.0006375059019774199,0.02066069282591343
0.026325900107622147,0.004893673583865166,-0.018923049792647362,0.012234790250658989,-0.0006175922462716699,0.02039867825806141
0.026169130578637123,0.00518565671518445,-0.018238984048366547,0.01263746339827776,-0.0006345087313093245,0.02075088396668434
0.025870466604828835,0.004960828926414251,-0.018177418038249016,0.01303081028163433,-0.0005927081219851971,0.021599750965833664
0.0261378176510334,0.00522218830883503,-0.017957519739866257,0.013037541881203651,-0.0006076141726225615,0.022272147238254547
0.02615744061768055,0.005077245179563761,-0.01810898259282112,0.01385178230702877,-0.0006336215883493423,0.02228790894150734
0.02652469091117382,0.004948912188410759,-0.018483567982912064,0.014277125708758831,-0.0006616531754843891,0.021977636963129044
0.02691713161766529,0.00515678571537137,-0.017904628068208694,0.014148950576782227,-0.0006096598226577044,0.021991541609168053
0.02603101171553135,0.0055746641010046005,-0.01829594187438488,0.014338430017232895,-0.0006303541595116258,0.021931298077106476
0.026620859280228615,0.005026478786021471,-0.01843622699379921,0.014173030853271484,-0.0005840497324243188,0.022063376381993294
0.027025669813156128,0.0047365231439471245,-0.017549073323607445,0.014274823479354382,-0.0006432635709643364,0.022016946226358414
0.026923377066850662,0.0047826641239225864,-0.01820649579167366,0.013903060927987099,-0.0005784755921922624,0.021891821175813675
0.027177954092621803,0.004871690645813942,-0.018129076808691025,0.014274879358708858,-0.0006017288542352617,0.022480690851807594
0.027516663074493408,0.0050969477742910385,-0.018076220527291298,0.013661353848874569,-0.0005521438433788717,0.02239583432674408
0.027391236275434494,0.005426071584224701,-0.01857483945786953,0.014053864404559135,-0.0005791679141111672,0.022071925923228264
0.027774428948760033,0.004916002508252859,-0.01808253675699234,0.013668796047568321,-0.0006060865707695484,0.02212008461356163
0.027752229943871498,0.004807652439922094,-0.01796507090330124,0.01407920103520155,-0.000652348855510354,0.022157980129122734
0.027769148349761963,0.004797989968210459,-0.01838073320686817,0.013427620753645897,-0.0006552780978381634,0.022006280720233917
0.028164491057395935,0.004740359261631966,-0.018025850877165794,0.01390071865171194,-0.0006314574857242405,0.02234986051917076
0.02822096459567547,0.004668581765145063,-0.018403036519885063,0.013815867714583874,-0.0006562347407452762,0.02253705821931362
0.02793903835117817,0.005269275978207588,-0.018570275977253914,0.013942617923021317,-0.0006623974768444896,0.02260352112352848
0.02836994081735611,0.00508927134796977,-0.018395885825157166,0.013766217045485973,-0.0006246252451092005,0.022334452718496323
0.02836994081735611,0.00508927134796977,-0.018395885825157166,0.013766217045485973,-0.0006246252451092005,0.022334452718496323
0.029176149517297745,0.004646161571145058,-0.018826209008693695,0.014080890454351902,-0.0006291576428338885,0.02249867282807827
0.028248177841305733,0.004916222766041756,-0.01787237636744976,0.014262300916016102,-0.0006351994816213846,0.02233731374144554
0.028248177841305733,0.004916222766041756,-0.01787237636744976,0.014262300916016102,-0.0006351994816213846,0.02233731374144554
0.02908479981124401,0.005134747829288244,-0.018739860504865646,0.014192517846822739,-0.0006014106329530478,0.022677818313241005
0.029318705201148987,0.004953591153025627,-0.018441785126924515,0.01400030218064785,-0.0006232428131625056,0.02290308102965355
0.028865734115242958,0.004705129191279411,-0.01855194941163063,0.013874809257686138,-0.0005780289648100734,0.023478219285607338
0.029656603932380676,0.00443795882165432,-0.018225308507680893,0.013808815740048885,-0.0005800588405691087,0.023551596328616142
0.030326558277010918,0.004173951223492622,-0.018683932721614838,0.01385082583874464,-0.0005558535340242088,0.0234204214066267
0.029763396829366684,0.004373783245682716,-0.01896720938384533,0.013742181472480297,-0.000545223883818835,0.022730965167284012
0.028529200702905655,0.004588535521179438,-0.018450835719704628,0.013460656628012657,-0.0005342707154341042,0.022258685901761055
0.0288399588316679,0.004843635950237513,-0.018602829426527023,0.01403440348803997,-0.0004886966198682785,0.02222583256661892
0.03044785186648369,0.004577397368848324,-0.018666500225663185,0.014822598546743393,-0.0004482758231461048,0.023445885628461838
0.030095893889665604,0.004150275606662035,-0.018332427367568016,0.015478656627237797,-0.00041389494435861707,0.02356872148811817
0.029995795339345932,0.004447648301720619,-0.018997257575392723,0.01532279048115015,-0.00044397293822839856,0.023439807817339897
0.029767975211143494,0.004752523731440306,-0.019077545031905174,0.01488786842674017,-0.000418362847995013,0.023755129426717758
0.029196467250585556,0.004413403104990721,-0.01840422861278057,0.014943858608603477,-0.00044101563980802894,0.02360186167061329
0.029226018115878105,0.004593149293214083,-0.018660489469766617,0.015432599000632763,-0.00042181002208963037,0.02357938513159752
0.02963307313621044,0.004593271762132645,-0.018732046708464622,0.01558557990938425,-0.00040485901990905404,0.02346646413207054
0.029940670356154442,0.004594053141772747,-0.01872425340116024,0.015023775398731232,-0.00037513981806114316,0.023056356236338615
0.029842551797628403,0.00419781357049942,-0.018803896382451057,0.015207866206765175,-0.00034649556619115174,0.02343836799263954
0.029518982395529747,0.004455946385860443,-0.01916034333407879,0.014800883829593658,-0.00038154106005094945,0.024371163919568062
0.02930300310254097,0.004688411019742489,-0.01931268908083439,0.01492490153759718,-0.000411879678722471,0.02459598332643509
0.029389798641204834,0.004636839032173157,-0.019987568259239197,0.014612630009651184,-0.000393482216168195,0.024604812264442444
0.02944541722536087,0.004746305290609598,-0.01901177316904068,0.01531633548438549,-0.0004166108265053481,0.024108225479722023
0.029939694330096245,0.004626105539500713,-0.018585745245218277,0.014741885475814342,-0.00039976753760129213,0.023983100429177284
0.029446201398968697,0.0046623507514595985,-0.01911706104874611,0.015334412455558777,-0.0004561599635053426,0.024013962596654892
0.028486885130405426,0.00444416468963027,-0.019357403740286827,0.014779104851186275,-0.00048057077219709754,0.02445046417415142
0.03010878711938858,0.004567866213619709,-0.01919969543814659,0.015195655636489391,-0.0005199310835450888,0.024285897612571716
0.03010878711938858,0.004567866213619709,-0.01919969543814659,0.015195655636489391,-0.0005199310835450888,0.024285897612571716
0.030013546347618103,0.004703914280980825,-0.01877877116203308,0.015015826560556889,-0.000538244959898293,0.02446271851658821
0.029203267768025398,0.004661683924496174,-0.019980380311608315,0.015442908741533756,-0.0006936331046745181,0.024597017094492912
0.029203267768025398,0.004661683924496174,-0.019980380311608315,0.015442908741533756,-0.0006936331046745181,0.024597017094492912
0.029935719445347786,0.004951040726155043,-0.019765537232160568,0.014920349232852459,-0.0007351281819865108,0.024684632197022438
0.030927246436476707,0.004950101487338543,-0.0195698831230402,0.015462412498891354,-0.0007562378305010498,0.024541495367884636
0.03017704375088215,0.004616160411387682,-0.01951240934431553,0.015023925341665745,-0.0006874998798593879,0.024689698591828346
0.030730847269296646,0.0050577521324157715,-0.019220562651753426,0.015032699331641197,-0.000702829915098846,0.024200251325964928
0.03093964047729969,0.005030568689107895,-0.018854044377803802,0.014718523249030113,-0.0007606720319017768,0.02417897991836071
0.03136409446597099,0.004823982249945402,-0.020999694243073463,0.014814076013863087,-0.000786975200753659,0.024753259494900703
0.03039499558508396,0.004569138865917921,-0.019527876749634743,0.014139409177005291,-0.0008024476701393723,0.02487143874168396
0.03018961288034916,0.004633750766515732,-0.019044283777475357,0.014861397445201874,-0.0007370591047219932,0.024905899539589882
0.030934050679206848,0.005193712655454874,-0.020204128697514534,0.015220717526972294,-0.0007304460159502923,0.0250686127692461
0.03090628609061241,0.004924227483570576,-0.019794970750808716,0.01580987125635147,-0.0006824666634202003,0.024673013016581535
0.03087286278605461,0.005016260780394077,-0.019026819616556168,0.016441287472844124,-0.0006762220873497427,0.02477913536131382
0.030880426988005638,0.004744693171232939,-0.01981133222579956,0.01571846194565296,-0.0006067184149287641,0.024756766855716705
0.030558040365576744,0.004829497542232275,-0.02031957358121872,0.01617591641843319,-0.0006349867326207459,0.024700220674276352
0.030381973832845688,0.0048289732076227665,-0.019736820831894875,0.015799257904291153,-0.0006438831333070993,0.02456190623342991
0.030924221500754356,0.005227604880928993,-0.019860072061419487,0.016001250594854355,-0.0006039912695996463,0.024730656296014786
0.03125477954745293,0.005016573704779148,-0.019989844411611557,0.016154181212186813,-0.0006204309174790978,0.025067390874028206
0.03143896907567978,0.004665547050535679,-0.019528236240148544,0.01652740314602852,-0.0006372004863806069,0.02520071715116501
0.031097959727048874,0.0050860317423939705,-0.019366944208741188,0.016793180257081985,-0.0006691323360428214,0.02471224218606949
0.031777143478393555,0.0049035269767045975,-0.020330967381596565,0.016439607366919518,-0.0006449546199291945,0.025168687105178833
0.03208031877875328,0.004938805475831032,-0.020023122429847717,0.016689378768205643,-0.0006688715075142682,0.025441093370318413
0.03106141835451126,0.00463725533336401,-0.0195445753633976,0.016364669427275658,-0.0006739076925441623,0.025470759719610214
0.032012805342674255,0.004921504762023687,-0.020028775557875633,0.016416458413004875,-0.0007478301995433867,0.02594362385571003
0.03159014880657196,0.005042842123657465,-0.019726915284991264,0.015753498300909996,-0.0008082909043878317,0.025909360498189926
0.03125244379043579,0.005155277904123068,-0.01935001276433468,0.015556644648313522,-0.0007629386964254081,0.025402521714568138
0.031689368188381195,0.004939762409776449,-0.02010074444115162,0.015100228600203991,-0.0007760539301671088,0.02467641420662403
0.03183268383145332,0.004807706922292709,-0.02011939510703087,0.015327638015151024,-0.0007449680706486106,0.024941125884652138
0.031991343945264816,0.0050056083127856255,-0.019994284957647324,0.015379473567008972,-0.0007984508411027491,0.02562701888382435
0.03282328322529793,0.005555022042244673,-0.01977233774960041,0.015882093459367752,-0.0007619459647685289,0.025553161278367043
0.03282328322529793,0.005555022042244673,-0.01977233774960041,0.015882093459367752,-0.0007619459647685289,0.025553161278367043
0.03246131166815758,0.0050756484270095825,-0.01958429627120495,0.015936974436044693,-0.0006719733355566859,0.02708692103624344
0.03236481547355652,0.004704718943685293,-0.019961347803473473,0.016504287719726562,-0.0006900810403749347,0.026721730828285217
0.03236087039113045,0.004743820521980524,-0.020396221429109573,0.016170525923371315,-0.0006705121486447752,0.02606598287820816
0.03276916593313217,0.0050132605247199535,-0.019852781668305397,0.016056349501013756,-0.0006493264809250832,0.025177327916026115
0.032612502574920654,0.0049094753339886665,-0.020079035311937332,0.01613420620560646,-0.0006464802427217364,0.02631058171391487
0.03276606276631355,0.00531766377389431,-0.02020243927836418,0.01634908840060234,-0.0005829887231811881,0.02684774063527584
0.03338741138577461,0.005246573127806187,-0.019546743482351303,0.016306284815073013,-0.0006060255691409111,0.026812704280018806
0.034133292734622955,0.0049598258920013905,-0.019638625904917717,0.016018640249967575,-0.0005556957912631333,0.026274528354406357
0.0341641791164875,0.00521415751427412,-0.02074604481458664,0.016358619555830956,-0.0005825439584441483,0.026143765076994896
0.032191433012485504,0.005140801891684532,-0.021460160613059998,0.016115481033921242,-0.0005942765856161714,0.026513593271374702
0.03301246836781502,0.004899628460407257,-0.01993655599653721,0.016642330214381218,-0.0006286471034400165,0.02651969902217388
0.034340016543865204,0.005307232029736042,-0.02016780897974968,0.01650337502360344,-0.0006985375075601041,0.026509353891015053
0.03408920764923096,0.0051887440495193005,-0.019990185275673866,0.016735583543777466,-0.0006463075987994671,0.026532365009188652
0.03483213856816292,0.004934315104037523,-0.019603315740823746,0.01685064099729061,-0.000668431050144136,0.026745645329356194
0.03379253298044205,0.005149525124579668,-0.020110255107283592,0.016329489648342133,-0.0006516497815027833,0.02665247954428196
0.03355543315410614,0.005061009898781776,-0.020730409771203995,0.016631918027997017,-0.0006326907896436751,0.026769984513521194
0.0331207811832428,0.004817191511392593,-0.020738152787089348,0.016500094905495644,-0.0007325096521526575,0.027085332199931145
0.034254975616931915,0.005305884405970573,-0.019672125577926636,0.017115972936153412,-0.0007344906334765255,0.027071580290794373
0.03471200168132782,0.0052758194506168365,-0.020354732871055603,0.017679641023278236,-0.0007257864344865084,0.02666940726339817
0.03363344073295593,0.004963775165379047,-0.02105729840695858,0.017393313348293304,-0.0006953208358027041,0.02681257203221321
0.03515344858169556,0.005141320638358593,-0.02089020051062107,0.017177658155560493,-0.000712449720595032,0.02680453658103943
0.03449470177292824,0.005153940990567207,-0.020315397530794144,0.016332056373357773,-0.0006565507501363754,0.02667783573269844
0.03431255370378494,0.004889713600277901,-0.02117457054555416,0.016756873577833176,-0.0006607793038710952,0.0268368199467659
0.03496290370821953,0.005317392759025097,-0.01961665414273739,0.01722266711294651,-0.0006926445639692247,0.02712223306298256
0.03453633934259415,0.005217859521508217,-0.02021610550582409,0.017376050353050232,-0.0007130856392905116,0.027101663872599602
0.03453633934259415,0.005217859521508217,-0.02021610550582409,0.017376050353050232,-0.0007130856392905116,0.027101663872599602
0.03517060726881027,0.004928365349769592,-0.02146434783935547,0.016650712117552757,-0.0006707635475322604,0.026901215314865112
0.03554612025618553,0.0048726461827754974,-0.02107120119035244,0.01695599965751171,-0.0007547059212811291,0.02729307860136032
0.03523692861199379,0.005206978414207697,-0.020764190703630447,0.017039112746715546,-0.0007526324479840696,0.02855777181684971
0.03495674952864647,0.005593194626271725,-0.020989706739783287,0.017464088276028633,-0.0006865109317004681,0.028413517400622368
0.03607408329844475,0.005171918775886297,-0.020950406789779663,0.018064390867948532,-0.0007049902342259884,0.02768251672387123
0.03715042397379875,0.005233201663941145,-0.0205384511500597,0.016976889222860336,-0.0007244122680276632,0.026820985600352287
0.0350356251001358,0.004970151465386152,-0.020639268681406975,0.017427250742912292,-0.0007399320602416992,0.0276201032102108
0.034898169338703156,0.004664435051381588,-0.021111372858285904,0.01717968098819256,-0.0007574190967716277,0.028590643778443336
0.03616809472441673,0.005086400080472231,-0.020979193970561028,0.016813911497592926,-0.0007754484540782869,0.028271595016121864
0.035649724304676056,0.005469841416925192,-0.02006634883582592,0.017117341980338097,-0.0007896749302744865,0.02858404815196991
0.03696708381175995,0.0054772826842963696,-0.02090255171060562,0.017262155190110207,-0.0009302424732595682,0.029337430372834206
0.0367577038705349,0.005113526247441769,-0.02139984257519245,0.01808883622288704,-0.000950766378082335,0.02844669483602047
0.03580125793814659,0.004906680900603533,-0.020780878141522408,0.018069295212626457,-0.0008427480352111161,0.028576349839568138
0.035235967487096786,0.005113031715154648,-0.0205204039812088,0.017293797805905342,-0.0008353618904948235,0.027873633429408073
0.036743730306625366,0.0053539215587079525,-0.021146835759282112,0.018088217824697495,-0.0008420665399171412,0.028675654903054237
0.036708585917949677,0.0052968356758356094,-0.020726926624774933,0.018174700438976288,-0.0008091339841485023,0.029528457671403885
0.035584937781095505,0.005369810853153467,-0.020359568297863007,0.01897166669368744,-0.0008072999771684408,0.0290818028151989
0.03639920428395271,0.005244899075478315,-0.020934855565428734,0.018287241458892822,-0.000788481964264065,0.02868897281587124
0.036435991525650024,0.005039658863097429,-0.02119789458811283,0.017427127808332443,-0.0008266237564384937,0.028990130871534348
0.03629780188202858,0.005233113653957844,-0.020373310893774033,0.018010033294558525,-0.0008927483577281237,0.028664857149124146
0.03597964346408844,0.005101082380861044,-0.020313456654548645,0.01761896163225174,-0.0008475325885228813,0.028338640928268433
0.036205414682626724,0.005330817308276892,-0.020482823252677917,0.017606588080525398,-0.0008525713928975165,0.02870192937552929
0.036460161209106445,0.005055619869381189,-0.020341787487268448,0.01792869158089161,-0.0008031675824895501,0.0292253028601408
0.036885038018226624,0.00475637661293149,-0.02118523232638836,0.018380561843514442,-0.0007705693715251982,0.029541075229644775
0.03694824501872063,0.005197165068238974,-0.02112448960542679,0.018594229593873024,-0.0007144914125092328,0.029438935220241547
0.03694824501872063,0.005197165068238974,-0.02112448960542679,0.018594229593873024,-0.0007144914125092328,0.029438935220241547
0.03635070472955704,0.004943470004945993,-0.020234541967511177,0.018189454451203346,-0.0006858845008537173,0.029139872640371323
0.036377184092998505,0.005037128459662199,-0.02030196599662304,0.018133103847503662,-0.000708571751601994,0.02953847497701645
0.03570961579680443,0.004806964658200741,-0.02063610963523388,0.017996450886130333,-0.0006822080467827618,0.02955448441207409
0.03737679496407509,0.004633424803614616,-0.02061595767736435,0.017792681232094765,-0.0007004591170698404,0.029493853449821472
0.03761623427271843,0.00428753811866045,-0.020492881536483765,0.01827714592218399,-0.0007373855914920568,0.029689490795135498
0.03716212511062622,0.004945504944771528,-0.02119009755551815,0.018310923129320145,-0.0007141018286347389,0.02970035932958126
0.03724675253033638,0.004874019417911768,-0.021089201793074608,0.01878996565937996,-0.0007116919732652605,0.02952992171049118
0.03755386918783188,0.004914071876555681,-0.020761758089065552,0.018940214067697525,-0.0006532633560709655,0.029801415279507637
0.03709263727068901,0.004886095877736807,-0.020833801478147507,0.018326662480831146,-0.0006745584541931748,0.029585501179099083
0.03762727975845337,0.00506376288831234,-0.021481599658727646,0.018261848017573357,-0.0006903106113895774,0.029666248708963394
0.03744906187057495,0.00492920121178031,-0.022310743108391762,0.01811392977833748,-0.0006395956152118742,0.029044216498732567
0.03729569911956787,0.004749485291540623,-0.021163616329431534,0.017705146223306656,-0.0006274260231293738,0.03043593093752861
0.03710929676890373,0.004739871248602867,-0.02131105586886406,0.018258461728692055,-0.0005581713630817831,0.030250949785113335
0.037725046277046204,0.005184066016227007,-0.021451858803629875,0.017808793112635612,-0.0005823876708745956,0.030679546296596527
0.03898608684539795,0.005112366285175085,-0.021354783326387405,0.017870215699076653,-0.0006015353137627244,0.031527210026979446
0.038015156984329224,0.004754640161991119,-0.021222680807113647,0.017919272184371948,-0.0006074441480450332,0.030431058257818222
0.03688404709100723,0.004612389951944351,-0.02163560502231121,0.01734146475791931,-0.0005942611023783684,0.029506472870707512
0.03768392652273178,0.0048382035456597805,-0.021406549960374832,0.017691131681203842,-0.0007222498534247279,0.029627950862050056
0.03729739412665367,0.004638290498405695,-0.021527694538235664,0.01820368506014347,-0.0007596067734993994,0.03099292889237404
0.03845367953181267,0.004895731806755066,-0.021315833553671837,0.018234381452202797,-0.0008029915625229478,0.030368607491254807
0.03895679861307144,0.0049465978518128395,-0.021841466426849365,0.018519433215260506,-0.0007465686649084091,0.03105388768017292
0.03801736608147621,0.004797777626663446,-0.021843012422323227,0.0182063989341259,-0.0009087776415981352,0.031347889453172684
0.03720806911587715,0.004618416540324688,-0.021781057119369507,0.018177926540374756,-0.0009234166936948895,0.030963396653532982
0.03882418945431709,0.0039043626748025417,-0.02088063955307007,0.018371470272541046,-0.0008059375686571002,0.029902582988142967
0.038606129586696625,0.003379907924681902,-0.021344907581806183,0.018622761592268944,-0.0007242869469337165,0.030618296936154366
0.03869422897696495,0.003636215580627322,-0.021974457427859306,0.0185711570084095,-0.0006945682689547539,0.031052472069859505
0.03816181793808937,0.003919924143701792,-0.02151956595480442,0.018153632059693336,-0.0006700929952785373,0.03093707375228405
0.03913969546556473,0.004391506779938936,-0.021430963650345802,0.0186674352735281,-0.0005981362191960216,0.0308636836707592
0.03913969546556473,0.004391506779938936,-0.021430963650345802,0.0186674352735281,-0.0005981362191960216,0.0308636836707592
0.03871885687112808,0.004115778487175703,-0.021440323442220688,0.019217485561966896,-0.0005272153066471219,0.03121442161500454
0.03858879208564758,0.003886228194460273,-0.021829262375831604,0.01951892487704754,-0.0005592621746473014,0.03086966834962368
0.03902581334114075,0.003845625091344118,-0.02134747989475727,0.019687769934535027,-0.0005743768415413797,0.03126968443393707
0.038538407534360886,0.0038893818855285645,-0.021372413262724876,0.01947152428328991,-0.0006015076651237905,0.0312526635825634
0.0392148531973362,0.004399653524160385,-0.021838588640093803,0.018396785482764244,-0.0006985752261243761,0.03115253336727619
0.03971684351563454,0.004581139888614416,-0.0218160692602396,0.01821824535727501,-0.0008323303190991282,0.030848124995827675
0.03791476786136627,0.004375468008220196,-0.021421493962407112,0.018266586586833,-0.0008484727004542947,0.03108261339366436
0.038237567991018295,0.004050109535455704,-0.021376656368374825,0.018905935809016228,-0.0008551692590117455,0.031507708132267
0.03897541016340256,0.003819541772827506,-0.021803036332130432,0.01950298622250557,-0.0009121840121224523,0.030513562262058258
0.03903619945049286,0.0037504062056541443,-0.022129544988274574,0.019030872732400894,-0.0009534209966659546,0.031438954174518585
0.04002336040139198,0.0040749479085206985,-0.02231713756918907,0.018400659784674644,-0.0008780558127909899,0.03214758634567261
0.03898170217871666,0.003970104735344648,-0.022337116301059723,0.019579995423555374,-0.0008513237116858363,0.0314396433532238
0.03759203106164932,0.0037529997061938047,-0.022577734664082527,0.01992412656545639,-0.0007746529299765825,0.03159123659133911
0.03929269313812256,0.004339495673775673,-0.02254887856543064,0.019987300038337708,-0.0007828768575564027,0.031545501202344894
0.03987041488289833,0.00415543420240283,-0.02231767401099205,0.019801080226898193,-0.000729281862732023,0.03199506551027298
0.039342284202575684,0.0035691210068762302,-0.02206270769238472,0.01905910111963749,-0.0006380897248163819,0.031284231692552567
0.0391654297709465,0.0035158165264874697,-0.022478308528661728,0.018785271793603897,-0.0006629259441979229,0.031301937997341156
0.03915853798389435,0.004192644264549017,-0.022706717252731323,0.0193354282528162,-0.00068189442390576,0.033265337347984314
0.03924671560525894,0.004433682654052973,-0.02234247885644436,0.01918770931661129,-0.0006915585836395621,0.03301459923386574
0.03973007574677467,0.004289291799068451,-0.022329995408654213,0.019048241898417473,-0.0007358873263001442,0.03151453658938408
0.03881900757551193,0.004119927994906902,-0.02261926420032978,0.01983371376991272,-0.0008108166512101889,0.030879292637109756
0.03925956040620804,0.00404649693518877,-0.022350599989295006,0.020211437717080116,-0.000826433883048594,0.03194060176610947
0.03960099071264267,0.004213065840303898,-0.0224069282412529,0.019448069855570793,-0.000760293856728822,0.0325569324195385
0.03973393887281418,0.0042396290227770805,-0.022070854902267456,0.01936968043446541,-0.0006994226132519543,0.03324517607688904
0.03973393887281418,0.0042396290227770805,-0.022070854902267456,0.01936968043446541,-0.0006994226132519543,0.03324517607688904
0.03979165479540825,0.0046095456928014755,-0.022190194576978683,0.01903476193547249,-0.000731692009139806,0.03238764405250549
0.0399080328643322,0.004282077308744192,-0.022686487063765526,0.019301384687423706,-0.0007466836250387132,0.031159568578004837
0.04027885943651199,0.00460118567571044,-0.023026084527373314,0.01944981887936592,-0.0007413990097120404,0.03272639960050583
0.04027885943651199,0.00460118567571044,-0.023026084527373314,0.01944981887936592,-0.0007413990097120404,0.03272639960050583
0.04031054675579071,0.004204966127872467,-0.022781698033213615,0.01937090791761875,-0.0007124391268007457,0.03261302784085274
0.04084218665957451,0.004079075064510107,-0.022324897348880768,0.019297031685709953,-0.0007061545038595796,0.03237219154834747
0.04020417854189873,0.004108380991965532,-0.022907502949237823,0.018946856260299683,-0.0006598151521757245,0.03348163515329361
0.04073682054877281,0.004478724207729101,-0.02313169836997986,0.01895788311958313,-0.0007409727550111711,0.033500585705041885
0.04050325229763985,0.004253550432622433,-0.02312634326517582,0.019263694062829018,-0.0007625279831700027,0.032992471009492874
0.04069162905216217,0.004505698103457689,-0.02205556258559227,0.019173700362443924,-0.0007331836968660355,0.03300901874899864
0.04069085791707039,0.00464852899312973,-0.023043472319841385,0.019761744886636734,-0.0008624329348094761,0.03290906175971031
0.040750667452812195,0.004215933382511139,-0.023896770551800728,0.019962608814239502,-0.0008749573607929051,0.03312607854604721
0.04068133980035782,0.003934220410883427,-0.02365504391491413,0.01960749924182892,-0.00087007787078619,0.03318048641085625
0.041983868926763535,0.00418999046087265,-0.02238200232386589,0.019272731617093086,-0.0008587376214563847,0.03319895640015602
0.042401619255542755,0.004588110838085413,-0.022400420159101486,0.019756799563765526,-0.0007999694789759815,0.03342638537287712
0.04025380313396454,0.004591045901179314,-0.023360982537269592,0.019551461562514305,-0.0008877606014721096,0.033552490174770355
0.04052252694964409,0.00422484939917922,-0.02282947115600109,0.019545987248420715,-0.0009118813322857022,0.03317800909280777
0.041358061134815216,0.00444036116823554,-0.022889506071805954,0.01977463625371456,-0.0009118114248849452,0.03362094610929489
0.04178350418806076,0.00418002950027585,-0.023349469527602196,0.019696224480867386,-0.0010752531234174967,0.03337427228689194
0.042833905667066574,0.00423343013972044,-0.02313716523349285,0.019738327711820602,-0.0010716263204813004,0.033563315868377686
0.041572097688913345,0.004184001125395298,-0.023088322952389717,0.020061898976564407,-0.001044575939886272,0.033604927361011505
0.04058895632624626,0.004330312367528677,-0.02312387339770794,0.019905906170606613,-0.0009657274349592626,0.03416914492845535
0.04222528636455536,0.004543202463537455,-0.023324523121118546,0.0195317342877388,-0.0008996450924314559,0.03410324826836586
0.0418068990111351,0.0045539909042418,-0.02315990999341011,0.019712693989276886,-0.000749884289689362,0.03522893041372299
0.04184636101126671,0.004307552240788937,-0.023376408964395523,0.01977834291756153,-0.0007653501816093922,0.036020323634147644
0.04190322011709213,0.0044095865450799465,-0.02318478561937809,0.020512357354164124,-0.0007808672962710261,0.03444390371441841
0.04208015650510788,0.004531728569418192,-0.023594191297888756,0.020421193912625313,-0.0008872532052919269,0.03280973434448242
0.04208015650510788,0.004531728569418192,-0.023594191297888756,0.020421193912625313,-0.0008872532052919269,0.03280973434448242
0.041997358202934265,0.004844077862799168,-0.02345302142202854,0.019820895045995712,-0.0009837733814492822,0.034104786813259125
0.0420382097363472,0.004463500808924437,-0.0234344732016325,0.020289544016122818,-0.000976646551862359,0.03450740501284599
0.043564025312662125,0.004954384174197912,-0.02347750961780548,0.020779775455594063,-0.0009828145848587155,0.035159219056367874
0.04238268733024597,0.004855719394981861,-0.023387670516967773,0.02059049904346466,-0.0010401789331808686,0.03560621291399002
0.04083942249417305,0.004380101803690195,-0.02390899322926998,0.020734744146466255,-0.001049384824000299,0.03500998765230179
0.042470503598451614,0.004383255261927843,-0.02393832989037037,0.02180679701268673,-0.000969782005995512,0.033295027911663055
0.04287930577993393,0.004304857458919287,-0.023234479129314423,0.02144625410437584,-0.0008950367919169366,0.03380260244011879
0.04354439303278923,0.0043453313410282135,-0.02307114005088806,0.02073563262820244,-0.0007871348061598837,0.03555946424603462
0.043333567678928375,0.004682585597038269,-0.023258835077285767,0.020213330164551735,-0.0007856767624616623,0.035569529980421066
0.04142703488469124,0.00490975147113204,-0.02391826920211315,0.020863300189375877,-0.0007221665000542998,0.03519171476364136
0.0430658720433712,0.0048098196275532246,-0.024255521595478058,0.020861634984612465,-0.0006728253210894763,0.03458717092871666
0.04328319430351257,0.004240091890096664,-0.023062430322170258,0.020706700161099434,-0.0007222291897051036,0.03458781912922859
0.04329677298665047,0.004179863259196281,-0.022929582744836807,0.020528892055153847,-0.000742803793400526,0.03611798211932182
0.04297727718949318,0.004154466558247805,-0.023508166894316673,0.020819295197725296,-0.00090217893011868,0.03607240691781044
0.04298563674092293,0.0044356402941048145,-0.023766735568642616,0.02062259055674076,-0.0010041875066235662,0.03558811917901039
0.04299456626176834,0.0046217720955610275,-0.023668259382247925,0.020734697580337524,-0.0009204607922583818,0.035235680639743805
0.043509624898433685,0.004711903631687164,-0.023573966696858406,0.020600227639079094,-0.000912844086997211,0.035548046231269836
0.04321146011352539,0.0043984693475067616,-0.02289053425192833,0.020434830337762833,-0.0009029493085108697,0.03535357117652893
0.043406128883361816,0.004028968513011932,-0.023471733555197716,0.01978246308863163,-0.0008471087203361094,0.03526807576417923
