davideferrari95/blind_handover_controller/data/Test 264 - [2024-02-08 -- 12-50-17]/joint_states_data.csv
shoulder_pan_joint,shoulder_lift_joint,elbow_joint,wrist_1_joint,wrist_2_joint,wrist_3_joint
0.005146287381649017,0.010787430219352245,-0.011610354296863079,0.0024375850334763527,-0.0,0.005635326262563467
0.005146287381649017,0.010787430219352245,-0.011610354296863079,0.0024375850334763527,-0.0,0.005635326262563467
0.005570112261921167,0.010337034240365028,-0.011206809431314468,0.002535367151722312,-0.0,0.0059514958411455154
0.0053891451098024845,0.011067373678088188,-0.011403956450521946,0.002521481364965439,-0.0,0.005388003308326006
0.0055055152624845505,0.010562865994870663,-0.011044374667108059,0.002426013583317399,-0.0,0.0051978821866214275
0.005198715720325708,0.010205644182860851,-0.010805387049913406,0.002266488503664732,-0.0,0.005547225940972567
0.005146925337612629,0.011406033299863338,-0.011678864248096943,0.0024667803663760424,-0.0,0.005266992375254631
0.005489801522344351,0.01004579197615385,-0.011001610197126865,0.002250240882858634,-0.0,0.005644320975989103
0.005254226736724377,0.009834038093686104,-0.010866244323551655,0.002214825712144375,-0.0,0.005287466570734978
0.00523681566119194,0.010811073705554008,-0.011222496628761292,0.002144319238141179,-0.0,0.005381952505558729
0.005244431085884571,0.010018117725849152,-0.010862501338124275,0.00228816457092762,-0.0,0.005233037751168013
0.005549548659473658,0.010078360326588154,-0.011050543747842312,0.0023305523209273815,-0.0,0.0050142849795520306
0.005332045257091522,0.010145208798348904,-0.010781296528875828,0.0022283708676695824,-0.0,0.005651995539665222
0.0051384964026510715,0.010407749563455582,-0.010648061521351337,0.00230953237041831,-0.0,0.005621650256216526
0.0051964963786304,0.010064341127872467,-0.01194151584059,0.002216245047748089,-0.0,0.005350071471184492
0.005238265730440617,0.00975849386304617,-0.010565705597400665,0.0023307555820792913,-0.0,0.005090158898383379
0.005556401796638966,0.010083663277328014,-0.010399667546153069,0.0022549487184733152,-0.0,0.005760894622653723
0.005168766714632511,0.010069997981190681,-0.010336912237107754,0.0021512650419026613,-0.0,0.005552366375923157
0.005042545963078737,0.009565940126776695,-0.01034423615783453,0.0020531669724732637,-0.0,0.005894113332033157
0.005042545963078737,0.009565940126776695,-0.01034423615783453,0.0020531669724732637,-0.0,0.005894113332033157
0.005852831527590752,0.00993506982922554,-0.010797328315675259,0.001995227998122573,-0.0,0.005821645725518465
0.005321710370481014,0.00957427453249693,-0.010915658436715603,0.001939407316967845,-0.0,0.0056518022902309895
0.005208197981119156,0.009477192535996437,-0.010594263672828674,0.0019807068165391684,-0.0,0.005247939843684435
0.005000787321478128,0.00938846543431282,-0.01105671189725399,0.002050592564046383,-0.0,0.004965375177562237
0.005533356685191393,0.009699678979814053,-0.01074965950101614,0.0021578362211585045,-0.0,0.0051917703822255135
0.005900667514652014,0.009490646421909332,-0.011024612002074718,0.0020327470265328884,-0.0,0.005284719634801149
0.005321543198078871,0.00929997581988573,-0.010365471243858337,0.002119068056344986,-0.0,0.005028803367167711
0.004983414895832539,0.009386555291712284,-0.010634131729602814,0.0020761750638484955,-0.0,0.004984115716069937
0.005194318015128374,0.00883487518876791,-0.010527057573199272,0.0020952336490154266,-0.0,0.005137784872204065
0.005327075254172087,0.009105661883950233,-0.010843494907021523,0.001983713125810027,-0.0,0.005446653347462416
0.005556190852075815,0.009460102766752243,-0.011320804245769978,0.001994563266634941,-0.0,0.005445687100291252
0.005480984691530466,0.009286623448133469,-0.011191665194928646,0.0019266424933448434,-0.0,0.005410962738096714
0.005572451278567314,0.008697626180946827,-0.010170143097639084,0.001962329726666212,-0.0,0.0050742654129862785
0.0051507302559912205,0.009349608793854713,-0.010786011815071106,0.0019072238355875015,-0.0,0.005337461829185486
0.004920014645904303,0.008837290108203888,-0.010833701118826866,0.0019464421784505248,-0.0,0.005279558710753918
0.004985441453754902,0.00880910363048315,-0.010471433401107788,0.0017597249243408442,-0.0,0.00513280276209116
0.0049220784567296505,0.009314986877143383,-0.010758582502603531,0.001786347129382193,-0.0,0.0052432348020374775
0.004658152349293232,0.008865749463438988,-0.010379737243056297,0.0017003919929265976,-0.0,0.005358975846320391
0.005055063869804144,0.008704526349902153,-0.010793561115860939,0.0019761824514716864,-0.0,0.005536714568734169
0.004952982999384403,0.008982520550489426,-0.010898240841925144,0.0018930414225906134,-0.0,0.005301699973642826
0.004503830801695585,0.009874760173261166,-0.010241511277854443,0.002097068354487419,-0.0,0.005910860374569893
0.004576333332806826,0.008551361970603466,-0.010821184143424034,0.0019993032328784466,-0.0,0.005591104738414288
0.005265521351248026,0.008449247106909752,-0.010479485616087914,0.00193210958968848,-0.0,0.005305014550685883
0.005295238923281431,0.009192409925162792,-0.011038955301046371,0.0018151662079617381,-0.0,0.005279941018670797
0.004948198329657316,0.009106773883104324,-0.011326568201184273,0.0018872114596888423,-0.0,0.0051867240108549595
0.004640528932213783,0.008546029217541218,-0.010800971649587154,0.0017929181922227144,-0.0,0.005428245756775141
0.004640528932213783,0.008546029217541218,-0.010800971649587154,0.0017929181922227144,-0.0,0.005428245756775141
0.004607812501490116,0.008905630558729172,-0.010950669646263123,0.002003223868086934,-0.0,0.00583301205188036
0.004688872955739498,0.00928778201341629,-0.010928912088274956,0.0022442094050347805,-0.0,0.005772198550403118
0.0052214115858078,0.008669964969158173,-0.010567002929747105,0.002279337728396058,-0.0,0.005311983171850443
0.005013238172978163,0.008252103812992573,-0.011259131133556366,0.0021600890904664993,-0.0,0.004874125588685274
0.005235080607235432,0.009236249141395092,-0.011336712166666985,0.002074180170893669,-0.0,0.0050735496915876865
0.00476821418851614,0.008487502112984657,-0.01120978407561779,0.0017732937121763825,-0.0,0.005391460843384266
0.005106531549245119,0.009409606456756592,-0.010501544922590256,0.0018297197530046105,-0.0,0.005219410173594952
0.005476522725075483,0.008902234956622124,-0.010874167084693909,0.0021056481637060642,-0.0,0.0052681793458759785
0.005035378038883209,0.008665923960506916,-0.011220780201256275,0.0022819903679192066,-0.0,0.0054779574275016785
0.005263993516564369,0.009252491407096386,-0.010578103363513947,0.00224044406786561,-0.0,0.005088953301310539
0.005117630586028099,0.009744005277752876,-0.01111158262938261,0.0022279564291238785,-0.0,0.005303274840116501
0.00517778005450964,0.0087300268933177,-0.010946662165224552,0.0020163084845989943,-0.0,0.0052970824763178825
0.0055386400781571865,0.009368561208248138,-0.011608134023845196,0.0020082900300621986,-0.0,0.004905856680124998
0.005177167244255543,0.00909491814672947,-0.012154503725469112,0.0019009113311767578,-0.0,0.004867414478212595
0.005239950027316809,0.009127593599259853,-0.011442957445979118,0.0021132922265678644,-0.0,0.005287551786750555
0.005418115295469761,0.009141666814684868,-0.0114729730412364,0.0020272540859878063,-0.0,0.005053591448813677
0.005631734617054462,0.009844743646681309,-0.01105174794793129,0.0020158595871180296,-0.0,0.004864792805165052
0.005308113526552916,0.008929183706641197,-0.011268875561654568,0.0018846215680241585,-0.0,0.005077375564724207
0.00552589213475585,0.008609387092292309,-0.011497709900140762,0.0018078507855534554,-0.0,0.0052341376431286335
0.00555842649191618,0.009107513353228569,-0.010818958282470703,0.0017102897400036454,-0.0,0.005711087957024574
0.0053234524093568325,0.008943048305809498,-0.010698861442506313,0.001808772562071681,-0.0,0.005560015793889761
0.005327158607542515,0.008796877227723598,-0.010897723026573658,0.0019462641794234514,-0.0,0.005690496880561113
0.005018060561269522,0.009201839566230774,-0.010953749530017376,0.002075465861707926,-0.0,0.005517136305570602
0.004885176662355661,0.008928444236516953,-0.011528102681040764,0.001971188932657242,-0.0,0.005268525797873735
0.005877485498785973,0.008891528472304344,-0.010736865922808647,0.0018872503424063325,-0.0,0.0050696381367743015
0.005619871895760298,0.009326807223260403,-0.011523393914103508,0.001803432940505445,-0.0,0.00514170341193676
0.005727681796997786,0.00916070956736803,-0.011007696390151978,0.0019580780062824488,-0.0,0.005322471726685762
0.005366105120629072,0.009289011359214783,-0.010168937966227531,0.0019619474187493324,-0.0,0.005356873385608196
0.005290815141052008,0.00921183917671442,-0.011158997192978859,0.0021590888500213623,-0.0,0.005662009119987488
0.005570067558437586,0.009592189453542233,-0.011212341487407684,0.0021721594966948032,-0.0,0.005358675494790077
0.006066309288144112,0.008754980750381947,-0.010691835545003414,0.002195355948060751,-0.0,0.005188323557376862
0.0056757391430437565,0.00853077694773674,-0.011304302141070366,0.0021296648774296045,-0.0,0.005387540906667709
0.0056757391430437565,0.00853077694773674,-0.011304302141070366,0.0021296648774296045,-0.0,0.005387540906667709
0.005703124217689037,0.009231306612491608,-0.011052669957280159,0.0020528477616608143,-0.0,0.0056512788869440556
0.005407266318798065,0.008911481127142906,-0.010313153266906738,0.002195078879594803,-0.0,0.005822407081723213
0.005791707430034876,0.008803682401776314,-0.010720530524849892,0.0020547599997371435,-0.0,0.005540014710277319
0.005938889924436808,0.009087493643164635,-0.011064623482525349,0.0020196170080453157,-0.0,0.005133145023137331
0.005923890974372625,0.008591614663600922,-0.011245384812355042,0.001910727471113205,-0.0,0.0055136592127382755
0.005304494872689247,0.008593017235398293,-0.01032231468707323,0.001811081194318831,-0.0,0.005508689675480127
0.0057031577453017235,0.008741363883018494,-0.01077647041529417,0.001888011465780437,-0.0,0.005623490083962679
0.005806926637887955,0.008654302917420864,-0.010255015455186367,0.001957303611561656,-0.0,0.005424526520073414
0.006156889721751213,0.008809644728899002,-0.010054579004645348,0.002046569949015975,-0.0,0.005483773536980152
0.005633448716253042,0.008751974441111088,-0.011066585779190063,0.002176134381443262,-0.0,0.00554024800658226
0.005352172534912825,0.00855160690844059,-0.010547361336648464,0.002170112682506442,-0.0,0.006322270724922419
0.00555766373872757,0.008329851552844048,-0.010720878839492798,0.002227652817964554,-0.0,0.005361552350223064
0.006281298119574785,0.008788862265646458,-0.010610846802592278,0.002184734446927905,-0.0,0.00486795324832201
0.0057466160506010056,0.008695483207702637,-0.009857501834630966,0.0022267585154622793,-0.0,0.004795712418854237
0.0057028550654649734,0.008784322068095207,-0.010427276603877544,0.002175613073632121,-0.0,0.005175065714865923
0.006065969355404377,0.008939447812736034,-0.010783634148538113,0.002138584852218628,-0.0,0.005587924271821976
0.006004686933010817,0.009489739313721657,-0.01106695830821991,0.002211212180554867,-0.0,0.005652471445500851
0.006199761293828487,0.008734171278774738,-0.010756350122392178,0.002131035318598151,-0.0,0.00610393425449729
0.006444677244871855,0.008418112993240356,-0.010235399007797241,0.002081626560539007,-0.0,0.005732238758355379
0.0058641633950173855,0.009276952594518661,-0.010298441164195538,0.0021177073940634727,-0.0,0.005422881338745356
0.005797798279672861,0.008890473283827305,-0.011075983755290508,0.0023075405042618513,-9.10320522962138e-06,0.005590109620243311
0.005991704761981964,0.008853023871779442,-0.010061092674732208,0.002261186484247446,-5.94374228057859e-07,0.00597165385261178
0.006332928780466318,0.00905589759349823,-0.009947898797690868,0.002396673895418644,-3.880839116732204e-08,0.006020373664796352
0.005965171381831169,0.009256781078875065,-0.010630118660628796,0.0023170176427811384,-2.5339104148258684e-09,0.006023438647389412
0.005646462086588144,0.008302850648760796,-0.00998613890260458,0.0022680696565657854,-1.654462539191215e-10,0.005831119604408741
0.005646462086588144,0.008302850648760796,-0.00998613890260458,0.0022680696565657854,-1.654462539191215e-10,0.005831119604408741
0.006220346782356501,0.008844849653542042,-0.010592163540422916,0.002390911104157567,-1.0802457886538441e-11,0.005735207349061966
0.006355656776577234,0.009144594892859459,-0.01037319004535675,0.0022897557355463505,-7.053233322916463e-13,0.005657408386468887
0.005997320171445608,0.00911696907132864,-0.01029057428240776,0.002575238700956106,-3.0069040705564326e-15,0.005891167093068361
0.006278938613831997,0.00933574978262186,-0.01016565877944231,0.0024659433402121067,-1.96329333155991e-16,0.005458376370370388
0.005898426752537489,0.008861812762916088,-0.0102823656052351,0.0026412878651171923,-1.2818903152337363e-17,0.005321606528013945
0.006279678549617529,0.008588782511651516,-0.010499591007828712,0.0026794227305799723,-8.369828062093576e-19,0.005195143166929483
0.006590223405510187,0.009643803350627422,-0.01015480700880289,0.002404688624665141,-5.46489990250685e-20,0.00604640319943428
0.006501221563667059,0.008821654133498669,-0.010103225708007812,0.0024084814358502626,-3.568188571192752e-21,0.006234853528439999
0.0061579481698572636,0.008551022037863731,-0.01112572941929102,0.0022323718294501305,-2.329772067688271e-22,0.005856330040842295
0.006155828479677439,0.00921214185655117,-0.010278206318616867,0.0022079269401729107,-1.521174683033971e-23,0.005487413611263037
0.006109002977609634,0.00902441143989563,-0.00974377989768982,0.0020698076114058495,-9.932184781621358e-25,0.005512438248842955
0.0062298462726175785,0.008775763213634491,-0.010563788935542107,0.0020250105299055576,-6.485006716180256e-26,0.005591703578829765
0.006243132054805756,0.008924982510507107,-0.009881215170025826,0.00230394140817225,-4.234245960698769e-27,0.006177092436701059
0.0059105693362653255,0.009194007143378258,-0.009553656913340092,0.0024834517389535904,-2.7646603981057246e-28,0.005866181571036577
0.006225219927728176,0.008368589915335178,-0.010645028203725815,0.0024400826077908278,-1.8051255372357158e-29,0.005732550285756588
0.006660109851509333,0.008654046803712845,-0.010074797086417675,0.002427147002890706,-1.1786179684508406e-30,0.005789672024548054
0.006346805486828089,0.009252617135643959,-0.009838721714913845,0.0021807714365422726,-7.695533047142642e-32,0.005841589067131281
0.00614884402602911,0.008766673505306244,-0.010970315895974636,0.0021464636083692312,-5.024632602832621e-33,0.006204205099493265
0.0061867088079452515,0.009080787189304829,-0.010126093402504921,0.0020608394406735897,-3.2807264433845297e-34,0.006057989317923784
0.00720760365948081,0.008829390630126,-0.009775400161743164,0.002189894439652562,-2.1420798800547491e-35,0.0062265945598483086
0.006714371033012867,0.009089116007089615,-0.01000986248254776,0.0024616620503365993,-1.398625190428843e-36,0.005746499635279179
0.006350737530738115,0.008592216297984123,-0.010551280342042446,0.002313213190063834,-9.132022750227126e-38,0.005788537673652172
0.006796413566917181,0.008774821646511555,-0.010458464734256268,0.0025820620357990265,-5.96255859686524e-39,0.005642037373036146
0.00624537467956543,0.008756784722208977,-0.010459383949637413,0.002519062487408519,-3.8931294325411365e-40,0.005989004857838154
0.006530413404107094,0.008426332846283913,-0.009788744151592255,0.0024549472145736217,-2.541955414285218e-41,0.006164837162941694
0.006606271956115961,0.008541562594473362,-0.010288101620972157,0.0025767453480511904,-1.6591373817605834e-42,0.0058124372735619545
0.006606271956115961,0.008541562594473362,-0.010288101620972157,0.0025767453480511904,-1.6591373817605834e-42,0.0058124372735619545
0.006789672654122114,0.009245884604752064,-0.010392673313617706,0.0025104056112468243,-1.0789998175301091e-43,0.005826024804264307
0.0066783917136490345,0.00836622528731823,-0.01071225106716156,0.0023593560326844454,-7.006492321624085e-45,0.005709921475499868
0.006469869986176491,0.008304649963974953,-0.01035158708691597,0.002462100936099887,-0.0,0.006075937766581774
0.00682214368134737,0.008584258146584034,-0.009713394567370415,0.0024491669610142708,-0.0,0.005983920767903328
0.0067214020527899265,0.008248495869338512,-0.010661201551556587,0.0022305978927761316,-0.0,0.005975335370749235
0.0065999687649309635,0.008280016481876373,-0.01086708065122366,0.0021825460717082024,-0.0,0.005904152989387512
0.007547692395746708,0.009013161063194275,-0.009823537431657314,0.0021487735211849213,-0.0,0.006226882338523865
0.006712452974170446,0.008467134088277817,-0.010230478830635548,0.0021145676728338003,-0.0,0.006356436293572187
0.006302716210484505,0.00825947429984808,-0.010222479701042175,0.0022338267881423235,-0.0,0.006268769036978483
0.0065310318022966385,0.009134137071669102,-0.010232564993202686,0.0021946821361780167,-0.0,0.00628081988543272
0.006765551399439573,0.008293627761304379,-0.010272009298205376,0.002113048452883959,-0.0,0.006298219319432974
0.007269532885402441,0.008046559058129787,-0.010172544047236443,0.0023442860692739487,-0.0,0.006360490340739489
0.006935717072337866,0.007949408143758774,-0.010042654350399971,0.0022000600583851337,-0.0,0.0061152009293437
0.00656829634681344,0.009105910547077656,-0.010313794016838074,0.0023184814490377903,-0.0,0.005982235539704561
0.006644923705607653,0.008046033792197704,-0.010455179028213024,0.0023622282315045595,-0.0,0.005786854308098555
0.007102869916707277,0.007627076469361782,-0.011358273215591908,0.0023060378152877092,-0.0,0.0061528924852609634
0.006852577440440655,0.007796346675604582,-0.011421609669923782,0.0023705770727247,-0.0,0.006387209985405207
0.0072119818069040775,0.008265829645097256,-0.010034270584583282,0.002333669690415263,-0.0,0.005895696114748716
0.006687931716442108,0.007614843547344208,-0.010425317101180553,0.002558589680120349,-0.0,0.005892086774110794
0.007145224139094353,0.007351679261773825,-0.010492834262549877,0.002652437426149845,-0.0,0.00580765213817358
0.007229980081319809,0.0075988806784152985,-0.010199316777288914,0.0023707549553364515,-0.0,0.006030499469488859
0.00704268179833889,0.008155874907970428,-0.01082129217684269,0.002196140354499221,-0.0,0.005858705844730139
0.006673078052699566,0.007850021123886108,-0.010202893055975437,0.002030874602496624,-0.0,0.005778811406344175
0.007058132439851761,0.007605279795825481,-0.01085948571562767,0.0021444775629788637,-0.0,0.006090179551392794
0.0074355993419885635,0.008253992535173893,-0.010642546229064465,0.002571939490735531,-0.0,0.005941729061305523
0.0074511319398880005,0.00790469441562891,-0.010369239374995232,0.0025488100945949554,-0.0,0.00640414422377944
0.006845148280262947,0.00750987371429801,-0.00992320105433464,0.0026444662362337112,-0.0,0.006050868891179562
0.006624289788305759,0.007425339892506599,-0.010323470458388329,0.0026837054174393415,-0.0,0.005919476039707661
0.006624289788305759,0.007425339892506599,-0.010323470458388329,0.0026837054174393415,-0.0,0.005919476039707661
0.006998153403401375,0.007707514334470034,-0.010518823750317097,0.002427241997793317,-0.0,0.006083989981561899
0.007246582303196192,0.007988100871443748,-0.011208824813365936,0.0023692853283137083,-0.0,0.006030709482729435
0.0066343629732728004,0.007615491282194853,-0.010512943379580975,0.0023245394695550203,-0.0,0.006787629332393408
0.007102003321051598,0.00830154586583376,-0.010840941220521927,0.0025018486194312572,-0.0,0.006661918945610523
0.007290177512913942,0.007915167137980461,-0.010597393848001957,0.0025652654003351927,-0.0,0.006140748970210552
0.007103376556187868,0.007564776577055454,-0.00988789927214384,0.002498101210221648,-0.0,0.0062039876356720924
0.006861417088657618,0.00802542082965374,-0.010722743347287178,0.0025802080053836107,-0.0,0.006487742066383362
0.007423893082886934,0.00778220733627677,-0.010290699079632759,0.002569327363744378,-0.0,0.006594785489141941
0.007727168500423431,0.007838526740670204,-0.010299654677510262,0.0024658250622451305,-0.0,0.00665179081261158
0.006768058054149151,0.007479470688849688,-0.011241045780479908,0.0024344243574887514,-0.0,0.006518792361021042
0.006627257447689772,0.008027204312384129,-0.010378465056419373,0.0026280838064849377,-0.0,0.006956204306334257
0.007149064913392067,0.008254571817815304,-0.009967801161110401,0.002657328499481082,-0.0,0.007446829695254564
0.007303557824343443,0.007786949630826712,-0.010469523258507252,0.002781496150419116,-0.0,0.007319933269172907
0.0072355978190898895,0.007653558626770973,-0.0098797008395195,0.0025890422984957695,-0.0,0.00601361645385623
0.0069856480695307255,0.008271287195384502,-0.010987718589603901,0.002401102799922228,-0.0,0.006288948468863964
0.007047676015645266,0.008139540441334248,-0.010414992459118366,0.002393897855654359,-0.0,0.006716156844049692
0.007459035608917475,0.007530436851084232,-0.009860184974968433,0.0026016465853899717,-0.0,0.006866341922432184
0.007432984188199043,0.007417628075927496,-0.010533051565289497,0.002533974591642618,-0.0,0.006819488946348429
0.007221842650324106,0.008043148554861546,-0.010145517066121101,0.002708948217332363,-0.0,0.006716984324157238
0.007467241492122412,0.007749669253826141,-0.010608651675283909,0.00279376027174294,-0.0,0.007130315527319908
0.007661706302314997,0.0074069383554160595,-0.01147335022687912,0.0026252148672938347,-0.0,0.007067486643791199
0.007764136418700218,0.0074670021422207355,-0.010251807980239391,0.0027585590723901987,-0.0,0.0073007866740226746
0.007111845072358847,0.00864514708518982,-0.009783525951206684,0.002723617944866419,-0.0,0.007371384184807539
0.007632799446582794,0.007892276160418987,-0.010651745833456516,0.002725338563323021,-0.0,0.006811454892158508
0.007762211374938488,0.007575402036309242,-0.010503641329705715,0.0026682012248784304,-0.0,0.006704987958073616
0.007762211374938488,0.007575402036309242,-0.010503641329705715,0.0026682012248784304,-0.0,0.006704987958073616
0.007658698130398989,0.008077789098024368,-0.010810751467943192,0.0026329399552196264,-0.0,0.006967406254261732
0.0070970505475997925,0.007363504730165005,-0.01153047289699316,0.0028592413291335106,-0.0,0.00712481839582324
0.007250532042235136,0.008456599898636341,-0.010683046653866768,0.003049669321626425,-0.0,0.0071144746616482735
0.007242382038384676,0.007810048758983612,-0.010207713581621647,0.00295236031524837,-0.0,0.006781148258596659
0.007242382038384676,0.007810048758983612,-0.010207713581621647,0.00295236031524837,-0.0,0.006781148258596659
0.007254676427692175,0.008001516573131084,-0.01039810385555029,0.0029196387622505426,-0.0,0.007047777064144611
0.008106396533548832,0.007936527021229267,-0.01038644090294838,0.0028603861574083567,-0.0,0.007414527237415314
0.007822786457836628,0.007941865362226963,-0.010121776722371578,0.0029461656231433153,-0.0,0.007281148806214333
0.0068765487521886826,0.007869611494243145,-0.011224579997360706,0.002624251414090395,-0.0,0.00672842375934124
0.00721348961815238,0.00783633254468441,-0.010555298998951912,0.002502971328794956,-0.0,0.006679899990558624
0.008221803233027458,0.00766611797735095,-0.009882092475891113,0.002659756923094392,-0.0,0.00724277226254344
0.007979780435562134,0.008766066282987595,-0.010741576552391052,0.0031062387861311436,-0.0,0.007406116928905249
0.006975580006837845,0.007965536788105965,-0.010442244820296764,0.003198530524969101,-0.0,0.007523976732045412
0.006970961112529039,0.007438306231051683,-0.010131685063242912,0.0035048285499215126,-0.0,0.0070732817985117435
0.007625855505466461,0.007927882485091686,-0.010878370143473148,0.0032783611677587032,-0.0,0.006910138763487339
0.0079739885404706,0.008226364850997925,-0.010263761505484581,0.0030061108991503716,-0.0,0.006899451371282339
0.007501970510929823,0.00762826856225729,-0.010893715545535088,0.002973387250676751,-0.0,0.007262274157255888
0.006731350906193256,0.007280753459781408,-0.011115489527583122,0.0029341767076402903,-0.0,0.007390408776700497
0.007324602454900742,0.008277342654764652,-0.010191366076469421,0.00261401804164052,-0.0,0.0074318754486739635
0.007986499927937984,0.008418656885623932,-0.010879685170948505,0.0026733821723610163,-0.0,0.007092461921274662
0.007588838692754507,0.00785051565617323,-0.010855378583073616,0.0027649321127682924,-0.0,0.0069948481395840645
0.00760580925270915,0.007663203869014978,-0.010257947258651257,0.0028381156735122204,-0.0,0.007238608784973621
0.008192206732928753,0.007891817018389702,-0.010887084528803825,0.0028107804246246815,-0.0,0.007312923204153776
0.008192206732928753,0.007891817018389702,-0.010887084528803825,0.0028107804246246815,-0.0,0.007312923204153776
0.007359167095273733,0.007462124805897474,-0.010450302623212337,0.0030950065702199936,-0.0,0.006579569075256586
0.007359167095273733,0.007462124805897474,-0.010450302623212337,0.0030950065702199936,-0.0,0.006579569075256586
0.0073783681727945805,0.007324204780161381,-0.010606139898300171,0.0030744553077965975,-0.0,0.006621812470257282
0.007615836337208748,0.007795241661369801,-0.010450372472405434,0.0030623185448348522,-0.0,0.0068882242776453495
0.007579266559332609,0.007153007201850414,-0.010615057311952114,0.0031795483082532883,-0.0,0.00718469824641943
0.0076808384619653225,0.008056999184191227,-0.011518681421875954,0.0031155566684901714,-0.0,0.007101313676685095
0.0076808384619653225,0.008056999184191227,-0.011518681421875954,0.0031155566684901714,-0.0,0.007101313676685095
0.007827934809029102,0.0076461671851575375,-0.010583087801933289,0.0034289732575416565,-0.0,0.007421089801937342
0.007515379693359137,0.007269693538546562,-0.010440248064696789,0.003262479091063142,-0.0,0.00740421935915947
0.007631994783878326,0.007602382451295853,-0.011087573133409023,0.003029070096090436,-0.0,0.007381390780210495
0.008098850026726723,0.007678603287786245,-0.010882735252380371,0.003001722041517496,-0.0,0.0071027809754014015
0.007476987317204475,0.007399383001029491,-0.010592960752546787,0.0032812037970870733,-0.0,0.007880396209657192
0.00800953060388565,0.007206960115581751,-0.011273111216723919,0.0033603617921471596,-0.0,0.007868957705795765
0.007906968705356121,0.007132664322853088,-0.010332534089684486,0.0034804341848939657,-0.0,0.00787994172424078
0.008030652068555355,0.007488627918064594,-0.01101602055132389,0.003578989999368787,-0.0,0.007733448874205351
0.007885308936238289,0.007291007321327925,-0.010825427249073982,0.0037121388595551252,-0.0,0.007738654036074877
0.007837561890482903,0.00718626007437706,-0.010325443930923939,0.003350521670654416,-0.0,0.007216918747872114
0.008005360141396523,0.0070331101305782795,-0.011058864183723927,0.0035174177028238773,-0.0,0.007070954889059067
0.008087311871349812,0.007855688221752644,-0.01055813767015934,0.003297322429716587,-0.0,0.007869452238082886
0.00756596215069294,0.007652307860553265,-0.010596303269267082,0.0034284775611013174,-0.0,0.008420498110353947
0.008149893954396248,0.007255748845636845,-0.011214632540941238,0.0035778142046183348,-0.0,0.008050424978137016
0.00821610726416111,0.0072191813960671425,-0.010425232350826263,0.003648926503956318,-0.0,0.007775666192173958
0.008784180507063866,0.007570800371468067,-0.011220528744161129,0.0036773865576833487,-0.0,0.008058839477598667
0.007997889071702957,0.007940301671624184,-0.011225608177483082,0.003708347212523222,-0.0,0.008088543079793453
0.008258964866399765,0.007461552508175373,-0.010463629849255085,0.0034988645929843187,-0.0,0.008101319894194603
0.008212516084313393,0.00801640935242176,-0.01105121336877346,0.003361275652423501,-0.0,0.008241595700383186
0.008701404556632042,0.0077790552750229836,-0.011233886703848839,0.0033390275202691555,-0.0,0.008046145550906658
0.008358767256140709,0.007439717184752226,-0.011015855707228184,0.003162696724757552,-0.0,0.007946059107780457
0.008358767256140709,0.007439717184752226,-0.011015855707228184,0.003162696724757552,-0.0,0.007946059107780457
0.008484641090035439,0.007352631073445082,-0.011464718729257584,0.0033744974061846733,-0.0,0.007791800890117884
0.008337823674082756,0.007604023441672325,-0.011855071410536766,0.003929946571588516,-0.0,0.008695438504219055
0.008337823674082756,0.007604023441672325,-0.011855071410536766,0.003929946571588516,-0.0,0.008695438504219055
0.00820250902324915,0.007527295500040054,-0.011223014444112778,0.003650560276582837,-0.0,0.00710561266168952
0.008310307748615742,0.007925434038043022,-0.011294457130134106,0.003487229347229004,-0.0,0.0072353011928498745
0.008374369703233242,0.007710800971835852,-0.010834520682692528,0.003546637948602438,-0.0,0.007823724299669266
0.009039805270731449,0.008158816024661064,-0.011221593245863914,0.003661398310214281,-0.0,0.0076379114761948586
0.008533889427781105,0.007861124351620674,-0.011394182220101357,0.003637715708464384,-0.0,0.007970621809363365
0.00840077269822359,0.00819660909473896,-0.011093554086983204,0.003577822120860219,-0.0,0.008196416310966015
0.00813530758023262,0.007555099204182625,-0.01179928332567215,0.003413360333070159,-0.0,0.00806538574397564
0.008457884192466736,0.007289627566933632,-0.011239196173846722,0.003231433918699622,-0.0,0.007693943567574024
0.00851854681968689,0.007564943749457598,-0.01175569649785757,0.0033809286542236805,-0.0,0.007796923629939556
0.008568176068365574,0.007524251937866211,-0.011608488857746124,0.0036513074301183224,-0.0,0.008171292021870613
0.00822934415191412,0.00712245050817728,-0.011172969825565815,0.0037550206761807203,-0.0,0.008278897032141685
0.008430860005319118,0.00720625463873148,-0.012236496433615685,0.004245878662914038,-0.0,0.00828276202082634
0.008518654853105545,0.007471591699868441,-0.011345170438289642,0.0038606913294643164,-0.0,0.007914998568594456
0.0085760448127985,0.007977284491062164,-0.011920888908207417,0.003504411783069372,-0.0,0.008141634985804558
0.008685126900672913,0.007549474947154522,-0.011809684336185455,0.0032108172308653593,-0.0,0.00808966625481844
0.008739285171031952,0.007565223146229982,-0.010914506390690804,0.0034241899847984314,-0.0,0.008253228850662708
0.008578325621783733,0.007579997181892395,-0.011582222767174244,0.0036679436452686787,-0.0,0.008495695888996124
0.008623935282230377,0.007676036562770605,-0.011631418019533157,0.003723602509126067,-0.0,0.008720875717699528
0.008902234956622124,0.00734078511595726,-0.011907854117453098,0.0037258672527968884,-0.0,0.008720126934349537
0.008553718216717243,0.00805517565459013,-0.011666662991046906,0.0038453068118542433,-0.0,0.007973290048539639
0.008553718216717243,0.00805517565459013,-0.011666662991046906,0.0038453068118542433,-0.0,0.007973290048539639
0.00870510470122099,0.007798896636813879,-0.011499223299324512,0.003932921681553125,-0.0,0.008624320849776268
0.00870510470122099,0.007798896636813879,-0.011499223299324512,0.003932921681553125,-0.0,0.008624320849776268
0.008665019646286964,0.007024582475423813,-0.011796611361205578,0.00333455135114491,-0.0,0.00905192457139492
0.008563345298171043,0.006985294166952372,-0.011236816644668579,0.0036592790856957436,-0.0,0.0087665980681777
0.009571547619998455,0.007285003550350666,-0.01204297412186861,0.004392670001834631,-0.0,0.008424351923167706
0.008427747525274754,0.0076212333515286446,-0.011701671406626701,0.004209120757877827,-0.0,0.008676079101860523
0.008884282782673836,0.007775000296533108,-0.011975914239883423,0.004006377421319485,-0.0,0.008376147598028183
0.00893484428524971,0.007139891851693392,-0.010946233756840229,0.0038910862058401108,-0.0,0.008399467915296555
0.008447181433439255,0.007946937344968319,-0.011190861463546753,0.004230882972478867,-0.0,0.008355939760804176
0.008937369100749493,0.008116994984447956,-0.011703486554324627,0.004505618941038847,-0.0,0.008574075065553188
0.00997040793299675,0.007032720372080803,-0.012028339318931103,0.004099016077816486,-0.0,0.008873967453837395
0.008462956175208092,0.007465730886906385,-0.011435888707637787,0.0038963279221206903,-0.0,0.008937596343457699
0.008830662816762924,0.007788507733494043,-0.010998413898050785,0.003937818109989166,-0.0,0.008766069076955318
0.00913237500935793,0.007712450344115496,-0.011485972441732883,0.0040895165875554085,-0.0,0.008878005668520927
0.008887526579201221,0.006999869830906391,-0.011089320294559002,0.0040319995023310184,-0.0,0.008694232441484928
0.009050372056663036,0.006772427354007959,-0.011448740027844906,0.004424958489835262,-0.0,0.008759579621255398
0.009373847395181656,0.0074829901568591595,-0.011527784168720245,0.004611843265593052,-0.0,0.00899609737098217
0.00905168429017067,0.007302026730030775,-0.011289150454103947,0.004578165709972382,-0.0,0.008916360326111317
0.009126948192715645,0.007074296940118074,-0.011503597721457481,0.004374825861304998,-0.0,0.008510374464094639
0.009606873616576195,0.007534890901297331,-0.0108614107593894,0.004854551050812006,-0.0,0.008547456935048103
0.00857204757630825,0.007637502625584602,-0.011366359889507294,0.004575756844133139,-0.0,0.008849813602864742
0.009439426474273205,0.007342208176851273,-0.011838935315608978,0.004529372788965702,-0.0,0.008983762934803963
0.009602964855730534,0.007148531265556812,-0.010979622602462769,0.004225065931677818,-0.0,0.008792038075625896
0.009235191158950329,0.00704908324405551,-0.01203871052712202,0.00420133862644434,-2.0082627543160925e-06,0.009498292580246925
0.00914023257791996,0.007698281668126583,-0.011269363574683666,0.004022249951958656,-1.3112520491631585e-07,0.00864511076360941
0.009712083265185356,0.007473618723452091,-0.011506806127727032,0.0038440031930804253,-8.561538145102077e-09,0.008638771250844002
0.009856113232672215,0.0071903313510119915,-0.011680361814796925,0.003754668403416872,-5.590072293948367e-10,0.009352259337902069
0.009856113232672215,0.0071903313510119915,-0.011680361814796925,0.003754668403416872,-5.590072293948367e-10,0.009352259337902069
0.009544245898723602,0.0069618672132492065,-0.011289464309811592,0.003713181708008051,-3.649917867942776e-11,0.009053743444383144
0.00992235355079174,0.007885640487074852,-0.01200743205845356,0.0037642456591129303,-2.3831351388808875e-12,0.008828166872262955
0.009537110105156898,0.007387157529592514,-0.011837741360068321,0.004242798313498497,-1.556017006866181e-13,0.009053517132997513
0.009937163442373276,0.006923249457031488,-0.012370905838906765,0.004519692622125149,-6.63354540856475e-16,0.008797326125204563
0.010339925065636635,0.007491523865610361,-0.01163141056895256,0.004687598906457424,-4.331231176507695e-17,0.009491126984357834
0.009574840776622295,0.007692066952586174,-0.01168349664658308,0.004695471841841936,-2.827984310145533e-18,0.00914660282433033
0.009768961928784847,0.007031966466456652,-0.011642765253782272,0.004393883049488068,-1.8464715959260232e-19,0.009011947549879551
0.010287657380104065,0.007141202222555876,-0.01249430701136589,0.004201945383101702,-1.2056139656501906e-20,0.009024418890476227
0.009309753775596619,0.007973509840667248,-0.011719735339283943,0.004039540886878967,-7.871797858340007e-22,0.010409404523670673
0.01004711352288723,0.0076645067892968655,-0.011269214563071728,0.00478591863065958,-5.139721307138548e-23,0.009727534838020802
0.010109437629580498,0.007253529969602823,-0.011769180186092854,0.005087525583803654,-3.3558706943649075e-24,0.008579015731811523
0.009669813327491283,0.007308247499167919,-0.011162200011312962,0.004933408461511135,-2.1911437481273756e-25,0.008912156336009502
0.00986382644623518,0.007965755648911,-0.011482715606689453,0.004614326171576977,-1.4306604191533386e-26,0.009886234998703003
0.010934632271528244,0.00735876988619566,-0.012264074757695198,0.004112872760742903,-9.341189712655692e-28,0.00975224282592535
0.011260089464485645,0.00796591304242611,-0.011543762870132923,0.004283512942492962,-6.099129438823395e-29,0.009757577441632748
0.011063220910727978,0.007150116376578808,-0.012057797983288765,0.004138605203479528,-3.982295751207251e-30,0.00928585883229971
0.010661771520972252,0.007995083928108215,-0.011498194187879562,0.004480305127799511,-2.6001544776064527e-31,0.009237661026418209
0.01141818705946207,0.0077649494633078575,-0.012440001592040062,0.004982613027095795,-1.6977149160779875e-32,0.009967050515115261
0.011120116338133812,0.007063885219395161,-0.011495987884700298,0.004972080234438181,-1.1084866728861054e-33,0.009816897101700306
0.010747725144028664,0.007329418323934078,-0.01139124110341072,0.004424459766596556,-7.23762662472081e-35,0.00960786733776331
0.011121419258415699,0.008218037895858288,-0.011897264048457146,0.0044418382458388805,-4.725653383409975e-36,0.0099630830809474
0.011121419258415699,0.008218037895858288,-0.011897264048457146,0.0044418382458388805,-4.725653383409975e-36,0.0099630830809474
0.011020244099199772,0.007751523982733488,-0.011585270054638386,0.004591678734868765,-3.0855141560262203e-37,0.00987390149384737
0.01113669853657484,0.006990768015384674,-0.012896849773824215,0.00469278683885932,-2.0146204577486602e-38,0.009700118564069271
0.011976709589362144,0.007353113032877445,-0.011346100829541683,0.005241254344582558,-1.3154030723570988e-39,0.00954962708055973
0.010590028017759323,0.008111068047583103,-0.011266831308603287,0.0054307072423398495,-8.588698417693236e-41,0.0093589061871171
0.011715876869857311,0.007130431476980448,-0.012096094898879528,0.0050049289129674435,-5.607996454227918e-42,0.009589547291398048
0.011019989848136902,0.007465661037713289,-0.012083948589861393,0.004338886588811874,-0.0001226329623023048,0.009885279461741447
0.011465785093605518,0.008055268786847591,-0.011905758641660213,0.0048109074123203754,-0.00013447731907945126,0.009564515203237534
0.011007366701960564,0.007636464666575193,-0.01199239119887352,0.0051619065925478935,-0.00013155896158423275,0.009913921356201172
0.011510702781379223,0.007038670126348734,-0.01191558688879013,0.005157594569027424,-0.00012788610183633864,0.009596799500286579
0.011522271670401096,0.007419403642416,-0.011735166423022747,0.004863180685788393,-0.0001243560400325805,0.009749886579811573
0.010993876494467258,0.008177063427865505,-0.012866903096437454,0.004725727252662182,-0.00013894547009840608,0.010148391127586365
0.011317777447402477,0.007127892691642046,-0.01173719298094511,0.004438632633537054,-0.00014100201951805502,0.009967522695660591
0.011818759143352509,0.007165864109992981,-0.012184163555502892,0.004778221249580383,-0.00013777569984085858,0.00980047881603241
0.011702978983521461,0.0075749862007796764,-0.012219898402690887,0.005265648011118174,-0.0001343714102404192,0.010584523901343346
0.011551915667951107,0.0077009000815451145,-0.011518440209329128,0.005441125016659498,-0.00014730951806996018,0.010739380493760109
0.011032387614250183,0.006980642210692167,-0.012146114371716976,0.00518686231225729,-0.00014896714128553867,0.010520510375499725
0.011316157877445221,0.006842528469860554,-0.011986590921878815,0.005148901604115963,-0.00014585399185307324,0.010502063669264317
0.011311058886349201,0.006799677852541208,-0.012518838979303837,0.005122537724673748,-0.00014257497969083488,0.01045443769544363
0.011220447719097137,0.007324574049562216,-0.0124494144693017,0.005409502889961004,-0.00013942114310339093,0.010588293895125389
0.011968357488512993,0.0075223492458462715,-0.012657387182116508,0.005247086752206087,-0.00013640242104884237,0.010384774766862392
0.011459601111710072,0.007021354045718908,-0.011573372408747673,0.005339386407285929,-0.00013351177040021867,0.010434767231345177
0.011790752410888672,0.007061840500682592,-0.011405661702156067,0.0052597541362047195,-0.0001399269385728985,0.010280895046889782
0.011932280845940113,0.007463115267455578,-0.012857961468398571,0.005525930318981409,-0.00014576062676496804,0.010611061938107014
0.01214677281677723,0.007233334239572287,-0.012279787100851536,0.005210329312831163,-0.00014342299255076796,0.010444152168929577
0.011435145512223244,0.007159538567066193,-0.012751763686537743,0.005337859038263559,-0.00014065807044971734,0.010301577858626842
0.011156722903251648,0.007037234026938677,-0.013072609901428223,0.005801419727504253,-0.00013796513667330146,0.010698724538087845
0.011156722903251648,0.007037234026938677,-0.013072609901428223,0.005801419727504253,-0.00013796513667330146,0.010698724538087845
0.011580021120607853,0.007375388406217098,-0.012355031445622444,0.0055795032531023026,-0.00013566124835051596,0.010301542468369007
0.011610278859734535,0.007380564231425524,-0.012443048879504204,0.005643106997013092,-0.00019382625760044903,0.01063217967748642
0.011564722284674644,0.007481677923351526,-0.012255695648491383,0.005117930006235838,-0.00018983222253154963,0.010216654278337955
0.011821380816400051,0.007010613568127155,-0.013358752243220806,0.004862215369939804,-0.00018240937788505107,0.010062433779239655
0.011850211769342422,0.0075929597951471806,-0.013032817281782627,0.005209315102547407,-0.00020218930148985237,0.010763079859316349
0.012100412510335445,0.006799151189625263,-0.01264652144163847,0.005699719302356243,-0.00019515413441695273,0.010263846255838871
0.012166549451649189,0.007078024558722973,-0.012506294995546341,0.005858403630554676,-0.00018836355593521148,0.010243017226457596
0.012399095110595226,0.007451301906257868,-0.013187753036618233,0.005888195242732763,-0.0002044655120698735,0.010508657433092594
0.012725001201033592,0.007449099328368902,-0.012767055071890354,0.005654077045619488,-0.0002049110917141661,0.010371953248977661
0.012313463725149632,0.007198028732091188,-0.01278081163764,0.0056005544029176235,-0.00019890483235940337,0.010652882046997547
0.011985943652689457,0.006890715565532446,-0.012189687229692936,0.005486761219799519,-0.00020636050612665713,0.010653995908796787
0.012830451130867004,0.007004684768617153,-0.012824195437133312,0.005531408824026585,-0.00021293455210980028,0.011725232936441898
0.01243632473051548,0.0070002879947423935,-0.012317267246544361,0.005122210830450058,-0.00020762201165780425,0.0100646847859025
0.012227331288158894,0.007154855877161026,-0.013177367858588696,0.005374013911932707,-0.00020185507310088724,0.010185712948441505
0.012167966924607754,0.007632061373442411,-0.012636838480830193,0.0052458979189395905,-0.00028569967253133655,0.011088494211435318
0.012095028534531593,0.00712866336107254,-0.013121331110596657,0.005337135400623083,-0.00028087454847991467,0.01074405200779438
0.012957374565303326,0.007350014057010412,-0.012947196140885353,0.005445126909762621,-0.0002651688118930906,0.010712770745158195
0.012440420687198639,0.007461211644113064,-0.01247423980385065,0.005466778296977282,-0.0002504591830074787,0.011425107717514038
0.012877562083303928,0.00768309086561203,-0.01287675742059946,0.005477944388985634,-0.00023725366918370128,0.011244969442486763
0.01302312407642603,0.007834910415112972,-0.012305471114814281,0.005359959322959185,-0.0002643904881551862,0.011003071442246437
0.012602260336279869,0.006972251459956169,-0.012793447822332382,0.005354505497962236,-0.00025714427465572953,0.011058639734983444
0.012426651082932949,0.006838556379079819,-0.012500437907874584,0.0052334307692945,-0.0002457865630276501,0.010975828394293785
0.012488639913499355,0.006876473780721426,-0.012901964597404003,0.005646137986332178,-0.00025426220963709056,0.011377238668501377
0.013529959134757519,0.007123655639588833,-0.01266248058527708,0.005909786559641361,-0.0002615378180053085,0.01126059703528881
0.012684076093137264,0.0071168867871165276,-0.012439289130270481,0.006822105497121811,-0.00025223111151717603,0.011051607318222523
0.012684076093137264,0.0071168867871165276,-0.012439289130270481,0.006822105497121811,-0.00025223111151717603,0.011051607318222523
0.013307974673807621,0.0071824295446276665,-0.012485886923968792,0.007027169223874807,-0.0002425929851597175,0.011755063198506832
0.01295386254787445,0.006910561118274927,-0.012070151045918465,0.006944927386939526,-0.00025828374782577157,0.0114329494535923
0.013319412246346474,0.007176267448812723,-0.012916983105242252,0.006469068583101034,-0.000256859406363219,0.011306212283670902
0.013317073695361614,0.007496177684515715,-0.012562123127281666,0.006077207159250975,-0.0002488364407327026,0.011446302756667137
0.013774782419204712,0.007423217874020338,-0.013133116066455841,0.006546394433826208,-0.0002863785775844008,0.011269822716712952
0.013509164564311504,0.0066542234271764755,-0.012792148627340794,0.0068699149414896965,-0.00027252500876784325,0.011580432765185833
0.01324041374027729,0.007403003051877022,-0.012582486495375633,0.006669545546174049,-0.00028857652796432376,0.01196980755776167
0.013348470441997051,0.007131997495889664,-0.012354801408946514,0.0064755151979625225,-0.0002767388359643519,0.011520978063344955
0.013505088165402412,0.006447919644415379,-0.01278779562562704,0.0064008962363004684,-0.0002848621807061136,0.011337606236338615
0.013764780014753342,0.005570884328335524,-0.01254000049084425,0.0064921085722744465,-0.0002915801014751196,0.011610155925154686
0.013959881849586964,0.005797082092612982,-0.013249273411929607,0.006573072634637356,-0.000309471448417753,0.012006719596683979
0.013414556160569191,0.006564451847225428,-0.012392373755574226,0.006505151744931936,-0.0003057114954572171,0.012014221400022507
0.013992290943861008,0.006269725970923901,-0.012934385798871517,0.007044543512165546,-0.0004338143044151366,0.012445340864360332
0.013769146054983139,0.005829117726534605,-0.012768811546266079,0.0072991917841136456,-0.00047560155508108437,0.012641526758670807
0.014062350615859032,0.005834147334098816,-0.012544606812298298,0.007232981268316507,-0.00045563693856820464,0.012757107615470886
0.013512847013771534,0.005964492913335562,-0.012864719144999981,0.007131559308618307,-0.00048198396689258516,0.012460733763873577
0.014458850957453251,0.006619603838771582,-0.012487980537116528,0.007044282276183367,-0.0004554642364382744,0.012194659560918808
0.014204415492713451,0.006647256202995777,-0.012945085763931274,0.006869731470942497,-0.00046993387513794005,0.012087758630514145
0.01465502381324768,0.005797089543193579,-0.012909872457385063,0.006407821550965309,-0.00045424012932926416,0.01241973601281643
0.013913839124143124,0.006481444928795099,-0.012764803133904934,0.005882419180124998,-0.00043031765380874276,0.012251199223101139
0.014520961791276932,0.006212581414729357,-0.012882452458143234,0.0061180684715509415,-0.0005129142664372921,0.012158357538282871
0.014137324877083302,0.006465250160545111,-0.012711121700704098,0.00655609555542469,-0.0004681720456574112,0.01236787624657154
0.01470676064491272,0.006303335539996624,-0.012998264282941818,0.006469612009823322,-0.000424515746999532,0.012635228224098682
0.014386966824531555,0.005679067224264145,-0.012582502327859402,0.006385393440723419,-0.0003879157011397183,0.012790690176188946
0.014607664197683334,0.005929433275014162,-0.01293862797319889,0.006478790659457445,-0.00035710440715774894,0.012507806532084942
0.014227722771465778,0.006250340025871992,-0.012188667431473732,0.006223734002560377,-0.0003923316835425794,0.01249599177390337
0.014596691355109215,0.006181616801768541,-0.01267150603234768,0.006560637149959803,-0.00036948645720258355,0.012380776926875114
0.014319184236228466,0.006175301969051361,-0.012383493594825268,0.006751150358468294,-0.0003460567386355251,0.012202239595353603
0.014319184236228466,0.006175301969051361,-0.012383493594825268,0.006751150358468294,-0.0003460567386355251,0.012202239595353603
0.014886613003909588,0.005450088065117598,-0.012937791645526886,0.006649418734014034,-0.0003252215392421931,0.012456933967769146
0.01449491921812296,0.0054199411533772945,-0.012555417604744434,0.006552563048899174,-0.00030673970468342304,0.01207636296749115
0.014877823181450367,0.005858564283698797,-0.012806101702153683,0.007424694951623678,-0.0003259169461671263,0.012394728139042854
0.01499196607619524,0.006490440107882023,-0.012705095112323761,0.006855084095150232,-0.0003056884743273258,0.013037309050559998
0.015143414959311485,0.005711275618523359,-0.01302686519920826,0.006719700060784817,-0.000291584525257349,0.012012116611003876
0.01534857414662838,0.006026875227689743,-0.012498140335083008,0.007320071570575237,-0.00027868550387211144,0.012269244529306889
0.014690990559756756,0.0063901846297085285,-0.013219471089541912,0.007418699562549591,-0.000266877468675375,0.01272274274379015
0.014995397999882698,0.006551360245794058,-0.01263786293566227,0.007114522624760866,-0.000256029685260728,0.012674328871071339
0.015189298428595066,0.006436575669795275,-0.012646033428609371,0.007290835492312908,-0.0002787880366668105,0.012898706831037998
0.01519728172570467,0.006414206698536873,-0.01245840359479189,0.007883547805249691,-0.000270450342213735,0.012430320493876934
0.014878119342029095,0.006556909065693617,-0.012765133753418922,0.007473291829228401,-0.0002607925853226334,0.01290323119610548
0.01507819164544344,0.006849935743957758,-0.013304535299539566,0.007234121207147837,-0.00025168395950458944,0.013052140362560749
0.015205670148134232,0.006637154147028923,-0.01278073713183403,0.007206073962152004,-0.0002431827160762623,0.013711201958358288
0.014871427789330482,0.0064468071796,-0.01312886644154787,0.007133088540285826,-0.00020628751371987164,0.01309628039598465
0.01525069959461689,0.006322980392724276,-0.012303512543439865,0.007668112870305777,-0.00018882019503507763,0.013066218234598637
0.015084460377693176,0.007109382189810276,-0.013429481536149979,0.00762213347479701,-0.0001806616346584633,0.013233534060418606
0.015152737498283386,0.006601158995181322,-0.012933149933815002,0.00734343146905303,-0.0001736507983878255,0.012860987335443497
0.01502820011228323,0.006413980852812529,-0.013623311184346676,0.007149786222726107,-0.00019192755280528218,0.012685182504355907
0.015520294196903706,0.006463163532316685,-0.013030878268182278,0.007229078561067581,-0.00019287738541606814,0.0128052132204175
0.014913363382220268,0.006211395841091871,-0.013177325949072838,0.007393805310130119,-0.0001867178361862898,0.013099629431962967
0.015032424591481686,0.006555108819156885,-0.013327152468264103,0.007452399469912052,-0.0002066076995106414,0.013311140239238739
0.015085510909557343,0.006947809364646673,-0.012721341103315353,0.007503429893404245,-0.0002035231882473454,0.013410917483270168
0.015420670621097088,0.00638797739520669,-0.01450060773640871,0.00782189890742302,-0.00019738059199880809,0.013519356027245522
0.015398609451949596,0.0061415256932377815,-0.013562267646193504,0.007587091531604528,-0.00019139873620588332,0.013604176230728626
0.01610417850315571,0.0060921297408640385,-0.01307122502475977,0.007339779753237963,-0.0001857558818301186,0.01326148584485054
0.015529620461165905,0.006742318160831928,-0.013289819471538067,0.008005880750715733,-0.0002044790453510359,0.013356214389204979
0.015529620461165905,0.006742318160831928,-0.013289819471538067,0.008005880750715733,-0.0002044790453510359,0.013356214389204979
0.015591653063893318,0.00672149658203125,-0.01418983843177557,0.007847200147807598,-0.00020035669149365276,0.013613240793347359
0.015188701450824738,0.006291912402957678,-0.013287481851875782,0.007172768469899893,-0.00025173340691253543,0.013731524348258972
0.015128900296986103,0.0063399444334208965,-0.013712591491639614,0.0067718541249632835,-0.0002894880308303982,0.013851305469870567
0.015377606265246868,0.006678950507193804,-0.013104122132062912,0.00746099604293704,-0.00027530582156032324,0.013498068787157536
0.016526052728295326,0.006939664948731661,-0.013617397285997868,0.007842973805963993,-0.0002596451959107071,0.013966226018965244
0.01553232129663229,0.0064211999997496605,-0.013865445740520954,0.0074067977257072926,-0.0002785022370517254,0.013444565236568451
0.015696147456765175,0.006048285868018866,-0.013689624145627022,0.0076476288959383965,-0.00026554512442089617,0.013185103423893452
0.015729311853647232,0.006117577198892832,-0.014149434864521027,0.008235043846070766,-0.0002842918911483139,0.013536308892071247
0.01654195412993431,0.006569413468241692,-0.013591893948614597,0.008424049243330956,-0.0002813869505189359,0.013606852851808071
0.015851164236664772,0.006690621841698885,-0.013653084635734558,0.008032501675188541,-0.000269966694759205,0.013960056006908417
0.016163082793354988,0.006327315699309111,-0.013372124172747135,0.007837037555873394,-0.0002862488036043942,0.013816459104418755
0.016338536515831947,0.0063440557569265366,-0.01399404089897871,0.008271884173154831,-0.00028358912095427513,0.014395281672477722
0.0163409523665905,0.006435792427510023,-0.013760881498456001,0.007838177494704723,-0.00034651599708013237,0.01394097413867712
0.016574596986174583,0.006246741395443678,-0.01339997723698616,0.007541154511272907,-0.0003444732283242047,0.014038249850273132
0.015388217754662037,0.006066040135920048,-0.014127358794212341,0.008022312074899673,-0.0003812503127846867,0.013653188943862915
0.01625874638557434,0.006261778995394707,-0.013645557686686516,0.008227505721151829,-0.0004039944033138454,0.01385545264929533
0.016269613057374954,0.0061240666545927525,-0.01366239134222269,0.0077164266258478165,-0.00039282633224502206,0.0140554653480649
0.01644972525537014,0.006373306270688772,-0.01344535406678915,0.008070013485848904,-0.00037062523188069463,0.014213335700333118
0.016415227204561234,0.006127953063696623,-0.014019256457686424,0.008093188516795635,-0.00039663552888669074,0.014145046472549438
0.016128165647387505,0.005973891820758581,-0.012730792164802551,0.0074609629809856415,-0.0003788019821513444,0.014185180887579918
0.016464566811919212,0.006226361263543367,-0.01362134050577879,0.006902793888002634,-0.0003610451822169125,0.014312487095594406
0.01653965562582016,0.006166262086480856,-0.01307014748454094,0.0075698914006352425,-0.00047039383207447827,0.01354561559855938
0.016995932906866074,0.006395997013896704,-0.013715982437133789,0.008121054619550705,-0.0004982895334251225,0.014306191354990005
0.016696583479642868,0.006099780090153217,-0.013656169176101685,0.008208772167563438,-0.00047472285223193467,0.014671018347144127
0.016681378707289696,0.005887875333428383,-0.014340659603476524,0.008344286121428013,-0.0005004620761610568,0.014420839957892895
0.017081914469599724,0.005876912269741297,-0.013533944264054298,0.008345847949385643,-0.0005211808602325618,0.01414460688829422
0.016952000558376312,0.006112010683864355,-0.01399467047303915,0.00838222075253725,-0.0006219685892574489,0.014395734295248985
0.016952000558376312,0.006112010683864355,-0.01399467047303915,0.00838222075253725,-0.0006219685892574489,0.014395734295248985
0.01709284633398056,0.006187938153743744,-0.013695993460714817,0.008390183560550213,-0.0007439239416271448,0.014662605710327625
0.016934843733906746,0.005961218848824501,-0.01413672510534525,0.008694651536643505,-0.0006859103450551629,0.014850007370114326
0.01728993095457554,0.006207138765603304,-0.014130552299320698,0.008821367286145687,-0.0007049195119179785,0.014925887808203697
0.017147071659564972,0.0059417663142085075,-0.013915442861616611,0.008883673697710037,-0.0006395842647179961,0.014752058312296867
0.017492445185780525,0.00635253032669425,-0.014198770746588707,0.008472266606986523,-0.0006650688592344522,0.014686450362205505
0.01740371435880661,0.0064322082325816154,-0.014200981706380844,0.008347873575985432,-0.0006310541648417711,0.014675861224532127
0.017830559983849525,0.005773545708507299,-0.014312333427369595,0.008263785392045975,-0.0006598462932743132,0.014620620757341385
0.017830947414040565,0.005871522706001997,-0.014263400807976723,0.007908728905022144,-0.000679291260894388,0.014801377430558205
0.017292890697717667,0.006089533679187298,-0.013814745470881462,0.00793132372200489,-0.0006891947705298662,0.014934275299310684
0.017681440338492393,0.006035580299794674,-0.014066427014768124,0.008074545301496983,-0.000647999404463917,0.015278130769729614
0.017346149310469627,0.006119081284850836,-0.013929460197687149,0.008353316225111485,-0.0007147551514208317,0.015161298215389252
0.017894268035888672,0.00559492502361536,-0.01415241789072752,0.008780444972217083,-0.0007433076971210539,0.015262916684150696
0.017838437110185623,0.0058130864053964615,-0.013862591236829758,0.008947726339101791,-0.0007484059315174818,0.014985167421400547
0.017596513032913208,0.006089360453188419,-0.014016551896929741,0.00922983605414629,-0.0007394888089038432,0.014992748387157917
0.018117420375347137,0.006020195782184601,-0.013802613131701946,0.010057940147817135,-0.0007107939454726875,0.014684912748634815
0.017581366002559662,0.005452876444905996,-0.01395381335169077,0.009669960476458073,-0.0007650181069038808,0.015229638665914536
0.01798071712255478,0.0057019018568098545,-0.013502415269613266,0.009277472272515297,-0.0007691718055866659,0.01562193501740694
0.01828845590353012,0.005918948445469141,-0.014306982979178429,0.008607571013271809,-0.000700147298630327,0.01581377163529396
0.01786680519580841,0.0060403416864573956,-0.013977187685668468,0.008630783297121525,-0.000621443847194314,0.015266664326190948
0.018196307122707367,0.006005348637700081,-0.014753791503608227,0.008807252161204815,-0.0006251810118556023,0.015409998595714569
0.018293656408786774,0.0061680590733885765,-0.013985279947519302,0.008349609561264515,-0.0005876753129996359,0.01485933642834425
0.018078936263918877,0.005776379257440567,-0.01447910163551569,0.007794354110956192,-0.0005387404235079885,0.015077486634254456
0.01879132352769375,0.006466677412390709,-0.013903570361435413,0.00924401730298996,-0.0004963448736816645,0.015233962796628475
0.018475713208317757,0.0069763315841555595,-0.014585062861442566,0.009298097342252731,-0.0004600740212481469,0.015494297258555889
0.018138477578759193,0.006336940918117762,-0.014068268239498138,0.009089761413633823,-0.00045848681475035846,0.01580675132572651
0.018726052716374397,0.006289012264460325,-0.014939051121473312,0.008995532058179379,-0.0004566963471006602,0.016228098422288895
0.018726052716374397,0.006289012264460325,-0.014939051121473312,0.008995532058179379,-0.0004566963471006602,0.016228098422288895
0.01857968419790268,0.006560734007507563,-0.014151443727314472,0.008406847715377808,-0.00043112601269967854,0.01576114073395729
0.01853206753730774,0.006278342567384243,-0.014662711881101131,0.008996271528303623,-0.0004068703856319189,0.015098502859473228
0.01868707500398159,0.0064859590493142605,-0.01436898484826088,0.009043850935995579,-0.00038510613376274705,0.015512094832956791
0.018819661810994148,0.006108864676207304,-0.015069612301886082,0.008900572545826435,-0.000365548359695822,0.01573657989501953
0.018225817009806633,0.0059541440568864346,-0.015240487642586231,0.009315035305917263,-0.0003478806756902486,0.01611972600221634
0.019289156422019005,0.006145240273326635,-0.015124253928661346,0.009090926498174667,-0.00033184277708642185,0.016056597232818604
0.019127409905195236,0.006324568763375282,-0.01474826131016016,0.008901004679501057,-0.0003172181313857436,0.015598231926560402
0.019557442516088486,0.006256823893636465,-0.01521992962807417,0.009330231696367264,-0.00023322185734286904,0.015118518844246864
0.019190127030014992,0.0061267283745110035,-0.014962414279580116,0.009000408463180065,-0.0002182652533520013,0.015384676866233349
0.019338300451636314,0.0059070102870464325,-0.015160966664552689,0.009300325997173786,-0.00020793838484678417,0.016931425780057907
0.01905939169228077,0.006412198767066002,-0.015339784324169159,0.009640466421842575,-0.00021816561638843268,0.015588273294270039
0.01866312511265278,0.006461611017584801,-0.015624280087649822,0.009550320915877819,-0.00022706735762767494,0.015410088934004307
0.019424470141530037,0.0060187033377587795,-0.015379693359136581,0.00953900720924139,-0.00021903762535657734,0.016331329941749573
0.019912632182240486,0.006163464859127998,-0.01565893553197384,0.009877070784568787,-0.00021057181584183127,0.016190173104405403
0.01962120644748211,0.006443371064960957,-0.01494381669908762,0.009685288183391094,-0.00020267257059458643,0.016318809241056442
0.019243450835347176,0.006375961005687714,-0.015865076333284378,0.009461276233196259,-0.00019534022430889308,0.01612430065870285
0.01990089751780033,0.0061746989376842976,-0.015505668707191944,0.009810930117964745,-0.00018851988716050982,0.016219401732087135
0.01988060213625431,0.0061495341360569,-0.01623418740928173,0.009861293248832226,-0.00018215965246781707,0.01666521281003952
0.02003626525402069,0.00573367066681385,-0.01570359244942665,0.009590690955519676,-0.00020169440540485084,0.016616076231002808
0.019608506932854652,0.006531932391226292,-0.016420617699623108,0.009895216673612595,-0.00019883234926965088,0.01687387377023697
0.019278425723314285,0.006815156899392605,-0.016253717243671417,0.009649255312979221,-0.00019297040125820786,0.01650511473417282
0.01951633393764496,0.006532741244882345,-0.015523988753557205,0.009501471184194088,-0.0001872492430265993,0.016479773446917534
0.019870316609740257,0.006080713588744402,-0.015723684802651405,0.009631422348320484,-0.00018184501095674932,0.016811246052384377
0.019761327654123306,0.006080757826566696,-0.015597286634147167,0.009957261383533478,-0.00020029587903991342,0.016767889261245728
0.019471751525998116,0.006329522468149662,-0.016493123024702072,0.009281903505325317,-0.00019636876822914928,0.01694588176906109
0.020286178216338158,0.0065548839047551155,-0.01611315831542015,0.010134642943739891,-0.0001912527222884819,0.017048219218850136
0.02036280184984207,0.00621856888756156,-0.01651035249233246,0.010241079144179821,-0.00018631000421009958,0.01731864921748638
0.020138300955295563,0.006478192750364542,-0.015928760170936584,0.01055345218628645,-0.00020634257816709578,0.017212938517332077
0.020138300955295563,0.006478192750364542,-0.015928760170936584,0.01055345218628645,-0.00020634257816709578,0.017212938517332077
0.020244017243385315,0.005899561569094658,-0.01586681231856346,0.010919664986431599,-0.00020530585607048124,0.017105957493185997
0.02043602243065834,0.006641101092100143,-0.01605391502380371,0.010062702000141144,-0.0002165331388823688,0.016920262947678566
0.02043602243065834,0.006641101092100143,-0.01605391502380371,0.010062702000141144,-0.0002165331388823688,0.016920262947678566
0.02025499753654003,0.005563266575336456,-0.015877846628427505,0.01079361978918314,-0.00021663006918970495,0.017408736050128937
0.02066459134221077,0.0048826043494045734,-0.015362602658569813,0.010533309541642666,-0.00020882586250081658,0.017781876027584076
0.02025878243148327,0.005263359285891056,-0.015724724158644676,0.010501028038561344,-0.00022588834690395743,0.017388256266713142
0.020929092541337013,0.005901054013520479,-0.016403358429670334,0.010128039866685867,-0.0002183207543566823,0.017399240285158157
0.02048049308359623,0.0054431515745818615,-0.015554353594779968,0.010599707253277302,-0.0002333352604182437,0.017786217853426933
0.02021637000143528,0.005134642589837313,-0.01598079316318035,0.010871735401451588,-0.0002328423724975437,0.0173699539154768
0.02068745344877243,0.005445348098874092,-0.015973666682839394,0.010148894973099232,-0.00022678291134070605,0.017427517101168633
0.02089909091591835,0.005207312759011984,-0.01607414521276951,0.010397622361779213,-0.00035465898690745234,0.01765913888812065
0.02081742323935032,0.005832707043737173,-0.01638825051486492,0.010639776475727558,-0.000387291656807065,0.017866043373942375
0.020739562809467316,0.00554406363517046,-0.01590440236032009,0.010607250966131687,-0.00037636046181432903,0.017932960763573647
0.020796138793230057,0.005244535859674215,-0.016205454245209694,0.010879612527787685,-0.00038139589014463127,0.01777336187660694
0.019397269934415817,0.0049733007326722145,-0.01580965332686901,0.010135569609701633,-0.00038445909740403295,0.017765823751688004
0.02177283726632595,0.004897501319646835,-0.016474751755595207,0.010501833632588387,-0.0003892949898727238,0.01769208163022995
0.02131199836730957,0.00515869352966547,-0.01577429287135601,0.010677637532353401,-0.0003916147106792778,0.017428774386644363
0.02149459905922413,0.005550055298954248,-0.016416436061263084,0.00992908701300621,-0.0005354997701942921,0.018019650131464005
0.02143445424735546,0.005523835774511099,-0.0168452151119709,0.010706540197134018,-0.0005869338056072593,0.01833060011267662
0.021360883489251137,0.005020328797399998,-0.016175519675016403,0.011151847429573536,-0.0006074347766116261,0.018123894929885864
0.021345365792512894,0.00502526480704546,-0.016460305079817772,0.010089471004903316,-0.0006129613029770553,0.01833811216056347
0.021311433985829353,0.005367003846913576,-0.01621413603425026,0.010380965657532215,-0.0006021010340191424,0.01833270862698555
0.02184360846877098,0.005345129873603582,-0.01666761189699173,0.010661737993359566,-0.0008401875966228545,0.01816164329648018
0.022892151027917862,0.00596832949668169,-0.016419535502791405,0.010634167119860649,-0.0008618240244686604,0.018312858417630196
0.022014426067471504,0.005301385652273893,-0.016558799892663956,0.011167886666953564,-0.0008120182901620865,0.01855660229921341
0.022504955530166626,0.005093903746455908,-0.016311489045619965,0.010540440678596497,-0.0008184175239875913,0.018610108643770218
0.021826984360814095,0.005037202034145594,-0.016098562628030777,0.01056972797960043,-0.0008929786272346973,0.018593929708003998
0.02180972881615162,0.005382171832025051,-0.01620476134121418,0.010851392522454262,-0.0009105151402764022,0.01854945905506611
0.02226175181567669,0.005711007863283157,-0.01596076227724552,0.010835183784365654,-0.0008836802444420755,0.01836959645152092
0.022449154406785965,0.005442033987492323,-0.01676980033516884,0.011456383392214775,-0.0008555261301808059,0.01888362318277359
0.022373409941792488,0.0053357770666480064,-0.015964947640895844,0.011274025775492191,-0.0008098268299363554,0.01823415234684944
0.022373409941792488,0.0053357770666480064,-0.015964947640895844,0.011274025775492191,-0.0008098268299363554,0.01823415234684944
0.02260483056306839,0.004982180427759886,-0.016310162842273712,0.011073258705437183,-0.0007578589720651507,0.01862124167382717
0.023011473938822746,0.005314969923347235,-0.01643427088856697,0.011285703629255295,-0.0006916856509633362,0.019599683582782745
0.022946015000343323,0.005158358719199896,-0.01677927002310753,0.01142589095979929,-0.0006752955378033221,0.019604003056883812
0.023696675896644592,0.005187643691897392,-0.016150906682014465,0.011672619730234146,-0.0006510764942504466,0.01866387389600277
0.022729501128196716,0.005160318221896887,-0.016264932230114937,0.011193407699465752,-0.0006656849873252213,0.017753541469573975
0.023085689172148705,0.004975535441190004,-0.015600807964801788,0.011692704632878304,-0.0006185504025779665,0.018616648390889168
0.023329472169280052,0.005204106215387583,-0.016323097050189972,0.0111509645357728,-0.0006149745313450694,0.019407635554671288
0.023657793179154396,0.0051862988620996475,-0.016216173768043518,0.011364035308361053,-0.0005574047099798918,0.01973651349544525
0.023636873811483383,0.0058202543295919895,-0.016810914501547813,0.011384064331650734,-0.0005694786668755114,0.019294291734695435
0.023961417376995087,0.005365194287151098,-0.016744745895266533,0.011245598085224628,-0.0005352922598831356,0.019090475514531136
0.024054042994976044,0.0053461454808712006,-0.01620214246213436,0.011515007354319096,-0.000488299410790205,0.0192073043435812
0.023570334538817406,0.005129913333803415,-0.01663168892264366,0.011410078033804893,-0.0005171810043975711,0.020508447661995888
0.023333238437771797,0.005356346257030964,-0.016080539673566818,0.011735104955732822,-0.0004821067850571126,0.020533958449959755
0.02398795261979103,0.005772254429757595,-0.016753099858760834,0.011514240875840187,-0.00044808982056565583,0.019616084173321724
0.024010077118873596,0.0056497505865991116,-0.016334721818566322,0.011158245615661144,-0.0004699718556366861,0.019273115321993828
0.024073662236332893,0.00559265585616231,-0.01642591878771782,0.011581329628825188,-0.00044778219307772815,0.019318778067827225
0.02516087517142296,0.005037226714193821,-0.01708829589188099,0.011860893107950687,-0.0004219879047013819,0.019466582685709
0.02426152117550373,0.005260213278234005,-0.01680569536983967,0.012078686617314816,-0.00039864357677288353,0.020108582451939583
0.02431485615670681,0.005139124114066362,-0.017432769760489464,0.01202873233705759,-0.0003777245292440057,0.020727794617414474
0.024363938719034195,0.005984204821288586,-0.016719290986657143,0.011781029403209686,-0.0003588891704566777,0.020646074786782265
0.024498332291841507,0.005477757193148136,-0.016937492415308952,0.012174481526017189,-0.00034184494870714843,0.02041316218674183
0.02508445829153061,0.005266902036964893,-0.01730058155953884,0.011820623651146889,-0.0003263465769123286,0.020577704533934593
0.025042949244379997,0.005328788422048092,-0.016640765592455864,0.011823172681033611,-0.0002850456803571433,0.020752670243382454
0.025318531319499016,0.005178643390536308,-0.017219819128513336,0.011970723047852516,-0.0002604804758448154,0.020708801224827766
0.02534564957022667,0.005317356903105974,-0.01660323143005371,0.011336194351315498,-0.0002457225928083062,0.02082465961575508
0.025198135524988174,0.005657419096678495,-0.01764906756579876,0.011979960836470127,-0.0002329626149730757,0.02061637118458748
0.025288350880146027,0.005367298610508442,-0.017781158909201622,0.012172635644674301,-0.00022148962307255715,0.020786644890904427
0.025288350880146027,0.005367298610508442,-0.017781158909201622,0.012172635644674301,-0.00022148962307255715,0.020786644890904427
0.025408975780010223,0.005506381392478943,-0.017093762755393982,0.012465212494134903,-0.0002415925991954282,0.020521333441138268
0.02582058310508728,0.0055106994695961475,-0.016832523047924042,0.012324243783950806,-0.00023155889357440174,0.020422115921974182
0.025993866845965385,0.0062035261653363705,-0.01822531595826149,0.012299079447984695,-0.00022205636196304113,0.020794179290533066
0.025781165808439255,0.005559340585023165,-0.01805243082344532,0.012176631949841976,-0.00024410075275227427,0.02086062543094158
0.026134634390473366,0.005329479463398457,-0.017074719071388245,0.012599659152328968,-0.00023906774003989995,0.020724210888147354
0.026215694844722748,0.005076379049569368,-0.017788313329219818,0.012471949681639671,-0.0002305927046108991,0.020892560482025146
0.026160938665270805,0.005329768173396587,-0.017349351197481155,0.012568090111017227,-0.0002520966518204659,0.02092207595705986
0.026285862550139427,0.005563060753047466,-0.01740974746644497,0.012533334083855152,-0.00024543568724766374,0.02096649445593357
0.02634168602526188,0.0054483539424836636,-0.017351588234305382,0.012820417061448097,-0.0002905571600422263,0.020868103951215744
0.026182392612099648,0.005083377007395029,-0.01710403524339199,0.012727227993309498,-0.0002897369849961251,0.020968012511730194
0.02642057277262211,0.0053003388457000256,-0.01766561158001423,0.01255778968334198,-0.00032058177748695016,0.020807940512895584
0.026570523157715797,0.005436469800770283,-0.017514916136860847,0.0127869239076972,-0.00030878340476192534,0.021035276353359222
0.027680041268467903,0.005093327723443508,-0.017564507201313972,0.012567686848342419,-0.0003378676774445921,0.021122099831700325
0.027440590783953667,0.0058301822282373905,-0.017507031559944153,0.013037566095590591,-0.00035761678009293973,0.02065027877688408
0.02525353990495205,0.005440972745418549,-0.017282256856560707,0.012937590479850769,-0.00035107581061311066,0.02090132050216198
0.026990177109837532,0.005237225443124771,-0.017670534551143646,0.013334318995475769,-0.00057724624639377,0.021134041249752045
0.027341695502400398,0.005526993423700333,-0.017241979017853737,0.013244764879345894,-0.0006227211561053991,0.021527478471398354
0.02722020633518696,0.005225048400461674,-0.017652159556746483,0.013177067041397095,-0.0005821665981784463,0.021271610632538795
0.026798183098435402,0.005796495825052261,-0.017955515533685684,0.013221883215010166,-0.0005270251422189176,0.021215183660387993
0.02770148403942585,0.005291139706969261,-0.017367610707879066,0.01304339338093996,-0.0005491678602993488,0.0209957342594862
0.028614573180675507,0.005446527153253555,-0.01773259788751602,0.013207164593040943,-0.0005137338885106146,0.02066211961209774
0.02817273885011673,0.005149598699063063,-0.01739179715514183,0.012544381432235241,-0.0005341762444004416,0.020688410848379135
0.027042251080274582,0.0049033695831894875,-0.017391689121723175,0.01268384326249361,-0.0005047419690527022,0.021742181852459908
0.026944957673549652,0.005150437820702791,-0.01782805286347866,0.01262685377150774,-0.0005072571220807731,0.022117270156741142
0.02810828946530819,0.005157877691090107,-0.01739976368844509,0.01316333282738924,-0.0004623361164703965,0.021527081727981567
0.027826759964227676,0.0050079841166734695,-0.017907654866576195,0.013018610887229443,-0.0004196427471470088,0.021558411419391632
0.027633069083094597,0.005188562907278538,-0.01732657663524151,0.013065113686025143,-0.00042094505624845624,0.02195093221962452
0.02742517553269863,0.004941859748214483,-0.018025895580649376,0.013035448268055916,-0.00044987196451984346,0.022227047011256218
0.02742517553269863,0.004941859748214483,-0.018025895580649376,0.013035448268055916,-0.00044987196451984346,0.022227047011256218
0.027043141424655914,0.005177151877433062,-0.017642876133322716,0.013394363224506378,-0.000472160114441067,0.021718760952353477
0.02729150839149952,0.005146372597664595,-0.01751968450844288,0.013094666413962841,-0.0004567239957395941,0.021239200606942177
0.02758875861763954,0.004955669399350882,-0.017863929271697998,0.013606411404907703,-0.0005005280254408717,0.021645164117217064
0.02763841673731804,0.005223727319389582,-0.017643850296735764,0.013020829297602177,-0.00047249466297216713,0.02258412167429924
0.02739824913442135,0.005122082773596048,-0.018100088462233543,0.01352615188807249,-0.0005086397286504507,0.022947391495108604
0.027808019891381264,0.005415923427790403,-0.01782350242137909,0.01324435044080019,-0.0005075177759863436,0.022842813283205032
0.028209980577230453,0.0054990993812680244,-0.01796438731253147,0.013291915878653526,-0.0005017970688641071,0.022557470947504044
0.028194788843393326,0.005232974421232939,-0.018383730202913284,0.012783932499587536,-0.0005288769607432187,0.022766713052988052
0.027887417003512383,0.005212259013205767,-0.017480220645666122,0.012817061506211758,-0.0006629077834077179,0.02264530025422573
0.028241092339158058,0.005005225073546171,-0.018142197281122208,0.01284309197217226,-0.0007702563889324665,0.02247241884469986
0.028244609013199806,0.0048438929952681065,-0.018545998260378838,0.01325751282274723,-0.000817260064650327,0.022937113419175148
0.02824619971215725,0.0052891201339662075,-0.017828652635216713,0.013618226163089275,-0.0010887962998822331,0.022915856912732124
0.027919895946979523,0.005140522960573435,-0.018781514838337898,0.013775539584457874,-0.00114900479093194,0.022717146202921867
0.028803717344999313,0.004972939379513264,-0.018585599958896637,0.01417052373290062,-0.0010996628552675247,0.022719480097293854
0.02941148169338703,0.0051656137220561504,-0.018544789403676987,0.013395098969340324,-0.0010171515168622136,0.022804023697972298
0.02910171076655388,0.004545243456959724,-0.018555307760834694,0.013725286349654198,-0.0009418508852832019,0.023073919117450714
0.027748432010412216,0.004588362295180559,-0.017657015472650528,0.013198078610002995,-0.0008228879887610674,0.023093516007065773
0.02796902321279049,0.004736244212836027,-0.018529068678617477,0.013107812032103539,-0.0007646225276403129,0.023057516664266586
0.028687138110399246,0.004990746267139912,-0.019123338162899017,0.01270641665905714,-0.0007206262089312077,0.023731935769319534
0.029373113065958023,0.005034295842051506,-0.01894586719572544,0.01331406645476818,-0.0007376816938631237,0.022529399022459984
0.02894758991897106,0.005133988335728645,-0.01827518828213215,0.013694851659238338,-0.0007120312075130641,0.022697212174534798
0.029290610924363136,0.005362444557249546,-0.01858721300959587,0.014467968605458736,-0.0006857489352114499,0.02334074303507805
0.02936600148677826,0.005078437738120556,-0.018646985292434692,0.013763618655502796,-0.0006933240219950676,0.02328534610569477
0.029659917578101158,0.004932010546326637,-0.019389403983950615,0.013669729232788086,-0.0007014669827185571,0.022751223295927048
0.028785262256860733,0.004750870633870363,-0.018465271219611168,0.013339122757315636,-0.0006454550311900675,0.02302691340446472
0.028668617829680443,0.005062147509306669,-0.018282359465956688,0.01344079989939928,-0.0005780808860436082,0.023228583857417107
0.028668617829680443,0.005062147509306669,-0.018282359465956688,0.01344079989939928,-0.0005780808860436082,0.023228583857417107
0.029411017894744873,0.0050224498845636845,-0.01974307745695114,0.013528497889637947,-0.0005858730291947722,0.02331668511033058
0.02957988530397415,0.004648989532142878,-0.017851650714874268,0.013912968337535858,-0.0005103211151435971,0.023225190117955208
0.029660433530807495,0.005032459739595652,-0.018794432282447815,0.013406363315880299,-0.0005216675344854593,0.023180464282631874
0.029408089816570282,0.004831030964851379,-0.019532660022377968,0.013721665367484093,-0.0005007684812881052,0.023228691890835762
0.029257241636514664,0.004851480945944786,-0.019154902547597885,0.013579200021922588,-0.0004716799594461918,0.023393236100673676
0.029558224603533745,0.004857639782130718,-0.019126426428556442,0.014406201429665089,-0.00042884110007435083,0.02363256737589836
0.029839226976037025,0.0051457928493618965,-0.018884897232055664,0.013673602603375912,-0.0003916183777619153,0.023962577804923058
0.029776856303215027,0.004519956186413765,-0.01877967268228531,0.013944201171398163,-0.00042239075992256403,0.023759035393595695
0.029673699289560318,0.004528994672000408,-0.019103577360510826,0.013258053921163082,-0.00039958060369826853,0.023547111079096794
0.029799330979585648,0.00453904177993536,-0.018999677151441574,0.013728936202824116,-0.0004182116244919598,0.023248134180903435
0.030124852433800697,0.005252399481832981,-0.01881730742752552,0.013646334409713745,-0.0004055424651596695,0.023344654589891434
0.03014969639480114,0.005106266122311354,-0.019254999235272408,0.013387899845838547,-0.0003818825935013592,0.024076364934444427
0.02933177910745144,0.004508512560278177,-0.018834970891475677,0.014135219156742096,-0.0004079860227648169,0.024482037872076035
0.030193662270903587,0.004400651436299086,-0.01872844621539116,0.015210798010230064,-0.0003902568423654884,0.02416572906076908
0.030013978481292725,0.004630086477845907,-0.01920361816883087,0.01501048170030117,-0.0004469607665669173,0.02307813987135887
0.02988181635737419,0.004880893975496292,-0.01881088688969612,0.015262030065059662,-0.0004122561076655984,0.023133214563131332
0.03009323589503765,0.004654071759432554,-0.018997928127646446,0.0148235484957695,-0.00044822017662227154,0.023890823125839233
0.030177097767591476,0.004410740919411182,-0.019625511020421982,0.01507898885756731,-0.00041810335824266076,0.02452172338962555
0.030665108934044838,0.0044905939139425755,-0.018960176035761833,0.01473486889153719,-0.00041971495375037193,0.024223320186138153
0.030490392819046974,0.004441882483661175,-0.018844807520508766,0.014865990728139877,-0.00042047034366987646,0.02414190024137497
0.030950196087360382,0.004457929637283087,-0.01937120035290718,0.014530503191053867,-0.0003959187015425414,0.02522646263241768
0.030734797939658165,0.004284691531211138,-0.0187690332531929,0.014610887505114079,-0.00041865036473609507,0.024489793926477432
0.03115716762840748,0.004498830530792475,-0.01898859441280365,0.014415259473025799,-0.0004026276001241058,0.02410833351314068
0.031151728704571724,0.004487093072384596,-0.019574040547013283,0.014743609353899956,-0.00045010403846390545,0.02350587025284767
0.03107084147632122,0.004682803992182016,-0.018883317708969116,0.014787050895392895,-0.0004913925658911467,0.024662626907229424
0.03153294697403908,0.00471308222040534,-0.018915658816695213,0.015294636599719524,-0.0005258715245872736,0.02507704868912697
0.031096363440155983,0.004575368948280811,-0.019261589273810387,0.015083669684827328,-0.0005503382999449968,0.02485746517777443
0.030726315453648567,0.004383106250315905,-0.01902477629482746,0.015040893107652664,-0.0007048466359265149,0.02442765049636364
0.03130212426185608,0.004478507209569216,-0.019322851672768593,0.01506175845861435,-0.0008321118075400591,0.024366695433855057
0.03130212426185608,0.004478507209569216,-0.019322851672768593,0.01506175845861435,-0.0008321118075400591,0.024366695433855057
0.03146445006132126,0.004646633751690388,-0.018853940069675446,0.015135915949940681,-0.0007966140401549637,0.024960409849882126
0.030217774212360382,0.004701907746493816,-0.019268304109573364,0.015070161782205105,-0.000762451090849936,0.02468056231737137
0.031545840203762054,0.004589698743075132,-0.019575055688619614,0.014983473345637321,-0.0007294024107977748,0.02448897622525692
0.032410357147455215,0.004533887375146151,-0.019112730398774147,0.01471308059990406,-0.0006648799171671271,0.024547677487134933
0.03231693431735039,0.004585880320519209,-0.019026784226298332,0.015035117045044899,-0.0006186445825733244,0.025059383362531662
0.03280287981033325,0.004836126230657101,-0.019299138337373734,0.014778451062738895,-0.0005546306492760777,0.0251924991607666
0.031869228929281235,0.0047980076633393764,-0.019117698073387146,0.015301779843866825,-0.0004943940439261496,0.02525380067527294
0.03153079003095627,0.005136020015925169,-0.019486846402287483,0.015220257453620434,-0.0005220799357630312,0.025348158553242683
0.03153669089078903,0.004532493185251951,-0.01970781572163105,0.015736538916826248,-0.0004855063743889332,0.0256231427192688
0.031858187168836594,0.0045251986011862755,-0.019293563440442085,0.01572783663868904,-0.0005101542337797582,0.02535155788064003
0.0326494500041008,0.004623571410775185,-0.019407564774155617,0.01627485826611519,-0.0004800296446774155,0.025558557361364365
0.030828971415758133,0.0050443010404706,-0.01991983875632286,0.01601443812251091,-0.0005016491049900651,0.02551019750535488
0.03335798904299736,0.004967643413692713,-0.019496610388159752,0.01590878888964653,-0.0005083804717287421,0.025692155584692955
0.03289353474974632,0.004913659300655127,-0.019436068832874298,0.01563028059899807,-0.000572425196878612,0.025707930326461792
0.03242400661110878,0.005014787893742323,-0.019964704290032387,0.016031470149755478,-0.000648706394713372,0.026088116690516472
0.03226803243160248,0.0048827435821294785,-0.020699430257081985,0.016049228608608246,-0.0006470843800343573,0.025986606255173683
0.03308498114347458,0.004709660541266203,-0.019860632717609406,0.015716180205345154,-0.0012297717621549964,0.0257021002471447
0.03229200094938278,0.004744841251522303,-0.019904619082808495,0.016131535172462463,-0.00107116112485528,0.025384478271007538
0.032383840531110764,0.005160060245543718,-0.019714610651135445,0.015541784465312958,-0.0010359447915107012,0.025521893054246902
0.033228348940610886,0.005015779752284288,-0.019522665068507195,0.015873143449425697,-0.0008973554358817637,0.02655463106930256
0.03325987979769707,0.004854838363826275,-0.02010141685605049,0.014962788671255112,-0.0007857467280700803,0.026760390028357506
0.03276821970939636,0.004836703650653362,-0.0202775951474905,0.015158719383180141,-0.0007909352425485849,0.026087788864970207
0.032478898763656616,0.004817917011678219,-0.01989355869591236,0.015281212516129017,-0.0007179973763413727,0.025332549586892128
0.03323869779706001,0.0046974532306194305,-0.019581789150834084,0.01632009632885456,-0.0005864907871000469,0.02543056569993496
0.033970821648836136,0.004810289479792118,-0.020495474338531494,0.016343215480446815,-0.0005519327241927385,0.0264869537204504
0.033132076263427734,0.0048494040966033936,-0.020335910841822624,0.01631297916173935,-0.0005388809368014336,0.026744898408651352
0.03254159539937973,0.004759809002280235,-0.020743755623698235,0.016292402520775795,-0.0005631724488921463,0.026201607659459114
0.03254159539937973,0.004759809002280235,-0.020743755623698235,0.016292402520775795,-0.0005631724488921463,0.026201607659459114
0.03380748629570007,0.00457759527489543,-0.02054937370121479,0.015628859400749207,-0.000525916286278516,0.026899036020040512
0.0336143895983696,0.004688015673309565,-0.02023875154554844,0.01623796857893467,-0.000550473399925977,0.027765430510044098
0.033294178545475006,0.004715437535196543,-0.019245952367782593,0.015821106731891632,-0.0006057200953364372,0.02655777521431446
0.03490376099944115,0.004744116682559252,-0.019755683839321136,0.015520412474870682,-0.0006451185327023268,0.02603880502283573
0.03346860781311989,0.004750566557049751,-0.020335350185632706,0.015524502843618393,-0.0005824259133078158,0.02653965912759304
0.03356177359819412,0.004624496214091778,-0.02109507843852043,0.015514511615037918,-0.0006073977565392852,0.0278663020581007
0.03481903672218323,0.004633765202015638,-0.020664026960730553,0.015901954844594002,-0.0005588094936683774,0.02808285318315029
0.034659504890441895,0.004691954702138901,-0.020416883751749992,0.01580910012125969,-0.000576834543608129,0.02754816971719265
0.033830393105745316,0.005155228078365326,-0.020229822024703026,0.01627352274954319,-0.0005433488404378295,0.02749635837972164
0.03472619131207466,0.005071024876087904,-0.020520571619272232,0.01648016832768917,-0.0005566559848375618,0.027072515338659286
0.034373074769973755,0.00473557086661458,-0.02074679359793663,0.016246069222688675,-0.0005860058590769768,0.026646213605999947
0.034356292337179184,0.004853234626352787,-0.020587073639035225,0.016832459717988968,-0.0005393996252678335,0.027053477242588997
0.03464652970433235,0.004809440579265356,-0.020779404789209366,0.016994982957839966,-0.0004910757415927947,0.02756868302822113
0.03455435112118721,0.004859649110585451,-0.02072298340499401,0.01734483614563942,-0.0005148313357494771,0.027727650478482246
0.03499824181199074,0.0047272550873458385,-0.020454999059438705,0.017699649557471275,-0.00048405551933683455,0.027684761211276054
0.034885868430137634,0.0046426099725067616,-0.020434634760022163,0.01735374890267849,-0.0005055479123257101,0.027748778462409973
0.03527025133371353,0.004780889023095369,-0.020910609513521194,0.017664941027760506,-0.00048239860916510224,0.027986649423837662
0.03518097102642059,0.005058991257101297,-0.021140892058610916,0.017404140904545784,-0.0005545316380448639,0.027803411707282066
0.035418443381786346,0.004974172450602055,-0.020642049610614777,0.017317265272140503,-0.000591529009398073,0.028210574761033058
0.035581886768341064,0.004778814967721701,-0.020644282922148705,0.017581677064299583,-0.0006202798103913665,0.028203869238495827
0.03501962125301361,0.00477262306958437,-0.02067412994801998,0.01718335971236229,-0.0006119048339314759,0.027947526425123215
0.03529967740178108,0.004756016191095114,-0.020200997591018677,0.017751924693584442,-0.0009685999830253422,0.02836497686803341
0.03622397407889366,0.004965466447174549,-0.020262733101844788,0.017942894250154495,-0.0009055841364897788,0.02851124480366707
0.03626852110028267,0.004847661592066288,-0.021120935678482056,0.016885410994291306,-0.0007808569935150445,0.028043314814567566
0.03587636351585388,0.004798008129000664,-0.021012527868151665,0.016791008412837982,-0.0007798370788805187,0.028485147282481194
0.03547172248363495,0.005017048213630915,-0.02028045617043972,0.016916634514927864,-0.0007055551395751536,0.028560269623994827
0.03602343797683716,0.004860106855630875,-0.020428285002708435,0.01749010570347309,-0.0006351716001518071,0.028712667524814606
0.03602343797683716,0.004860106855630875,-0.020428285002708435,0.01749010570347309,-0.0006351716001518071,0.028712667524814606
0.036042749881744385,0.0049221753142774105,-0.020643621683120728,0.017165014520287514,-0.000647970475256443,0.027219455689191818
0.03628138452768326,0.004754140041768551,-0.02007429674267769,0.017141245305538177,-0.0006032818928360939,0.028720051050186157
0.03614409267902374,0.004808445461094379,-0.02054070495069027,0.017268339172005653,-0.000510382407810539,0.0289083793759346
0.03626512736082077,0.004688171669840813,-0.021065711975097656,0.016702622175216675,-0.0004977231728844345,0.028932595625519753
0.036378759890794754,0.004264269955456257,-0.020383933559060097,0.017282910645008087,-0.0005081226699985564,0.03005054220557213
0.03735439479351044,0.004502932541072369,-0.020506834611296654,0.01737217605113983,-0.000519936322234571,0.028977150097489357
0.03682364150881767,0.004933435935527086,-0.02112363837659359,0.01787540875375271,-0.0005146915791556239,0.028214402496814728
0.03555352985858917,0.005044891033321619,-0.020809294655919075,0.01772664114832878,-0.0006430302746593952,0.028699912130832672
0.036354910582304,0.00475579546764493,-0.020962797105312347,0.017800696194171906,-0.000685773731674999,0.030072258785367012
0.03631545230746269,0.004821860697120428,-0.020840223878622055,0.01784292235970497,-0.0006717524374835193,0.029292507097125053
0.03739519044756889,0.004768025130033493,-0.020880475640296936,0.017757326364517212,-0.0006481133168563247,0.030295947566628456
0.038113564252853394,0.0048958128318190575,-0.020528892055153847,0.018564531579613686,-0.0006629470735788345,0.030387545004487038
0.036697953939437866,0.0047991094179451466,-0.02110889181494713,0.018416009843349457,-0.0006164797232486308,0.030051151290535927
0.035580411553382874,0.00477017555385828,-0.021297059953212738,0.018315095454454422,-0.0006713009788654745,0.028935063630342484
0.0377306267619133,0.004745437763631344,-0.021571390330791473,0.01843753457069397,-0.0006941137835383415,0.028543269261717796
0.03753865510225296,0.00465708551928401,-0.021205037832260132,0.018053198233246803,-0.0007176337530836463,0.02950483188033104
0.037249427288770676,0.00464294059202075,-0.021921882405877113,0.018189994618296623,-0.0006559430621564388,0.030017578974366188
0.03773641958832741,0.00498914485797286,-0.021058600395917892,0.018365871161222458,-0.0006679554935544729,0.029990913346409798
0.03736872225999832,0.005020748823881149,-0.02169707790017128,0.01796952821314335,-0.000692762085236609,0.029587160795927048
0.0375782810151577,0.004829700104892254,-0.02121705748140812,0.01811717078089714,-0.0007592323236167431,0.029887700453400612
0.038146622478961945,0.005205236375331879,-0.021370939910411835,0.017738496884703636,-0.000795075495261699,0.029390672221779823
0.03744734451174736,0.004531175829470158,-0.021774055436253548,0.017476459965109825,-0.000808267155662179,0.02983991615474224
0.03750737011432648,0.004504482261836529,-0.022418875247240067,0.018184341490268707,-0.000971458328422159,0.03019479662179947
0.037516310811042786,0.00464582908898592,-0.021788030862808228,0.01833868958055973,-0.0010164461564272642,0.03003682754933834
0.03780383989214897,0.005043302662670612,-0.021113932132720947,0.018791349604725838,-0.001080723013728857,0.02955339476466179
0.038662854582071304,0.004954343196004629,-0.021650802344083786,0.01850232668220997,-0.0011395110050216317,0.030000869184732437
0.03799440339207649,0.004752779379487038,-0.022297682240605354,0.018477272242307663,-0.0011772818397730589,0.03042690083384514
0.036926452070474625,0.004231629893183708,-0.021846910938620567,0.018770819529891014,-0.0010894134175032377,0.030749699100852013
0.03795899823307991,0.0034833515528589487,-0.021346699446439743,0.01912757195532322,-0.000989726628176868,0.03023773804306984
0.03931453078985214,0.003664759686216712,-0.022104457020759583,0.019527459517121315,-0.0008642213069833815,0.03141525387763977
0.03931453078985214,0.003664759686216712,-0.022104457020759583,0.019527459517121315,-0.0008642213069833815,0.03141525387763977
0.03685758635401726,0.003995197359472513,-0.021818317472934723,0.01820719987154007,-0.0007361883181147277,0.031062806025147438
0.03685758635401726,0.003995197359472513,-0.021818317472934723,0.01820719987154007,-0.0007361883181147277,0.031062806025147438
0.03701985999941826,0.003749034134671092,-0.022152122110128403,0.018819550052285194,-0.0007264563464559615,0.03082810342311859
0.03865494951605797,0.004285966046154499,-0.02156355418264866,0.019121425226330757,-0.0007687686593271792,0.03079969622194767
0.03851213678717613,0.0041804141364991665,-0.021343007683753967,0.019199326634407043,-0.0008190853986889124,0.03021254949271679
0.038467466831207275,0.003936024382710457,-0.021318521350622177,0.019122831523418427,-0.000889437273144722,0.0313052274286747
0.03823211416602135,0.003856851952150464,-0.02148941159248352,0.01909216120839119,-0.000861620472278446,0.03246587887406349
0.03809049353003502,0.0034654815681278706,-0.02200280874967575,0.01892486959695816,-0.0008647168870083988,0.032098326832056046
0.03882083669304848,0.0034469678066670895,-0.022187646478414536,0.02000943198800087,-0.0008193461108021438,0.03030610829591751
0.03916383162140846,0.0035562762059271336,-0.02174018882215023,0.01964780129492283,-0.0008392930612899363,0.030459677800536156
0.0385822057723999,0.004183870740234852,-0.022150959819555283,0.01905165985226631,-0.0008576627587899566,0.03182445093989372
0.038823194801807404,0.0036608402151614428,-0.021812453866004944,0.019597159698605537,-0.0008554445230402052,0.032109927386045456
0.03899025171995163,0.003498367266729474,-0.021731676533818245,0.019606778398156166,-0.0008187295752577484,0.033109139651060104
0.03953486680984497,0.0034331493079662323,-0.021656300872564316,0.019488412886857986,-0.0007846048683859408,0.03302726522088051
0.03956541791558266,0.0035214978270232677,-0.02225497178733349,0.01954204961657524,-0.0008578955312259495,0.031847141683101654
0.03953385725617409,0.0035986769944429398,-0.022300776094198227,0.01998816430568695,-0.0008038841770030558,0.03076925314962864
0.040150947868824005,0.0035097210202366114,-0.022133806720376015,0.020266953855752945,-0.000812297104857862,0.031171055510640144
0.03951828554272652,0.0035534061025828123,-0.021728672087192535,0.0203061755746603,-0.000815054343547672,0.03244578465819359
0.039883337914943695,0.003672001650556922,-0.021736513823270798,0.020396340638399124,-0.0007433455903083086,0.03161937743425369
0.040210455656051636,0.0037766185123473406,-0.0220752265304327,0.02032013051211834,-0.0007335552363656461,0.032656602561473846
0.04007944092154503,0.003982508089393377,-0.02244345284998417,0.02002093568444252,-0.0006512969266623259,0.033263612538576126
0.0399555079638958,0.0036884413566440344,-0.02237393520772457,0.020132046192884445,-0.0006756791262887418,0.03284560889005661
0.04043494910001755,0.003517953446134925,-0.021983755752444267,0.020068055018782616,-0.0006935721030458808,0.03247259929776192
0.040447838604450226,0.0036683515645563602,-0.022229449823498726,0.020220931619405746,-0.000713969930075109,0.0324765108525753
0.040447838604450226,0.0036683515645563602,-0.022229449823498726,0.020220931619405746,-0.000713969930075109,0.0324765108525753
0.04120539501309395,0.0039409189485013485,-0.02325153350830078,0.020329786464571953,-0.0007995544001460075,0.03291686251759529
0.04059334471821785,0.004074759781360626,-0.02258170396089554,0.01996922679245472,-0.0007403487688861787,0.033121515065431595
0.04059334471821785,0.004074759781360626,-0.02258170396089554,0.01996922679245472,-0.0007403487688861787,0.033121515065431595
0.04209312051534653,0.0041189962066709995,-0.022366533055901527,0.02033434808254242,-0.0007504411623813212,0.033546172082424164
0.0424392893910408,0.003856722032651305,-0.02227763645350933,0.020047277212142944,-0.0008006367133930326,0.033612411469221115
0.0399664044380188,0.0037014195695519447,-0.022388767451047897,0.019804321229457855,-0.0008387372945435345,0.03329721838235855
0.040952928364276886,0.0036831097677350044,-0.022878317162394524,0.01987641677260399,-0.0008486699662171304,0.033667366951704025
0.041745103895664215,0.0042429473251104355,-0.022503439337015152,0.01959468051791191,-0.0008549769991077483,0.03361866623163223
0.0422692596912384,0.004107172135263681,-0.02337053418159485,0.01973872445523739,-0.0008893082267604768,0.03385660797357559
0.04317120835185051,0.0036068870685994625,-0.02403666265308857,0.020329484716057777,-0.000915717682801187,0.033696357160806656
0.04144732654094696,0.003535608295351267,-0.023857373744249344,0.020352821797132492,-0.0008476487710140646,0.03378825634717941
0.04086579009890556,0.004170076455920935,-0.02333759143948555,0.020085442811250687,-0.0008258642628788948,0.03378964960575104
0.04247366636991501,0.00402995478361845,-0.02292446978390217,0.02031545154750347,-0.000754231121391058,0.03326664865016937
0.04197786748409271,0.0038321048486977816,-0.023040443658828735,0.020332474261522293,-0.0007644811412319541,0.03509682044386864
0.04208509996533394,0.0037517896853387356,-0.023362744599580765,0.02015228569507599,-0.0006964046624489129,0.03603874519467354
0.04200582206249237,0.0037509622052311897,-0.023572545498609543,0.02025545760989189,-0.0006292683538049459,0.03380260989069939
0.04216397926211357,0.0037637916393578053,-0.02387974038720131,0.020545827224850655,-0.0006347770104184747,0.032585274428129196
0.042660903185606,0.003877888200804591,-0.02350151166319847,0.020227517932653427,-0.0006748930900357664,0.03405189886689186
0.04223860800266266,0.0035434896126389503,-0.023100562393665314,0.020128123462200165,-0.0006978852907195687,0.0343351885676384
0.04243284463882446,0.0035219101700931787,-0.023838326334953308,0.020651882514357567,-0.0008796267793513834,0.035146743059158325
0.04410265013575554,0.004159427713602781,-0.023994112387299538,0.02154485508799553,-0.001028490369208157,0.03558415174484253
0.04246307536959648,0.004147513769567013,-0.023775331676006317,0.020539505407214165,-0.001018795184791088,0.03522326052188873
0.04126942902803421,0.00403127446770668,-0.02342192642390728,0.020263662561774254,-0.0010881986236199737,0.033916499465703964
0.04297293350100517,0.00391890574246645,-0.023475585505366325,0.020301271229982376,-0.0011673540575429797,0.03472214564681053
0.043565284460783005,0.0042223152704536915,-0.023757565766572952,0.02041335590183735,-0.0011263462947681546,0.03609249368309975
0.043565284460783005,0.0042223152704536915,-0.023757565766572952,0.02041335590183735,-0.0011263462947681546,0.03609249368309975
0.04450032860040665,0.004297018516808748,-0.024051235988736153,0.021030176430940628,-0.00110126833897084,0.03601643443107605
0.0430714413523674,0.004542101174592972,-0.023850053548812866,0.021313246339559555,-0.0010617993539199233,0.03560275211930275
0.04232627525925636,0.0042642867192626,-0.02352040447294712,0.021060658618807793,-0.0009796868544071913,0.03430098667740822
0.04398541525006294,0.0039910743944346905,-0.023467140272259712,0.02081567980349064,-0.0008924189023673534,0.03521755337715149
0.043400220572948456,0.0038960245437920094,-0.023736555129289627,0.022356608882546425,-0.000867135007865727,0.03619915619492531
0.04406901076436043,0.004393190145492554,-0.024176083505153656,0.022118045017123222,-0.0008033202611841261,0.035840488970279694
0.043578390032052994,0.0046478258445858955,-0.02359791100025177,0.021078135818243027,-0.0007820998434908688,0.03600244224071503
0.04429266229271889,0.004428991582244635,-0.022951409220695496,0.020770180970430374,-0.0007960086804814637,0.03608038276433945
0.0439852774143219,0.004530777223408222,-0.02339033968746662,0.021505504846572876,-0.000756498659029603,0.036224860697984695
0.043750956654548645,0.004230267368257046,-0.02395758032798767,0.021688230335712433,-0.0007688006153330207,0.03591032326221466
0.043831080198287964,0.003995223436504602,-0.024035993963479996,0.021806171163916588,-0.0009838577825576067,0.03608982264995575
0.044339537620544434,0.004271442070603371,-0.023924564942717552,0.021680250763893127,-0.000982583500444889,0.03604193776845932
0.04428397864103317,0.0045297713950276375,-0.023238850757479668,0.02217334881424904,-0.0009715549531392753,0.03643372654914856
0.0443497933447361,0.004631467163562775,-0.02350531704723835,0.021799715235829353,-0.0010287124896422029,0.03612504154443741
0.044520724564790726,0.004887949675321579,-0.023732813075184822,0.02158147096633911,-0.0010779357980936766,0.03613882139325142
0.044051822274923325,0.0043914588168263435,-0.023618359118700027,0.02135464735329151,-0.001072738436050713,0.0373472161591053
0.04454169049859047,0.004178229719400406,-0.024046719074249268,0.021209504455327988,-0.0010486702667549253,0.03657842427492142
0.044913120567798615,0.004172917455434799,-0.02469530701637268,0.021393446251749992,-0.0010755684925243258,0.036314111202955246
0.0452374666929245,0.004463381599634886,-0.024211717769503593,0.021729275584220886,-0.0010571829043328762,0.036566756665706635
0.04499191418290138,0.004168623127043247,-0.023840252310037613,0.02165859565138817,-0.0010318547720089555,0.03673957288265228
0.04502685368061066,0.00444823270663619,-0.023163992911577225,0.02183602564036846,-0.001004168065264821,0.03721833601593971
