davideferrari95/blind_handover_controller/data/Test 103 - [2024-02-07 -- 16-20-23]/joint_states_data.csv
shoulder_pan_joint,shoulder_lift_joint,elbow_joint,wrist_1_joint,wrist_2_joint,wrist_3_joint
0.005974281579256058,-0.004460753407329321,-0.012680964544415474,0.016306618228554726,0.0,0.006045641843229532
0.0062424782663583755,-0.004757435992360115,-0.013246068730950356,0.016103869304060936,0.0,0.005527050234377384
0.0062424782663583755,-0.004757435992360115,-0.013246068730950356,0.016103869304060936,0.0,0.005527050234377384
0.0060281092301011086,-0.00463350024074316,-0.012973844073712826,0.01574654132127762,0.0,0.005680995527654886
0.006674951873719692,-0.004861144348978996,-0.01307305134832859,0.016270920634269714,0.0,0.006081199739128351
0.005940497387200594,-0.004754818510264158,-0.012863022275269032,0.0159428883343935,0.0,0.006060326937586069
0.00585624435916543,-0.004655519500374794,-0.013177212327718735,0.01612703874707222,0.0,0.005847227293998003
0.006477982737123966,-0.0046815997920930386,-0.012354150414466858,0.015519500710070133,0.0,0.006036343052983284
0.006470696069300175,-0.005135418847203255,-0.012861371971666813,0.015696870163083076,0.0,0.005822210106998682
0.006470696069300175,-0.005135418847203255,-0.012861371971666813,0.015696870163083076,0.0,0.005822210106998682
0.005749644711613655,-0.004989801440387964,-0.013728076592087746,0.015554007142782211,0.0,0.006457573268562555
0.005749644711613655,-0.004989801440387964,-0.013728076592087746,0.015554007142782211,0.0,0.006457573268562555
0.006015902850776911,-0.00481385039165616,-0.013013913296163082,0.015849798917770386,0.0,0.005780661944299936
0.006377470213919878,-0.004747096914798021,-0.012984536588191986,0.016284964978694916,0.0,0.0058402991853654385
0.0063149346970021725,-0.004540012683719397,-0.012902704067528248,0.017221501097083092,0.0,0.0058258455246686935
0.006224179174751043,-0.004680450540035963,-0.012318404391407967,0.01606159098446369,0.0,0.0060050953179597855
0.006463187281042337,-0.005159393418580294,-0.013062181882560253,0.01603887416422367,0.0,0.006387705914676189
0.0059130010195076466,-0.0046880110166966915,-0.012889271602034569,0.015366318635642529,0.0,0.005661670118570328
0.006140176672488451,-0.005017498973757029,-0.013409921899437904,0.016394218429923058,0.0,0.005878622177988291
0.0065498934127390385,-0.005037972237914801,-0.012882311828434467,0.015169969759881496,0.0,0.005444912239909172
0.006120429374277592,-0.004795853979885578,-0.013230924494564533,0.015893757343292236,0.0,0.005936022847890854
0.0059164585545659065,-0.004751271102577448,-0.012832870706915855,0.016679672524333,0.0,0.005650580395013094
0.006054655183106661,-0.005214089062064886,-0.013009125366806984,0.016786599531769753,0.0,0.005806309171020985
0.006088086869567633,-0.005128299817442894,-0.013457067310810089,0.01674041710793972,0.0,0.005474837496876717
0.006011659745126963,-0.005190737545490265,-0.013304238207638264,0.015468047000467777,0.0,0.006297098472714424
0.006194783374667168,-0.004884418100118637,-0.013296741992235184,0.016295747831463814,0.0,0.0061691454611718655
0.005799904465675354,-0.004716590512543917,-0.013559035956859589,0.01623699627816677,0.0,0.00534853246062994
0.005731894634664059,-0.004820316564291716,-0.01363374199718237,0.017101073637604713,0.0,0.005458095110952854
0.005845301318913698,-0.003978565335273743,-0.013277299702167511,0.01610674522817135,0.0,0.005555629264563322
0.00586346723139286,-0.0029672454111278057,-0.013818860054016113,0.015462229959666729,0.0,0.005824493709951639
0.0058955117128789425,-0.002321754116564989,-0.013238837942481041,0.01546601951122284,0.0,0.006002651993185282
0.005885276012122631,-0.0016673702048137784,-0.013698975555598736,0.015405157580971718,0.0,0.006187036633491516
0.006132044829428196,-0.0026326875668019056,-0.01337406411767006,0.015292290598154068,0.0,0.005591487977653742
0.006107905879616737,-0.004154663998633623,-0.013218880631029606,0.015968166291713715,0.0,0.005513815674930811
0.006256811786442995,-0.003360859816893935,-0.014193935319781303,0.0159275084733963,0.0,0.005485472735017538
0.005632849410176277,-0.0027643616776913404,-0.013160929083824158,0.01643339730799198,0.0,0.006055076606571674
0.005632849410176277,-0.0027643616776913404,-0.013160929083824158,0.01643339730799198,0.0,0.006055076606571674
0.0063837505877017975,-0.002326711779460311,-0.014190126210451126,0.015874551609158516,0.0,0.006274702493101358
0.006053412798792124,-0.00217448896728456,-0.013114996254444122,0.01583828590810299,0.0,0.0055586230009794235
0.005937627051025629,-0.0024708143901079893,-0.013439572416245937,0.015518979169428349,0.0,0.005781908519566059
0.006172888446599245,-0.0025097194593399763,-0.013245291076600552,0.015670519322156906,0.0,0.005493496544659138
0.005704694427549839,-0.0027696206234395504,-0.013060458935797215,0.015718143433332443,0.0,0.005826168693602085
0.006446857936680317,-0.0025324560701847076,-0.013574475422501564,0.015174980275332928,0.0,0.005955100525170565
0.0061523341573774815,-0.0023022128734737635,-0.012593939900398254,0.015617363154888153,0.0,0.005631184671074152
0.005979901645332575,-0.002015530364587903,-0.012962385080754757,0.015507922507822514,0.0,0.005283751059323549
0.00595794478431344,-0.001954721286892891,-0.013226929120719433,0.015660861507058144,0.0,0.005519621539860964
0.0057040974497795105,-0.0021484983153641224,-0.013748369179666042,0.01512050349265337,0.0,0.005449001211673021
0.006094294600188732,-0.002193027874454856,-0.012289519421756268,0.015940658748149872,0.0,0.005823529791086912
0.005850708112120628,-0.002392834983766079,-0.012554182671010494,0.015629708766937256,0.0,0.005751851014792919
0.00588817335665226,-0.002264704555273056,-0.012532480992376804,0.015813572332262993,0.0,0.005463649518787861
0.006117253098636866,-0.002203526673838496,-0.01257759053260088,0.015690602362155914,0.0,0.0056558093056082726
0.005654376931488514,-0.0021140032913535833,-0.0127023383975029,0.015781644731760025,0.0,0.00594292301684618
0.005946986842900515,-0.0020747410599142313,-0.012589110061526299,0.015767082571983337,0.0,0.006377289071679115
0.006071292329579592,-0.0022008316591382027,-0.013135447166860104,0.015597422607243061,0.0,0.005814751610159874
0.005982063710689545,-0.002461526310071349,-0.012750603258609772,0.01596761681139469,0.0,0.0054464940913021564
0.006260170601308346,-0.0024071522057056427,-0.012926194816827774,0.01560195628553629,0.0,0.005506524816155434
0.005769925657659769,-0.0026416731998324394,-0.013240791857242584,0.01560094766318798,0.0,0.0052222684025764465
0.006454992573708296,-0.002667664783075452,-0.013296732679009438,0.014765739440917969,0.0,0.00569468317553401
0.006741948425769806,-0.002523008268326521,-0.012866837903857231,0.015551033429801464,0.0,0.005710381083190441
0.006181035190820694,-0.0025232795160263777,-0.012559745460748672,0.014887899160385132,0.0,0.0059464555233716965
0.0063305445946753025,-0.002552272751927376,-0.01288746390491724,0.015340960584580898,0.0,0.005601379554718733
0.006191156804561615,-0.0025270855985581875,-0.013089826330542564,0.015848448500037193,0.0,0.005333118140697479
0.006768111605197191,-0.003044018754735589,-0.012818942777812481,0.015291455201804638,0.0,0.005872668698430061
0.006579715292900801,-0.002729176077991724,-0.01293413806706667,0.01581033319234848,0.0,0.00556738069280982
0.006579715292900801,-0.002729176077991724,-0.01293413806706667,0.01581033319234848,0.0,0.00556738069280982
0.00582488439977169,-0.0027937686536461115,-0.01247915904968977,0.01581590063869953,0.0,0.005319368094205856
0.006401776801794767,-0.002692864742130041,-0.012756387703120708,0.01575244590640068,0.0,0.005105484742671251
0.006287944037467241,-0.0027382271364331245,-0.012652069330215454,0.015942832455039024,0.0,0.005637712310999632
0.0060875024646520615,-0.002623926382511854,-0.012166531756520271,0.01638682372868061,0.0,0.005590572953224182
0.006489839870482683,-0.002919686259701848,-0.012425617314875126,0.015515181235969067,0.0,0.0059434943832457066
0.00604821415618062,-0.00295254890806973,-0.01165090687572956,0.015002762898802757,0.0,0.005410631652921438
0.006028920877724886,-0.002935830969363451,-0.01250571571290493,0.015751004219055176,0.0,0.005318059585988522
0.006852306891232729,-0.0027780188247561455,-0.012689942494034767,0.015611188486218452,0.0,0.005005282815545797
0.006471137050539255,-0.002863215282559395,-0.0123221380636096,0.01570436917245388,0.0,0.0047931610606610775
0.006028500385582447,-0.003285253420472145,-0.012247464619576931,0.01552384439855814,0.0,0.005230841226875782
0.006321224849671125,-0.0032381382770836353,-0.012057952582836151,0.015861161053180695,0.0,0.0054341871291399
0.0068321675062179565,-0.003090745070949197,-0.012372826226055622,0.016016265377402306,0.0,0.005162967834621668
0.006787652615457773,-0.0028101392090320587,-0.011813411489129066,0.015696337446570396,0.0,0.005398018751293421
0.006615727208554745,-0.00291692977771163,-0.012215683236718178,0.01583145186305046,0.0,0.005193977151066065
0.006215672008693218,-0.002971238223835826,-0.011879158206284046,0.015239851549267769,0.0,0.004895759746432304
0.0065775057300925255,-0.0034181950613856316,-0.012145851738750935,0.015418180264532566,0.0,0.004823513329029083
0.006963556166738272,-0.003307611681520939,-0.012224028818309307,0.014919948764145374,0.0,0.004818290006369352
0.006638070568442345,-0.0029827910475432873,-0.011890610679984093,0.015266272239387035,0.0,0.004748225212097168
0.006266111973673105,-0.0029518515802919865,-0.012790647335350513,0.014968321658670902,0.0,0.005065767094492912
0.006555634085088968,-0.003114687977358699,-0.011671424843370914,0.015474633313715458,0.0,0.00499093160033226
0.006823886651545763,-0.0033861345145851374,-0.012148034758865833,0.014950147829949856,0.0,0.004874097183346748
0.00654017785564065,-0.0032165844459086657,-0.012100878171622753,0.015219591557979584,0.0,0.005015620030462742
0.006403555162250996,-0.003008002182468772,-0.012080276384949684,0.015171841718256474,0.0,0.00495500024408102
0.00661614490672946,-0.003031359985470772,-0.012513376772403717,0.015829317271709442,0.0,0.004856633022427559
0.006191273685544729,-0.0031637672800570726,-0.012380043044686317,0.015927085652947426,0.0,0.004987142514437437
0.00669560581445694,-0.0032375743612647057,-0.012127203866839409,0.015829775482416153,0.0,0.005054883658885956
0.007012949325144291,-0.0030342021491378546,-0.01245191041380167,0.015547393821179867,0.0,0.0049780975095927715
0.007012949325144291,-0.0030342021491378546,-0.01245191041380167,0.015547393821179867,0.0,0.0049780975095927715
0.0064000291749835014,-0.0028081699274480343,-0.012315242551267147,0.015456990338861942,0.0,0.00489887036383152
0.007078859955072403,-0.003067374462261796,-0.012013284489512444,0.014940914697945118,0.0,0.004818640649318695
0.0067877997644245625,-0.0033340435475111008,-0.011930577456951141,0.01527398545295,0.0,0.005070595070719719
0.0069348569959402084,-0.0035471818409860134,-0.01163939107209444,0.015081580728292465,0.0,0.005009735468775034
0.006653915159404278,-0.003392082406207919,-0.012384696863591671,0.015949850901961327,0.0,0.004893651697784662
0.006230636034160852,-0.0033754692412912846,-0.012505004182457924,0.015266913920640945,0.0,0.005077200476080179
0.007095621433109045,-0.0031654054764658213,-0.012567928060889244,0.015003504231572151,0.0,0.004980804398655891
0.007797652389854193,-0.0030062771402299404,-0.013025561347603798,0.014868647791445255,0.0,0.0047961995005607605
0.0067748622968792915,-0.003141106339171529,-0.011921058408915997,0.015730582177639008,0.0,0.005052768159657717
0.006371322087943554,-0.003357072826474905,-0.012371300719678402,0.015484459698200226,0.0,0.004894442390650511
0.006928593851625919,-0.0034523752983659506,-0.012125751934945583,0.01606142707169056,0.0,0.00488254614174366
0.007503989152610302,-0.0036161320749670267,-0.013151741586625576,0.015442505478858948,0.0,0.004891674499958754
0.007055121473968029,-0.0037472108379006386,-0.012027337215840816,0.015245199203491211,0.0,0.004976912401616573
0.0064814044162631035,-0.0034059162717312574,-0.01190942618995905,0.014850327745079994,0.0,0.004484082106500864
0.006591467186808586,-0.0034981847275048494,-0.012409471906721592,0.015102783218026161,0.0,0.0045232814736664295
0.006793452426791191,-0.0033861605916172266,-0.01208733581006527,0.01521697174757719,0.0,0.004180855117738247
0.006876627914607525,-0.00339658185839653,-0.012591531500220299,0.015150808729231358,0.0,0.004207991063594818
0.0066297766752541065,-0.0030756243504583836,-0.012225142680108547,0.015950508415699005,0.0,0.004175754263997078
0.007108872290700674,-0.0032030048314481974,-0.01305374689400196,0.015394661575555801,0.0,0.004402347840368748
0.006816623266786337,-0.003505552187561989,-0.012068676762282848,0.015942933037877083,0.0,0.0046084122732281685
0.007025247905403376,-0.0034873606637120247,-0.012456178665161133,0.015452240593731403,0.0,0.004679916892200708
0.007122457027435303,-0.003204433247447014,-0.012298227287828922,0.01534105371683836,0.0,0.004216387867927551
0.0066619026474654675,-0.0032584290020167828,-0.011763688176870346,0.015100915916264057,0.0,0.004207564052194357
0.007179176434874535,-0.0030705269891768694,-0.012277244590222836,0.015436975285410881,0.0,0.00438212463632226
0.006967665161937475,-0.0031201208475977182,-0.012888241559267044,0.014859317801892757,0.0,0.004830387886613607
0.00655381241813302,-0.003296792507171631,-0.012194748967885971,0.014973076060414314,0.0,0.00487103033810854
0.006616648286581039,-0.0033537480048835278,-0.011966012418270111,0.01528790220618248,0.0,0.0044242218136787415
0.006616648286581039,-0.0033537480048835278,-0.011966012418270111,0.01528790220618248,0.0,0.0044242218136787415
0.006777171976864338,-0.0036166964564472437,-0.012389986775815487,0.015411320142447948,0.0,0.004254397936165333
0.006971335504204035,-0.0033994081895798445,-0.011848349124193192,0.015452724881470203,0.0,0.004420246928930283
0.006979943718761206,-0.003592223161831498,-0.012453350238502026,0.015587232075631618,0.0,0.004508737474679947
0.006687219254672527,-0.00330501445569098,-0.011894730851054192,0.01518374402076006,0.0,0.004694805480539799
0.007420453708618879,-0.0031150137074291706,-0.012353193946182728,0.01574789173901081,0.0,0.0045650373212993145
0.007552805356681347,-0.003071185201406479,-0.012191412039101124,0.01552410889416933,0.0,0.004581776447594166
0.006957021076232195,-0.0031384460162371397,-0.011963489465415478,0.016254888847470284,0.0,0.004808416590094566
0.006884795613586903,-0.003487430512905121,-0.012432408519089222,0.015477532520890236,0.0,0.004524922464042902
0.007334763649851084,-0.003290654392912984,-0.01181606762111187,0.015412945300340652,0.0,0.004342992790043354
0.007300525438040495,-0.0026525454595685005,-0.012424176558852196,0.015475301072001457,0.0,0.004260025452822447
0.0073478021658957005,-0.0025831833481788635,-0.012102995999157429,0.015841014683246613,0.0,0.004308607429265976
0.007151518948376179,-0.002258534077554941,-0.012696386314928532,0.015640584751963615,0.0,0.004302332177758217
0.009270978160202503,-0.0022343548480421305,-0.012518651783466339,0.015202002599835396,0.0,0.004395261872559786
0.0072845774702727795,-0.0027147880755364895,-0.011917992495000362,0.0152088962495327,0.0,0.004055643919855356
0.0066321780905127525,-0.003007790306583047,-0.012222430668771267,0.015428401529788971,0.0,0.003851962275803089
0.006832323968410492,-0.0029372419230639935,-0.011994157917797565,0.015723440796136856,0.0,0.0037836097180843353
0.00758384820073843,-0.0026399516500532627,-0.012986413203179836,0.015361737459897995,0.0,0.003790319664403796
0.007473020814359188,-0.002200304763391614,-0.01218216959387064,0.015547014772891998,0.0,0.004099459853023291
0.007318736519664526,-0.002100288635119796,-0.012030446901917458,0.015133234672248363,0.0,0.004311037715524435
0.007162546738982201,-0.002272410085424781,-0.01241313386708498,0.01570664718747139,0.0,0.004103532060980797
0.007645726203918457,-0.002556607825681567,-0.011717777699232101,0.014922748319804668,0.0,0.004275769926607609
0.007639940362423658,-0.0025730428751558065,-0.01245142426341772,0.015401540324091911,0.0,0.004173618741333485
0.007183149456977844,-0.002783305011689663,-0.011746668256819248,0.014964178204536438,0.0,0.004027631599456072
0.006880979519337416,-0.002415438648313284,-0.012381942011415958,0.015322748571634293,0.0,0.0034775687381625175
0.007941266521811485,-0.0020968448370695114,-0.01188818272203207,0.015572216361761093,0.0,0.00411550048738718
0.00812151562422514,-0.00210827705450356,-0.012281613424420357,0.015130198560655117,0.0,0.0042676422744989395
0.0079175541177392,-0.002749806037172675,-0.01188899576663971,0.014926758594810963,0.0,0.003971921745687723
0.007970208302140236,-0.0029328546952456236,-0.012480935081839561,0.014580745249986649,0.0,0.003349025035277009
0.0077727255411446095,-0.0026146795134991407,-0.01205794420093298,0.014659625478088856,0.0,0.0034583192318677902
0.007476782891899347,-0.0020416455809026957,-0.012392678298056126,0.014782738871872425,0.0,0.0034330151975154877
0.008024496957659721,-0.001965384930372238,-0.012487666681408882,0.01525914203375578,0.0,0.003396959975361824
0.008024496957659721,-0.001965384930372238,-0.012487666681408882,0.01525914203375578,0.0,0.003396959975361824
0.007880042307078838,-0.002109687775373459,-0.012155829928815365,0.015348773449659348,3.59725220278051e-07,0.0035810647532343864
0.0075189583003520966,-0.002490351675078273,-0.012104975990951061,0.015107487328350544,2.3487487510465144e-08,0.003730352036654949
0.007307734340429306,-0.002517868997529149,-0.011833757162094116,0.015106222592294216,1.533565052724839e-09,0.00387441529892385
0.007311331108212471,-0.00263696676120162,-0.012623774819076061,0.014223320409655571,1.0013083417970137e-10,0.003561972873285413
0.007771055214107037,-0.002238648710772395,-0.012603309005498886,0.014966989867389202,6.5378275709848666e-12,0.0033831277396529913
0.007289957720786333,-0.0022827330976724625,-0.012790956534445286,0.014625501818954945,4.268734074986541e-13,0.003441857872530818
0.007027639541774988,-0.0021903663873672485,-0.012671819888055325,0.015041690319776535,2.787178345379452e-14,0.003622186603024602
0.007317432202398777,-0.0021834319923073053,-0.012486323714256287,0.015115838497877121,1.8198284760774725e-15,0.00349544663913548
0.007711119018495083,-0.002450481755658984,-0.01237500086426735,0.015409055165946484,1.1882179507572305e-16,0.003155918326228857
0.00752496300265193,-0.002565801842138171,-0.012288885191082954,0.014529505744576454,7.758213819099165e-18,0.0032911323942244053
0.0076116700656712055,-0.00241277739405632,-0.012303952127695084,0.015041629783809185,5.065558945504298e-19,0.003189540235325694
0.007046538405120373,-0.0021857190877199173,-0.011984631419181824,0.013651135377585888,3.307448075080896e-20,0.0034920580219477415
0.007709055673331022,-0.0020753489807248116,-0.01224016398191452,0.014621703885495663,2.15952725104783e-21,0.0032772887498140335
0.007722465321421623,-0.0019280646229162812,-0.012683054432272911,0.014109180308878422,1.4100170501857473e-22,0.0033127753995358944
0.007317627780139446,-0.0019258809043094516,-0.012445792555809021,0.013809754513204098,9.206405138686344e-24,0.00330171431414783
0.007248786278069019,-0.002102319849655032,-0.012767067179083824,0.014091982506215572,6.011125028164768e-25,0.003477994119748473
0.007548469118773937,-0.0024516156408935785,-0.012263939715921879,0.015353543683886528,3.924835377334446e-26,0.0037055439315736294
0.007925214245915413,-0.002356964163482189,-0.012877078726887703,0.014996247366070747,2.5626371839908062e-27,0.003555839415639639
0.00804651714861393,-0.002168686594814062,-0.012587332166731358,0.014475193805992603,1.0924924125920816e-29,0.0033575536217540503
0.00850194413214922,-0.002014303347095847,-0.012991919182240963,0.014707334339618683,7.133194534772827e-31,0.0034024438355118036
0.00850194413214922,-0.002014303347095847,-0.012991919182240963,0.014707334339618683,7.133194534772827e-31,0.0034024438355118036
0.007971166633069515,-0.0020087994635105133,-0.01237467024475336,0.01481512188911438,4.657466428074501e-32,0.0035511248279362917
0.007663805969059467,-0.0021299191284924746,-0.012715235352516174,0.014946067705750465,3.0409926816467265e-33,0.003638512920588255
0.007663805969059467,-0.0021299191284924746,-0.012715235352516174,0.014946067705750465,3.0409926816467265e-33,0.003638512920588255
0.007663805969059467,-0.0021299191284924746,-0.012715235352516174,0.014946067705750465,3.0409926816467265e-33,0.003638512920588255
0.007695383857935667,-0.0021270313300192356,-0.012360765598714352,0.014614695683121681,1.9855511556141865e-34,0.003693794598802924
0.00810498371720314,-0.0022163037210702896,-0.012471641413867474,0.01493057794868946,3.608640620910841e-39,0.003163191257044673
0.008374766446650028,-0.00197826256044209,-0.012741414830088615,0.015098118223249912,2.356185276869677e-40,0.003096973057836294
0.007924077101051807,-0.001960356254130602,-0.013380183838307858,0.014889863319694996,1.5384855839822167e-41,0.0030499938875436783
0.007564489729702473,-0.0020711624529212713,-0.012904942966997623,0.015100294724106789,1.0047309989208938e-42,0.003129195189103484
0.007875028997659683,-0.002256107283756137,-0.012684611603617668,0.014488855376839638,-0.00012796254304703325,0.003378474386408925
0.008230759762227535,-0.0023223625030368567,-0.013404861092567444,0.014260908588767052,-0.00012633488222490996,0.003120089415460825
0.00788825936615467,-0.0022101395297795534,-0.013158636167645454,0.014261811971664429,-0.00012300963862799108,0.0030841603875160217
0.007907690480351448,-0.0025189616717398167,-0.013780731707811356,0.014293519780039787,-0.00011974445806117728,0.002750141778960824
0.008042707107961178,-0.002443060278892517,-0.01316730584949255,0.014321641065180302,-0.00011664105113595724,0.002470694249495864
0.008271780796349049,-0.0025616884231567383,-0.012994995340704918,0.014357049949467182,-0.0001305478363065049,0.002458538394421339
0.008396320044994354,-0.0023337816819548607,-0.01331691350787878,0.014522247016429901,-0.00013268621114548296,0.002685493789613247
0.007883233018219471,-0.0021757627837359905,-0.013142316602170467,0.01441783457994461,-0.00012984484783373773,0.0029823242221027613
0.008043060079216957,-0.0019724671728909016,-0.013387366198003292,0.01447545550763607,-0.0001268181367777288,0.00289038079790771
0.007860573008656502,-0.0023814791347831488,-0.013511494733393192,0.014794751070439816,-0.00012112999684177339,0.003325623692944646
0.007587815634906292,-0.002631811425089836,-0.013050206936895847,0.0148159209638834,-0.00013562462117988616,0.0031879243906587362
0.007587815634906292,-0.002631811425089836,-0.013050206936895847,0.0148159209638834,-0.00013562462117988616,0.0031879243906587362
0.00806531310081482,-0.0025275798980146646,-0.013042804785072803,0.014977646060287952,-0.0001323967007920146,0.0027735100593417883
0.007496471516788006,-0.002196617890149355,-0.013053729198873043,0.014636254869401455,-0.0001296814443776384,0.0029419222846627235
0.007496471516788006,-0.002196617890149355,-0.013053729198873043,0.014636254869401455,-0.0001296814443776384,0.0029419222846627235
0.007928512059152126,-0.0021844785660505295,-0.012283930554986,0.014970630407333374,-0.00014400904183275998,0.003113765036687255
0.00806719996035099,-0.002392852446064353,-0.011207065545022488,0.014595301821827888,-0.00014226874918676913,0.0033534476533532143
0.008403688669204712,-0.0023571085184812546,-0.013525053858757019,0.014861534349620342,-0.0001395827130181715,0.003171440912410617
0.0078818891197443,-0.0024980611633509398,-0.013274469412863255,0.014382557012140751,-0.00013693267828784883,0.0028178191278129816
0.008316822350025177,-0.0023132076021283865,-0.013265995308756828,0.015103687532246113,-0.00013437734742183238,0.0026017504278570414
0.007915833964943886,-0.002188977086916566,-0.01243488397449255,0.015067246742546558,-0.0001320356532232836,0.002622336382046342
0.007898228242993355,-0.001951243611983955,-0.013599728234112263,0.01547474879771471,-0.0001962396636372432,0.002534202067181468
0.0079351756721735,-0.0019235145300626755,-0.012983433902263641,0.014894888736307621,-0.00019241968402639031,0.0027091314550489187
0.008279084227979183,-0.001921267481520772,-0.013226316310465336,0.015156423673033714,-0.00018481422739569098,0.0026356775779277086
0.008446182124316692,-0.0019631024915724993,-0.012762775644659996,0.014441768638789654,-0.00017754087457433343,0.0024815709330141544
0.007947971113026142,-0.0019398051081225276,-0.01243986003100872,0.01489206962287426,-0.00020264420891180634,0.002246678341180086
0.008203200995922089,-0.0021614457946270704,-0.012758329510688782,0.014626049436628819,-0.00019731494830921292,0.002121587982401252
0.008174707181751728,-0.0021665252279490232,-0.012648788280785084,0.014795748516917229,-0.00019048935791943222,0.0019020019099116325
0.008643992245197296,-0.0021495181135833263,-0.01318041980266571,0.015612375922501087,-0.00019903703650925308,0.0018640623893588781
0.007991419173777103,-0.0020572522189468145,-0.012398098595440388,0.014759393408894539,-0.0002065788139589131,0.002169877290725708
0.008340252563357353,-0.002038404578343034,-0.013204065151512623,0.014567585662007332,-0.0002009100280702114,0.002089640824124217
0.008817332796752453,-0.0021471476648002863,-0.011873244307935238,0.015270148403942585,-0.00019475856970530003,0.0023112045601010323
0.008567593060433865,-0.0019779836293309927,-0.012264983728528023,0.014839544892311096,-0.0001889214909169823,0.0023363393265753984
0.008557035587728024,-0.002097449032589793,-0.01261429488658905,0.01486601959913969,-0.00020282909099478275,0.002207018667832017
0.009151844307780266,-0.0020180619321763515,-0.013046881183981895,0.01441936008632183,-0.0002032492629950866,0.002181064337491989
0.00827303808182478,-0.0018669605487957597,-0.012733698822557926,0.014621313661336899,-0.00019278240506537259,0.002220761263743043
0.009565378539264202,-0.0018068579956889153,-0.013261574320495129,0.014804358594119549,-0.0002455726789776236,0.0019998319912701845
0.008699843659996986,-0.0016937553882598877,-0.012761816382408142,0.014625857584178448,-0.0002508751640561968,0.001844265847466886
0.008699843659996986,-0.0016937553882598877,-0.012761816382408142,0.014625857584178448,-0.0002508751640561968,0.001844265847466886
0.008991117589175701,-0.0017298734746873379,-0.012558401562273502,0.014417366124689579,-0.00022684088617097586,0.0020136721432209015
0.008991117589175701,-0.0017298734746873379,-0.012558401562273502,0.014417366124689579,-0.00022684088617097586,0.0020136721432209015
0.009114385582506657,-0.002002721419557929,-0.013418320566415787,0.014624432660639286,-0.0002159565920010209,0.0019586849957704544
0.008472375571727753,-0.0017911101458594203,-0.013132925145328045,0.01520370040088892,-0.00020606527687050402,0.002405098406597972
0.008466958999633789,-0.0018139687599614263,-0.013086717575788498,0.014933176338672638,-0.00019704004807863384,0.0024771294556558132
0.008898303844034672,-0.0018143869237974286,-0.013214314356446266,0.014804099686443806,-0.00018877223192248493,0.0024335181806236506
0.009142800234258175,-0.0020471636671572924,-0.01287862192839384,0.014810734428465366,-0.00018117100989911705,0.0024117459543049335
0.008249711245298386,-0.0019187727011740208,-0.013111923821270466,0.014653882943093777,-0.00017415787442587316,0.0021614721044898033
0.00876675359904766,-0.0021787723526358604,-0.012366675771772861,0.014505729079246521,-0.0001989267038879916,0.0022376300767064095
0.008969350717961788,-0.0020501422695815563,-0.012910242192447186,0.01467102486640215,-0.00019382420578040183,0.002248637145385146
0.00823881383985281,-0.002029837341979146,-0.012749669142067432,0.014836840331554413,-0.00018723633547779173,0.0021836357191205025
0.009137766435742378,-0.0017727670492604375,-0.01347123272716999,0.014935453422367573,-0.00019575408077798784,0.0023071093019098043
0.009000814519822598,-0.0016118603525683284,-0.013008257374167442,0.014824709855020046,-0.00020328041864559054,0.0020776339806616306
0.008686608634889126,-0.0014929438475519419,-0.013399984687566757,0.014782540500164032,-0.00019780230650212616,0.0018754451302811503
0.008910740725696087,-0.0013965932885184884,-0.013269079849123955,0.014436125755310059,-0.0001918375928653404,0.001813967595808208
0.009222393855452538,-0.0013802982866764069,-0.01296374574303627,0.015204071067273617,-0.00021097835269756615,0.001795536489225924
0.009190788492560387,-0.0014227445935830474,-0.012918975204229355,0.015261746942996979,-0.00020654367108363658,0.001803544582799077
0.008580931462347507,-0.0015034024836495519,-0.012914901599287987,0.015411089174449444,-0.0002278996107634157,0.0017729457467794418
0.009452263824641705,-0.001534151379019022,-0.013521621003746986,0.01494736596941948,-0.0002209017111454159,0.00177604123018682
0.00998776126652956,-0.001449319999665022,-0.01286628469824791,0.014921827241778374,-0.00021082405874039978,0.0016158309299498796
0.008853637613356113,-0.001268385094590485,-0.013330432586371899,0.014057442545890808,-0.00023893112665973604,0.0016193886986002326
0.009893889538943768,-0.0012578245950862765,-0.013425638899207115,0.013932567089796066,-0.00024913897505030036,0.0016516160685569048
0.010546296834945679,-0.0012659995118156075,-0.012804974801838398,0.01441085897386074,-0.0002479522372595966,0.001605126541107893
0.010953109711408615,-0.001251391600817442,-0.013593373820185661,0.014381850138306618,-0.0002391040325164795,0.001517227035947144
0.010953109711408615,-0.001251391600817442,-0.013593373820185661,0.014381850138306618,-0.0002391040325164795,0.001517227035947144
0.010261163115501404,-0.0013585981214419007,-0.013868661597371101,0.014517274685204029,-0.0002537350228521973,0.0014444324187934399
0.011029786430299282,-0.0012805750593543053,-0.013292827643454075,0.01522357203066349,-0.0002458954113535583,0.0014626976335421205
0.010282170958817005,-0.0013184192357584834,-0.013048573397099972,0.014501051045954227,-0.000378528144210577,0.001532962080091238
0.010545837692916393,-0.0012532558757811785,-0.013246490620076656,0.014862488955259323,-0.0003584197838790715,0.0017779144691303372
0.010545837692916393,-0.0012532558757811785,-0.013246490620076656,0.014862488955259323,-0.0003584197838790715,0.0017779144691303372
0.010447263717651367,-0.0012717479839920998,-0.0129469595849514,0.015282100066542625,-0.0003097092267125845,0.0017070984467864037
0.010447263717651367,-0.0012717479839920998,-0.0129469595849514,0.015282100066542625,-0.0003097092267125845,0.0017070984467864037
0.011111545376479626,-0.00136192690115422,-0.012693979777395725,0.015296917408704758,-0.00028975700843147933,0.0017320390325039625
0.011349941603839397,-0.0014722720952704549,-0.01333774533122778,0.015344743616878986,-0.00027221953496336937,0.001607450540177524
0.010409999638795853,-0.0013795914128422737,-0.013192149810492992,0.014344857074320316,-0.0003010935615748167,0.001565543469041586
0.010977689176797867,-0.001479588565416634,-0.013737757690250874,0.014639588072896004,-0.00029094135970808566,0.0014792782021686435
0.011119210161268711,-0.0014040536480024457,-0.013149726204574108,0.014432480558753014,-0.0002764401724562049,0.0013928996631875634
0.011144215241074562,-0.0013253766810521483,-0.01333561260253191,0.015154300257563591,-0.0002843971597030759,0.001367104472592473
0.011166317388415337,-0.0011995973763987422,-0.013303372077643871,0.014566641300916672,-0.00029111444018781185,0.0013282645959407091
0.01079821027815342,-0.0012613390572369099,-0.013058813288807869,0.014484967105090618,-0.00027949572540819645,0.0012791703920811415
0.012468032538890839,-0.0012362111592665315,-0.014212796464562416,0.014321411959826946,-0.0002677018928807229,0.0014032793696969748
0.010123729705810547,-0.0011744340881705284,-0.013557191006839275,0.016090916469693184,-0.0002747405378613621,0.0013351248344406486
0.010064120404422283,-0.0011585367610678077,-0.013782511465251446,0.014177882112562656,-0.000280759297311306,0.0012871214421465993
0.011215562000870705,-0.0012206077808514237,-0.013625768944621086,0.014051094651222229,-0.0002712732239160687,0.0012935935519635677
0.011128121055662632,-0.0012485124170780182,-0.013980242423713207,0.014012584462761879,-0.0002614912227727473,0.0012649876298382878
0.01087015587836504,-0.0013752997620031238,-0.012894704006612301,0.014518027193844318,-0.00025176769122481346,0.0012050106888636947
0.010981090366840363,-0.0013328847708180547,-0.013472056947648525,0.014482307247817516,-0.0002384645922575146,0.0010772274108603597
0.010572045110166073,-0.0015503528993576765,-0.013166360557079315,0.014557145535945892,-0.00022646240540780127,0.000918996287509799
0.01092058327049017,-0.001367503427900374,-0.013997982256114483,0.014347534626722336,-0.00024652035790495574,0.0009722602553665638
0.01059394795447588,-0.0012103295885026455,-0.014009985141456127,0.014334818348288536,-0.00023607548791915178,0.0010112555464729667
0.01059394795447588,-0.0012103295885026455,-0.014009985141456127,0.014334818348288536,-0.00023607548791915178,0.0010112555464729667
0.010779817588627338,-0.001247107284143567,-0.013568880967795849,0.014574740082025528,-0.0002438588853692636,0.0011687705991789699
0.010779817588627338,-0.001247107284143567,-0.013568880967795849,0.014574740082025528,-0.0002438588853692636,0.0011687705991789699
0.010486829094588757,-0.0012242475058883429,-0.013424891978502274,0.014625302515923977,-0.00024288796703331172,0.0014469600282609463
0.01074835192412138,-0.0013005762593820691,-0.013247145339846611,0.014141843654215336,-0.00023440062068402767,0.0013672809582203627
0.01080001424998045,-0.0012811727356165648,-0.013229211792349815,0.014183462597429752,-0.00022602549870498478,0.0011998427798971534
0.011371077038347721,-0.0015226472169160843,-0.01332314033061266,0.013879343867301941,-0.00021819869289174676,0.0011458800872787833
0.011431521736085415,-0.0015406967140734196,-0.013620253652334213,0.014309089630842209,-0.0002108936314471066,0.0009945053607225418
0.010333022102713585,-0.0015641085337847471,-0.01327316090464592,0.014177532866597176,-0.00022935365268494934,0.0009608062682673335
0.010781505145132542,-0.0014258158626034856,-0.013712985441088676,0.014769509434700012,-0.0002256436418974772,0.0009502199245616794
0.010306742042303085,-0.0013155253836885095,-0.013157278299331665,0.01423581037670374,-0.00021900676074437797,0.0009277081117033958
0.010333627462387085,-0.0012580703478306532,-0.013771113939583302,0.014717647805809975,-0.0002125556202372536,0.0008572489023208618
0.010423105210065842,-0.0012097624130547047,-0.013024644926190376,0.014295580796897411,-0.00020646111806854606,0.000801055459305644
0.010381953790783882,-0.0012740135425701737,-0.013414163142442703,0.014355737715959549,-0.00023476469505112618,0.000811684993095696
0.010754004120826721,-0.001451137475669384,-0.013033673167228699,0.013982336036860943,-0.00023404003877658397,0.0007697261171415448
0.011128373444080353,-0.0015021645231172442,-0.01358004380017519,0.014408486895263195,-0.00022318106493912637,0.0007311260560527444
0.01029121596366167,-0.0013836767757311463,-0.012986471876502037,0.014285819604992867,-0.0002126792969647795,0.0007451840792782605
0.010517668910324574,-0.001223517581820488,-0.013460537418723106,0.015046462416648865,-0.0002030819741776213,0.0007389212842099369
0.010874122381210327,-0.0011564854066818953,-0.013000436127185822,0.014966421760618687,-0.00019431088003329933,0.0007653695065528154
0.010280193760991096,-0.0011091392952948809,-0.013451863080263138,0.014742077328264713,-0.0001862663048086688,0.0007824436761438847
0.010693809017539024,-0.0011087557068094611,-0.013540695421397686,0.014614206738770008,-0.00017886090790852904,0.0007887547835707664
0.01064404845237732,-0.0010998448124155402,-0.013470392674207687,0.015077253803610802,-0.00020409139688126743,0.0007217584061436355
0.010348041541874409,-0.0011928979074582458,-0.01365504041314125,0.015347656793892384,-0.00019867254013661295,0.0007808847585693002
0.01058220025151968,-0.0014387903502210975,-0.013536591082811356,0.015038667246699333,-0.00018518567958381027,0.0007094161701388657
0.011055787093937397,-0.001378691173158586,-0.012869888916611671,0.01501038484275341,-0.00017904552805703133,0.0007205462316051126
0.011412316001951694,-0.0013055343879386783,-0.013312498107552528,0.014934808947145939,-0.00017329877300653607,0.0007029342232272029
0.01115274429321289,-0.001214636373333633,-0.012892680242657661,0.01428986806422472,-0.00019400847668293864,0.0006781687261536717
0.011518143117427826,-0.0011615232797339559,-0.013525345362722874,0.014462272636592388,-0.00018986336363013834,0.0006688755238428712
0.011518143117427826,-0.0011615232797339559,-0.013525345362722874,0.014462272636592388,-0.00018986336363013834,0.0006688755238428712
0.011487580835819244,-0.0012177384924143553,-0.013245529495179653,0.014286751858890057,-0.00018441621796227992,0.0007570104207843542
0.010359617881476879,-0.0012411198113113642,-0.013585413806140423,0.014826208353042603,-0.00017917793593369424,0.0007775721023790538
0.01091455016285181,-0.0013168996665626764,-0.013310758396983147,0.01484270766377449,-0.00017422305245418102,0.0007455944432877004
0.011024714447557926,-0.0012810879852622747,-0.013296253979206085,0.015186432749032974,-0.00018142668704967946,0.0009172206046059728
0.010180841200053692,-0.0014626438496634364,-0.013249818235635757,0.014596962369978428,-0.00018787116277962923,0.0009309017332270741
0.010722589679062366,-0.0014101974666118622,-0.013017523102462292,0.014947154559195042,-0.0001838049793150276,0.0008115082164295018
0.010757692158222198,-0.0013300197897478938,-0.01355142891407013,0.014206424355506897,-0.00019851879915222526,0.0008153238450177014
0.010916387662291527,-0.0014546426245942712,-0.012845426797866821,0.01398248691111803,-0.00019296066602692008,0.0007281334255822003
0.011108018457889557,-0.0014827545965090394,-0.01343000028282404,0.013982361182570457,-0.00021259015193209052,0.000697871670126915
0.010607441887259483,-0.0015253381570801139,-0.012644119560718536,0.01460250560194254,-0.00021284917602315545,0.0006729820161126554
0.010993863455951214,-0.001602089498192072,-0.01340869627892971,0.014613852836191654,-0.00020531966583803296,0.0006178300245665014
0.011412188410758972,-0.0014757714234292507,-0.01275975164026022,0.015056032687425613,-0.00019783359311986715,0.0005691228434443474
0.010382798500359058,-0.0014749792171642184,-0.013310881331562996,0.014728255569934845,-0.0002204975753556937,0.0005274098366498947
0.011520358733832836,-0.0013512249570339918,-0.01300907600671053,0.014891009777784348,-0.0002149089123122394,0.0004913925076834857
0.010931005701422691,-0.0013062512734904885,-0.013326427899301052,0.014413569122552872,-0.00020794098963961005,0.0004599782405421138
0.010770727880299091,-0.001184334047138691,-0.013328035362064838,0.014685574918985367,-0.00020130407938268036,0.0003747591108549386
0.011116993613541126,-0.0012565131764858961,-0.012982789427042007,0.014369173906743526,-0.0001950709120137617,0.0003303063567727804
0.010489883832633495,-0.0012451254297047853,-0.013152171857655048,0.01481790840625763,-0.00018921171431429684,0.0003066691569983959
0.011363955214619637,-0.0015149385435506701,-0.012641274370253086,0.014322403818368912,-0.00018369421013630927,0.00028702476993203163
0.010845735669136047,-0.0015406993916258216,-0.012718625366687775,0.015888990834355354,-0.00019825552590191364,0.00029205300961621106
0.01112145371735096,-0.001406897441484034,-0.013413472101092339,0.014484956860542297,-0.00019304089073557407,0.00028820987790822983
0.0110423993319273,-0.0014210531953722239,-0.013120142742991447,0.013601449318230152,-0.0001880065829027444,0.00027433212380856276
0.011902098543941975,-0.0012523586628958583,-0.01343842688947916,0.014763333834707737,-0.00021742196986451745,0.00026111415354534984
0.011902098543941975,-0.0012523586628958583,-0.01343842688947916,0.014763333834707737,-0.00021742196986451745,0.00026111415354534984
0.011473332531750202,-0.0011910641333088279,-0.012895522639155388,0.014361241832375526,-0.0002383339306106791,0.0002490694459993392
0.011400059796869755,-0.0011512949131429195,-0.013286525383591652,0.014824558049440384,-0.00022835872368887067,0.00023808587866369635
0.011988118290901184,-0.00113935477565974,-0.013333408161997795,0.014110869728028774,-0.00021745910635218024,0.00022803034516982734
0.012534843757748604,-0.001337466761469841,-0.012788232415914536,0.014676147140562534,-0.0002074413641821593,0.00021878951520193368
0.012192617170512676,-0.001258483505807817,-0.01332947053015232,0.014370914548635483,-0.00019829779921565205,0.00021026851027272642
0.012674686498939991,-0.0012013332452625036,-0.012703953310847282,0.01473498810082674,-0.00018992673722095788,0.00020238617435097694
0.012019169516861439,-0.001246315659955144,-0.013568967580795288,0.013980879448354244,-0.00020917438087053597,0.00019507431716192514
0.012038805522024632,-0.0011797891929745674,-0.013199560344219208,0.014626875519752502,-0.00020954730280209333,0.00018827187886927277
0.011721623130142689,-0.0011677858419716358,-0.013691817410290241,0.014140192419290543,-0.00020225299522280693,0.00018192875722888857
0.01211068220436573,-0.0011334475129842758,-0.013112827204167843,0.014514344744384289,-0.00019498515757732093,0.00017599812417756766
0.011927435174584389,-0.0012211048742756248,-0.013735491782426834,0.01386629045009613,-0.00018819126125890762,0.00017044278501998633
0.012074798345565796,-0.0012035988038405776,-0.012356391176581383,0.014644626528024673,-0.00020428397692739964,0.00016522672376595438
0.012587029486894608,-0.0012790256878361106,-0.01371838804334402,0.014268121682107449,-0.0002047343587037176,0.00016032115672715008
0.012097330763936043,-0.0012236990733072162,-0.014427573420107365,0.014628696255385876,-0.00019873885321430862,0.00015569834795314819
0.012464758940041065,-0.0011637650895863771,-0.014036029577255249,0.014318886213004589,-0.0001926898694364354,0.00015133456327021122
0.01217138022184372,-0.0011223477777093649,-0.013318250887095928,0.014726392924785614,-0.00018697246559895575,0.00014720886247232556
0.012777434661984444,-0.0009787427261471748,-0.014050908386707306,0.014236494898796082,-0.00018158336752094328,0.00014330218255054206
0.012715048156678677,-0.0009611677378416061,-0.01364690437912941,0.014606872573494911,-0.00017649575602263212,0.000139597337692976
0.012356378138065338,-0.001044051838107407,-0.013551321811974049,0.014219231903553009,-0.0001716855331324041,0.0001360795577056706
0.012228529900312424,-0.0009695890475995839,-0.014237222261726856,0.014346742071211338,-0.00018785962311085314,0.0001327341451542452
0.012079165317118168,-0.0011803824454545975,-0.013868468813598156,0.01393736433237791,-0.0001858644391177222,0.00012954992416780442
0.012484390288591385,-0.0012420940911397338,-0.013936236500740051,0.014920237474143505,-0.0001816707372199744,0.00012651432189159095
0.012960787862539291,-0.0013045462546870112,-0.013758453540503979,0.014914794825017452,-0.000185642100404948,0.00010088658018503338
0.012555962428450584,-0.0012117217993363738,-0.013482395559549332,0.014386692084372044,-0.00017836193728726357,9.851651702774689e-05
0.012734362855553627,-0.0010316336993128061,-0.01404519286006689,0.014779935590922832,-0.0001715655962470919,9.639575728215277e-05
0.013246533460915089,-0.0010111992014572024,-0.013426462188363075,0.01454248744994402,-0.0001814524584915489,9.43732593441382e-05
0.013165322132408619,-0.0008520567207597196,-0.013867395929992199,0.015001723542809486,-0.0001901895011542365,9.243481326848269e-05
0.013165322132408619,-0.0008520567207597196,-0.013867395929992199,0.015001723542809486,-0.0001901895011542365,9.243481326848269e-05
0.01327842753380537,-0.0008506355225108564,-0.013339103199541569,0.014535191468894482,-0.00018467337940819561,7.713521335972473e-05
0.012594272382557392,-0.0009405168239027262,-0.01387152448296547,0.015175685286521912,-0.00017862844106275588,7.133500912459567e-05
0.013139727525413036,-0.0012010764330625534,-0.013167853467166424,0.014947626739740372,-0.0001870442065410316,6.967525405343622e-05
0.0128623740747571,-0.0013060508063063025,-0.013820216991007328,0.015223070979118347,-0.00019451238040346652,6.83344915159978e-05
0.013031398877501488,-0.001131525612436235,-0.013989732600748539,0.014731275849044323,-0.00018952587561216205,6.706042040605098e-05
0.013247065246105194,-0.0010946419788524508,-0.014085885137319565,0.014585462398827076,-0.00018404534785076976,5.04700728924945e-05
0.013239378109574318,-0.0009993553394451737,-0.013593891635537148,0.014332936145365238,-0.00019136362243443727,4.856018131249584e-05
0.013333546929061413,-0.0008366386173292994,-0.014298913069069386,0.014842226170003414,-0.00019788026111200452,4.770778105012141e-05
0.013762828893959522,-0.0008444258710369468,-0.013747837394475937,0.014922580681741238,-0.00019333590171299875,-3.394194573047571e-05
0.013615498319268227,-0.0008483840501867235,-0.013780051842331886,0.01495426520705223,-0.00018834322690963745,-3.847455445793457e-05
0.013062577694654465,-0.0008544684969820082,-0.013704420067369938,0.015127213671803474,-0.0002605349291115999,-5.5752258049324155e-05
0.013558430597186089,-0.0008356626494787633,-0.013791789300739765,0.01518330443650484,-0.0002514123625587672,-5.578055061050691e-05
0.013370650820434093,-0.0008480175747536123,-0.013475020416080952,0.014781532809138298,-0.00023844196402933449,-7.175515202106908e-05
0.013734517619013786,-0.0009342987323179841,-0.01370713859796524,0.01489787083119154,-0.00022646198340225965,-8.698388410266489e-05
0.013275821693241596,-0.0008647153154015541,-0.01381326001137495,0.01571488380432129,-0.0002529528283048421,-0.00035488553112372756
0.013891724869608879,-0.0009632488363422453,-0.013797624036669731,0.015205640345811844,-0.00024652108550071716,-0.0006049788207747042
0.013773219659924507,-0.0009530709940008819,-0.01410007756203413,0.015470013953745365,-0.00023607618641108274,-0.0006017560954205692
0.013231038115918636,-0.0007056390750221908,-0.013893521390855312,0.015294197015464306,-0.00025203879340551794,-0.000577096885535866
0.013780884444713593,-0.0006240274524316192,-0.013267425820231438,0.014408746734261513,-0.00024342221149709076,-0.000584724941290915
0.013745996169745922,-0.000559348554816097,-0.013996835798025131,0.014616314321756363,-0.0002344360254937783,-0.000631077797152102
0.013713721185922623,-0.0005068207974545658,-0.013613809831440449,0.013986587524414062,-0.00022602852550335228,-0.0007091062725521624
0.013770058751106262,-0.0004633201751857996,-0.01398719847202301,0.014595900662243366,-0.00021819915855303407,-0.0007351888925768435
0.013807821087539196,-0.0004892363213002682,-0.013292008079588413,0.01451172772794962,-0.00021089418441988528,-0.0007533484022133052
0.013807821087539196,-0.0004892363213002682,-0.013292008079588413,0.01451172772794962,-0.00021089418441988528,-0.0007533484022133052
0.013810263946652412,-0.00046123380889184773,-0.01400661002844572,0.015583005733788013,-0.00020406222029123455,-0.0009712991304695606
0.013683965429663658,-0.00042986037442460656,-0.013846526853740215,0.014764830470085144,-0.00022216042270883918,-0.0011222197208553553
0.013749298639595509,-0.00040240073576569557,-0.014126313850283623,0.014996056444942951,-0.0002187798236263916,-0.0011337535688653588
0.013886711560189724,-0.0003782388230320066,-0.013743091374635696,0.014522727578878403,-0.00021254124294500798,-0.0012225888203829527
0.013968927785754204,-0.00035681246663443744,-0.014185437932610512,0.01483185961842537,-0.0002064604195766151,-0.0012047194177284837
0.013739243149757385,-0.0003376857202965766,-0.013617122545838356,0.01471360120922327,-0.00020070586469955742,-0.0012419625418260694
0.014205914922058582,-0.0003205042739864439,-0.013969006948173046,0.015513259917497635,-0.00021367493900470436,-0.0012260016519576311
0.014038752764463425,-0.0003049879742320627,-0.013621741905808449,0.01477461401373148,-0.00020675608539022505,-0.0012365374714136124
0.014450100250542164,-0.00029090410680510104,-0.013967285864055157,0.015142040327191353,-0.00019785315089393407,-0.0013133012689650059
0.013860478065907955,-0.00030411305488087237,-0.013634011149406433,0.014468816109001637,-0.00018953075050376356,-0.0016311679501086473
0.014351258985698223,-0.00030416890513151884,-0.014086662791669369,0.014679793268442154,-0.00018186996749136597,-0.0017099870601668954
0.014284874312579632,-0.0002920057449955493,-0.013783336617052555,0.013897688128054142,-0.00017480365931987762,-0.0017992203356698155
0.014608061872422695,-0.0002806276024784893,-0.013906905427575111,0.014647377654910088,-0.0001931558217620477,-0.00169515167362988
0.014340799301862717,-0.0002700991171877831,-0.013843800872564316,0.013543411158025265,-0.00019406784849707037,-0.0016668958123773336
0.014363791793584824,-0.0002603325410746038,-0.013767177239060402,0.013975811190903187,-0.0001878302136901766,-0.001681466936133802
0.014169666916131973,-0.00025124778039753437,-0.014114410616457462,0.014258084818720818,-0.00018154841382056475,-0.001617041532881558
0.01472632959485054,-0.00024277625198010355,-0.013772893697023392,0.014714948832988739,-0.00017564432346262038,-0.0018321004463359714
0.014541298151016235,-0.00023485718702431768,-0.014019286260008812,0.01434264425188303,-0.00019471152336336672,-0.0017331738490611315
0.014611232094466686,-0.0002274382277391851,-0.013798430562019348,0.014529216103255749,-0.00019215632346458733,-0.001761192106641829
0.015273733995854855,-0.00022047384118195623,-0.014399426989257336,0.01410685945302248,-0.00018668273696675897,-0.0017083452548831701
0.015133378095924854,-0.0002139227872248739,-0.013719778507947922,0.01447318121790886,-0.00018132379045709968,-0.0017457961803302169
0.014735285192728043,-0.00020775027223862708,-0.014021294191479683,0.014203165657818317,-0.00019490464183036238,-0.001941503258422017
0.01483181957155466,-0.00020192412193864584,-0.013591466471552849,0.01452859677374363,-0.00019552191952243447,-0.002863700967282057
0.014856869354844093,-0.0001527735439594835,-0.014022598043084145,0.014899487607181072,-0.00023717382282484323,-0.002748130587860942
0.014636234380304813,-0.00012914877152070403,-0.014884316362440586,0.014551335014402866,-0.00022879747848492116,-0.0024664197117090225
0.014957848004996777,-0.00012529453670140356,-0.013956823386251926,0.014828750863671303,-0.00025855685817077756,-0.0020173867233097553
0.01517756748944521,-0.00012189708650112152,-0.014767494983971119,0.014751770533621311,-0.000249281816650182,-0.0019324158784002066
0.01517756748944521,-0.00012189708650112152,-0.014767494983971119,0.014751770533621311,-0.000249281816650182,-0.0019324158784002066
0.01517711766064167,-0.0001186820663860999,-0.013942660763859749,0.015001353807747364,-0.00023844595125410706,-0.002051037037745118
0.015113367699086666,-0.00011563242878764868,-0.014379083178937435,0.01500107254832983,-0.0002638377482071519,-0.0026760599575936794
0.014757305383682251,-0.00011273567361058667,-0.013853811658918858,0.014643696136772633,-0.0002554515958763659,-0.0031471706461161375
0.015346197411417961,-0.00010998045763699338,-0.01450301706790924,0.014576039277017117,-0.0002456406655255705,-0.0035147997550666332
0.015155470930039883,-0.00010735674004536122,-0.014078548178076744,0.01472380105406046,-0.00026791487471200526,-0.0031135128811001778
0.01554193813353777,-0.00010485512029845268,-0.014805679209530354,0.015052984468638897,-0.00026028233696706593,-0.0027593232225626707
0.015469358302652836,-0.00010246766760246828,-0.014211026951670647,0.015217379666864872,-0.0003295722999610007,-0.002414163202047348
0.015695804730057716,-0.00010018637112807482,-0.014835936017334461,0.014970321208238602,-0.0003755787620320916,-0.0024111357051879168
0.016659464687108994,-9.800456609809771e-05,-0.014348143711686134,0.014522136189043522,-0.0004026816168334335,-0.0026244332548230886
0.015916945412755013,-9.591560228727758e-05,-0.015152771025896072,0.014952228404581547,-0.0003899271250702441,-0.0031143538653850555
0.015045642852783203,-9.391386993229389e-05,-0.014591269195079803,0.015079313889145851,-0.00041716708801686764,-0.003315078793093562
0.015989238396286964,-9.199407213600352e-05,-0.015228197909891605,0.014701846987009048,-0.0003980390902142972,-0.003592248074710369
0.015814289450645447,-9.015105752041563e-05,-0.014838261529803276,0.014326527714729309,-0.000374820054275915,-0.0033610682003200054
0.01582757942378521,-8.838058420224115e-05,-0.015655184164643288,0.014979317784309387,-0.00035379285691305995,-0.003364178817719221
0.016285423189401627,-8.667816291563213e-05,-0.0150463180616498,0.014563331380486488,-0.0003763911663554609,-0.0033060756977647543
0.01581701822578907,-7.002100755926222e-05,-0.014894039370119572,0.015272848308086395,-0.0003630749706644565,-0.00338076357729733
0.016269339248538017,-6.679709622403607e-05,-0.015238500200212002,0.014722481369972229,-0.00039021793054416776,-0.003696633502840996
0.015512540936470032,-6.563863280462101e-05,-0.015157544054090977,0.014927533455193043,-0.00039933237712830305,-0.00350496475584805
0.016024164855480194,-4.087214620085433e-05,-0.015475882217288017,0.014324286952614784,-0.0003694006591103971,-0.0032872012816369534
0.015642980113625526,-3.881644079228863e-05,-0.015263552777469158,0.014288130216300488,-0.00034152812440879643,-0.0032275833655148745
0.016282547265291214,-3.720751919900067e-05,-0.015700072050094604,0.013858707621693611,-0.000376458337996155,-0.0029724931810051203
0.016087379306554794,-3.573027061065659e-05,-0.015102607198059559,0.014307958073914051,-0.0003555134462658316,-0.0032394584268331528
0.016254078596830368,-3.4365857572993264e-05,-0.015553531236946583,0.014042549766600132,-0.0003337789385113865,-0.0033935243263840675
0.015805615112185478,-3.192764052073471e-05,-0.015277099795639515,0.014211885631084442,-0.0003398942353669554,-0.003254698123782873
0.016240401193499565,-3.083372212131508e-05,-0.014985533431172371,0.014641372486948967,-0.0003280524688307196,-0.003459947882220149
0.016356507316231728,-2.9812301363563165e-05,-0.015606192871928215,0.014142870903015137,-0.00033394500496797264,-0.0035392623394727707
0.01684824749827385,-2.8856426069978625e-05,-0.014911996200680733,0.014703847467899323,-0.00033846127917058766,-0.003455360885709524
0.016150692477822304,-2.7960013539995998e-05,-0.015545254573225975,0.014438753947615623,-0.00032452456071041524,-0.003296047216281295
0.016173318028450012,-2.7117557692690752e-05,-0.015300861559808254,0.01507717277854681,-0.0003111382247880101,-0.0032433466985821724
0.016173318028450012,-2.7117557692690752e-05,-0.015300861559808254,0.01507717277854681,-0.0003111382247880101,-0.0032433466985821724
0.016456780955195427,-2.632437644933816e-05,-0.015219449996948242,0.01502186805009842,-0.00031887905788607895,-0.0034482756163924932
0.016311243176460266,-2.5576284315320663e-05,-0.014899005182087421,0.015249702148139477,-0.0002995926479343325,-0.003810624126344919
0.01641276478767395,-2.486952143954113e-05,-0.015278885141015053,0.014389121904969215,-0.0002810018486343324,-0.004163139965385199
0.01636476069688797,-2.4200840925914235e-05,-0.015265786089003086,0.01493958942592144,-0.0003034570545423776,-0.004159712698310614
0.016543928533792496,-2.3567108655697666e-05,-0.015223287977278233,0.014012390747666359,-0.00029884951072745025,-0.004000753164291382
0.016014177352190018,-2.2965718017076142e-05,-0.015672940760850906,0.01438046246767044,-0.000283928558928892,-0.0035869101993739605
0.016467509791254997,-3.0811443707534636e-07,-0.01535922009497881,0.014090453274548054,-0.0002697903255466372,-0.0034601299557834864
0.016695594415068626,-4.133748454648867e-09,-0.01495067123323679,0.014463464729487896,-0.00029404068482108414,-0.0035604070872068405
0.016451505944132805,-5.54595154522719e-11,-0.014731739647686481,0.014354506507515907,-0.00028578354977071285,-0.0041968366131186485
0.01640346460044384,-7.440601411910774e-13,-0.01563364826142788,0.01511863898485899,-0.00029281372553668916,-0.0046045794151723385
0.016315367072820663,-9.982517064485372e-15,-0.014800072647631168,0.014464076608419418,-0.00029848975827917457,-0.0046708835288882256
0.01698264479637146,-1.3392819093864007e-16,-0.014965614303946495,0.014662920497357845,-0.0002877251827158034,-0.004324591718614101
0.016501450911164284,-1.7968176498144784e-18,-0.015027510933578014,0.014323849231004715,-0.00033019800321199,-0.004049080889672041
0.016835063695907593,-2.4106602139815312e-20,-0.015146130695939064,0.014808367006480694,-0.00032437799382023513,-0.0039589544758200645
0.016874393448233604,-3.234208289935617e-22,-0.014411285519599915,0.014257778413593769,-0.0003483392938505858,-0.00415562279522419
0.016532711684703827,-4.3391029823278505e-24,-0.01539142057299614,0.014535837806761265,-0.0003403805021662265,-0.0044048503041267395
0.016972918063402176,-5.821460679836677e-26,-0.015213360078632832,0.013911153189837933,-0.00032105238642543554,-0.004628373309969902
0.016466429457068443,-7.810231888675821e-28,-0.015639541670680046,0.014406947419047356,-0.0003403172886464745,-0.004713327158242464
0.016961392015218735,-1.0478422094755325e-29,-0.01503174751996994,0.014361592009663582,-0.00033393671037629247,-0.004507803823798895
0.01682594232261181,-1.4058140136046068e-31,-0.01526180375367403,0.014599712565541267,-0.00031784758903086185,-0.004501148592680693
0.016833873465657234,-1.886078849184437e-33,-0.014967597089707851,0.014249758794903755,-0.00033453782089054585,-0.004702284932136536
0.016537250950932503,-2.5304157460943563e-35,-0.015316292643547058,0.014646681025624275,-0.00032926499261520803,-0.004610096570104361
0.017298536375164986,-4.554658615474989e-39,-0.014814812690019608,0.014439551159739494,-0.00038567211595363915,-0.004608717747032642
0.017313793301582336,-6.11064221338123e-41,-0.015602036379277706,0.01411331258714199,-0.0003610476851463318,-0.004714917857199907
0.017109340056777,-8.19759601630018e-43,-0.015379213728010654,0.014718306250870228,-0.00038375816075131297,-0.004884898662567139
0.017222115769982338,-1.1210387714598537e-44,-0.015154607594013214,0.014233306981623173,-0.00037258066004142165,-0.004922389518469572
0.016930902376770973,-0.0,-0.014830723404884338,0.014571319334208965,-0.00037777621764689684,-0.00473945215344429
0.016766997054219246,0.0,-0.015531620010733604,0.014332222752273083,-0.00038102836697362363,-0.004337990190833807
0.01647297665476799,0.0,-0.014812137000262737,0.014872741885483265,-0.0003609021659940481,-0.004325313493609428
0.01647297665476799,0.0,-0.014812137000262737,0.014872741885483265,-0.0003609021659940481,-0.004325313493609428
0.017093058675527573,0.0,-0.014830341562628746,0.01465173065662384,-0.00036394596099853516,-0.0046884422190487385
0.017093058675527573,0.0,-0.014830341562628746,0.01465173065662384,-0.00036394596099853516,-0.0046884422190487385
0.017026161774992943,0.0,-0.01533233281224966,0.014254366979002953,-0.0003516511060297489,-0.004699590150266886
0.016861476004123688,0.0,-0.014689786359667778,0.014850125648081303,-0.0003373510844539851,-0.004713939968496561
0.01641075313091278,0.0,-0.015311562456190586,0.014470992609858513,-0.0003748803283087909,-0.004606712143868208
0.01742982678115368,0.0,-0.014564372599124908,0.014831310138106346,-0.0004014486912637949,-0.004665518179535866
0.017416542395949364,0.0,-0.015392621979117393,0.014905232936143875,-0.0003887854691129178,-0.004447115119546652
0.017511064186692238,0.0,-0.014673282392323017,0.015057469718158245,-0.00042003049748018384,-0.004516134969890118
0.01723049022257328,0.0,-0.015222204849123955,0.014816248789429665,-0.0004390857648104429,-0.004886050242930651
0.016909178346395493,0.0,-0.015081938356161118,0.014881870709359646,-0.0004288978816475719,-0.005091133527457714
0.017800217494368553,0.0,-0.015221678651869297,0.014694510959088802,-0.0006261307280510664,-0.005660982336848974
0.017256703227758408,0.0,-0.01482456550002098,0.014819556847214699,-0.000646785949356854,-0.00535431457683444
0.017227357253432274,0.0,-0.015435230918228626,0.01451803557574749,-0.000600945670157671,-0.005039283540099859
0.017471903935074806,0.0,-0.015781933441758156,0.014978074468672276,-0.0005422395770438015,-0.005109746940433979
0.01742384023964405,0.0,-0.015282765030860901,0.014449830166995525,-0.0004928021808154881,-0.005132459104061127
0.01670699752867222,0.0,-0.015424031764268875,0.014460297301411629,-0.0004515546024776995,-0.0056630088947713375
0.018519558012485504,0.0,-0.015227529220283031,0.014476004056632519,-0.00041667959885671735,-0.005474037956446409
0.018250679597258568,0.0,-0.016330737620592117,0.014849291183054447,-0.0004341890453360975,-0.0057831103913486
0.01824941858649254,0.0,-0.015438787639141083,0.01478140614926815,-0.0004199762479402125,-0.0054519400000572205
0.017931543290615082,0.0,-0.01608811318874359,0.014804407022893429,-0.00039462390122935176,-0.005775941535830498
0.017909161746501923,0.0,-0.015433899126946926,0.014979098923504353,-0.0003972423728555441,-0.0055271172896027565
0.018121380358934402,0.0,-0.015507313422858715,0.01622132584452629,-0.0003795715165324509,-0.005538456607609987
0.018625879660248756,0.0,-0.015742210671305656,0.01471784245222807,-0.00036065405583940446,-0.005420216359198093
0.01873604953289032,0.0,-0.015575862489640713,0.01447353232651949,-0.0003434515092521906,-0.005610794294625521
0.01860165409743786,0.0,-0.015851067379117012,0.014416605234146118,-0.00028806040063500404,-0.006066240835934877
0.018706955015659332,0.0,-0.015880677849054337,0.014540813863277435,-0.0002660259779077023,-0.005741093307733536
0.018918761983513832,0.0,-0.015474993735551834,0.014885307289659977,-0.00028784078313037753,-0.006262507755309343
0.018918761983513832,0.0,-0.015474993735551834,0.014885307289659977,-0.00028784078313037753,-0.006262507755309343
0.018526170402765274,0.0,-0.016135510057210922,0.015066679567098618,-0.0002842457324732095,-0.006122598424553871
0.019116098061203957,0.0,-0.0156935453414917,0.014971796423196793,-0.0003098218876402825,-0.005920796189457178
0.018829869106411934,0.0,-0.01623769849538803,0.015184626914560795,-0.0003004474565386772,-0.005972957704216242
0.018545640632510185,0.0,-0.015453772619366646,0.015123997814953327,-0.000322636537021026,-0.0059400820173323154
0.019099082797765732,0.0,-0.015908023342490196,0.015715796500444412,-0.00031348204356618226,-0.006156949792057276
0.018935391679406166,0.0,-0.015803035348653793,0.014848421327769756,-0.0004034288285765797,-0.006367415655404329
0.018556108698248863,0.0,-0.015841757878661156,0.014943370595574379,-0.00045888664317317307,-0.0060659609735012054
0.018933236598968506,0.0,-0.01584460400044918,0.014675506390631199,-0.00042215530993416905,-0.006323494482785463
0.019222110509872437,0.0,-0.015577210113406181,0.015468037687242031,-0.00044292648090049624,-0.006334179546684027
0.019015222787857056,0.0,-0.01597440615296364,0.01482035405933857,-0.00042555504478514194,-0.006272819358855486
0.019466491416096687,0.0001150721000158228,-0.015860123559832573,0.014952095225453377,-0.0004524367395788431,-0.006118069402873516
0.019166797399520874,0.00015040903235785663,-0.016306646168231964,0.014950013719499111,-0.0004294207028578967,-0.006025729700922966
0.019214628264307976,0.00014605351316276938,-0.015616768971085548,0.015284967608749866,-0.00045597535790875554,-0.006164064630866051
0.019395727664232254,0.00014146880130283535,-0.016058865934610367,0.015268861316144466,-0.0004321221786085516,-0.006389413960278034
0.01953907124698162,0.00013715698150917888,-0.01540288794785738,0.015512716956436634,-0.0004473757871892303,-0.006787671707570553
0.019612275063991547,0.000150591746205464,-0.015821712091565132,0.014520070515573025,-0.0004436979361344129,-0.0068592494353652
0.01979690045118332,0.00015500931476708502,-0.01608988828957081,0.014301177114248276,-0.00040626112604513764,-0.006489535328000784
0.019592922180891037,0.00015079807781148702,-0.01591694913804531,0.014275087043642998,-0.00043703048140741885,-0.006338605657219887
0.019418608397245407,0.00014670290693175048,-0.016101626679301262,0.014700942672789097,-0.00041239449637942016,-0.006779742892831564
0.019870510324835777,0.00016566911654081196,-0.015676774084568024,0.015018460340797901,-0.00044310439261607826,-0.00689204316586256
0.019306331872940063,0.00015825529408175498,-0.01599222794175148,0.014854337088763714,-0.00044743900070898235,-0.006613877601921558
0.019306331872940063,0.00015825529408175498,-0.01599222794175148,0.014854337088763714,-0.00044743900070898235,-0.006613877601921558
0.02012944035232067,0.0001721769367577508,-0.01585511304438114,0.01459534652531147,-0.0005930475308559835,-0.006861253175884485
0.020235519856214523,0.000168188737006858,-0.015814948827028275,0.014327135868370533,-0.0006239996873773634,-0.007313033100217581
0.020218145102262497,0.00029122468549758196,-0.015993226319551468,0.014387572184205055,-0.000633081654086709,-0.006766721606254578
0.020488904789090157,0.0002784796233754605,-0.016115013509988785,0.014614282175898552,-0.0005992712685838342,-0.006707598455250263
0.020488904789090157,0.0002784796233754605,-0.016115013509988785,0.014614282175898552,-0.0005992712685838342,-0.006707598455250263
0.019769251346588135,0.0003140307671856135,-0.016681890934705734,0.014752171002328396,-0.000655797659419477,-0.006879664491862059
0.02024717628955841,0.0002819084329530597,-0.0159946009516716,0.015416192822158337,-0.0006780469557270408,-0.006819806527346373
0.02024717628955841,0.0002819084329530597,-0.0159946009516716,0.015416192822158337,-0.0006780469557270408,-0.006819806527346373
0.02053183875977993,0.0002679208992049098,-0.01551162637770176,0.01494024507701397,-0.0006145890220068395,-0.007169619202613831
0.02058831788599491,0.00029719830490648746,-0.016277331858873367,0.015178035013377666,-0.0006317241350188851,-0.00756877800449729
0.020029539242386818,0.0002843533584382385,-0.016122568398714066,0.015071101486682892,-0.0005839186487719417,-0.0072044250555336475
0.02033991366624832,0.00029756678850390017,-0.016033897176384926,0.015417327173054218,-0.000591020449064672,-0.006757300812751055
0.02084212191402912,0.00029789493419229984,-0.016229432076215744,0.015346607193350792,-0.0005622351891361177,-0.007040170021355152
0.02097323350608349,0.0002862176042981446,-0.01607493683695793,0.015566918067634106,-0.0005353171145543456,-0.00728693138808012
0.021341802552342415,0.0003792050702031702,-0.01606876589357853,0.014937792904675007,-0.0004903334192931652,-0.007651563733816147
0.020872274413704872,0.00035390452831052244,-0.015717120841145515,0.015403403900563717,-0.0004428889078553766,-0.006787104997783899
0.020418884232640266,0.0003910427330993116,-0.016323890537023544,0.015026507899165154,-0.00047268616617657244,-0.0069232601672410965
0.020555339753627777,0.0003669770958367735,-0.015694094821810722,0.015063125640153885,-0.0004433000285644084,-0.007762486580759287
0.020725376904010773,0.00039855335489846766,-0.016189048066735268,0.014673267491161823,-0.00046042888425290585,-0.007821794599294662
0.0214381106197834,0.00037690543103963137,-0.015529061667621136,0.015004757791757584,-0.0004436335584614426,-0.007184260059148073
0.021124595776200294,0.00040573900332674384,-0.016043491661548615,0.015358283184468746,-0.00045905786100775003,-0.00725926598533988
0.021236004307866096,0.0005138122360222042,-0.016421083360910416,0.015513061545789242,-0.0004443998623173684,-0.007420338690280914
0.021400846540927887,0.00058537203585729,-0.01619013026356697,0.015537752769887447,-0.0004193997592665255,-0.007721450179815292
0.021247588098049164,0.0005578401032835245,-0.016978884115815163,0.015507507137954235,-0.0004159839008934796,-0.007241457235068083
0.021299943327903748,0.0005890767788514495,-0.01602054201066494,0.015164193697273731,-0.0003992733545601368,-0.00715244747698307
0.021385734900832176,0.0005899759707972407,-0.016474341973662376,0.01469501294195652,-0.0004219182883389294,-0.007302151061594486
0.021483618766069412,0.0006885752663947642,-0.016455153003335,0.014588698744773865,-0.0004259218112565577,-0.006962127983570099
0.0209959726780653,0.0007341644377447665,-0.016148939728736877,0.014883533120155334,-0.0004125691775698215,-0.007147003896534443
0.02150138095021248,0.0007456894381903112,-0.01664947345852852,0.014580140821635723,-0.0004396886797621846,-0.007022686302661896
0.02136964537203312,0.0007401439943350852,-0.017049942165613174,0.015046842396259308,-0.0004176056245341897,-0.007332485634833574
0.02165171690285206,0.0007017651223577559,-0.016898969188332558,0.015172671526670456,-0.0003953837149310857,-0.007408175151795149
0.02151682786643505,0.0009137235465459526,-0.016715768724679947,0.01581985130906105,-0.00048274087021127343,-0.0077701713889837265
0.021830851212143898,0.0009142433991655707,-0.015873946249485016,0.01550373900681734,-0.0004436463350430131,-0.007482887711375952
0.021846549585461617,0.0008351535652764142,-0.016966894268989563,0.01573687233030796,-0.00040430089575238526,-0.0073391953483223915
0.021846549585461617,0.0008351535652764142,-0.016966894268989563,0.01573687233030796,-0.00040430089575238526,-0.0073391953483223915
0.021551035344600677,0.0008416387718170881,-0.017536479979753494,0.015183902345597744,-0.0004253894148860127,-0.007043817080557346
0.021803099662065506,0.0008521798299625516,-0.01679329201579094,0.01522732712328434,-0.0004099467187188566,-0.006760239135473967
0.02193024754524231,0.0008553406805731356,-0.01659902185201645,0.014952477067708969,-0.0003820342244580388,-0.006501339375972748
0.022229665890336037,0.0008618559222668409,-0.016519667580723763,0.015068861655890942,-0.00035684305476024747,-0.006730215158313513
0.021906906738877296,0.0008926245500333607,-0.01755346730351448,0.014480063691735268,-0.0003618534537963569,-0.00675920257344842
0.02194695919752121,0.001012116321362555,-0.016576295718550682,0.014573168009519577,-0.00036582877510227263,-0.006872380618005991
0.022009117528796196,0.00112812255974859,-0.016273461282253265,0.01472657173871994,-0.0003472926327958703,-0.006969751790165901
0.02228318527340889,0.0011266458313912153,-0.01685040257871151,0.015498843975365162,-0.00032924365950748324,-0.007221676409244537
0.021871352568268776,0.0012760114623233676,-0.016702672466635704,0.01593959704041481,-0.00033470895141363144,-0.00708512868732214
0.02182246930897236,0.0012282868847250938,-0.017592310905456543,0.015774864703416824,-0.00033917417749762535,-0.00729528209194541
0.02227049507200718,0.0011674180859699845,-0.01694188266992569,0.01611093431711197,-0.000325175526086241,-0.0068346355110406876
0.022031821310520172,0.0011253227712586522,-0.01667357049882412,0.015547818504273891,-0.0003112041740678251,-0.0070880744606256485
0.022567758336663246,0.0009889549110084772,-0.016780581325292587,0.015486293472349644,-0.00029831338906660676,-0.007494467310607433
0.022989844903349876,0.0010789718944579363,-0.01645379699766636,0.014986987225711346,-0.00027015822706744075,-0.007347831502556801
0.022768817842006683,0.0010846802033483982,-0.017073385417461395,0.015304604545235634,-0.0002532237267587334,-0.007512588519603014
0.022711364552378654,0.0014440941158682108,-0.0163556020706892,0.0148586081340909,-0.00028109573759138584,-0.00798002164810896
0.021327748894691467,0.00219110120087862,-0.016852477565407753,0.015271654352545738,-0.00029179482953622937,-0.008842612616717815
0.02339314855635166,0.0019501983188092709,-0.016686098650097847,0.015090699307620525,-0.00028849809314124286,-0.007867694832384586
0.02339314855635166,0.0019501983188092709,-0.016686098650097847,0.015090699307620525,-0.00028849809314124286,-0.007867694832384586
0.023087164387106895,0.0018646403914317489,-0.016891151666641235,0.014767460525035858,-0.0003056759014725685,-0.007027714513242245
0.02248784527182579,0.0016382172470912337,-0.016509050503373146,0.01530534215271473,-0.0003020776202902198,-0.007304943632334471
0.022960927337408066,0.001539207878522575,-0.017092980444431305,0.01515117846429348,-0.00039927882608026266,-0.007978108711540699
0.0229700468480587,0.0015550128882750869,-0.016634268686175346,0.015828408300876617,-0.0004601341497618705,-0.007803323213011026
0.02269173227250576,0.0018663251539692283,-0.01694547012448311,0.01536955963820219,-0.0004234825319144875,-0.0079281534999609
0.022804254665970802,0.0021958707366138697,-0.017158254981040955,0.015506104566156864,-0.0004542145470622927,-0.0077170273289084435
0.022927582263946533,0.0026275813579559326,-0.016634559258818626,0.01599297858774662,-0.0004273572703823447,-0.007796404883265495
0.022388944402337074,0.002393205650150776,-0.017240436747670174,0.01522761769592762,-0.0004451111890375614,-0.007838127203285694
0.02259361371397972,0.0021821088157594204,-0.01642489619553089,0.01517362892627716,-0.0004298676794860512,-0.00864629726856947
0.023189479485154152,0.0019215118372812867,-0.017046265304088593,0.015095696784555912,-0.00044573930790647864,-0.008158260025084019
0.023371078073978424,0.0016946527175605297,-0.01671573519706726,0.015645770356059074,-0.00043229307630099356,-0.00802963599562645
0.023427849635481834,0.0017672571120783687,-0.01699582114815712,0.015347709879279137,-0.0004786544304806739,-0.007896414026618004
0.023426679894328117,0.0023308645468205214,-0.017374780029058456,0.01591525413095951,-0.00048586694174446166,-0.00823433417826891
0.022976094856858253,0.0028670597821474075,-0.016578905284404755,0.015569893643260002,-0.0004819670575670898,-0.008170603774487972
0.02291242964565754,0.003008101833984256,-0.01715189591050148,0.016243651509284973,-0.0005136010004207492,-0.008403681218624115
0.023572048172354698,0.0027553418185561895,-0.016787098720669746,0.016203192993998528,-0.0005123938317410648,-0.008787048049271107
0.02371719852089882,0.0026401299983263016,-0.01724839210510254,0.01653187908232212,-0.0005069132312200963,-0.008443466387689114
0.02326752431690693,0.002311467891559005,-0.01755765825510025,0.01633097603917122,-0.0005699073080904782,-0.008526667952537537
0.023269979283213615,0.0024242601357400417,-0.01679476536810398,0.015770046040415764,-0.00064205436501652,-0.008093386888504028
0.023845426738262177,0.002743619726970792,-0.017045073211193085,0.01596079207956791,-0.0006241201772354543,-0.008266118355095387
0.02366810292005539,0.003015050897374749,-0.01668485626578331,0.01521235890686512,-0.0006496953428722918,-0.00822350475937128
0.023789986968040466,0.0029953604098409414,-0.017054734751582146,0.015860039740800858,-0.0005940768169239163,-0.008282916620373726
0.02387596294283867,0.003015378722921014,-0.017092211171984673,0.01526187639683485,-0.0006102014449425042,-0.00847356766462326
0.023821257054805756,0.002533013466745615,-0.01665482111275196,0.015666158869862556,-0.0005709452670998871,-0.00875880103558302
0.023410366848111153,0.0023324289359152317,-0.016996411606669426,0.015948301181197166,-0.0005339881172403693,-0.008597353473305702
0.024123648181557655,0.003130692057311535,-0.01663845404982567,0.01604555919766426,-0.000574531382881105,-0.008440423756837845
0.024193327873945236,0.0034078704193234444,-0.016749147325754166,0.01561698317527771,-0.0005723364884033799,-0.008380112238228321
0.024053579196333885,0.003150255186483264,-0.01699727773666382,0.015991460531949997,-0.0005607269122265279,-0.008834855630993843
0.02447868138551712,0.0028136903420090675,-0.017525790259242058,0.015243520960211754,-0.0005530068301595747,-0.009158139117062092
0.02447868138551712,0.0028136903420090675,-0.017525790259242058,0.015243520960211754,-0.0005530068301595747,-0.009158139117062092
0.02438664436340332,0.002933322684839368,-0.016885023564100266,0.015351246111094952,-0.0005439331289380789,-0.009111518040299416
0.024348750710487366,0.0030282726511359215,-0.017206136137247086,0.0150199169293046,-0.0005077013047412038,-0.008669774979352951
0.024289226159453392,0.0033825638238340616,-0.016724392771720886,0.01577320508658886,-0.0005491463234648108,-0.008797924965620041
0.02489984780550003,0.0031945870723575354,-0.01690044067800045,0.015288155525922775,-0.0005871019093319774,-0.008739340119063854
0.02490036003291607,0.003378300927579403,-0.01703307032585144,0.015755314379930496,-0.0006067789508961141,-0.00893825851380825
0.024834172800183296,0.0030336228664964437,-0.016726072877645493,0.01532785501331091,-0.0006121562910266221,-0.008914756588637829
0.024910693988204002,0.0031935565639287233,-0.01734915003180504,0.015824416652321815,-0.0005986258038319647,-0.009010525420308113
0.024449801072478294,0.0033604369964450598,-0.017950523644685745,0.01565231755375862,-0.000764548487495631,-0.008968677371740341
0.024851109832525253,0.003234867937862873,-0.017602581530809402,0.015666009858250618,-0.0007992325117811561,-0.008598370477557182
0.024364134296774864,0.0034600268118083477,-0.01768089272081852,0.015578551217913628,-0.0007980921654962003,-0.009226061403751373
0.02545284666121006,0.003684168914332986,-0.017042508348822594,0.015222466550767422,-0.0007326070917770267,-0.008931835182011127
0.0257261972874403,0.003766625886783004,-0.017507070675492287,0.015028342604637146,-0.0006578001193702221,-0.009018431417644024
0.025676019489765167,0.003729354590177536,-0.017263416200876236,0.014698933809995651,-0.0006688463035970926,-0.009202883578836918
0.02591164968907833,0.003759251907467842,-0.017533712089061737,0.01525866612792015,-0.0006210947758518159,-0.009020980447530746
0.025372225791215897,0.003872739616781473,-0.01813061349093914,0.015024552121758461,-0.0005723328213207424,-0.008845115080475807
0.024001913145184517,0.0034152481239289045,-0.017506500706076622,0.015562290325760841,-0.0005226292996667325,-0.008538319729268551
0.024916695430874825,0.003485924331471324,-0.01738344132900238,0.015657272189855576,-0.0004656516248360276,-0.00924726203083992
0.025582272559404373,0.003778890473768115,-0.017185470089316368,0.01603524759411812,-0.0004623160930350423,-0.008584421128034592
0.025034284219145775,0.003988990094512701,-0.017544860020279884,0.015585224144160748,-0.000459825387224555,-0.00869494117796421
0.026696961373090744,0.004147801548242569,-0.017703717574477196,0.015381040051579475,-0.0005084766889922321,-0.00921577587723732
0.025903135538101196,0.004128005355596542,-0.018045097589492798,0.015404890291392803,-0.0004894950543530285,-0.009402879513800144
0.02576710470020771,0.003931467421352863,-0.018168823793530464,0.015129746869206429,-0.00045927747851237655,-0.010197421535849571
0.025577114894986153,0.004164183046668768,-0.017375504598021507,0.015210905112326145,-0.0005387786077335477,-0.009189185686409473
0.02533925324678421,0.0042064436711370945,-0.01908671297132969,0.015254025347530842,-0.0004963011597283185,-0.008939146064221859
0.02533925324678421,0.0042064436711370945,-0.01908671297132969,0.015254025347530842,-0.0004963011597283185,-0.008939146064221859
0.02559044398367405,0.004025159869343042,-0.017067505046725273,0.015629731118679047,-0.0005134530947543681,-0.009253027848899364
0.025860890746116638,0.003883112221956253,-0.016748515889048576,0.01590556465089321,-0.0004873222787864506,-0.009600166231393814
0.02574704959988594,0.004183641634881496,-0.01820433884859085,0.015372620895504951,-0.0005029586609452963,-0.009591582231223583
0.025944676250219345,0.004238441586494446,-0.01780274510383606,0.015504329465329647,-0.00048155587865039706,-0.009641536511480808
0.026350587606430054,0.004365601576864719,-0.017750592902302742,0.015183472074568272,-0.0005079400725662708,-0.009723839350044727
0.026593798771500587,0.004191552754491568,-0.01784682460129261,0.015580395236611366,-0.00048099615378305316,-0.009864844381809235
0.026440195739269257,0.004330831579864025,-0.01818789541721344,0.015780741348862648,-0.0005094588850624859,-0.010244478471577168
0.02648402750492096,0.004072841256856918,-0.018018044531345367,0.015838144347071648,-0.0005070443730801344,-0.009764795191586018
0.02648974396288395,0.004467471968382597,-0.016930270940065384,0.01567803882062435,-0.0005004741833545268,-0.010151460766792297
0.02601352334022522,0.004685118794441223,-0.017681794241070747,0.015903785824775696,-0.0005265958025120199,-0.010060104541480541
0.02642015740275383,0.004330723080784082,-0.018204620108008385,0.016254520043730736,-0.000494418665766716,-0.009877840988337994
0.02661251276731491,0.004927096888422966,-0.017810648307204247,0.015899183228611946,-0.0005155855324119329,-0.010165366344153881
0.026217136532068253,0.004812358412891626,-0.01812616176903248,0.016198957338929176,-0.0006007260526530445,-0.010036473162472248
0.0267452634871006,0.004364078398793936,-0.018035314977169037,0.015656013041734695,-0.0006481938762590289,-0.010510427877306938
0.02654586359858513,0.004473738372325897,-0.01832083985209465,0.016194982454180717,-0.0006035559927113354,-0.010027586482465267
0.025983901694417,0.004447448533028364,-0.018457526341080666,0.015529569238424301,-0.0006225294200703502,-0.010015870444476604
0.02794536016881466,0.004468386527150869,-0.017375905066728592,0.01535268034785986,-0.0005762444343417883,-0.010637115687131882
0.027430100366473198,0.004867400974035263,-0.0182491485029459,0.015358196571469307,-0.0005285549559630454,-0.010388422757387161
0.026856156066060066,0.004982904531061649,-0.018223240971565247,0.01612980291247368,-0.0005523848813027143,-0.010477887466549873
0.027153925970196724,0.004331338685005903,-0.018347090110182762,0.016235195100307465,-0.00048253752174787223,-0.011054771021008492
0.027153925970196724,0.004331338685005903,-0.018347090110182762,0.016235195100307465,-0.00048253752174787223,-0.011054771021008492
0.02845381200313568,0.004670725669711828,-0.018003802746534348,0.016169941052794456,-0.00043762297718785703,-0.010457782074809074
0.02784200944006443,0.0048682535998523235,-0.01835121400654316,0.016510149464011192,-0.00039973706589080393,-0.010320295579731464
0.02739541046321392,0.004907397553324699,-0.017356811091303825,0.016582662239670753,-0.0004353684198576957,-0.0104032838717103
0.02739541046321392,0.004907397553324699,-0.017356811091303825,0.016582662239670753,-0.0004353684198576957,-0.0104032838717103
0.027547936886548996,0.0045175314880907536,-0.018512003123760223,0.016791274771094322,-0.00044066429836675525,-0.010980693623423576
0.027547936886548996,0.0045175314880907536,-0.018512003123760223,0.016791274771094322,-0.00044066429836675525,-0.010980693623423576
0.028007544577121735,0.0034576663747429848,-0.01811205968260765,0.01619071327149868,-0.0004637794627342373,-0.01029967050999403
0.027457935735583305,0.002550184726715088,-0.01855490729212761,0.015491011552512646,-0.0004423069767653942,-0.010226822458207607
0.027849329635500908,0.0020700828172266483,-0.01799933798611164,0.015046834945678711,-0.0005282980855554342,-0.010540126822888851
0.028614960610866547,0.001453849021345377,-0.01777530275285244,0.015742292627692223,-0.0005357479676604271,-0.010475272312760353
0.028233256191015244,0.0015851211501285434,-0.01810520328581333,0.016044963151216507,-0.0005694223800674081,-0.010420795530080795
0.027891838923096657,0.0026555866934359074,-0.017391972243785858,0.01715044490993023,-0.0005600496660917997,-0.010600571520626545
0.027392752468585968,0.0034015618730336428,-0.01816682517528534,0.016855789348483086,-0.0005804744432680309,-0.010535985231399536
0.02798280119895935,0.0031746814493089914,-0.018430523574352264,0.01630427874624729,-0.0007291341898962855,-0.011006912216544151
0.028788145631551743,0.0028930557891726494,-0.01830689050257206,0.016002655029296875,-0.0007821980980224907,-0.010586223565042019
0.028763189911842346,0.002724957652390003,-0.018720487132668495,0.015884028747677803,-0.0007130831363610923,-0.011859938502311707
0.02881106548011303,0.0026699018198996782,-0.018372446298599243,0.01594223827123642,-0.0007292883237823844,-0.01047393586486578
0.028654886409640312,0.0024374716449528933,-0.01829509623348713,0.01581411622464657,-0.0007046943646855652,-0.01048827450722456
0.028476111590862274,0.002270751865580678,-0.018236367031931877,0.015776893123984337,-0.0006793345091864467,-0.0108766108751297
0.028438005596399307,0.002509951824322343,-0.018215078860521317,0.015051120892167091,-0.0006636475445702672,-0.01111519429832697
0.02744922786951065,0.0024434805382043123,-0.0187414288520813,0.015380514785647392,-0.0006155368173494935,-0.011035631410777569
0.028980759903788567,0.002683653961867094,-0.018916962668299675,0.014466684311628342,-0.0006230265717022121,-0.010901243425905704
0.02946796454489231,0.002633657306432724,-0.018735505640506744,0.015238317660987377,-0.0005803702515549958,-0.011470217257738113
0.029270252212882042,0.0024659675545990467,-0.018566474318504333,0.015651294961571693,-0.0005254256539046764,-0.011304576881229877
0.029221955686807632,0.002504231408238411,-0.018766095861792564,0.0161698367446661,-0.0005529728950932622,-0.010904409922659397
0.029377687722444534,0.002715297043323517,-0.020157979801297188,0.016194520518183708,-0.0005242213956080377,-0.011620704084634781
0.029598545283079147,0.0030170248355716467,-0.019826073199510574,0.016253646463155746,-0.00050306913908571,-0.012013065628707409
0.029889866709709167,0.002944365842267871,-0.01868247799575329,0.015787944197654724,-0.00047114447806961834,-0.011878155171871185
0.029551291838288307,0.0027762323152273893,-0.01942390948534012,0.01580142229795456,-0.00044225671445019543,-0.012217296287417412
0.029771577566862106,0.002720731310546398,-0.018940243870019913,0.014392795972526073,-0.0004070214636158198,-0.011844387277960777
0.030372492969036102,0.002832470927387476,-0.018092060461640358,0.01679450087249279,-0.00037180728395469487,-0.011699876748025417
0.029866402968764305,0.003161891596391797,-0.018829725682735443,0.016581891104578972,-0.00037659218651242554,-0.01191397663205862
0.030421700328588486,0.003232409479096532,-0.019747409969568253,0.016349181532859802,-0.0003804370353464037,-0.012027849443256855
0.030421700328588486,0.003232409479096532,-0.019747409969568253,0.016349181532859802,-0.0003804370353464037,-0.012027849443256855
0.030607640743255615,0.0033335108309984207,-0.018831273540854454,0.015895383432507515,-0.0003572481800802052,-0.012323528528213501
0.03077685460448265,0.0032124139834195375,-0.019030282273888588,0.016235213726758957,-0.0003834878734778613,-0.012324842624366283
0.03056734800338745,0.0035268906503915787,-0.01897883228957653,0.016507552936673164,-0.0003677062049973756,-0.01249158289283514
0.03099331445991993,0.0037073949351906776,-0.018260512501001358,0.015913208946585655,-0.00039409022429026663,-0.012401526793837547
0.031240032985806465,0.0036898627877235413,-0.018854007124900818,0.016204379498958588,-0.00037651992170140147,-0.01201414130628109
0.030918825417757034,0.003612484084442258,-0.019048836082220078,0.015559012070298195,-0.0003579921612981707,-0.01163765974342823
0.03086180053651333,0.0036395862698554993,-0.01851327158510685,0.015590231865644455,-0.0004173974448349327,-0.011679410003125668
0.031296201050281525,0.0034143005032092333,-0.019093357026576996,0.01532520167529583,-0.00045062077697366476,-0.012484496459364891
0.03242812678217888,0.003427497809752822,-0.01892838440835476,0.015979712828993797,-0.0004331005038693547,-0.012297648936510086
0.031697213649749756,0.004215518478304148,-0.01845516636967659,0.01658043824136257,-0.0004599067906383425,-0.012075511738657951
0.02992905303835869,0.004140706732869148,-0.018989071249961853,0.016013676300644875,-0.00043602491496130824,-0.012156479060649872
0.032088931649923325,0.004272084683179855,-0.01898672990500927,0.015744764357805252,-0.0004625330329872668,-0.012479805387556553
0.03276653215289116,0.004243147559463978,-0.019048111513257027,0.015169331803917885,-0.0005491619813255966,-0.012711593881249428
0.031796298921108246,0.003562670899555087,-0.019234860315918922,0.015365337021648884,-0.0005827642744407058,-0.012917830608785152
0.03258390352129936,0.0035974648781120777,-0.019232943654060364,0.015116127207875252,-0.0005720722256228328,-0.0130333686247468
0.03277474641799927,0.004235848784446716,-0.018963458016514778,0.015856146812438965,-0.0005581151926890016,-0.012826232239603996
0.031077567487955093,0.004031272139400244,-0.018769755959510803,0.01616388000547886,-0.0006087081274017692,-0.012892241589725018
0.03236333280801773,0.003952176310122013,-0.019070498645305634,0.016200006008148193,-0.0005721278139390051,-0.012704726308584213
0.03287952393293381,0.0038314603734761477,-0.019478097558021545,0.016026655212044716,-0.0006188161787576973,-0.012638194486498833
0.03287952393293381,0.0038314603734761477,-0.019478097558021545,0.016026655212044716,-0.0006188161787576973,-0.012638194486498833
0.033026985824108124,0.004260453395545483,-0.018792735412716866,0.016328345984220505,-0.0005511909839697182,-0.012646498158574104
0.032760702073574066,0.004088813439011574,-0.018788738176226616,0.016379274427890778,-0.0005825113039463758,-0.012880793772637844
0.032757602632045746,0.004185216501355171,-0.019173260778188705,0.01702132821083069,-0.0005311365821398795,-0.012834591791033745
0.03258708119392395,0.004095104988664389,-0.0187515951693058,0.016767509281635284,-0.0005429449956864119,-0.013024094514548779
0.03195687010884285,0.004368861671537161,-0.018485845997929573,0.016827942803502083,-0.0005166717455722392,-0.013029946014285088
0.03199635073542595,0.004639340564608574,-0.018952766433358192,0.01652323454618454,-0.0004785919445566833,-0.01304345391690731
0.032114218920469284,0.00418348191305995,-0.018572086468338966,0.016459863632917404,-0.0004915647441521287,-0.012857954017817974
0.032602738589048386,0.004368583671748638,-0.019061023369431496,0.015764819458127022,-0.00047375791473314166,-0.013270406052470207
0.03284277766942978,0.004341608844697475,-0.019122185185551643,0.015487541444599628,-0.00044649196206592023,-0.013409357517957687
0.032345667481422424,0.004326350055634975,-0.01843826286494732,0.015922553837299347,-0.000414642330724746,-0.013339776545763016
0.0328594446182251,0.004365132190287113,-0.01873207651078701,0.016123490408062935,-0.0004457450413610786,-0.01353405136615038
0.032522693276405334,0.004564670380204916,-0.01913491263985634,0.016722897067666054,-0.00045397685607895255,-0.013840215280652046
0.03157612681388855,0.004709248896688223,-0.018544217571616173,0.016348013654351234,-0.0004529131983872503,-0.014219448901712894
0.032803721725940704,0.00464280042797327,-0.019176173955202103,0.016374778002500534,-0.00046906896750442684,-0.013820426538586617
0.03404488041996956,0.0045711686834692955,-0.01918812096118927,0.016329534351825714,-0.0004535518819466233,-0.013524788431823254
0.03426163271069527,0.004550886806100607,-0.01837962493300438,0.01625971309840679,-0.0004275288956705481,-0.01310103852301836
0.03247087821364403,0.0043436093255877495,-0.01886075735092163,0.016290994361042976,-0.0005483332206495106,-0.01430812943726778
0.03268512710928917,0.00455073919147253,-0.01945227012038231,0.01595478318631649,-0.0005833223112858832,-0.013010977767407894
0.033904775977134705,0.004690423607826233,-0.019220706075429916,0.016317572444677353,-0.00059246935416013,-0.013558304868638515
0.033481013029813766,0.004736549686640501,-0.019451361149549484,0.016279159113764763,-0.0006194443558342755,-0.013673678040504456
0.033760108053684235,0.00470611872151494,-0.01928725652396679,0.01650724932551384,-0.0006063175387680531,-0.0142121696844697
0.034182384610176086,0.004714027978479862,-0.018887095153331757,0.016211096197366714,-0.0007731486693955958,-0.014091506600379944
0.034462761133909225,0.004619198851287365,-0.019045328721404076,0.016654718667268753,-0.0007548774592578411,-0.014193054288625717
0.03346135467290878,0.004628655966371298,-0.018799204379320145,0.01639179140329361,-0.000714640598744154,-0.013958873227238655
0.03369974344968796,0.004818433430045843,-0.019518254324793816,0.016345268115401268,-0.0007433916325680912,-0.01400109101086855
0.03407730907201767,0.004678864497691393,-0.01953749917447567,0.015953470021486282,-0.0006841456633992493,-0.014149387367069721
0.034483496099710464,0.004456207621842623,-0.01843993179500103,0.016867417842149734,-0.0006304314010776579,-0.014128701761364937
0.03416494280099869,0.004562517628073692,-0.020095571875572205,0.01627281680703163,-0.000596004247199744,-0.014423353597521782
0.03416494280099869,0.004562517628073692,-0.020095571875572205,0.01627281680703163,-0.000596004247199744,-0.014423353597521782
0.03383122757077217,0.004677446559071541,-0.02059897407889366,0.016256457194685936,-0.0005797644844278693,-0.014064730145037174
0.03420747071504593,0.005153736099600792,-0.019743815064430237,0.016144979745149612,-0.000564591318834573,-0.01453703735023737
0.03434057533740997,0.005081057548522949,-0.01964094303548336,0.01639837585389614,-0.0005932931089773774,-0.014408142305910587
0.03439345210790634,0.004891431424766779,-0.02020488865673542,0.016826407983899117,-0.0005849036388099194,-0.014330608770251274
0.034249939024448395,0.00469221081584692,-0.019249500706791878,0.016459042206406593,-0.0005747967516072094,-0.01360047236084938
0.03445664048194885,0.004477228969335556,-0.019682688638567924,0.01663144677877426,-0.0007003389182500541,-0.013562130741775036
0.03464864566922188,0.0046668522991240025,-0.019946400076150894,0.01614176481962204,-0.000777366163674742,-0.014402270317077637
0.03519030660390854,0.005238042213022709,-0.020296011120080948,0.016516661271452904,-0.001032733591273427,-0.014732585288584232
0.03519030660390854,0.005238042213022709,-0.020296011120080948,0.016516661271452904,-0.001032733591273427,-0.014732585288584232
0.034910980612039566,0.005093291401863098,-0.02033647708594799,0.0163775272667408,-0.0011006889399141073,-0.01466374658048153
0.03452742472290993,0.005170032382011414,-0.019855858758091927,0.01635182648897171,-0.0010614101774990559,-0.014854942448437214
0.0347626768052578,0.0049633607268333435,-0.019767366349697113,0.01607556827366352,-0.0009241986554116011,-0.01443050429224968
0.035255882889032364,0.004782149568200111,-0.020142585039138794,0.01645548827946186,-0.0009133910061791539,-0.01444695983082056
0.03530571237206459,0.004227666649967432,-0.020028311759233475,0.015837952494621277,-0.000816655345261097,-0.014850081875920296
0.03532681614160538,0.004474476911127567,-0.019637012854218483,0.015800470486283302,-0.0007200008258223534,-0.014735134318470955
0.035272713750600815,0.004544348921626806,-0.020086824893951416,0.015826860442757607,-0.0006162651698105037,-0.014720155857503414
0.035226691514253616,0.004794701933860779,-0.020170211791992188,0.016212688758969307,-0.0006204286473803222,-0.014725429937243462
0.035702843219041824,0.0043256948702037334,-0.019794855266809464,0.016363251954317093,-0.0006485525518655777,-0.01476574782282114
0.03550877422094345,0.004503604024648666,-0.020138097926974297,0.015991393476724625,-0.0006728682783432305,-0.014380901120603085
0.03517135605216026,0.004732571076601744,-0.02041006088256836,0.01667012833058834,-0.000746962905395776,-0.01434017252177
0.035231515765190125,0.004328764509409666,-0.020099634304642677,0.01632784865796566,-0.0007355283014476299,-0.01449689082801342
0.03683948889374733,0.004489721730351448,-0.02019963227212429,0.016003770753741264,-0.0006704499828629196,-0.014549308456480503
0.03448802977800369,0.0044640484265983105,-0.02035156823694706,0.015936363488435745,-0.0006889079231768847,-0.01469492632895708
0.034879546612501144,0.004249816760420799,-0.019706325605511665,0.01602371409535408,-0.0007034323061816394,-0.014812784269452095
0.03635357692837715,0.004437579773366451,-0.020071232691407204,0.01597689650952816,-0.0006892960518598557,-0.014900467358529568
0.036211565136909485,0.004199453629553318,-0.020420100539922714,0.016413362696766853,-0.0007255624514073133,-0.014802408404648304
0.03692241758108139,0.0043010772205889225,-0.01975446194410324,0.016192562878131866,-0.0007477188482880592,-0.014964724890887737
0.03692241758108139,0.0043010772205889225,-0.01975446194410324,0.016192562878131866,-0.0007477188482880592,-0.014964724890887737
0.03600499778985977,0.0045743295922875404,-0.020037906244397163,0.016840172931551933,-0.0007646141457371414,-0.015504192560911179
0.035787615925073624,0.004699117504060268,-0.020152412354946136,0.016800781711935997,-0.0008757394971325994,-0.01434541679918766
0.03552578389644623,0.004723366349935532,-0.019813265651464462,0.016874326393008232,-0.0009899261640384793,-0.01430447120219469
0.036300018429756165,0.004513658117502928,-0.02020043134689331,0.016642678529024124,-0.0009462704765610397,-0.015156971290707588
0.0350039042532444,0.004400745499879122,-0.02035442925989628,0.016605006530880928,-0.0009379230323247612,-0.015335441567003727
0.03668180853128433,0.004356360528618097,-0.019930412992835045,0.017194176092743874,-0.0008802888914942741,-0.01541685126721859
0.03702531382441521,0.0049310666508972645,-0.019518880173563957,0.01683264970779419,-0.0008607561467215419,-0.015147828496992588
0.03607136756181717,0.004615844693034887,-0.020239312201738358,0.0168825164437294,-0.0008613179670646787,-0.015207876451313496
0.03627422824501991,0.004524493124336004,-0.020406203344464302,0.015334101393818855,-0.0008182934252545238,-0.015158376656472683
0.037264466285705566,0.004488739185035229,-0.01958690583705902,0.016716301441192627,-0.0007721732836216688,-0.015523827634751797
0.036362335085868835,0.00457358080893755,-0.020189790055155754,0.01757051795721054,-0.0007824262138456106,-0.015673400834202766
0.03658230975270271,0.0048890141770243645,-0.02078917995095253,0.016705568879842758,-0.0007701684371568263,-0.015550556592643261
0.037087660282850266,0.004694071598351002,-0.02059480920433998,0.01660836488008499,-0.0007655225344933569,-0.015352235175669193
0.03688335418701172,0.004871578887104988,-0.020625757053494453,0.016142413020133972,-0.0007524175452999771,-0.015353675000369549
0.03649889677762985,0.004789956379681826,-0.020847273990511894,0.01654714345932007,-0.0007179473759606481,-0.015579091385006905
0.037517283111810684,0.004688763525336981,-0.02044345624744892,0.016354192048311234,-0.0007270164205692708,-0.015403108671307564
0.03880203887820244,0.004543843679130077,-0.019877009093761444,0.015639886260032654,-0.0007500530919060111,-0.01564541831612587
0.03647966310381889,0.004744572099298239,-0.02091517485678196,0.01533004641532898,-0.0007852950366213918,-0.015564586035907269
0.038039661943912506,0.0051265377551317215,-0.021153168752789497,0.015644613653421402,-0.0007207245216704905,-0.015766566619277
0.0376327782869339,0.005466693080961704,-0.020143935456871986,0.0155107406899333,-0.0007357153226621449,-0.01582436077296734
0.03874683380126953,0.005060219671577215,-0.021221373230218887,0.01619275100529194,-0.000809371005743742,-0.015351318754255772
0.03900379687547684,0.0046004937030375,-0.021698905155062675,0.016538649797439575,-0.0008377232006751001,-0.015708209946751595
0.03702733665704727,0.005037299357354641,-0.021204032003879547,0.017106929793953896,-0.0008386721019633114,-0.016018515452742577
0.03723679855465889,0.0054832580499351025,-0.020511707291007042,0.017293808981776237,-0.0008455091738142073,-0.015741217881441116
0.03891841322183609,0.005287666339427233,-0.021125663071870804,0.016437916085124016,-0.0008563598385080695,-0.015666257590055466
0.03891841322183609,0.005287666339427233,-0.021125663071870804,0.016437916085124016,-0.0008563598385080695,-0.015666257590055466
0.03807564452290535,0.005181323271244764,-0.02155296318233013,0.016323158517479897,-0.0007979897782206535,-0.015527551993727684
0.03836202248930931,0.0050531961023807526,-0.020880216732621193,0.016482122242450714,-0.0007025932427495718,-0.016254127025604248
0.03836202248930931,0.0050531961023807526,-0.020880216732621193,0.016482122242450714,-0.0007025932427495718,-0.016254127025604248
0.0386146642267704,0.005422605201601982,-0.021982748061418533,0.01667504571378231,-0.0006279393564909697,-0.01632222719490528
0.03847850486636162,0.005128116812556982,-0.021749481558799744,0.017554590478539467,-0.0006498203729279339,-0.01603793352842331
0.03864314779639244,0.005511508788913488,-0.02116188034415245,0.017537089064717293,-0.0005941772251389921,-0.01583806425333023
0.038822975009679794,0.005243007093667984,-0.02146110124886036,0.01684471033513546,-0.0006153255817480385,-0.01589445397257805
0.038541875779628754,0.005125320982187986,-0.021456057205796242,0.017337895929813385,-0.0005640045274049044,-0.016053803265094757
0.039254482835531235,0.005311451852321625,-0.02166454680263996,0.01689005084335804,-0.0005490122712217271,-0.01619887724518776
0.039266057312488556,0.0050298613496124744,-0.02140657790005207,0.017326653003692627,-0.0005807816050946712,-0.016626982018351555
0.039103563874959946,0.0054825060069561005,-0.021639667451381683,0.017799273133277893,-0.0006301311659626663,-0.015779145061969757
