davideferrari95/blind_handover_controller/data/Test 275 - [2024-02-08 -- 12-56-24]/joint_states_data.csv
shoulder_pan_joint,shoulder_lift_joint,elbow_joint,wrist_1_joint,wrist_2_joint,wrist_3_joint
0.005671437364071608,0.0071510570123791695,-0.010153084993362427,0.0033590716775506735,-6.725081499953645e-23,0.006550115067511797
0.005671437364071608,0.0071510570123791695,-0.010153084993362427,0.0033590716775506735,-6.725081499953645e-23,0.006550115067511797
0.005437184125185013,0.0074166906997561455,-0.010847501456737518,0.0034785796888172626,-5.968513505649753e-05,0.006153923459351063
0.005947142373770475,0.00785861350595951,-0.01077058631926775,0.003942877519875765,-6.251508602872491e-05,0.005974926520138979
0.005617793649435043,0.007454370614141226,-0.010553342290222645,0.003986077848821878,-6.189419946167618e-05,0.006074119824916124
0.005956691689789295,0.0073442659340798855,-0.01069409679621458,0.003638047492131591,-6.106976798037067e-05,0.005668070167303085
0.00564694544300437,0.007305559702217579,-0.01065322570502758,0.0035027796402573586,-6.025316906743683e-05,0.005786801688373089
0.0057243951596319675,0.007633011322468519,-0.011484290473163128,0.003285416169092059,-5.945713564869948e-05,0.005717752501368523
0.006109854206442833,0.007993115112185478,-0.01057163905352354,0.0034195969346910715,-5.868174048373476e-05,0.006084287539124489
0.005628746934235096,0.00686119357123971,-0.009798004291951656,0.0032753129489719868,-5.792640513391234e-05,0.005913590546697378
0.005448904354125261,0.007674855645745993,-0.010450504720211029,0.003356922883540392,-5.647249781759456e-05,0.006540162954479456
0.005434687715023756,0.007502403575927019,-0.010082603432238102,0.0034177550114691257,-5.577263800660148e-05,0.006271234713494778
0.005655396729707718,0.007225831970572472,-0.010997075587511063,0.0035446230322122574,-5.508986214408651e-05,0.006139554549008608
0.005217496305704117,0.007170999422669411,-0.011055945418775082,0.0036277398467063904,-5.442358087748289e-05,0.005889689549803734
0.0058410195633769035,0.008264483883976936,-0.010160651989281178,0.00355286942794919,-5.3773219406139106e-05,0.005925020202994347
0.005537642166018486,0.007745153736323118,-0.010820993222296238,0.0034788749180734158,-5.313831570674665e-05,0.006113359704613686
0.005808485671877861,0.008065198548138142,-0.010584672912955284,0.003367029596120119,-5.251813854556531e-05,0.005696021486073732
0.005303452722728252,0.007856880314648151,-0.010050615295767784,0.0034977339673787355,-5.191229865886271e-05,0.005801288411021233
0.005358588416129351,0.007890908978879452,-0.010129823349416256,0.003729836083948612,-5.132026126375422e-05,0.006340830121189356
0.005238979589194059,0.007478693965822458,-0.010304846800863743,0.0034325432498008013,-5.074157888884656e-05,0.006743124220520258
0.005934244953095913,0.007314438931643963,-0.011351341381669044,0.003576205810531974,-5.0175814976682886e-05,0.005601510405540466
0.005452387500554323,0.007718302775174379,-0.009430782869458199,0.0036759749054908752,-2.5153658498311415e-05,0.005321618169546127
0.005875066854059696,0.007425414398312569,-0.010588867589831352,0.0035727389622479677,-1.642354050090944e-06,0.006064610090106726
0.005875066854059696,0.007425414398312569,-0.010588867589831352,0.0035727389622479677,-1.642354050090944e-06,0.006064610090106726
0.0053994134068489075,0.007219156250357628,-0.011233472265303135,0.0034315178636461496,-1.0723397991796446e-07,0.005972518119961023
0.005146550480276346,0.007109001278877258,-0.010053286328911781,0.0031226109713315964,-7.0016130671035626e-09,0.0061762649565935135
0.005953565705567598,0.007259299047291279,-0.009657436050474644,0.0030534190591424704,-4.5715534136014924e-10,0.006473538465797901
0.005701314192265272,0.007748198229819536,-0.010654767975211143,0.002938966266810894,-2.984897745639259e-11,0.005835495423525572
0.0056101311929523945,0.007426041178405285,-0.010880292393267155,0.003186661982908845,-1.9489247455456438e-12,0.005864439066499472
0.005203987006098032,0.007285020314157009,-0.010060214437544346,0.003165601985529065,-1.2725085742071318e-13,0.005635294131934643
0.005715171806514263,0.007731325924396515,-0.010692999698221684,0.0034829408396035433,-8.30857159060585e-15,0.006135501433163881
0.0059442585334181786,0.007854060269892216,-0.010205339640378952,0.0033455544617027044,-5.42490403761134e-16,0.006546120624989271
0.005632513668388128,0.007662311661988497,-0.010529179126024246,0.0032814505975693464,-3.54207473322475e-17,0.00609027873724699
0.005815844517201185,0.0074422042816877365,-0.011010474525392056,0.0032943496480584145,-2.31272151246737e-18,0.005975713022053242
0.00566163519397378,0.00754409609362483,-0.010022029280662537,0.0030876859091222286,-1.510041989658163e-19,0.005926335230469704
0.005052926484495401,0.007425172720104456,-0.010655969381332397,0.0028999887872487307,-9.859495300794851e-21,0.006033292971551418
0.005484767258167267,0.00728910556063056,-0.010168940760195255,0.002901780419051647,-6.437545738968421e-22,0.0061801280826330185
0.005784490145742893,0.008002253249287605,-0.009865975938737392,0.0030375435017049313,-4.203257584574719e-23,0.006021708715707064
0.005849266890436411,0.008031812496483326,-0.010510046035051346,0.0036710191052407026,-1.7919144327632807e-25,0.0061540259048342705
0.005714348051697016,0.007152579724788666,-0.009924947284162045,0.0036495437379926443,-1.1699920411935461e-26,0.006785575766116381
0.005306570325046778,0.007218156009912491,-0.011108370497822762,0.0033885648008435965,-7.639211235544179e-28,0.006312161218374968
0.0059933350421488285,0.008218797855079174,-0.010253929533064365,0.0034740797709673643,-4.9878591340418994e-29,0.005947587545961142
0.006252299528568983,0.007779492065310478,-0.009552243165671825,0.0034736054949462414,-3.2567155625124735e-30,0.005954007152467966
0.005585954524576664,0.0076523772440850735,-0.010387598536908627,0.0031603605020791292,-2.1264027476572616e-31,0.005940435919910669
0.00535311596468091,0.007124779280275106,-0.010505694895982742,0.0028631617315113544,-1.388389014320475e-32,0.00633116764947772
0.005469752941280603,0.0080884313210845,-0.00964208971709013,0.002878717379644513,-9.065189273285817e-34,0.006351539399474859
0.006164562422782183,0.007636307273060083,-0.010043859481811523,0.003164659021422267,-5.918920557358645e-35,0.005762695800513029
0.006043745670467615,0.007318415213376284,-0.009910864755511284,0.0035912017337977886,-3.864631752560385e-36,0.0058355676010251045
0.005787587258964777,0.007434888742864132,-0.010229146108031273,0.0035346788354218006,-2.52332868247415e-37,0.005859337281435728
0.005397858563810587,0.008050921373069286,-0.0102037712931633,0.0035077985376119614,-1.647553127615703e-38,0.006204232107847929
0.005397858563810587,0.008050921373069286,-0.0102037712931633,0.0035077985376119614,-1.647553127615703e-38,0.006204232107847929
0.005470274481922388,0.007730194833129644,-0.009898051619529724,0.003654913045465946,-1.0757347921082323e-39,0.006239443086087704
0.0063207740895450115,0.007274441886693239,-0.009904483333230019,0.0033247889950871468,-7.023728292735281e-41,0.005643376149237156
0.006003843620419502,0.007094003725796938,-0.010467136278748512,0.003204457927495241,-4.586449873735126e-42,0.005836633034050465
0.0060329437255859375,0.007903972640633583,-0.009843356907367706,0.003131359815597534,-2.9987787136551085e-43,0.006152124609798193
0.005835339426994324,0.00742764538154006,-0.009840169921517372,0.0031331523787230253,-1.961817850054744e-44,0.0063786632381379604
0.006113842129707336,0.007092652842402458,-0.010268834419548512,0.0031456882134079933,-1.401298464324817e-45,0.006501888390630484
0.0061472998932003975,0.007177063729614019,-0.010147757828235626,0.0035512656904757023,-0.0,0.005955369211733341
0.005950768478214741,0.0075323074124753475,-0.00949335377663374,0.003786935005337,-0.0,0.005750276148319244
0.005940581206232309,0.007401485461741686,-0.01022295281291008,0.0038359384052455425,-0.0,0.005710842553526163
0.005675962194800377,0.007235584780573845,-0.009907220490276814,0.003389481222257018,-0.0,0.0059775738045573235
0.005727242678403854,0.007151392288506031,-0.009894565679132938,0.0030664033256471157,-0.0,0.00647872406989336
0.005904779769480228,0.007502131164073944,-0.010249756276607513,0.0031821350567042828,-0.0,0.006239498965442181
0.006306783761829138,0.0074005452916026115,-0.00952859502285719,0.0033066568430513144,-0.0,0.006044493988156319
0.0061345393769443035,0.007198079954832792,-0.010462102480232716,0.0030716480687260628,-0.0,0.006461575627326965
0.006109842099249363,0.007925893180072308,-0.009398311376571655,0.0028305661398917437,-0.0,0.005879890639334917
0.006873815320432186,0.008067403919994831,-0.010610977187752724,0.002950444584712386,-0.0,0.005973732098937035
0.006250681355595589,0.007761293090879917,-0.010331526398658752,0.003229913068935275,-0.0,0.00592954782769084
0.005992721766233444,0.0071290466003119946,-0.00980905257165432,0.0032592734787613153,-0.0,0.006190476939082146
0.005953483749181032,0.008015033788979053,-0.01008644886314869,0.0035097335930913687,-0.0,0.00595773383975029
0.005994062405079603,0.00711809890344739,-0.010252591222524643,0.00368569721467793,-0.0,0.005758906248956919
0.006274698302149773,0.007169010583311319,-0.00966388639062643,0.003353974549099803,-0.0,0.006036385428160429
0.006539297755807638,0.008075276389718056,-0.010204664431512356,0.0034951078705489635,-0.0,0.005706712603569031
0.006572123616933823,0.007930736988782883,-0.010003391653299332,0.003146739909425378,-0.0,0.005871796514838934
0.005998882930725813,0.007510544266551733,-0.009583549574017525,0.003046607133001089,-0.0,0.00597904110327363
0.007040189113467932,0.00702333077788353,-0.010519341565668583,0.003157660597935319,-0.0,0.005866064690053463
0.00613916851580143,0.007269382476806641,-0.010169719345867634,0.003310681087896228,-0.0,0.005609068553894758
0.005691849160939455,0.008124133571982384,-0.009496190585196018,0.0035715310368686914,-0.0,0.0057070632465183735
0.006094035692512989,0.007626140024513006,-0.01071225292980671,0.0033152729738503695,-0.0,0.006274191662669182
0.006094035692512989,0.007626140024513006,-0.01071225292980671,0.0033152729738503695,-0.0,0.006274191662669182
0.006146801169961691,0.007355556823313236,-0.009911403059959412,0.0032187234610319138,-0.0,0.006339394021779299
0.006251226644963026,0.007431177422404289,-0.009343216195702553,0.003231554292142391,-0.0,0.006187434308230877
0.006728039123117924,0.007771326694637537,-0.010468852706253529,0.0030433139763772488,-0.0,0.005720436107367277
0.006813033949583769,0.007362245116382837,-0.00999431312084198,0.002676993375644088,-0.0,0.005812403745949268
0.006248055025935173,0.0072839767672121525,-0.009571652859449387,0.003023495664820075,-0.0,0.005973396822810173
0.006283107213675976,0.007603607606142759,-0.010231458581984043,0.003576780902221799,-0.0,0.006488107144832611
0.006602865643799305,0.007719784509390593,-0.010383589193224907,0.003457908518612385,-0.0,0.006367681082338095
0.006521144881844521,0.007453220430761576,-0.009434222243726254,0.0034565033856779337,-0.0,0.005960265174508095
0.006342649459838867,0.007712701801210642,-0.010409513488411903,0.003034410532563925,-0.0,0.005826450884342194
0.005883656442165375,0.008600487373769283,-0.009909285232424736,0.0030294195748865604,-0.0,0.006124412640929222
0.005868768785148859,0.007867880165576935,-0.00966814998537302,0.0030289918649941683,-0.0,0.006497703026980162
0.006250258535146713,0.007468207273632288,-0.01065785065293312,0.003022099146619439,-0.0,0.006180895492434502
0.0066034686751663685,0.008088950999081135,-0.01053618174046278,0.0030064887832850218,-0.0,0.0060032126493752
0.00582885043695569,0.007557725999504328,-0.010082575492560863,0.0030040659476071596,-0.0,0.006287795025855303
0.0059081511572003365,0.007364536169916391,-0.01077511627227068,0.003170859068632126,-0.0,0.006822176277637482
0.006341763772070408,0.007794741541147232,-0.011612311005592346,0.003115189028903842,-0.0,0.006759386043995619
0.0064685451798141,0.008031845092773438,-0.01041423063725233,0.002938231686130166,-0.0,0.00589740090072155
0.006400329526513815,0.007609548978507519,-0.009889692068099976,0.0028959063347429037,-0.0,0.005869079381227493
0.005979396868497133,0.007364623248577118,-0.010670837946236134,0.0029323927592486143,-0.0,0.006109558045864105
0.006131721660494804,0.0073650674894452095,-0.010508977808058262,0.003111597616225481,-0.0,0.006383131258189678
0.006519253831356764,0.007764902431517839,-0.009964660741388798,0.003252279944717884,-0.0,0.00613841786980629
0.006558371242135763,0.008079647086560726,-0.010675217024981976,0.003172527998685837,-0.0,0.00600131880491972
0.006232052110135555,0.006953614763915539,-0.010964913293719292,0.003030025167390704,-0.0,0.006164564751088619
0.006082490086555481,0.007060554809868336,-0.009958089329302311,0.0031648408621549606,-0.0,0.006599802989512682
0.00636454951018095,0.00758344866335392,-0.010042202658951283,0.003165933769196272,-0.0,0.006216362118721008
0.00636454951018095,0.00758344866335392,-0.010042202658951283,0.003165933769196272,-0.0,0.006216362118721008
0.0071441493928432465,0.00730778556317091,-0.009997094981372356,0.003285696031525731,-0.0,0.005998690612614155
0.006649211049079895,0.007172130048274994,-0.01057922001928091,0.003320686984807253,-0.0,0.005918664392083883
0.006372836418449879,0.007113184779882431,-0.009417480789124966,0.003096285741776228,-0.0,0.006621492560952902
0.0067847236059606075,0.007486662827432156,-0.010109500028192997,0.0030328035354614258,-0.0,0.0063752722926437855
0.006245661526918411,0.00741393119096756,-0.01018042303621769,0.0028845160268247128,-0.0,0.005334931425750256
0.006076847203075886,0.007252939976751804,-0.009942848235368729,0.00330381840467453,-0.0,0.005210741888731718
0.006523704156279564,0.007258833851665258,-0.010407455265522003,0.003231442766264081,-0.0,0.005901347380131483
0.005992426536977291,0.007945372723042965,-0.010067930445075035,0.003045864636078477,-0.0,0.006268487777560949
0.0059815035201609135,0.007575726602226496,-0.0101424939930439,0.0029342493508011103,-0.0,0.006509292870759964
0.0065014599822461605,0.006839237175881863,-0.009928046725690365,0.002921546809375286,-0.0,0.006420549936592579
0.006739405915141106,0.006966012064367533,-0.01051522046327591,0.003281382145360112,-0.0,0.0057347621768713
0.0061873034574091434,0.007378175854682922,-0.01094735600054264,0.0031933560967445374,-0.0,0.005812982562929392
0.0064510153606534,0.00725243054330349,-0.01000879891216755,0.0030212649144232273,-0.0,0.005549697671085596
0.006705986335873604,0.006825054995715618,-0.010015307925641537,0.0030331138987094164,-0.0,0.005935119464993477
0.0063379909843206406,0.007394489832222462,-0.009645192883908749,0.003183314809575677,-0.0,0.006217753514647484
0.006044025532901287,0.0071945455856621265,-0.010378935374319553,0.003055824199691415,-0.0,0.006138955242931843
0.0063023935072124004,0.007096657529473305,-0.009925320744514465,0.003269003238528967,-0.0,0.0069211372174322605
0.006661871913820505,0.0069178189150989056,-0.009753077290952206,0.0032018222846090794,-0.0,0.006783213932067156
0.0065999808721244335,0.007345150224864483,-0.009945598430931568,0.0033452464267611504,-0.0,0.00660024443641305
0.006659323815256357,0.007222324144095182,-0.00958567950874567,0.0034634352196007967,-0.0,0.006770413834601641
0.00671905092895031,0.007242914289236069,-0.00934704951941967,0.003381966380402446,-0.0,0.006416605319827795
0.006565490737557411,0.006762231234461069,-0.009573976509273052,0.0031217432115226984,-0.0,0.006221371702849865
0.006489143706858158,0.006996121257543564,-0.009639283642172813,0.003304991638287902,-0.0,0.006200889591127634
0.006677029654383659,0.006991904694586992,-0.009231711737811565,0.00317046488635242,-0.0,0.006225866731256247
0.006473154295235872,0.006656651385128498,-0.009472834877669811,0.0029904376715421677,-0.0,0.006302009802311659
0.006409958004951477,0.007021807599812746,-0.010199842043220997,0.0030311529990285635,-0.0,0.00626830430701375
0.006877596955746412,0.007045065984129906,-0.009163682349026203,0.003323666052892804,-0.0,0.006776970345526934
0.007053081411868334,0.007590704131871462,-0.00961342453956604,0.0032448626589030027,-0.0,0.006555532570928335
0.006556342355906963,0.006583389826118946,-0.01072881929576397,0.0031327835749834776,-0.0,0.005867035128176212
0.006326595786958933,0.0063903601840138435,-0.009426789358258247,0.0029583980794996023,-0.0,0.006330834235996008
0.007171697914600372,0.006880755536258221,-0.009807155467569828,0.002902239328250289,-0.0,0.0067881084978580475
0.007503582164645195,0.0069952537305653095,-0.00961480475962162,0.0032184170559048653,-0.0,0.006843156646937132
0.006511780433356762,0.006524684838950634,-0.009192951023578644,0.0032020765356719494,-0.0,0.006375371944159269
0.006511780433356762,0.006524684838950634,-0.009192951023578644,0.0032020765356719494,-0.0,0.006375371944159269
0.006172712426632643,0.006225504446774721,-0.009937100112438202,0.0031561844516545534,-0.0,0.006518465466797352
0.007175865117460489,0.0061319610103964806,-0.009779543615877628,0.0033689693082123995,-0.0,0.006611010991036892
0.007687321864068508,0.006143619306385517,-0.009644480422139168,0.0031873388215899467,-0.0,0.007287443149834871
0.007028338965028524,0.006614923942834139,-0.009976347908377647,0.0032675662077963352,-0.0,0.006900068372488022
0.006441153585910797,0.006553888786584139,-0.009750766679644585,0.0032594073563814163,-0.0,0.00639728968963027
0.006729905027896166,0.006366729736328125,-0.009691013023257256,0.003506455570459366,-0.0,0.006484174635261297
0.007283322978764772,0.006059820298105478,-0.00996682420372963,0.003704773960635066,-0.0,0.006232949905097485
0.006872339639812708,0.006415161304175854,-0.010400166735053062,0.0034359828568995,-0.0,0.0066014667972922325
0.006603336427360773,0.006257312837988138,-0.009755542501807213,0.003226987784728408,-0.0,0.006315999198704958
0.0072750430554151535,0.00619905162602663,-0.010722163133323193,0.0034713977947831154,-0.0,0.006263821851462126
0.0067557720467448235,0.006708633154630661,-0.009384739212691784,0.003172500291839242,-0.0,0.006282799411565065
0.006338282022625208,0.006940532475709915,-0.009600580669939518,0.0030853813514113426,-0.0,0.006791145075112581
0.006590594537556171,0.006611661519855261,-0.009783228859305382,0.0029259996954351664,-0.0,0.007138362620025873
0.007281612139195204,0.006491424050182104,-0.009502864442765713,0.003337716683745384,-0.0,0.006897354032844305
0.007610704749822617,0.006538997869938612,-0.009861012920737267,0.003315536305308342,-0.0,0.006315518170595169
0.007107551675289869,0.0070805479772388935,-0.010374604724347591,0.0034461028408259153,-0.0,0.006490394473075867
0.006427149288356304,0.007017116528004408,-0.009036746807396412,0.003281905548647046,-0.0,0.006858532782644033
0.006616565398871899,0.0064571574330329895,-0.010013919323682785,0.00322489975951612,-0.0,0.006908994633704424
0.007075744215399027,0.006572654936462641,-0.009761085733771324,0.0033588847145438194,-0.0,0.006512944120913744
0.006950330454856157,0.006632049567997456,-0.00912855751812458,0.0033996140118688345,-0.0,0.006455609109252691
0.006702092010527849,0.007252442184835672,-0.009425070136785507,0.003502899780869484,-0.0,0.006773993372917175
0.007269388530403376,0.007083461619913578,-0.00967931468039751,0.003714791964739561,-0.0,0.0070804511196911335
0.007269388530403376,0.007083461619913578,-0.00967931468039751,0.003714791964739561,-0.0,0.0070804511196911335
0.007157105021178722,0.0063768611289560795,-0.009003137238323689,0.003979955799877644,-0.0,0.006762172095477581
0.006720938254147768,0.006448873318731785,-0.009759961627423763,0.0035999470856040716,-0.0,0.006547406315803528
0.006720938254147768,0.006448873318731785,-0.009759961627423763,0.0035999470856040716,-0.0,0.006547406315803528
0.006599262356758118,0.007166076917201281,-0.00946566928178072,0.0035380073823034763,-0.0,0.00674448860809207
0.006925415713340044,0.006452024448662996,-0.009158789180219173,0.003681072499603033,-0.0,0.006978582125157118
0.007416205946356058,0.0064818644896149635,-0.009726292453706264,0.003392130136489868,-0.0,0.006905614864081144
0.007064742501825094,0.006811240687966347,-0.009305526502430439,0.0034552616998553276,-0.0,0.007243865169584751
0.007138239685446024,0.007365009747445583,-0.009861810132861137,0.0036398281808942556,-0.0,0.006774968467652798
0.0066703069023787975,0.007039650809019804,-0.009944814257323742,0.003756945487111807,-0.0,0.006659889593720436
0.007106132339686155,0.006382714491337538,-0.00946416798979044,0.0033046449534595013,-0.0,0.006793654058128595
0.00718306889757514,0.0064392355270683765,-0.009542283602058887,0.003121417248621583,-0.0,0.007245405111461878
0.007047158200293779,0.006845442578196526,-0.010171113535761833,0.002946071093901992,-0.0,0.007114719599485397
0.006822181399911642,0.006737746763974428,-0.009780277498066425,0.0029381958302110434,-0.0,0.006856120657175779
0.00728811789304018,0.006463493220508099,-0.009601885452866554,0.002957721473649144,-0.0,0.006577158812433481
0.007044143509119749,0.006588086020201445,-0.009258226491510868,0.0031134106684476137,-0.0,0.006890847347676754
0.0072042872197926044,0.007034827023744583,-0.00958388950675726,0.0032955582719296217,-0.0,0.0070037925615906715
0.007539165671914816,0.00684370519593358,-0.011032928712666035,0.003402941394597292,-0.0,0.0069474121555686
0.007456026505678892,0.005909302271902561,-0.009603248909115791,0.0036274604499340057,-0.0,0.006751892622560263
0.00732714356854558,0.00645438302308321,-0.00942622683942318,0.0033534057438373566,-0.0,0.00672536576166749
0.007358416449278593,0.007381942123174667,-0.01090224739164114,0.0035205844324082136,-0.0,0.0068269954062998295
0.007519247476011515,0.006999295670539141,-0.010164199396967888,0.0037095146253705025,-0.0,0.00681720394641161
0.0077384780161082745,0.006408656947314739,-0.00966566614806652,0.0037860251031816006,-0.0,0.007141278591006994
0.007603735197335482,0.006124313920736313,-0.009865108877420425,0.00374464294873178,-0.0,0.007021906320005655
0.007290670182555914,0.006834200117737055,-0.009523740038275719,0.003293411573395133,-0.0,0.007760780863463879
0.007590835448354483,0.006989843212068081,-0.009980734437704086,0.0030747053679078817,-0.0,0.007368294522166252
0.008012634702026844,0.006566339172422886,-0.010377161204814911,0.0031241686083376408,-0.0,0.006412040442228317
0.007533113472163677,0.006114308722317219,-0.009986198507249355,0.00331996101886034,-0.0,0.006273351144045591
0.008165559731423855,0.00620597368106246,-0.00988374650478363,0.0036071715876460075,-0.0,0.007134517654776573
0.007902026176452637,0.006389979273080826,-0.010673549957573414,0.0037520055193454027,-0.0,0.007297692820429802
0.008108532987535,0.0069367485120892525,-0.009987141005694866,0.004155070520937443,-0.0,0.007096425164490938
0.008108532987535,0.0069367485120892525,-0.009987141005694866,0.004155070520937443,-0.0,0.007096425164490938
0.007854952476918697,0.006873002741485834,-0.010266742669045925,0.004159851931035519,-0.0,0.007328236009925604
0.007860144600272179,0.006666889414191246,-0.010259968228638172,0.0035864172969013453,-0.0,0.0075892312452197075
0.00810248777270317,0.006458052434027195,-0.009708372876048088,0.003555719507858157,-0.0,0.007524481043219566
0.007749109994620085,0.007120239082723856,-0.010631534270942211,0.0037945755757391453,-0.0,0.007110748440027237
0.007303017191588879,0.007277300581336021,-0.010068804025650024,0.0039763986133039,-0.0,0.007207365240901709
0.008418366312980652,0.006465725600719452,-0.009897175244987011,0.004082506988197565,-0.0,0.0077007971704006195
0.008592250756919384,0.006267835386097431,-0.010258493945002556,0.0036028954200446606,-0.0,0.0076342420652508736
0.007989893667399883,0.00688983965665102,-0.00994640402495861,0.003549240529537201,-0.0,0.007944488897919655
0.007691890932619572,0.006959656719118357,-0.009584685787558556,0.003598509356379509,-0.0,0.007239683531224728
0.008230290375649929,0.0064923414029181,-0.010514319874346256,0.003659699112176895,-0.0,0.007247657980769873
0.008058452047407627,0.006135089788585901,-0.010027165524661541,0.003696455853059888,-0.0,0.007806009147316217
0.007740707602351904,0.006492031738162041,-0.010224416851997375,0.0037815170362591743,-0.0,0.007891487330198288
0.008233052678406239,0.0067005823366343975,-0.010185135528445244,0.003969036042690277,-0.0,0.007774450350552797
0.008329528383910656,0.0061241802759468555,-0.010175920091569424,0.004006850998848677,-0.0,0.007828240282833576
0.0077954544685781,0.005943766329437494,-0.010291947983205318,0.0036009892355650663,-0.0,0.007839572615921497
0.007694769650697708,0.006055101286619902,-0.00968177244067192,0.003506317501887679,-0.0,0.007157561834901571
0.007908842526376247,0.006711259949952364,-0.010103657841682434,0.0035744751803576946,-0.0,0.0072966283187270164
0.00787214282900095,0.006493209395557642,-0.010570162907242775,0.00358518841676414,-0.0,0.007374360226094723
0.007579973433166742,0.00628459919244051,-0.009849471971392632,0.0036183029878884554,-0.0,0.007470104843378067
0.008558042347431183,0.00633758120238781,-0.010572116822004318,0.003746763803064823,-0.0,0.007926363497972488
0.008676695637404919,0.006574589293450117,-0.010133138857781887,0.003799839410930872,-0.0,0.00802587065845728
0.007956105284392834,0.006592810153961182,-0.009552426636219025,0.004170302767306566,-0.0,0.007657040376216173
0.007989809848368168,0.00625666044652462,-0.010076232254505157,0.0037674480117857456,-0.0,0.007452549412846565
0.008320966735482216,0.006121885497123003,-0.010612246580421925,0.003480152692645788,-0.0,0.007460055872797966
0.008182220160961151,0.0061076064594089985,-0.009890112094581127,0.0034585152752697468,-0.0,0.008009704761207104
0.00819159671664238,0.00666078319773078,-0.010056953877210617,0.0037010496016591787,-0.0,0.007949051447212696
0.00785334873944521,0.006718099117279053,-0.01009740587323904,0.004424513783305883,-0.0,0.007806280627846718
0.008108755573630333,0.0059229242615401745,-0.01027134619653225,0.004605941474437714,-0.0,0.007599497679620981
0.008108755573630333,0.0059229242615401745,-0.01027134619653225,0.004605941474437714,-0.0,0.007599497679620981
0.008237617090344429,0.006469136569648981,-0.01012931764125824,0.004641886334866285,-0.0,0.00804029032588005
0.007818552665412426,0.006679450161755085,-0.009803079068660736,0.004429704509675503,-0.0,0.008142534643411636
0.008260352537035942,0.006420158315449953,-0.010328887961804867,0.004012373276054859,-0.0,0.0077204531989991665
0.008260352537035942,0.006420158315449953,-0.010328887961804867,0.004012373276054859,-0.0,0.0077204531989991665
0.008351813070476055,0.006277651526033878,-0.01036777626723051,0.004069010727107525,-0.0,0.007757270708680153
0.008588830009102821,0.005961959715932608,-0.009680775925517082,0.003935677465051413,-0.0,0.00811032671481371
0.008635866455733776,0.006381679326295853,-0.010141342878341675,0.003937675151973963,-0.0,0.008133760653436184
0.008343399502336979,0.006943373009562492,-0.010851585306227207,0.004252480808645487,-0.0,0.00787878967821598
0.008107677102088928,0.006311540491878986,-0.010090903379023075,0.0037116154562681913,-0.0,0.008004718460142612
0.009271728806197643,0.0060723572969436646,-0.010449394583702087,0.003427250776439905,-0.0,0.00819571502506733
0.008359186351299286,0.006523256190121174,-0.010162877850234509,0.0034728823229670525,-0.0,0.007989703677594662
0.00846171472221613,0.006245742551982403,-0.010052749887108803,0.0035948888398706913,-0.0,0.008090967312455177
0.008590122684836388,0.006470448803156614,-0.010176070034503937,0.004020351450890303,-0.0,0.007933164946734905
0.008363938890397549,0.00661815470084548,-0.009798925369977951,0.004434807691723108,-0.0,0.007847553119063377
0.008897528983652592,0.006258412264287472,-0.010277220979332924,0.004136145580559969,-0.0,0.008567285723984241
0.008781078271567822,0.006627541966736317,-0.010497012175619602,0.003892028471454978,-0.0,0.007957580499351025
0.00853716116398573,0.006739164236932993,-0.009961581788957119,0.0037793407682329416,-0.0,0.007976546883583069
0.008798659779131413,0.006463861558586359,-0.01010593306273222,0.0037711847107857466,-0.0,0.008389563299715519
0.008747879415750504,0.0060928440652787685,-0.0096277529373765,0.004228073172271252,-0.0,0.008378047496080399
0.008902802132070065,0.006406278349459171,-0.010722274892032146,0.004160276148468256,-0.0,0.008213642984628677
0.008877631276845932,0.006986649706959724,-0.010344359092414379,0.004336871672421694,-0.0,0.00768595514819026
0.009020223282277584,0.006898174062371254,-0.009856155142188072,0.0041860854253172874,-0.0,0.008593068458139896
0.00929547380656004,0.005987151525914669,-0.010614589788019657,0.003982316702604294,-0.0,0.008460319600999355
0.008802037686109543,0.0063754539005458355,-0.010511821135878563,0.004093589261174202,-0.0,0.008311950601637363
0.009558218531310558,0.0062292409129440784,-0.010108038783073425,0.004172720015048981,-0.0,0.007738071959465742
0.009233948774635792,0.006119491066783667,-0.010139182209968567,0.00442164670675993,-0.0,0.008134613744914532
0.009555265307426453,0.0065286047756671906,-0.010217620991170406,0.0040947915986180305,-0.0,0.008081926964223385
0.008623599074780941,0.006680365651845932,-0.00993604026734829,0.004410644993185997,-0.0,0.008260753937065601
0.009385359473526478,0.006311161909252405,-0.01020179782062769,0.004618974402546883,-0.0,0.008961306884884834
0.009220084175467491,0.006502221338450909,-0.01082627847790718,0.004341167863458395,-0.0,0.008510301820933819
0.008973673917353153,0.006565784569829702,-0.009990430437028408,0.004374032374471426,-0.0,0.007926967926323414
0.008973673917353153,0.006565784569829702,-0.009990430437028408,0.004374032374471426,-0.0,0.007926967926323414
0.00895131565630436,0.0066765001974999905,-0.010338518768548965,0.004494151100516319,-0.0,0.00762631930410862
0.010015974752604961,0.006218470633029938,-0.010368307121098042,0.004588777665048838,-0.0,0.008607298135757446
0.009488497860729694,0.006633475888520479,-0.010231923311948776,0.004592785611748695,-0.0,0.0087910620495677
0.009324971586465836,0.0064620072953403,-0.011198600754141808,0.004775360692292452,-0.0,0.008732746355235577
0.008861384354531765,0.006070359144359827,-0.010234921239316463,0.005210741423070431,-0.0,0.00868143793195486
0.009869216941297054,0.00620066886767745,-0.009939426556229591,0.005218821112066507,-0.0,0.008598553948104382
0.008912165649235249,0.0062571363523602486,-0.010405058972537518,0.0054700435139238834,-0.0,0.008486462756991386
0.00990461464971304,0.006461565848439932,-0.010228117927908897,0.005217325408011675,-0.0,0.008667715825140476
0.009667055681347847,0.006455773022025824,-0.01102258637547493,0.0048800306394696236,-0.0,0.008872883394360542
0.009576315060257912,0.006717785261571407,-0.010051085613667965,0.005125494208186865,-0.0,0.008429315872490406
0.009576315060257912,0.006717785261571407,-0.010051085613667965,0.005125494208186865,-0.0,0.008429315872490406
0.008990827016532421,0.006576160434633493,-0.010542957112193108,0.00437815161421895,-0.0,0.008247743360698223
0.009409971535205841,0.006181010045111179,-0.0100387679412961,0.0041482895612716675,-0.0,0.00838943850249052
0.009588423185050488,0.006034688092768192,-0.01068662665784359,0.00473858043551445,-0.0,0.008101489394903183
0.009316024370491505,0.006107055116444826,-0.01069104764610529,0.005066156852990389,-0.0,0.00855867750942707
0.009780637919902802,0.0066064042039215565,-0.010093075223267078,0.004527513403445482,-0.0,0.008858224377036095
0.00960127729922533,0.006233341060578823,-0.011711602099239826,0.0043145413510501385,-0.0,0.008625089190900326
0.009157678112387657,0.005872870795428753,-0.010435136035084724,0.004521660972386599,-0.0,0.008761774748563766
0.00951907318085432,0.005998541135340929,-0.010567108169198036,0.004683766979724169,-0.0,0.008659113198518753
0.009716975502669811,0.005815413314849138,-0.010762916877865791,0.004693713504821062,-0.0,0.008265333250164986
0.009600876830518246,0.005675417836755514,-0.010148582048714161,0.004511543549597263,-0.0,0.00879832822829485
0.010010034777224064,0.005822266452014446,-0.01109099667519331,0.0049981363117694855,-0.0,0.009035326540470123
0.010000047273933887,0.006065403111279011,-0.011079054325819016,0.0048526679165661335,-0.0,0.0089478874579072
0.009734184481203556,0.006330569740384817,-0.010125703178346157,0.004802308045327663,-0.0,0.009006885811686516
0.010505745187401772,0.006060746498405933,-0.011071811430156231,0.004820732865482569,-0.0,0.008744205348193645
0.009925004094839096,0.00638580834493041,-0.010617965832352638,0.004819910507649183,-0.0,0.009187238290905952
0.009622890502214432,0.006522488314658403,-0.010331448167562485,0.004638440907001495,-0.0,0.009027739986777306
0.010432553477585316,0.00610946724191308,-0.010876518674194813,0.004813862964510918,-0.0,0.009414413012564182
0.010021199472248554,0.006221818272024393,-0.010642416775226593,0.004925100598484278,-0.0,0.008769402280449867
0.010021199472248554,0.006221818272024393,-0.010642416775226593,0.004925100598484278,-0.0,0.008769402280449867
0.009722445160150528,0.006264816038310528,-0.011189257726073265,0.005259487312287092,-0.0,0.008771204389631748
0.010069838725030422,0.006199815310537815,-0.011210273019969463,0.004997855518013239,-0.0,0.009167557582259178
0.010499045252799988,0.006101530510932207,-0.010578013956546783,0.004844978451728821,-0.0,0.008922911249101162
0.01078831311315298,0.005673862993717194,-0.011133188381791115,0.005042632110416889,-0.0,0.009307172149419785
0.010230796411633492,0.005805287044495344,-0.01065900456160307,0.005090437829494476,-0.0,0.009086559526622295
0.010147994384169579,0.006047808099538088,-0.010814009234309196,0.005356167908757925,-0.0,0.009329594671726227
0.010509733110666275,0.006194244138896465,-0.011688241735100746,0.005544654093682766,-0.0,0.008626185357570648
0.01069582812488079,0.006139255594462156,-0.01124755572527647,0.005163782741874456,-0.0,0.008724508807063103
0.01033084187656641,0.006055635865777731,-0.011374708265066147,0.00477255554869771,-0.0,0.009506604634225368
0.010800150223076344,0.0060610040090978146,-0.010693015530705452,0.005012216977775097,-0.0,0.00914488174021244
0.009833079762756824,0.006877322215586901,-0.011197444051504135,0.005148446187376976,-0.0,0.009419795125722885
0.010524766519665718,0.006020049098879099,-0.011929537169635296,0.004902967251837254,-0.0,0.009292323142290115
0.010178185999393463,0.005786846857517958,-0.011566734872758389,0.004772301763296127,-0.0,0.009188268333673477
0.009803137741982937,0.006009539123624563,-0.011316229589283466,0.004747618455439806,-0.0,0.009341299533843994
0.01087561808526516,0.006122053135186434,-0.01108177937567234,0.005075341556221247,-0.0,0.009122027084231377
0.011173711158335209,0.006321478635072708,-0.011689847335219383,0.005114509724080563,-0.0,0.009046677500009537
0.010146736167371273,0.005971978884190321,-0.011020259000360966,0.004833826795220375,-0.0,0.009449305944144726
0.010802502743899822,0.005577466916292906,-0.011350990273058414,0.004876036662608385,-0.0,0.009951168671250343
0.010394969023764133,0.005519579164683819,-0.011900264769792557,0.004752318374812603,-0.0,0.009257054887712002
0.010157410055398941,0.006139037199318409,-0.011152735911309719,0.004850536119192839,-0.0,0.009677975438535213
0.010429516434669495,0.006049142684787512,-0.011213380843400955,0.0050474051386117935,-0.0,0.009677217341959476
0.010238982737064362,0.005887166131287813,-0.010988907888531685,0.005262675695121288,-0.0,0.010112468153238297
0.011012942530214787,0.005920620635151863,-0.011179191060364246,0.005124061834067106,-0.0,0.010415725409984589
0.010322398506104946,0.005411861930042505,-0.012191017158329487,0.005365433171391487,-0.0,0.00882917270064354
0.010083537548780441,0.005811252165585756,-0.011741654947400093,0.005022905301302671,-0.0,0.008880708366632462
0.010407782159745693,0.006076285615563393,-0.011618089862167835,0.005055294372141361,-0.0,0.009942206554114819
0.010893480852246284,0.006164089310914278,-0.011416985653340816,0.005294249393045902,-0.0,0.010277473367750645
0.010779350064694881,0.006100387312471867,-0.010699775069952011,0.005483368877321482,-4.716976945928764e-06,0.009869968518614769
0.010655796155333519,0.005644146353006363,-0.01107724104076624,0.00569693511351943,-3.07984919345472e-07,0.010643850080668926
0.010655796155333519,0.005644146353006363,-0.01107724104076624,0.00569693511351943,-3.07984919345472e-07,0.010643850080668926
0.01073897909373045,0.005985526368021965,-0.010784881189465523,0.0052101267501711845,-2.0109213849650587e-08,0.010210230946540833
0.011267414316534996,0.00639380794018507,-0.009839938953518867,0.005209280177950859,-1.3129880516160597e-09,0.009632217697799206
0.010749953798949718,0.006159191019833088,-0.01193783339112997,0.005232764407992363,-8.572873660961378e-11,0.010285643860697746
0.010873980820178986,0.0058128307573497295,-0.011318366043269634,0.005197410937398672,-5.597473873297787e-12,0.0099441884085536
0.010215667076408863,0.005671869497746229,-0.011634830385446548,0.005337771959602833,-3.6547501136574567e-13,0.009424968622624874
0.010974915698170662,0.005949987564235926,-0.011137138120830059,0.005626391619443893,-2.38629052634479e-14,0.01041078194975853
0.010848104022443295,0.006470375694334507,-0.011570357717573643,0.005987716373056173,-1.5580772959257645e-15,0.010294241830706596
0.010320517234504223,0.005675490479916334,-0.01156159583479166,0.005348686128854752,-1.0173131717809144e-16,0.009756308048963547
0.010515720583498478,0.0057374476455152035,-0.010880866087973118,0.005415033549070358,-6.6423281476110416e-18,0.01003066822886467
0.010928887873888016,0.005755794700235128,-0.010850637219846249,0.006205850280821323,-2.831728749983407e-20,0.009754983708262444
0.010954094119369984,0.005943409167230129,-0.01090141199529171,0.005953362211585045,-1.84891648816955e-21,0.010135275311768055
0.010476749390363693,0.00604219501838088,-0.011545566841959953,0.006032075732946396,-1.207210251566543e-22,0.01049558725208044
0.011008961126208305,0.0057448772713541985,-0.010999025776982307,0.005593381822109222,-7.882220067738733e-24,0.010101142339408398
0.010883145034313202,0.005837820935994387,-0.011368267238140106,0.005740340333431959,-5.146526573509618e-25,0.01047578640282154
0.010858478955924511,0.005653730593621731,-0.011160788126289845,0.006230663508176804,-3.360313879457855e-26,0.010758782736957073
0.011372752487659454,0.005744301248341799,-0.010959594510495663,0.006113353185355663,-1.079707817552844e-05,0.010203531011939049
0.011040047742426395,0.006113587412983179,-0.011438453570008278,0.006201666314154863,-0.00021990554523654282,0.010449696332216263
0.01105866301804781,0.005454950034618378,-0.010715601034462452,0.005632228218019009,-0.0002226989745395258,0.010235687717795372
0.011254892684519291,0.005962279625236988,-0.011536362580955029,0.0058693899773061275,-0.00021304913389030844,0.00989803858101368
0.010874336585402489,0.005417425651103258,-0.011715407483279705,0.005718187429010868,-0.00020347234385553747,0.010187210515141487
0.011531771160662174,0.0060226633213460445,-0.01172446645796299,0.006031174678355455,-0.00019467157835606486,0.010186320170760155
0.011099452152848244,0.005780488718301058,-0.011583478190004826,0.005717950407415628,-0.000186597797437571,0.009996171109378338
0.011964291334152222,0.005828407593071461,-0.011305413208901882,0.005747043993324041,-0.00020565719751175493,0.009980359114706516
0.01162486057728529,0.005263474769890308,-0.011990364640951157,0.00606522336602211,-0.0002061564737232402,0.010307395830750465
0.011055800132453442,0.005827672779560089,-0.012283286079764366,0.006020472850650549,-0.0001991000899579376,0.010220076888799667
0.011519316583871841,0.005527175962924957,-0.011490979231894016,0.006144845858216286,-0.00019205418357159942,0.010436653159558773
0.011519316583871841,0.005527175962924957,-0.011490979231894016,0.006144845858216286,-0.00019205418357159942,0.010436653159558773
0.011700289323925972,0.005871065892279148,-0.011912631802260876,0.005915581714361906,-0.0001854593720054254,0.010249840095639229
0.011398183181881905,0.005798247177153826,-0.011257143691182137,0.005845234729349613,-0.00020522477279882878,0.010609893128275871
0.011969394981861115,0.005449305288493633,-0.012128088623285294,0.005381859373301268,-0.00020220263104420155,0.010801739990711212
0.011448969133198261,0.005372724961489439,-0.011920385994017124,0.006311734206974506,-0.00019613966287579387,0.010353440418839455
0.012000256218016148,0.005528606940060854,-0.011327134445309639,0.006743894424289465,-0.00019023190543521196,0.01031511276960373
0.012894446030259132,0.005731003824621439,-0.012040448375046253,0.006387461442500353,-0.00018465686298441142,0.010333256796002388
0.013117787428200245,0.005997311789542437,-0.011519930325448513,0.005758224055171013,-0.00017939781537279487,0.010228014551103115
0.01313193328678608,0.005785193759948015,-0.012571865692734718,0.006090768612921238,-0.00017443043179810047,0.010756244882941246
0.012959160842001438,0.005768732167780399,-0.011500222608447075,0.006679267156869173,-0.0001816355506889522,0.010818146169185638
0.013256709091365337,0.005763682536780834,-0.01186284888535738,0.0058591910637915134,-0.00018400732369627804,0.010765759274363518
0.013179606758058071,0.006169446744024754,-0.011695686727762222,0.005905002821236849,-0.00017946807201951742,0.010637257248163223
0.01240417081862688,0.005804477259516716,-0.012081782333552837,0.00603037653490901,-0.00017510645557194948,0.01017129048705101
0.013384929858148098,0.0056702387519180775,-0.011463814415037632,0.006301778368651867,-0.00017103584832511842,0.011700885370373726
0.013147260993719101,0.0055799465626478195,-0.011012253351509571,0.006200739648193121,-0.0001803230115910992,0.010840180329978466
0.013312269002199173,0.006132913287729025,-0.011772348545491695,0.005945930257439613,-0.0001743895118124783,0.010796966962516308
0.013043947517871857,0.005954638589173555,-0.011525274254381657,0.0060872831381857395,-0.00016794919793028384,0.010591541416943073
0.013321065343916416,0.0059101213701069355,-0.011915186420083046,0.006461967248469591,-0.0001619097893126309,0.010747581720352173
0.013389186933636665,0.005546733271330595,-0.011736242100596428,0.006325261201709509,-0.0001562861434649676,0.011055110953748226
0.013497242704033852,0.005623586475849152,-0.011517280712723732,0.006197084207087755,-0.0001510396832600236,0.011533888056874275
0.01357679907232523,0.006158831529319286,-0.01169592421501875,0.006119298283010721,-0.00017338858742732555,0.01190460566431284
0.01294941920787096,0.006053258664906025,-0.011082791723310947,0.006133526097983122,-0.00016971607692539692,0.011558136902749538
0.01339886523783207,0.00626786844804883,-0.011950202286243439,0.006836628075689077,-0.00016465660883113742,0.011711536906659603
0.01339886523783207,0.00626786844804883,-0.011950202286243439,0.006836628075689077,-0.00016465660883113742,0.011711536906659603
0.013317421078681946,0.005825762636959553,-0.011480490677058697,0.005867659579962492,-0.00017765056691132486,0.01199299655854702
0.013009265065193176,0.005432300269603729,-0.011834174394607544,0.005905854981392622,-0.0001757840218488127,0.0119381258264184
0.013563844375312328,0.005966140888631344,-0.011408073827624321,0.006585507187992334,-0.0001712083612801507,0.012004169635474682
0.013179358094930649,0.005609964020550251,-0.012265510857105255,0.006829485297203064,-0.00016669135948177427,0.011660877615213394
0.013179358094930649,0.005609964020550251,-0.012265510857105255,0.006829485297203064,-0.00016669135948177427,0.011660877615213394
0.013492172583937645,0.005687643773853779,-0.011400587856769562,0.007037829142063856,-0.00018403975991532207,0.011296501383185387
0.013299020938575268,0.005800093524158001,-0.011412844993174076,0.006506495177745819,-0.00018082883616443723,0.011720898561179638
0.013361095450818539,0.005809905007481575,-0.01226438581943512,0.0061846328899264336,-0.00017648831999395043,0.011666147038340569
0.013098420575261116,0.0062608434818685055,-0.011614649556577206,0.006539583206176758,-0.00023113582574296743,0.011729526333510876
0.013355196453630924,0.005628176964819431,-0.012017061933875084,0.006677331402897835,-0.00023819180205464363,0.011539229191839695
0.013778822496533394,0.005832119844853878,-0.01143534667789936,0.0066814362071454525,-0.0002274149446748197,0.011900041252374649
0.01340955588966608,0.005754353012889624,-0.011430538259446621,0.006506988313049078,-0.00021654990268871188,0.011778042651712894
0.013691850006580353,0.005701088812202215,-0.012121543288230896,0.006434859707951546,-0.00020661002781707793,0.012123508378863335
0.01374395564198494,0.005995604675263166,-0.012407935224473476,0.006718367803841829,-0.00018922999151982367,0.011906738393008709
0.013233090750873089,0.005833595525473356,-0.012080496177077293,0.00657922076061368,-0.00019936297030653805,0.012134804390370846
0.01374012604355812,0.005763353779911995,-0.012051678262650967,0.006665552034974098,-0.00020824623061344028,0.012134701013565063
0.013177872635424137,0.0054566222243011,-0.011882751248776913,0.006807916797697544,-0.00020155543461441994,0.0123211070895195
0.01331135630607605,0.0058256410993635654,-0.011857987381517887,0.0066658854484558105,-0.0001943705283338204,0.012639525346457958
0.013357873074710369,0.006426836363971233,-0.012720262631773949,0.006322069559246302,-0.00018762066611088812,0.012319128029048443
0.013516364619135857,0.005794902332127094,-0.012448057532310486,0.006047421600669622,-0.00018132028344552964,0.012028002180159092
0.013345218263566494,0.005740831606090069,-0.012829048559069633,0.006012887228280306,-0.00017542904242873192,0.011797366663813591
0.013511943630874157,0.005752788856625557,-0.012707996182143688,0.006484798155725002,-0.000190875114640221,0.012238873168826103
0.013758228160440922,0.005817843601107597,-0.012572633102536201,0.00700287614017725,-0.00019169934967067093,0.011819216422736645
0.013724721036851406,0.006123718805611134,-0.012337865307927132,0.00691915862262249,-0.0001864586229203269,0.011749360710382462
0.013163995929062366,0.005433222278952599,-0.01235605776309967,0.006600013934075832,-0.00018112570978701115,0.012095989659428596
0.013163995929062366,0.005433222278952599,-0.01235605776309967,0.006600013934075832,-0.00018112570978701115,0.012095989659428596
0.013240322470664978,0.005280518438667059,-0.013349900022149086,0.00702517107129097,-0.00017606564506422728,0.012224869802594185
0.01384186651557684,0.004903683438897133,-0.012548070400953293,0.0069432188756763935,-0.00019252026686444879,0.012512396089732647
0.013691481202840805,0.004657890647649765,-0.012751873582601547,0.006869494449347258,-0.0001903552038129419,0.012191826477646828
0.014523029327392578,0.004494665190577507,-0.012702939100563526,0.006857539061456919,-0.00018563796766102314,0.012648056261241436
0.013852168805897236,0.005039930809289217,-0.0126193817704916,0.007060513831675053,-0.00018098411965183914,0.012589883990585804
0.013742120936512947,0.005039388779550791,-0.012476895935833454,0.007664049044251442,-0.00018520689627621323,0.012338313274085522
0.013742120936512947,0.005039388779550791,-0.012476895935833454,0.007664049044251442,-0.00018520689627621323,0.012338313274085522
0.01423817127943039,0.005463408771902323,-0.013281463645398617,0.0069098202511668205,-0.00017802602087613195,0.011798598803579807
0.013214882463216782,0.005213466007262468,-0.01233010832220316,0.006566454656422138,-0.00017125930753536522,0.012036764994263649
0.013762744143605232,0.004901548847556114,-0.013084623031318188,0.007025272585451603,-0.00016498012701049447,0.012353016994893551
0.013757453300058842,0.004673971328884363,-0.012447532266378403,0.006979299243539572,-0.00015914460527710617,0.012340730056166649
0.014148508198559284,0.005030221305787563,-0.012447263114154339,0.00666006887331605,-0.000180373594048433,0.012432697229087353
0.01395939290523529,0.0047001647762954235,-0.01232167799025774,0.006687235087156296,-0.00017809067503549159,0.013055328279733658
0.01420539803802967,0.005045643076300621,-0.012562182731926441,0.007267355918884277,-0.00019760311988648027,0.013097953051328659
0.014850405976176262,0.005004475824534893,-0.01243658922612667,0.006847904995083809,-0.000214530315133743,0.012642745859920979
0.014253863133490086,0.004879613872617483,-0.013233392499387264,0.006897370330989361,-0.00021033373195677996,0.012482935562729836
0.014131352305412292,0.004717343021184206,-0.01262487843632698,0.0074101341888308525,-0.00034467101795598865,0.013125098310410976
0.013896440155804157,0.0049011316150426865,-0.013114254921674728,0.0077278767712414265,-0.0003906541096512228,0.01249336451292038
0.014154614880681038,0.004868540912866592,-0.012175246141850948,0.007676094304770231,-0.0004217467503622174,0.012815858237445354
0.014206664636731148,0.005217096768319607,-0.012546013109385967,0.007090581580996513,-0.00043034207192249596,0.012746017426252365
0.014513488858938217,0.005130517762154341,-0.012757777236402035,0.00689913472160697,-0.00043082391493953764,0.013276823796331882
0.014420813880860806,0.004892035853117704,-0.012854333035647869,0.0069865090772509575,-0.00040811373037286103,0.013363904319703579
0.014703618362545967,0.004633486736565828,-0.012894668616354465,0.0071473391726613045,-0.0005774449091404676,0.012967744842171669
0.014490094967186451,0.00505408737808466,-0.01204717718064785,0.0069482834078371525,-0.0005675299908034503,0.012927789241075516
0.01511299703270197,0.004734775982797146,-0.012488613836467266,0.0073481714352965355,-0.0005562879960052669,0.012934197671711445
0.014691898599267006,0.005025079939514399,-0.012321600690484047,0.007963808253407478,-0.000544098555110395,0.013242331333458424
0.014691898599267006,0.005025079939514399,-0.012321600690484047,0.007963808253407478,-0.000544098555110395,0.013242331333458424
0.014922121539711952,0.005397886503487825,-0.012823355384171009,0.00812434684485197,-0.0004968722932972014,0.013379422947764397
0.014603492803871632,0.00524286599829793,-0.01269347034394741,0.0070311338640749454,-0.0004918103222735226,0.013444303534924984
0.015157243236899376,0.005241657141596079,-0.013110307045280933,0.00723618920892477,-0.00048713505384512246,0.013120955787599087
0.01472820620983839,0.005121483467519283,-0.013057720847427845,0.008544431999325752,-0.0004541815724223852,0.0133243128657341
0.015243299305438995,0.004958413075655699,-0.012578870169818401,0.008083691820502281,-0.00047605563304387033,0.01319841854274273
0.01466445904225111,0.00534098083153367,-0.012950867414474487,0.007456704042851925,-0.00045413465704768896,0.01325168926268816
0.015008792281150818,0.005269972607493401,-0.012453678995370865,0.008049183525145054,-0.00043021730380132794,0.013395518064498901
0.014845970086753368,0.005810920614749193,-0.012960365042090416,0.008220777846872807,-0.00045153676182962954,0.013672316446900368
0.015106439590454102,0.005163952708244324,-0.012392958626151085,0.008189959451556206,-0.00043323097634129226,0.013516643084585667
0.015294630080461502,0.004755816888064146,-0.012921426445245743,0.007828722707927227,-0.0004599821986630559,0.013775934465229511
0.015770323574543,0.004995676688849926,-0.012777199037373066,0.008316109888255596,-0.0004360921448096633,0.013950400054454803
0.01565413922071457,0.005437368061393499,-0.012850252911448479,0.008027961477637291,-0.00040833320235833526,0.014292080886662006
0.015572951175272465,0.005291591864079237,-0.012798519805073738,0.007555253338068724,-0.0003834976814687252,0.01444554328918457
0.015569275245070457,0.005147718358784914,-0.012757137417793274,0.008139795623719692,-0.00038732588291168213,0.013199114240705967
0.015797259286046028,0.005491932388395071,-0.012566362507641315,0.008289429359138012,-0.0003703624533955008,0.013321642763912678
0.015230615623295307,0.005334815010428429,-0.013327209278941154,0.00801906269043684,-0.000397601630538702,0.014738763682544231
0.015640482306480408,0.005109517835080624,-0.01277441717684269,0.008107436820864677,-0.0003801989369094372,0.013976706191897392
0.015462009236216545,0.005678680259734392,-0.013078668154776096,0.00812255498021841,-0.0003515370190143585,0.013732511550188065
0.015913955867290497,0.005385672673583031,-0.012480303645133972,0.008483015932142735,-0.0003577501338440925,0.014039650559425354
0.01605239324271679,0.005238325800746679,-0.012685166671872139,0.008301868103444576,-0.0003626858815550804,0.01455375924706459
0.016376307234168053,0.005042070057243109,-0.012840157374739647,0.008420446887612343,-0.00034162873635068536,0.013818870298564434
0.01616225577890873,0.005257319193333387,-0.012260998599231243,0.008675595745444298,-0.00037125867675058544,0.014330590143799782
0.015996228903532028,0.005502352491021156,-0.012906340882182121,0.008485724218189716,-0.00035366983502171934,0.014209993183612823
0.01602877303957939,0.006069188006222248,-0.012711940333247185,0.00853267963975668,-0.0003703683614730835,0.014495673589408398
0.015861554071307182,0.005470851436257362,-0.013002610765397549,0.008514809422194958,-0.00036278448533266783,0.014595952816307545
0.016294052824378014,0.00498450081795454,-0.012369906529784203,0.008626851253211498,-0.0003460660809651017,0.014282894320786
0.01598004251718521,0.005333758424967527,-0.012812874279916286,0.008585921488702297,-0.00033023805008269846,0.013977140188217163
0.016637802124023438,0.005544039886444807,-0.012763101607561111,0.008943346329033375,-0.00031575473258271813,0.014379873871803284
0.016637802124023438,0.005544039886444807,-0.012763101607561111,0.008943346329033375,-0.00031575473258271813,0.014379873871803284
0.01618831232190132,0.005608994048088789,-0.012783676385879517,0.009169921278953552,-0.0003039720468223095,0.014202982187271118
0.01655980385839939,0.005481131374835968,-0.013026192784309387,0.0083397775888443,-0.000312330259475857,0.014225587248802185
0.016846388578414917,0.005425002425909042,-0.012571741826832294,0.008535649627447128,-0.0002938568650279194,0.014054141007363796
0.016690660268068314,0.005129802506417036,-0.013237608596682549,0.008050505071878433,-0.0002759538183454424,0.014675197191536427
0.016848085448145866,0.005272055976092815,-0.012578141875565052,0.008092589676380157,-0.0003084072086494416,0.01431575883179903
0.016913646832108498,0.005703747738152742,-0.012987691909074783,0.008414134383201599,-0.00029472733149304986,0.015013307332992554
0.017139723524451256,0.005927667953073978,-0.012608193792402744,0.009073653258383274,-0.00027966476045548916,0.015000454150140285
0.016747990623116493,0.005264401435852051,-0.013344856910407543,0.008779860101640224,-0.00030717553454451263,0.015136091969907284
0.016500940546393394,0.0051517668180167675,-0.013359577395021915,0.008337889797985554,-0.00029545900179073215,0.014904293231666088
0.017435600981116295,0.005522311199456453,-0.0130986999720335,0.009176772087812424,-0.00028238893719390035,0.015106447041034698
0.017149340361356735,0.0056507582776248455,-0.013132771477103233,0.008967060595750809,-0.0003037399728782475,0.01479443721473217
0.017561718821525574,0.005796692334115505,-0.012942243367433548,0.008750160224735737,-0.0002958491968456656,0.014752715826034546
0.016616150736808777,0.0054475595243275166,-0.013269827701151371,0.008830389939248562,-0.00030781657551415265,0.015325282700359821
0.017398562282323837,0.005143006332218647,-0.013364236801862717,0.00851414818316698,-0.0003195156459696591,0.01527207437902689
0.017365621402859688,0.005671437829732895,-0.012579705566167831,0.008794927038252354,-0.0003003773163072765,0.015314317308366299
0.017964070662856102,0.006491124164313078,-0.013348523527383804,0.009033232927322388,-0.00032318709418177605,0.015085154213011265
0.017824502661824226,0.0057318611070513725,-0.012264681048691273,0.009456692263484001,-0.00031716347439214587,0.015278922393918037
0.0175844207406044,0.0053069982677698135,-0.013813234865665436,0.008799231611192226,-0.0003247649874538183,0.015159936621785164
0.018239665776491165,0.0054118032567203045,-0.013464641757309437,0.008778820745646954,-0.00033034023363143206,0.015248558484017849
0.01782507635653019,0.0055193412117660046,-0.013662237673997879,0.008845250122249126,-0.0003152834833599627,0.015476986765861511
0.017599191516637802,0.005815430544316769,-0.013397988863289356,0.008916867896914482,-0.000340310885803774,0.015499181114137173
0.017896194010972977,0.006219009403139353,-0.014423361979424953,0.009187381714582443,-0.00040730732143856585,0.017240623012185097
0.018254952505230904,0.005501430947333574,-0.014053737744688988,0.009351534768939018,-0.00044369231909513474,0.015292241238057613
0.01838049106299877,0.005909297149628401,-0.013863363303244114,0.009133872576057911,-0.0004084221727680415,0.014771307818591595
0.01838049106299877,0.005909297149628401,-0.013863363303244114,0.009133872576057911,-0.0004084221727680415,0.014771307818591595
0.01808803714811802,0.005348565522581339,-0.013757625594735146,0.008839034475386143,-0.00043932622065767646,0.01492298860102892
0.018105562776327133,0.005966661963611841,-0.013675258494913578,0.009431980550289154,-0.0004144091799389571,0.015603209845721722
0.0186641626060009,0.005650964565575123,-0.014113910496234894,0.00956414919346571,-0.00044511043233796954,0.015544228255748749
0.018174460157752037,0.005922337528318167,-0.013758353888988495,0.008897555060684681,-0.00041939783841371536,0.01579752191901207
0.018337612971663475,0.0053714667446911335,-0.013903866522014141,0.008913591504096985,-0.0003934501437470317,0.015406768769025803
0.018647685647010803,0.005416455678641796,-0.013948803767561913,0.0093800388276577,-0.00037032735417596996,0.015550758689641953
0.018536945804953575,0.0055809603072702885,-0.014406681060791016,0.009320083074271679,-0.00039627219666726887,0.015581815503537655
0.01883428357541561,0.00612462917342782,-0.013950030319392681,0.009631439112126827,-0.00037846743362024426,0.01557699404656887
0.01864675059914589,0.005397488363087177,-0.013762867078185081,0.009202188812196255,-0.00035975087666884065,0.015579763799905777
0.01835799776017666,0.005328405648469925,-0.013719957321882248,0.008823782205581665,-0.00034263895940966904,0.015955209732055664
0.018970195204019547,0.005640091374516487,-0.014507864601910114,0.009038266725838184,-0.00032707038917578757,0.015846453607082367
0.019009916111826897,0.0052136825397610664,-0.013535537756979465,0.009200570173561573,-0.000319302809657529,0.01552752684801817
0.01879146695137024,0.005246520508080721,-0.014389246702194214,0.0087701715528965,-0.0002996211114805192,0.01584578864276409
0.01899365335702896,0.005025084596127272,-0.014393934048712254,0.009101929143071175,-0.00031550158746540546,0.015956822782754898
0.018718844279646873,0.00481903413310647,-0.014079557731747627,0.009003454819321632,-0.00029963674023747444,0.015969086438417435
0.019402939826250076,0.004912278614938259,-0.014749579131603241,0.008856017142534256,-0.00028398173162713647,0.01645028404891491
0.019544187933206558,0.004752920474857092,-0.0133936433121562,0.009454990737140179,-0.00030872615752741694,0.016306066885590553
0.019079681485891342,0.004835367668420076,-0.014470746740698814,0.009768267162144184,-0.0002993851958308369,0.016046328470110893
0.01908101886510849,0.004843492526561022,-0.013904805295169353,0.010211724787950516,-0.0002861343091353774,0.015936415642499924
0.0194112416356802,0.00467714574187994,-0.014466970227658749,0.010150226764380932,-0.00030760260415263474,0.01584858074784279
0.019209422171115875,0.00459425151348114,-0.014227991923689842,0.009691594168543816,-0.0002994572278112173,0.016381487250328064
0.01974601298570633,0.005042659118771553,-0.014847896993160248,0.009824894368648529,-0.00035659459535963833,0.016569191589951515
0.019890695810317993,0.004982619546353817,-0.01398421823978424,0.01059092115610838,-0.00035200704587623477,0.01704227365553379
0.019727444276213646,0.004541897680610418,-0.014399157837033272,0.010002711787819862,-0.0003278730437159538,0.017053108662366867
0.01970203034579754,0.004659115336835384,-0.01408580131828785,0.010567301884293556,-0.00036254155565984547,0.017100468277931213
0.019976336508989334,0.004922990687191486,-0.01494022086262703,0.010353329591453075,-0.00034320412669330835,0.017119025811553
0.019976336508989334,0.004922990687191486,-0.01494022086262703,0.010353329591453075,-0.00034320412669330835,0.017119025811553
0.019788015633821487,0.004453010391443968,-0.01396462507545948,0.009804394096136093,-0.0003229157591704279,0.017051737755537033
0.019628217443823814,0.004558137618005276,-0.01443022582679987,0.010102121159434319,-0.00035197066608816385,0.017215924337506294
0.019545679911971092,0.0045469277538359165,-0.014086922630667686,0.01037486083805561,-0.00035970075987279415,0.01710689626634121
0.02002888172864914,0.004667600151151419,-0.014825433492660522,0.009849557653069496,-0.00036343393730930984,0.017297275364398956
0.020198408514261246,0.004787752404808998,-0.014172152616083622,0.010289824567735195,-0.00041139169479720294,0.01759384572505951
0.02120531164109707,0.0051118372939527035,-0.01483373437076807,0.009954134002327919,-0.0004333763790782541,0.01622220128774643
0.020938066765666008,0.0044517964124679565,-0.01436286885291338,0.009936976246535778,-0.00043753284262493253,0.017079738900065422
0.020561961457133293,0.004266753792762756,-0.014818578958511353,0.009277114644646645,-0.0004373400879558176,0.01750946044921875
0.02016323432326317,0.004047422204166651,-0.01440038625150919,0.010602029040455818,-0.0004066928813699633,0.01735437847673893
0.02017475664615631,0.004375958349555731,-0.014743774197995663,0.010292827151715755,-0.0004369608359411359,0.01758730411529541
0.02137114107608795,0.004659861791878939,-0.014514480717480183,0.010486655868589878,-0.0004408290842548013,0.0174202062189579
0.020495660603046417,0.004246999975293875,-0.014790239743888378,0.010156380012631416,-0.00041816013981588185,0.017575332894921303
0.020981892943382263,0.004235426429659128,-0.014764455147087574,0.010098149999976158,-0.0004862065543420613,0.01785704307258129
0.021234823390841484,0.004562709480524063,-0.014618365094065666,0.009946786798536777,-0.0005222429754212499,0.017490113154053688
0.021284069865942,0.004734355490654707,-0.0150913055986166,0.00995544996112585,-0.0005252770497463644,0.017180148512125015
0.02132773958146572,0.004485617391765118,-0.014741752296686172,0.010214957408607006,-0.0005182761233299971,0.017636632546782494
0.021320432424545288,0.004549772012978792,-0.014982721768319607,0.009889191016554832,-0.0005403777468018234,0.01758381724357605
0.02042931318283081,0.004520754795521498,-0.014738617464900017,0.010108107700943947,-0.0005102962604723871,0.018079707399010658
0.020929917693138123,0.004824433941394091,-0.015038914978504181,0.010369322262704372,-0.0004770088999066502,0.018191177397966385
0.02124822326004505,0.004727019462734461,-0.01544829923659563,0.009886820800602436,-0.0005518340622074902,0.01754959113895893
0.02187761478126049,0.004717450123280287,-0.015356075949966908,0.010602561756968498,-0.0005068373866379261,0.018111577257514
0.021704450249671936,0.004437215626239777,-0.015539596788585186,0.010393470525741577,-0.00045647608931176364,0.018433740362524986
0.021850621327757835,0.004436189774423838,-0.014988859184086323,0.010056055150926113,-0.00048583620809949934,0.01828761398792267
0.021882904693484306,0.004627637565135956,-0.015253383666276932,0.0103599289432168,-0.0004546103300526738,0.018468953669071198
0.021882904693484306,0.004627637565135956,-0.015253383666276932,0.0103599289432168,-0.0004546103300526738,0.018468953669071198
0.02169080823659897,0.0047514112666249275,-0.01498735323548317,0.010236440226435661,-0.0004802526964340359,0.018035687506198883
0.0213637538254261,0.004664881620556116,-0.015604759566485882,0.010245481505990028,-0.0004539000219665468,0.017555808648467064
0.021984895691275597,0.004141319077461958,-0.01540110819041729,0.010819935239851475,-0.00048020470421761274,0.017695285379886627
0.021944304928183556,0.004211008548736572,-0.016076408326625824,0.010452398099005222,-0.0004536421038210392,0.017823176458477974
0.021732676774263382,0.004586975090205669,-0.014962354674935341,0.00976834911853075,-0.000426971964770928,0.01792757771909237
0.02206004038453102,0.004627406597137451,-0.015754304826259613,0.010683046653866768,-0.00041445306851528585,0.018470050767064095
0.02246517315506935,0.004874575417488813,-0.015371913090348244,0.010803213343024254,-0.00039067325997166336,0.01839914731681347
0.02239886112511158,0.004844022914767265,-0.015561029314994812,0.010261804796755314,-0.00036017692764289677,0.018540702760219574
0.02241671457886696,0.00464149285107851,-0.015429212711751461,0.010664899833500385,-0.00036585546331480145,0.018576258793473244
0.022565435618162155,0.0045814309269189835,-0.015797428786754608,0.010577801614999771,-0.0003703440888784826,0.018670791760087013
0.02217760682106018,0.004799799062311649,-0.01611541025340557,0.010811342857778072,-0.0003483777109067887,0.019025156274437904
0.02258842997252941,0.004724118392914534,-0.01594712771475315,0.011409427970647812,-0.0003539262688718736,0.019116127863526344
0.022813277319073677,0.005326546728610992,-0.015429839491844177,0.01209349650889635,-0.0003405087336432189,0.01831725239753723
0.022580616176128387,0.004696664400398731,-0.01621396280825138,0.011658080853521824,-0.00036310291034169495,0.01866837963461876
0.02277534268796444,0.004404438193887472,-0.015950676053762436,0.011478512547910213,-0.00035088410368189216,0.01912965066730976
0.022956985980272293,0.004941829480230808,-0.016767354682087898,0.011200370267033577,-0.0003349161415826529,0.019299324601888657
0.02321932651102543,0.004968228749930859,-0.016471048817038536,0.010986040346324444,-0.00036212109262123704,0.019319770857691765
0.0230780690908432,0.005274771247059107,-0.016782337799668312,0.011197340674698353,-0.00034147428232245147,0.019513972103595734
0.023220714181661606,0.005445520393550396,-0.016740117222070694,0.01138561312109232,-0.0003726840950548649,0.019766129553318024
0.023217586800456047,0.005020785611122847,-0.01543122436851263,0.011608482338488102,-0.00035564680001698434,0.019497273489832878
0.023258695378899574,0.0048735057935118675,-0.016383172944188118,0.012003863230347633,-0.0003612154978327453,0.019279159605503082
0.02313440479338169,0.005112902261316776,-0.01610887609422207,0.011061398312449455,-0.0003652537998277694,0.019345179200172424
0.02347518503665924,0.004574874881654978,-0.01666712760925293,0.011168564669787884,-0.00038965712883509696,0.019383329898118973
0.023567598313093185,0.004619314335286617,-0.016603082418441772,0.011308150365948677,-0.0003772331983782351,0.019084515050053596
0.023299895226955414,0.005598549731075764,-0.01656605489552021,0.011767090298235416,-0.0005062743439339101,0.019489357247948647
0.023612361401319504,0.005302367731928825,-0.01698579639196396,0.011721287854015827,-0.0005100141279399395,0.019561441615223885
0.022998729720711708,0.005236180033534765,-0.01628861017525196,0.011344683356583118,-0.0005035215872339904,0.019419293850660324
0.023910313844680786,0.005168840289115906,-0.01664636842906475,0.012007241137325764,-0.0004630102775990963,0.019717330113053322
0.02444947324693203,0.004809950944036245,-0.016240226104855537,0.012163490056991577,-0.0004926340188831091,0.019959570840001106
0.02444947324693203,0.004809950944036245,-0.016240226104855537,0.012163490056991577,-0.0004926340188831091,0.019959570840001106
0.024799399077892303,0.004906228743493557,-0.016699939966201782,0.011799932457506657,-0.00046089262468740344,0.020455319434404373
0.023512661457061768,0.0054329619742929935,-0.016598587855696678,0.012479273602366447,-0.00048680862528271973,0.02030826359987259
0.02388172410428524,0.005029192194342613,-0.01646736077964306,0.011871987022459507,-0.00045947107719257474,0.02034831792116165
0.023786121979355812,0.00474165566265583,-0.0166295375674963,0.012125055305659771,-0.0004914276069030166,0.01966235227882862
0.023500585928559303,0.004723918624222279,-0.01628817245364189,0.012140613049268723,-0.00045236237929202616,0.019223790615797043
0.02393431030213833,0.004763433244079351,-0.01704915054142475,0.011519084684550762,-0.0004116149211768061,0.019290685653686523
0.024383969604969025,0.004789586178958416,-0.016553929075598717,0.012144877575337887,-0.00043243152322247624,0.01962033100426197
0.023623697459697723,0.005614621099084616,-0.016603944823145866,0.011651435866951942,-0.00041621748823672533,0.02040296047925949
0.024327604100108147,0.005341755226254463,-0.01696670800447464,0.012190337292850018,-0.0003874572576023638,0.020144807174801826
0.025605540722608566,0.005224231630563736,-0.01673954166471958,0.01162967924028635,-0.0003908445069100708,0.01958668790757656
0.02474062331020832,0.005068257451057434,-0.017066199332475662,0.01174562145024538,-0.0003933277912437916,0.019611205905675888
0.02446085773408413,0.005746303126215935,-0.0170474611222744,0.011856725439429283,-0.00035123719135299325,0.020767515525221825
0.024281473830342293,0.005588899366557598,-0.016836421564221382,0.012566703371703625,-0.00037382295704446733,0.020229188725352287
0.02414400689303875,0.005263770464807749,-0.017119381576776505,0.012238875031471252,-0.00036072279908694327,0.019878052175045013
0.02489682473242283,0.004866668954491615,-0.017460690811276436,0.01234662625938654,-0.00034385896287858486,0.01979708857834339
0.02520296350121498,0.005264829378575087,-0.016438215970993042,0.01266451831907034,-0.00032979907700791955,0.019788267090916634
0.025025228038430214,0.0054750326089560986,-0.017288656905293465,0.01269370038062334,-0.00030971606611274183,0.019420836120843887
0.024929998442530632,0.005339927971363068,-0.017186807468533516,0.012695549987256527,-0.00033259650808759034,0.02031632699072361
0.024920349940657616,0.005265353247523308,-0.017306840047240257,0.012395041063427925,-0.000325849890941754,0.020712852478027344
0.02502303011715412,0.005077317822724581,-0.017445452511310577,0.012705883011221886,-0.0003081242321059108,0.020804183557629585
0.024939432740211487,0.005761061795055866,-0.016791624948382378,0.012482671067118645,-0.00033677517785690725,0.020602906122803688
0.02475857175886631,0.005448095966130495,-0.017426766455173492,0.012990557588636875,-0.0003224847314413637,0.020783603191375732
0.024915775284171104,0.005032459739595652,-0.016971634700894356,0.01248503103852272,-0.000344935484463349,0.020560938864946365
0.025025369599461555,0.005248915869742632,-0.016794301569461823,0.01276362407952547,-0.0003341396222822368,0.020969513803720474
0.025295211002230644,0.005382557865232229,-0.01725161448121071,0.012710502371191978,-0.00044327846262604,0.020977161824703217
0.025212490931153297,0.005507118068635464,-0.01712329126894474,0.012629730626940727,-0.000440893170889467,0.02113017439842224
0.025212490931153297,0.005507118068635464,-0.01712329126894474,0.012629730626940727,-0.000440893170889467,0.02113017439842224
0.024732889607548714,0.0051864334382116795,-0.017348209396004677,0.01297801360487938,-0.00046318036038428545,0.020858250558376312
0.02525748871266842,0.005052800755947828,-0.01712220534682274,0.012620666064321995,-0.0004435842565726489,0.02111849933862686
0.024883897975087166,0.005836721509695053,-0.01738508604466915,0.012872480787336826,-0.000474682281492278,0.021107027307152748
0.024862948805093765,0.005733059253543615,-0.01741524413228035,0.012365222908556461,-0.0005003221449442208,0.021142594516277313
0.026560870930552483,0.005583844147622585,-0.016850505024194717,0.012709563598036766,-0.0005820732330903411,0.021602565422654152
0.026301922276616096,0.0050865947268903255,-0.017627079039812088,0.013006011955440044,-0.0006071305251680315,0.021682338789105415
0.02560906857252121,0.005546403583139181,-0.017477767542004585,0.012636124156415462,-0.0006411270587705076,0.021850235760211945
0.02577797695994377,0.005298661533743143,-0.01718180440366268,0.01296890340745449,-0.0006688304129056633,0.022155771031975746
0.02556372620165348,0.00588083965703845,-0.017263254150748253,0.012356474064290524,-0.0006853752420283854,0.021664582192897797
0.025464016944169998,0.005378912203013897,-0.01723666861653328,0.013139257207512856,-0.0008142990991473198,0.021540679037570953
0.02579115889966488,0.004239124245941639,-0.017388690263032913,0.013283169828355312,-0.0008618952124379575,0.022014353424310684
0.02672409452497959,0.004431896843016148,-0.017504671588540077,0.013200567103922367,-0.0007840812322683632,0.021806469187140465
0.025369558483362198,0.004697064869105816,-0.017549337819218636,0.013642674311995506,-0.0007846694788895547,0.021891145035624504
0.02590107172727585,0.004801755305379629,-0.017221052199602127,0.013436513021588326,-0.0007227967726066709,0.021939782425761223
0.02671489678323269,0.005008803214877844,-0.017556050792336464,0.014003979973495007,-0.000708908133674413,0.02215535007417202
0.02668900042772293,0.004821441136300564,-0.017611311748623848,0.013705363497138023,-0.0007322863093577325,0.021923258900642395
0.026517443358898163,0.004389186855405569,-0.017891472205519676,0.013639591634273529,-0.0007308059139177203,0.02167515642940998
0.027428805828094482,0.004547698423266411,-0.0183588694781065,0.013673607259988785,-0.0006768917664885521,0.022087549790740013
0.027498871088027954,0.004656766075640917,-0.016915112733840942,0.01397769432514906,-0.0006766165024600923,0.02258368209004402
0.027103712782263756,0.004739758558571339,-0.01796410046517849,0.014118831604719162,-0.0006930450326763093,0.022473739460110664
0.026415687054395676,0.004648546688258648,-0.018638234585523605,0.014114453457295895,-0.0007460533524863422,0.022538403049111366
0.026659497991204262,0.004586343187838793,-0.017672449350357056,0.013688992708921432,-0.0007821678300388157,0.022543322294950485
0.027341332286596298,0.004214309621602297,-0.017888255417346954,0.013447043485939503,-0.0007833989802747965,0.022327885031700134
0.02767653577029705,0.004282586742192507,-0.017810599878430367,0.013731316663324833,-0.0007278085104189813,0.022650187835097313
0.02767653577029705,0.004282586742192507,-0.017810599878430367,0.013731316663324833,-0.0007278085104189813,0.022650187835097313
0.027311820536851883,0.004686250351369381,-0.0187492948025465,0.013819845393300056,-0.0008387789130210876,0.022303935140371323
0.0272807739675045,0.0048177349381148815,-0.01852143369615078,0.014064262621104717,-0.0008017427171580493,0.02259073592722416
0.027526546269655228,0.004784070421010256,-0.01794717274606228,0.013656452298164368,-0.0007524366374127567,0.02303183451294899
0.027363944798707962,0.004594337660819292,-0.0182466059923172,0.01377734076231718,-0.0007588140433654189,0.02304917201399803
0.027773192152380943,0.004594596102833748,-0.01859363354742527,0.013500395230948925,-0.0007361381431110203,0.02248876355588436
0.026758769527077675,0.0042688800022006035,-0.018619028851389885,0.01413267944008112,-0.000707087863702327,0.022858954966068268
0.028339285403490067,0.004389478359371424,-0.01876969076693058,0.014060008339583874,-0.0006569416145794094,0.023906566202640533
0.028699025511741638,0.004290673416107893,-0.01892564818263054,0.014421635307371616,-0.0005842880927957594,0.024410326033830643
0.028318149968981743,0.004530056845396757,-0.018169375136494637,0.014191805385053158,-0.0005177587154321373,0.02329442836344242
0.028498400002717972,0.004600939806550741,-0.018085826188325882,0.01467454805970192,-0.0005321332137100399,0.022198837250471115
0.028557369485497475,0.004619945771992207,-0.018134720623493195,0.014351203106343746,-0.0005033500492572784,0.022828392684459686
0.02863689512014389,0.004100072663277388,-0.018541108816862106,0.014735209755599499,-0.0004988411674275994,0.024352747946977615
0.029472308233380318,0.003925162833184004,-0.018464284017682076,0.015062210150063038,-0.0005165336770005524,0.023832235485315323
0.029070403426885605,0.004373770672827959,-0.01846298761665821,0.015065870247781277,-0.0004905459354631603,0.024531124159693718
0.029178161174058914,0.004664336796849966,-0.018336815759539604,0.015172096900641918,-0.00048543550656177104,0.025378042832016945
0.0294460691511631,0.004480195697396994,-0.01794530265033245,0.014664622955024242,-0.0005228117806836963,0.024325871840119362
0.02918626368045807,0.004469269886612892,-0.018538858741521835,0.014781685546040535,-0.000556275830604136,0.023326372727751732
0.02945142239332199,0.004467756953090429,-0.01878879964351654,0.01432083174586296,-0.0005844365223310888,0.02307894639670849
0.029388446360826492,0.004222925286740065,-0.018248626962304115,0.014539494179189205,-0.0008166388142853975,0.02374590002000332
0.029220957309007645,0.004485797137022018,-0.018757829442620277,0.014114812016487122,-0.000768497004173696,0.02463766373693943
0.029763566330075264,0.0046200137585401535,-0.01917276345193386,0.014347671531140804,-0.000783527095336467,0.024822471663355827
0.03025500662624836,0.004432030953466892,-0.018442826345562935,0.014046510681509972,-0.0006913892575539649,0.024504581466317177
0.030636340379714966,0.004823750350624323,-0.018852880224585533,0.014494766481220722,-0.000701027165632695,0.02449968457221985
0.030549058690667152,0.004813224542886019,-0.018642008304595947,0.014717478305101395,-0.0006414762465283275,0.0244943555444479
0.030326833948493004,0.004378881771117449,-0.018905766308307648,0.014991131611168385,-0.0006545453215949237,0.024553323164582253
0.03088071011006832,0.0045307837426662445,-0.019798867404460907,0.014180885627865791,-0.0006142838974483311,0.02440127544105053
0.03161842003464699,0.004462679848074913,-0.01921827532351017,0.014397911727428436,-0.0005894541391171515,0.0249614380300045
0.0325598269701004,0.004802655894309282,-0.018670544028282166,0.014307045377790928,-0.0006187960389070213,0.02508174628019333
0.0325598269701004,0.004802655894309282,-0.018670544028282166,0.014307045377790928,-0.0006187960389070213,0.02508174628019333
0.02961372211575508,0.004836158361285925,-0.019155707210302353,0.01425233669579029,-0.0006039203144609928,0.02494560368359089
0.030471783131361008,0.004868268501013517,-0.01890064962208271,0.013835661113262177,-0.0006271796301007271,0.025019735097885132
0.031933337450027466,0.004692946095019579,-0.018710177391767502,0.013915111310780048,-0.000853717268910259,0.025115331634879112
0.031369805335998535,0.004602096043527126,-0.019602172076702118,0.013963377103209496,-0.0008943738066591322,0.024995926767587662
0.03151969239115715,0.004735355731099844,-0.019055886194109917,0.014903937466442585,-0.0009589065448381007,0.025476861745119095
0.03255331516265869,0.004788947757333517,-0.018978888168931007,0.01490101870149374,-0.0009134581196121871,0.02565816603600979
0.03224456310272217,0.004296231549233198,-0.019584981724619865,0.014926442876458168,-0.0009794202633202076,0.02530484087765217
0.03132401406764984,0.004455710761249065,-0.019386019557714462,0.014753001742064953,-0.0009692516177892685,0.024987660348415375
0.030859269201755524,0.004678934346884489,-0.01902991533279419,0.015170687809586525,-0.0009490693919360638,0.024998173117637634
0.03275053948163986,0.004644111730158329,-0.019129091873764992,0.014993102289736271,-0.0008962719584815204,0.024864647537469864
0.03230549767613411,0.004416860640048981,-0.019401701167225838,0.015297925099730492,-0.0007518877973780036,0.024731338024139404
0.03217287361621857,0.004207832273095846,-0.019970664754509926,0.015245115384459496,-0.0006480544689111412,0.025193337351083755
0.03179450333118439,0.0042594620026648045,-0.019754553213715553,0.015758728608489037,-0.0006713976617902517,0.02589222975075245
0.03172139823436737,0.00461340369656682,-0.01956285908818245,0.015597035177052021,-0.0006895773694850504,0.026258502155542374
0.03187611326575279,0.004754214081913233,-0.019360998645424843,0.015226567164063454,-0.0006985664367675781,0.025640107691287994
0.03180297464132309,0.004677783232182264,-0.019354572519659996,0.014666994102299213,-0.0007370294770225883,0.024848565459251404
0.03200368955731392,0.004277107771486044,-0.019798945635557175,0.015399022027850151,-0.0007035690941847861,0.024502824991941452
0.03221495822072029,0.0039860960096120834,-0.02056647464632988,0.015730589628219604,-0.0007179313688538969,0.02548445388674736
0.032253365963697433,0.004171464126557112,-0.020582444965839386,0.015356789343059063,-0.0007389722159132361,0.02590411715209484
0.03228447586297989,0.00406789593398571,-0.019345710054039955,0.016167059540748596,-0.0007561760721728206,0.026140475645661354
0.0324336513876915,0.004313022363930941,-0.02014356479048729,0.016576409339904785,-0.0008207264472730458,0.026560813188552856
0.031787946820259094,0.004563408903777599,-0.021155601367354393,0.016348566859960556,-0.0008691800176165998,0.02611573413014412
0.030391208827495575,0.004686701111495495,-0.020278383046388626,0.015890635550022125,-0.000867084541823715,0.02584861032664776
0.03300568461418152,0.0043059298768639565,-0.01970919594168663,0.015812046825885773,-0.0008562696166336536,0.024988550692796707
0.03393041342496872,0.004269820638000965,-0.021045148372650146,0.015110695734620094,-0.0007880851626396179,0.024734826758503914
0.0338846780359745,0.004188195336610079,-0.02025921829044819,0.015385822393000126,-0.0007847972447052598,0.02562781609594822
0.03180114924907684,0.00444008270278573,-0.019133707508444786,0.015257809311151505,-0.0007589662563987076,0.02670375443994999
0.03213603049516678,0.004668086301535368,-0.020105183124542236,0.01560227945446968,-0.0007176490616984665,0.02682260051369667
0.03323143348097801,0.004655234515666962,-0.02115669846534729,0.015040365047752857,-0.0007279230048879981,0.026426047086715698
0.03323143348097801,0.004655234515666962,-0.02115669846534729,0.015040365047752857,-0.0007279230048879981,0.026426047086715698
0.033017948269844055,0.004227890633046627,-0.020094288513064384,0.01572985202074051,-0.0007330626249313354,0.026381349191069603
0.033390987664461136,0.004273651167750359,-0.02000996097922325,0.016093185171484947,-0.0006853424129076302,0.02635595202445984
0.033996425569057465,0.0045782127417624,-0.02040182426571846,0.017065394669771194,-0.0006270441226661205,0.026615886017680168
0.033950526267290115,0.004222388844937086,-0.02042529173195362,0.016844142228364944,-0.0005988155608065426,0.02672472596168518
0.03295767307281494,0.0039587621577084064,-0.020326809957623482,0.015977544710040092,-0.0005339784547686577,0.02681056596338749
0.0327925942838192,0.00443673599511385,-0.020494990050792694,0.016302067786455154,-0.000547363015357405,0.026961717754602432
0.03337899595499039,0.004598112776875496,-0.020467961207032204,0.016288958489894867,-0.0005164185422472656,0.027289636433124542
0.03360941261053085,0.004460920579731464,-0.019497347995638847,0.016882728785276413,-0.0004725844191852957,0.027559105306863785
0.03379686921834946,0.004278945736587048,-0.02026744931936264,0.016627412289381027,-0.000501894683111459,0.027504468336701393
0.03381142392754555,0.004382375627756119,-0.02059829980134964,0.0170959010720253,-0.0005014077760279179,0.027515428140759468
0.033686988055706024,0.004733999725431204,-0.020046720281243324,0.016585823148489,-0.0005695104482583702,0.026629887521266937
0.033735793083906174,0.004655091091990471,-0.020313551649451256,0.017063912004232407,-0.0006102912011556327,0.026859646663069725
0.03356447443366051,0.0047328718937933445,-0.020362723618745804,0.016706787049770355,-0.0005970229394733906,0.026662319898605347
0.03392914682626724,0.004746042657643557,-0.020126543939113617,0.016983063891530037,-0.000620689825154841,0.0270419679582119
0.03427712991833687,0.004739382769912481,-0.020376747474074364,0.016856800764799118,-0.0007464628433808684,0.027300911024212837
0.034675389528274536,0.00444601709023118,-0.02060057409107685,0.016605021432042122,-0.000851935357786715,0.027410682290792465
0.03451401740312576,0.004246372729539871,-0.02049306407570839,0.01700013503432274,-0.0008007505093701184,0.02747449278831482
0.03433409705758095,0.00430509215220809,-0.02051658369600773,0.01678067445755005,-0.0007572975009679794,0.02748284488916397
0.03424770012497902,0.004350998438894749,-0.020840710029006004,0.01738038659095764,-0.0007204544963315129,0.027141641825437546
0.03429943323135376,0.004400237463414669,-0.020374596118927002,0.017313504591584206,-0.0006493694381788373,0.027066150680184364
0.0346742607653141,0.004348037298768759,-0.02014763467013836,0.01698189415037632,-0.0005888100131414831,0.027704589068889618
0.03479507565498352,0.004431346897035837,-0.02086392045021057,0.017459722235798836,-0.0005948239122517407,0.028135795146226883
0.03479507565498352,0.004431346897035837,-0.02086392045021057,0.017459722235798836,-0.0005948239122517407,0.028135795146226883
0.03447718173265457,0.004343065433204174,-0.020906230434775352,0.016838477924466133,-0.0005655260174535215,0.027997033670544624
0.03538009896874428,0.004085957538336515,-0.020273586735129356,0.01700243167579174,-0.0005271760164760053,0.027921369299292564
0.03548350930213928,0.004244905896484852,-0.020758293569087982,0.016840249300003052,-0.0004463678924366832,0.028091704472899437
0.035394392907619476,0.004498077090829611,-0.020780159160494804,0.0171141866594553,-0.00047396039008162916,0.028593039140105247
0.03535447642207146,0.004170516040176153,-0.020599540323019028,0.017081232741475105,-0.0004986796993762255,0.028735622763633728
0.035687677562236786,0.0039674933068454266,-0.02027314528822899,0.016770631074905396,-0.000528588134329766,0.02795427106320858
0.03543548285961151,0.004302043002098799,-0.021142633631825447,0.0176344383507967,-0.0006994328578002751,0.027184203267097473
0.035432178527116776,0.004245355725288391,-0.021396197378635406,0.017011310905218124,-0.0008902297704480588,0.027803312987089157
0.03590453788638115,0.0042900703847408295,-0.020381661131978035,0.01663646660745144,-0.0008520476403646171,0.02873770147562027
0.03715340793132782,0.00428347522392869,-0.020884012803435326,0.01680022105574608,-0.0008006921852938831,0.02854355238378048
0.03571136295795441,0.004204160999506712,-0.02120189554989338,0.01695091463625431,-0.0007625005091540515,0.028964363038539886
0.035131607204675674,0.003960389643907547,-0.021340107545256615,0.017467418685555458,-0.0007292312802746892,0.029925601556897163
0.036281198263168335,0.0037649923469871283,-0.02057739347219467,0.016968857496976852,-0.0007032824214547873,0.028744107112288475
0.03626396134495735,0.003805979387834668,-0.02072155848145485,0.01706710457801819,-0.0007138288929127157,0.02704649604856968
0.03726518154144287,0.003948109690099955,-0.021403711289167404,0.017139896750450134,-0.0006556820590049028,0.028015924617648125
0.03632152080535889,0.004403908737003803,-0.022220013663172722,0.016828052699565887,-0.0006702459650114179,0.028959443792700768
0.03558482602238655,0.004588873125612736,-0.020703477784991264,0.016754262149333954,-0.000636384473182261,0.028586305677890778
0.03679143637418747,0.004312042612582445,-0.02121165208518505,0.01740676909685135,-0.00058918067952618,0.02876192517578602
0.037033941596746445,0.004032489378005266,-0.021689116954803467,0.01804056204855442,-0.0005961805582046509,0.02893156185746193
0.036814134567976,0.0038998653180897236,-0.02130509354174137,0.017958832904696465,-0.0005867760628461838,0.02906099706888199
0.03788859397172928,0.004212648142129183,-0.02185509167611599,0.018296077847480774,-0.0005711709382012486,0.028810402378439903
0.03724263980984688,0.004640761762857437,-0.021551208570599556,0.01807638257741928,-0.0005937664536759257,0.02879447117447853
0.03682124242186546,0.004659311380237341,-0.021099131554365158,0.018210425972938538,-0.0006200656644068658,0.02871403843164444
0.037917088717222214,0.004326774738729,-0.02130359783768654,0.018903933465480804,-0.0007410741527564824,0.029065262526273727
0.037175193428993225,0.003939300775527954,-0.022150922566652298,0.01837688311934471,-0.0008122053695842624,0.029292823746800423
0.03766024857759476,0.004283605143427849,-0.02220289222896099,0.018300523981451988,-0.0008187605417333543,0.029461143538355827
0.037980277091264725,0.00411599176004529,-0.02144797518849373,0.01829713210463524,-0.0007879242766648531,0.029259858652949333
0.037531446665525436,0.004091797396540642,-0.02083137258887291,0.018008451908826828,-0.0007516930345445871,0.02937479317188263
0.037258971482515335,0.00404226453974843,-0.022588521242141724,0.018467256799340248,-0.0007473014993593097,0.029388098046183586
0.03878515586256981,0.003928256221115589,-0.02084340527653694,0.01836353726685047,-0.000698054616805166,0.02926253341138363
0.03878515586256981,0.003928256221115589,-0.02084340527653694,0.01836353726685047,-0.000698054616805166,0.02926253341138363
0.03939300775527954,0.004363638814538717,-0.021314941346645355,0.01776135340332985,-0.0006962312618270516,0.029927711933851242
0.03690513223409653,0.004182120319455862,-0.022258009761571884,0.018118705600500107,-0.0006406363099813461,0.03001696988940239
0.03808194771409035,0.003909757826477289,-0.022040395066142082,0.018104515969753265,-0.0006201852229423821,0.029919657856225967
0.03899828717112541,0.003782076993957162,-0.022074926644563675,0.01848950982093811,-0.000602292304392904,0.029385443776845932
0.03821565955877304,0.004140404053032398,-0.022036710754036903,0.018749834969639778,-0.0006201722426339984,0.02975967526435852
0.03882323578000069,0.004254290368407965,-0.021484030410647392,0.01843136176466942,-0.0005805768305435777,0.03124033659696579
0.03920576721429825,0.0040056402795016766,-0.02172822132706642,0.018715061247348785,-0.0005542960716411471,0.031032109633088112
0.03659752011299133,0.0038955167401582003,-0.022210173308849335,0.018352633342146873,-0.0005880557582713664,0.029967812821269035
0.038437142968177795,0.004362792242318392,-0.0221326295286417,0.017582733184099197,-0.0006187460967339575,0.029066571965813637
0.03967239335179329,0.004256935324519873,-0.021648108959197998,0.017934508621692657,-0.0006441270234063268,0.02987862192094326
0.0383981391787529,0.003964172210544348,-0.02218129299581051,0.017803402617573738,-0.0007496189791709185,0.03015073947608471
0.038513749837875366,0.003825247287750244,-0.02195255644619465,0.018558796495199203,-0.000778228510171175,0.03108781948685646
0.03866990655660629,0.0035949849989265203,-0.022265883162617683,0.018613150343298912,-0.0007781970780342817,0.03090476058423519
0.03880797699093819,0.0035008369013667107,-0.022112911567091942,0.01875641942024231,-0.000804433599114418,0.030320441350340843
0.03892568126320839,0.004137794952839613,-0.022345663979649544,0.019227921962738037,-0.0008406894048675895,0.029791539534926414
0.03880566731095314,0.004179186653345823,-0.022245341911911964,0.019215285778045654,-0.0008694572607055306,0.029950156807899475
0.038955528289079666,0.003958434797823429,-0.021585732698440552,0.019214292988181114,-0.0008264810894615948,0.031199516728520393
0.03923482820391655,0.003831295995041728,-0.021866509690880775,0.01898418739438057,-0.0007790635572746396,0.03119858168065548
0.03926615044474602,0.0035708039067685604,-0.02222013659775257,0.01854907162487507,-0.0007819239981472492,0.030896469950675964
0.039783526211977005,0.003514424432069063,-0.022580184042453766,0.019046952947974205,-0.00076148851076141,0.031087035313248634
0.0388251468539238,0.004189617466181517,-0.02239990420639515,0.019518649205565453,-0.0007938676280900836,0.030748341232538223
0.03913436830043793,0.004105294123291969,-0.021862849593162537,0.019250420853495598,-0.000824667455162853,0.030912049114704132
0.04033001884818077,0.0039733098819851875,-0.021953146904706955,0.01945803128182888,-0.0008418862707912922,0.031404659152030945
0.039741337299346924,0.003933947067707777,-0.022284815087914467,0.019566424190998077,-0.001029307022690773,0.03124009072780609
0.039424728602170944,0.003910826984792948,-0.02167445607483387,0.019053563475608826,-0.0010372379329055548,0.03124326840043068
0.03945637866854668,0.003972874488681555,-0.021442878991365433,0.019305672496557236,-0.0010167176369577646,0.031118879094719887
0.03956577926874161,0.003580712480470538,-0.02217729017138481,0.019376225769519806,-0.0010016844607889652,0.030855504795908928
0.040046386420726776,0.003889642655849457,-0.02334577776491642,0.019009573385119438,-0.0009690467268228531,0.03142466023564339
0.03962409496307373,0.004145925398916006,-0.023226948454976082,0.019334392622113228,-0.0009555297438055277,0.03180436044931412
0.039572056382894516,0.0040778182446956635,-0.02239253930747509,0.01958737149834633,-0.0009467646013945341,0.03186522424221039
0.03941509127616882,0.004023395013064146,-0.021474193781614304,0.019990984350442886,-0.000916861928999424,0.032187625765800476
0.040200937539339066,0.004035111051052809,-0.02198689989745617,0.019534138962626457,-0.0008380297222174704,0.03220413997769356
0.040200937539339066,0.004035111051052809,-0.02198689989745617,0.019534138962626457,-0.0008380297222174704,0.03220413997769356
0.041495852172374725,0.003997379448264837,-0.022730154916644096,0.01930267922580242,-0.0007768249488435686,0.032079700380563736
0.039668742567300797,0.003950051963329315,-0.02305571548640728,0.018778745085000992,-0.0007901244098320603,0.032523684203624725
0.038521431386470795,0.0039470684714615345,-0.022046145051717758,0.018832622095942497,-0.0008593599777668715,0.03240180388092995
0.040168508887290955,0.004122949671000242,-0.022592367604374886,0.01949826255440712,-0.0009768549352884293,0.032226502895355225
0.04039734974503517,0.004001546185463667,-0.023795876652002335,0.019469480961561203,-0.0010713353985920548,0.03209187090396881
0.04110449180006981,0.003776785684749484,-0.02267339639365673,0.02029668167233467,-0.0009283482213504612,0.032827772200107574
0.04110449180006981,0.003776785684749484,-0.02267339639365673,0.02029668167233467,-0.0009283482213504612,0.032827772200107574
0.04092397168278694,0.00422365078702569,-0.02253015898168087,0.01940249279141426,-0.0008556317770853639,0.03348563611507416
0.041097354143857956,0.0040724980644881725,-0.02290990576148033,0.02030334435403347,-0.0008209994412027299,0.03197166323661804
0.04087976738810539,0.0040333946235477924,-0.023662865161895752,0.020288344472646713,-0.0007683386793360114,0.03158073127269745
0.04108504205942154,0.004070863127708435,-0.02339957095682621,0.019812947139143944,-0.0007581734680570662,0.032772742211818695
0.04091165214776993,0.004057799931615591,-0.02276519685983658,0.02070344239473343,-0.0006992060807533562,0.03279063105583191
0.04115351289510727,0.004017528146505356,-0.0226755328476429,0.020604468882083893,-0.0007143395487219095,0.033659737557172775
0.04044641926884651,0.003998288884758949,-0.023187043145298958,0.019773421809077263,-0.0007800033199600875,0.033958546817302704
0.0412718765437603,0.0039061231072992086,-0.023651156574487686,0.019998349249362946,-0.0008354366291314363,0.03345705196261406
0.04116418957710266,0.003822630038484931,-0.023286348208785057,0.021072885021567345,-0.0008459709351882339,0.0322752520442009
0.04107142612338066,0.004190952051430941,-0.023273956030607224,0.02114805392920971,-0.0009758161031641066,0.032136764377355576
0.041885506361722946,0.004232904873788357,-0.022815948352217674,0.020603321492671967,-0.0010940441861748695,0.03343420475721359
0.04148589447140694,0.004460479132831097,-0.023304279893636703,0.020420901477336884,-0.001029056147672236,0.03360084816813469
0.04032516852021217,0.00413309084251523,-0.02352675050497055,0.02057342417538166,-0.00104139419272542,0.03330478444695473
0.041103411465883255,0.004275791347026825,-0.02309984341263771,0.020429186522960663,-0.0009984552161768079,0.03362251818180084
0.04120957851409912,0.004506980534642935,-0.023154787719249725,0.020630402490496635,-0.0009573604329489172,0.033043645322322845
0.04120957851409912,0.004506980534642935,-0.023154787719249725,0.020630402490496635,-0.0009573604329489172,0.033043645322322845
0.042497050017118454,0.004166851751506329,-0.023446833714842796,0.020617501810193062,-0.0008770295535214245,0.03335957229137421
0.04204763099551201,0.003959545399993658,-0.02313709259033203,0.020591000095009804,-0.0009355326765216887,0.03344340994954109
0.03976673632860184,0.004399302415549755,-0.023537512868642807,0.020174255594611168,-0.0008908728486858308,0.03334074467420578
0.04130393639206886,0.0046453275717794895,-0.023734666407108307,0.020559754222631454,-0.0010066997492685914,0.033252280205488205
0.042068857699632645,0.004467950202524662,-0.022861121222376823,0.020584557205438614,-0.0010163787519559264,0.03361719474196434
0.041954636573791504,0.004258659668266773,-0.02259158156812191,0.020017758011817932,-0.0010103665990754962,0.033944591879844666
0.04191943258047104,0.004343814216554165,-0.022866355255246162,0.020291512832045555,-0.0011026898864656687,0.03257317095994949
0.04165010526776314,0.00408144760876894,-0.023188704624772072,0.02068055234849453,-0.0010735453106462955,0.034498244524002075
0.04232005402445793,0.003940972499549389,-0.023050326853990555,0.020682211965322495,-0.0010447042295709252,0.034670762717723846
0.042005885392427444,0.004614540841430426,-0.023186005651950836,0.020648885518312454,-0.0009070076630450785,0.034278493374586105
0.042054567486047745,0.00436685886234045,-0.023006826639175415,0.020988326519727707,-0.0007983086397871375,0.03415481001138687
0.04268241301178932,0.004337900318205357,-0.02301059290766716,0.02067374251782894,-0.0007798378355801105,0.03384065628051758
0.04268241301178932,0.004337900318205357,-0.02301059290766716,0.02067374251782894,-0.0007798378355801105,0.03384065628051758
0.04287736862897873,0.0039007740560919046,-0.023065127432346344,0.021077720448374748,-0.0007276863907463849,0.0353572741150856
0.04311303794384003,0.004317758604884148,-0.023458870127797127,0.020842254161834717,-0.0007358352886512876,0.03569919615983963
0.042932718992233276,0.00413867924362421,-0.0232692938297987,0.020562462508678436,-0.0007898518233560026,0.03400205075740814
0.04282419756054878,0.004464587662369013,-0.023221580311655998,0.020947763696312904,-0.000905995664652437,0.033409178256988525
0.0433955043554306,0.0044913445599377155,-0.023877568542957306,0.02142312191426754,-0.0009424941381439567,0.03470660746097565
0.04355517029762268,0.004356850404292345,-0.024391047656536102,0.020907245576381683,-0.0011567458277568221,0.035126809030771255
0.04325767979025841,0.004335708916187286,-0.023734938353300095,0.020514873787760735,-0.0011765511007979512,0.03620355576276779
0.04325767979025841,0.004335708916187286,-0.023734938353300095,0.020514873787760735,-0.0011765511007979512,0.03620355576276779
0.043418657034635544,0.004028710536658764,-0.023590704426169395,0.021061792969703674,-0.0009900378063321114,0.03546767681837082
0.043703384697437286,0.0043561989441514015,-0.0235240887850523,0.021164052188396454,-0.0008445261046290398,0.03374837338924408
0.04417615756392479,0.004639305640012026,-0.02419537864625454,0.020390773192048073,-0.0008368182461708784,0.03520602732896805
0.043880291283130646,0.004679795354604721,-0.024360595270991325,0.02017531543970108,-0.000710906635504216,0.035895682871341705
0.044101253151893616,0.0042716036550700665,-0.023197613656520844,0.020472794771194458,-0.0007103314273990691,0.03513140603899956
0.044101253151893616,0.0042716036550700665,-0.023197613656520844,0.020472794771194458,-0.0007103314273990691,0.03513140603899956
0.0452609583735466,0.004195251036435366,-0.02382303960621357,0.021122455596923828,-0.0007311321096494794,0.036113303154706955
0.04432274401187897,0.003981816116720438,-0.02458173595368862,0.02175784297287464,-0.000748941267374903,0.03586290031671524
0.0428568571805954,0.0038480062503367662,-0.024471856653690338,0.02168189361691475,-0.0011491406476125121,0.03547472506761551
0.044438887387514114,0.004372457042336464,-0.024404069408774376,0.02156086266040802,-0.0011732701677829027,0.035442668944597244
0.04432770609855652,0.00470103370025754,-0.023091115057468414,0.021843651309609413,-0.0011439627269282937,0.035413119941949844
0.045820463448762894,0.004377739038318396,-0.02322937175631523,0.02261209301650524,-0.0011462487746030092,0.03590745851397514
0.044315971434116364,0.004527498502284288,-0.023404313251376152,0.022147707641124725,-0.0010525670368224382,0.035993434488773346
0.0453479140996933,0.0041123488917946815,-0.024324506521224976,0.02108844183385372,-0.0009352720226161182,0.036444660276174545
0.044921956956386566,0.003920299466699362,-0.02348901703953743,0.02176009491086006,-0.0009301735553890467,0.03615381941199303
0.044813547283411026,0.004326366353780031,-0.023509591817855835,0.022243687883019447,-0.0008286910597234964,0.03637402504682541
0.04480847343802452,0.004583353642374277,-0.023652706295251846,0.022618213668465614,-0.0008069455507211387,0.03641277924180031
0.04474971815943718,0.004893410485237837,-0.023713652044534683,0.021839594468474388,-0.0008174499380402267,0.03632805123925209
