davideferrari95/blind_handover_controller/data/Test 197 - [2024-02-08 -- 11-32-35]/joint_states_data.csv
shoulder_pan_joint,shoulder_lift_joint,elbow_joint,wrist_1_joint,wrist_2_joint,wrist_3_joint
0.007522693369537592,0.009891938418149948,4.038180720679948e-19,-0.009688329882919788,-0.0,0.0068224286660552025
0.007522693369537592,0.009891938418149948,4.038180720679948e-19,-0.009688329882919788,-0.0,0.0068224286660552025
0.0069825127720832825,0.009845935739576817,5.4177345324993446e-21,-0.009712757542729378,-0.0,0.006632169708609581
0.006696240045130253,0.010619794949889183,7.268582682279404e-23,-0.009483915753662586,-0.0,0.006955497432500124
0.006938761565834284,0.010010899044573307,9.751730877399788e-25,-0.008828854188323021,-0.0,0.007339369971305132
0.007058134768158197,0.009451361373066902,1.3083190320356438e-26,-0.009426943026483059,-0.0,0.007041409611701965
0.007049096282571554,0.010453750379383564,1.7552770235043501e-28,-0.009533044882118702,-0.0,0.007095947861671448
0.00658279936760664,0.009942498989403248,2.3549282063921468e-30,-0.009464949369430542,-0.0,0.007216423284262419
0.0074723404832184315,0.01053187157958746,4.238788088849532e-34,-0.009729623794555664,-0.0,0.007062314543873072
0.0074723404832184315,0.01053187157958746,4.238788088849532e-34,-0.009729623794555664,-0.0,0.007062314543873072
0.006978037767112255,0.010146819986402988,5.686875073948478e-36,-0.009613703936338425,-0.0,0.006933949422091246
0.006549261976033449,0.009744318202137947,7.629668806368446e-38,-0.009351632557809353,-0.0,0.007462545298039913
0.0066153137013316154,0.009980626404285431,1.0236176996230637e-39,-0.009643434546887875,-0.0,0.007212954573333263
0.006987240165472031,0.010462592355906963,1.3732724950383207e-41,-0.009335885755717754,-0.0,0.006932645104825497
0.006703956983983517,0.009582833386957645,1.8357009882655104e-43,-0.00960628967732191,-0.0,0.0071810269728302956
0.006929568946361542,0.0097036212682724,2.802596928649634e-45,-0.009873473085463047,-0.0,0.007091220002621412
0.007046029902994633,0.010089281015098095,0.0,-0.009208896197378635,-0.0,0.006982661318033934
0.006677208002656698,0.009181997738778591,-0.0,-0.009403608739376068,-0.0,0.006841957103461027
0.0065437317825853825,0.009582591243088245,-0.0,-0.009973381645977497,-0.0,0.007077737711369991
0.006850508041679859,0.009835299104452133,-0.0,-0.009533272124826908,-0.0,0.007158810738474131
0.006871442776173353,0.009262308478355408,-0.0,-0.009546307846903801,-0.0,0.007392226252704859
0.006784609518945217,0.009853492490947247,-0.0,-0.010215631686151028,-0.0,0.007108139339834452
0.007471890188753605,0.009834004566073418,-0.0,-0.009256902150809765,-0.0,0.006886287592351437
0.006822655908763409,0.009396879002451897,-0.0,-0.00960693508386612,-0.0,0.006557870656251907
0.006494681350886822,0.009491626173257828,-0.0,-0.009896746836602688,-0.0,0.007025531027466059
0.006608603987842798,0.009461711160838604,-0.0,-0.009532011114060879,-0.0,0.007015287410467863
0.007215254008769989,0.008874407038092613,-0.0,-0.00977654941380024,-0.0,0.006861955393105745
0.0075176432728767395,0.008970034308731556,-0.0,-0.009959528222680092,-0.0,0.006916818208992481
0.007003025617450476,0.009938384406268597,-0.0,-0.009390564635396004,-0.0,0.0067490870133042336
0.006612794008105993,0.008881530724465847,-0.0,-0.009721742011606693,-0.0,0.006933592259883881
0.006778080947697163,0.00864142645150423,-0.0,-0.009917300194501877,-0.0,0.006861591245979071
0.006770127918571234,0.009587343782186508,-0.0,-0.009287849068641663,-0.0,0.007068706210702658
0.00677653169259429,0.00935247354209423,-0.0,-0.009411565028131008,-0.0,0.006759279873222113
0.006860179360955954,0.008401848375797272,-0.0,-0.00942792184650898,-0.0,0.007168896030634642
0.007273613940924406,0.009054462425410748,-0.0,-0.009656955488026142,-0.0,0.006947361398488283
0.006675150245428085,0.00868056621402502,-0.0,-0.0098251448944211,-0.0,0.007092867977917194
0.006675150245428085,0.00868056621402502,-0.0,-0.0098251448944211,-0.0,0.007092867977917194
0.006611641030758619,0.008740557357668877,-0.0,-0.009361032396554947,-0.0,0.00666997442021966
0.006878124549984932,0.009354270063340664,-0.0,-0.009028412401676178,-0.0,0.006713933311402798
0.007374574430286884,0.00846505630761385,-0.0,-0.009911749511957169,-0.0,0.0068955933675169945
0.0072703491896390915,0.00823039561510086,-0.0,-0.009517637081444263,-0.0,0.006992899347096682
0.007004788611084223,0.009014393202960491,-0.0,-0.009129797108471394,-0.0,0.00718082906678319
0.006670983508229256,0.008500495925545692,-0.0,-0.0093916030600667,-0.0,0.0070599899627268314
0.00753316655755043,0.008193431422114372,-0.0,-0.009383214637637138,-0.0,0.0073395222425460815
0.006879609543830156,0.009144382551312447,-0.0,-0.009212922304868698,-0.0,0.00690978579223156
0.006678893230855465,0.008733958005905151,-0.0,-0.009612133726477623,-0.0,0.007006958592683077
0.006550225894898176,0.008626073598861694,-0.0,-0.009623653255403042,-0.0,0.007286331616342068
0.006769780535250902,0.009446697309613228,-0.0,-0.00939368735998869,-0.0,0.006882830057293177
0.006872645579278469,0.009165558032691479,-0.0,-0.009570767171680927,-0.0,0.007181298453360796
0.0066771358251571655,0.008931012824177742,-0.0,-0.009405623190104961,-0.0,0.007283438462764025
0.0062158373184502125,0.008505376055836678,-0.0,-0.008923388086259365,-0.0,0.0070945871993899345
0.0065132007002830505,0.009026063606142998,-0.0,-0.009294245392084122,-0.0,0.006847911514341831
0.0073858569376170635,0.009129046462476254,-0.0,-0.009546421468257904,-0.0,0.00749264657497406
0.007013262715190649,0.008706443943083286,-0.0,-0.009423676878213882,-0.0,0.007050200365483761
0.006360658910125494,0.009127710945904255,-0.0,-0.009549771435558796,-0.0,0.007056740112602711
0.006288252305239439,0.008777913637459278,-0.0,-0.00927906483411789,-0.0,0.0067986673675477505
0.006816184148192406,0.008663763292133808,-0.0,-0.008865022100508213,-0.0,0.006845154333859682
0.006854515057057142,0.009153557009994984,-0.0,-0.009212851524353027,-0.0,0.006950439419597387
0.006537843495607376,0.008894093334674835,-0.0,-0.009556189179420471,-0.0,0.0073302858509123325
0.006325600203126669,0.00887448713183403,-0.0,-0.009208781644701958,-0.0,0.007083018310368061
0.006745986640453339,0.008537819609045982,-0.0,-0.009381131269037724,-0.0,0.0071151480078697205
0.006745986640453339,0.008537819609045982,-0.0,-0.009381131269037724,-0.0,0.0071151480078697205
0.006926589645445347,0.009100151248276234,-0.0,-0.010027633048593998,-0.0,0.007169105112552643
0.005843202117830515,0.008643738925457,-0.0,-0.009387350641191006,-0.0,0.007410435471683741
0.006655423901975155,0.009092445485293865,-0.0,-0.009437575936317444,-0.0,0.006776293274015188
0.007389826234430075,0.008601912297308445,-0.0,-0.009407547302544117,-0.0,0.006903903093189001
0.0069478158839046955,0.00843062624335289,-3.992981510236859e-05,-0.009011511690914631,-0.0,0.0069611556828022
0.0069239335134625435,0.009598600678145885,-0.00020091375336050987,-0.009417503140866756,-0.0,0.007264101877808571
0.006434144917875528,0.009021542966365814,-0.000261169538134709,-0.009289521723985672,-0.0,0.007299645338207483
0.007139833644032478,0.008421601727604866,-0.0015486936317756772,-0.008530503138899803,-0.0,0.0070100631564855576
0.006931839510798454,0.00888034887611866,-0.001371400780044496,-0.00886611919850111,-0.0,0.006599911488592625
0.006808398757129908,0.009024858474731445,-0.0010954131139442325,-0.009252442978322506,-0.0,0.007156583946198225
0.006589923985302448,0.009396561421453953,-0.0009103954653255641,-0.009243824519217014,-0.0,0.007365324534475803
0.006637050304561853,0.00850206334143877,-0.0008628497598692775,-0.00970582477748394,-0.0,0.0072081442922353745
0.0072201625443995,0.008825537748634815,-0.0007934402674436569,-0.010029342025518417,-0.0,0.0069245039485394955
0.0075616477988660336,0.008764407597482204,-0.0008015003404580057,-0.009760843589901924,-0.0,0.00741912005469203
0.007099567446857691,0.008301261812448502,-0.0006417156546376646,-0.009548177011311054,-0.0,0.007850280962884426
0.006715013645589352,0.008959848433732986,-0.0006172649445943534,-0.009216388687491417,-0.0,0.0074248663149774075
0.006992793176323175,0.008664702996611595,-0.0006535416468977928,-0.007994633167982101,-0.0,0.006955125369131565
0.007300904951989651,0.007831570692360401,-0.0006885617040097713,-0.007740591652691364,-0.0,0.0071174330078065395
0.00728261424228549,0.008125295862555504,-0.0012262254022061825,-0.007952895946800709,-0.0,0.007422244176268578
0.006938015576452017,0.008752902038395405,-0.0011767345713451505,-0.008035179227590561,-0.0,0.007258232217282057
0.006919946521520615,0.008558131754398346,-0.0011330223642289639,-0.007507271133363247,-0.0,0.0070299324579536915
0.007212733384221792,0.008074494078755379,-0.0010938196210190654,-0.007966089062392712,-0.0,0.007343127392232418
0.00721265422180295,0.007867652922868729,-0.0010549441212788224,-0.007290577050298452,-0.0,0.007666008081287146
0.007003574166446924,0.008347420021891594,-0.0011290335096418858,-0.007120456546545029,-0.0,0.007151495199650526
0.007087999489158392,0.007631298154592514,-0.001358883106149733,-0.006551124155521393,-0.0,0.007116063963621855
0.007390712387859821,0.007324755657464266,-0.0014747192617505789,-0.006493902299553156,-0.0,0.007497743703424931
0.007457277737557888,0.008026485331356525,-0.002077194396406412,-0.006595355458557606,-0.0,0.007247033063322306
0.007438551168888807,0.007769688498228788,-0.0020639689173549414,-0.006512143183499575,-0.0,0.006810708902776241
0.007970723323523998,0.0071872929111123085,-0.0020729172974824905,-0.005367168225347996,-0.0,0.006803854834288359
0.007236170116811991,0.007575145922601223,-0.00214132247492671,-0.0055915964767336845,-0.0,0.007318395189940929
0.007236170116811991,0.007575145922601223,-0.00214132247492671,-0.0055915964767336845,-0.0,0.007318395189940929
0.007271629758179188,0.007642356678843498,-0.002376055344939232,-0.0055135441944003105,-0.0,0.007390640210360289
0.007664445787668228,0.006746954284608364,-0.0024212158750742674,-0.005696239415556192,-0.0,0.00741557078436017
0.007680571172386408,0.006500041112303734,-0.002967724809423089,-0.00512587558478117,-0.0,0.007023614831268787
0.007526879198849201,0.006685431580990553,-0.0032678795978426933,-0.004419287666678429,-0.0,0.007528022397309542
0.007431752514094114,0.00710633210837841,-0.003139182459563017,-0.004315032158046961,-0.0,0.007124048657715321
0.007570341229438782,0.006882217712700367,-0.003486715955659747,-0.004592644050717354,-0.0,0.006838686298578978
0.0074649592861533165,0.006188679486513138,-0.0033240215852856636,-0.0047284262254834175,-0.0,0.006475742440670729
0.00798962265253067,0.0062301550060510635,-0.003602874232456088,-0.004363009240478277,-0.0,0.006734142079949379
0.007041653618216515,0.006547963246703148,-0.003858750918880105,-0.004365282598882914,-0.0,0.007283420767635107
0.007409610785543919,0.007461028639227152,-0.003446796676144004,-0.00454357173293829,-0.0,0.007397565525025129
0.007589958142489195,0.006427691783756018,-0.003417690983042121,-0.005056384019553661,-0.0,0.006981872022151947
0.007524135056883097,0.006247468292713165,-0.004302995279431343,-0.00469570979475975,-0.0,0.006666150875389576
0.0074555291794240475,0.0060756816528737545,-0.004258390050381422,-0.004541270900517702,-0.0,0.006148535292595625
0.00748381856828928,0.006561241112649441,-0.0038660757709294558,-0.0044076028279960155,-0.0,0.007184184622019529
0.008050641976296902,0.006458028685301542,-0.003889064770191908,-0.004588920157402754,-0.0,0.006966982968151569
0.007652097847312689,0.006243548821657896,-0.0035598508547991514,-0.004476551897823811,-0.0,0.006605905015021563
0.007435114122927189,0.005988996010273695,-0.003860661294311285,-0.004528569523245096,-0.0,0.006554512772709131
0.0076412721537053585,0.006272226106375456,-0.004441577475517988,-0.004506247583776712,-0.0,0.006410032045096159
0.007798296865075827,0.006586476229131222,-0.00476224347949028,-0.004355869721621275,-1.1338320291542914e-06,0.006221615243703127
0.007755376398563385,0.006212719716131687,-0.004602998029440641,-0.0043256571516394615,-7.403112789461375e-08,0.006476499605923891
0.007638645824044943,0.006793438922613859,-0.004212863277643919,-0.0035909167490899563,-4.833703659556932e-09,0.0070802741684019566
0.007593360263854265,0.0060682520270347595,-0.0038521154783666134,-0.003256499767303467,-3.1560629110138905e-10,0.00696871941909194
0.007566518150269985,0.005697956774383783,-0.0038416720926761627,-0.003323865355923772,-2.0606835682279723e-11,0.006314489059150219
0.007681434508413076,0.0063232360407710075,-0.00478326203301549,-0.0032413476146757603,-1.3454792835432272e-12,0.006320410408079624
0.0073471381329,0.006286492571234703,-0.004948315676301718,-0.003493335098028183,-8.785017797854205e-14,0.0068384394980967045
0.007853907532989979,0.006314496509730816,-0.004037108737975359,-0.004630927927792072,-3.745190586998371e-16,0.0069887968711555
0.007605676539242268,0.0061941370368003845,-0.003921041265130043,-0.00509888818487525,-2.4453417670758024e-17,0.005988224875181913
0.007264025509357452,0.006412857677787542,-0.0039457278326153755,-0.005419355817139149,-1.5966335309268984e-18,0.006270094309002161
0.007264025509357452,0.006412857677787542,-0.0039457278326153755,-0.005419355817139149,-1.5966335309268984e-18,0.006270094309002161
0.0074621401727199554,0.006575451698154211,-0.003955502528697252,-0.005576538387686014,-1.0424875188179406e-19,0.00672405119985342
0.008251155726611614,0.006583031266927719,-0.004023490007966757,-0.005503889173269272,-6.806699624049806e-21,0.007134818006306887
0.007747429423034191,0.006199378054589033,-0.0036466638557612896,-0.005534589756280184,-4.444288354366481e-22,0.006461284123361111
0.007630395237356424,0.00657898373901844,-0.0035672143567353487,-0.005279872100800276,-2.901802751750146e-23,0.006322713568806648
0.007968916557729244,0.006926483940333128,-0.0037474234122782946,-0.005765959154814482,-1.894669753296043e-24,0.006540214642882347
0.007980511523783207,0.006392606534063816,-0.003982194233685732,-0.005953928455710411,-1.2370840294775714e-25,0.007495097815990448
0.007580844685435295,0.00643550930544734,-0.0036514585372060537,-0.005669927224516869,-8.077274690306247e-27,0.007580320816487074
0.007422554772347212,0.006676526740193367,-0.0031760036945343018,-0.005249107256531715,-5.273882781757426e-28,0.006995743606239557
0.007575999479740858,0.0072645279578864574,-0.0033878504764288664,-0.005630837753415108,-3.443468851479589e-29,0.006375663448125124
0.007491679396480322,0.006802590563893318,-0.0032755048014223576,-0.005894462577998638,-2.2483392687160812e-30,0.006813475396484137
0.007456593215465546,0.00692866463214159,-0.003116914303973317,-0.006189023610204458,-1.468004952828081e-31,0.007095787208527327
0.007418128661811352,0.006891170982271433,-0.0030700895003974438,-0.005932766478508711,-9.585025017643088e-33,0.007164154201745987
0.008102888241410255,0.0072293817065656185,-0.0029138827230781317,-0.005622299388051033,-6.258336056375186e-34,0.00692124804481864
0.007904388941824436,0.0075383055955171585,-0.0031384341418743134,-0.005690086167305708,-4.086246517269039e-35,0.006513041444122791
0.0075212083756923676,0.0070714582689106464,-0.003153512952849269,-0.006019797641783953,-2.6680270757911864e-36,0.007112105377018452
0.007688074838370085,0.007271645125001669,-0.003062944393604994,-0.00645864475518465,-1.7420310242619022e-37,0.006918655708432198
0.007751080673187971,0.007754829712212086,-0.0029046135023236275,-0.005945127923041582,-1.1374217721958144e-38,0.007098253816366196
0.007913137786090374,0.00764833390712738,-0.002452257089316845,-0.0056786308996379375,-7.426545549290093e-40,0.007181206718087196
0.007748229894787073,0.007559115532785654,-0.0023611504584550858,-0.005461742170155048,-4.849053205949597e-41,0.007128309458494186
0.007491058669984341,0.006991316564381123,-0.0026199412532150745,-0.005944548174738884,-3.165533230909762e-42,0.007143188267946243
0.007953502237796783,0.0074067446403205395,-0.002955071162432432,-0.006162708159536123,-2.0739217272007293e-43,0.006928892340511084
0.008320189081132412,0.007346075493842363,-0.0027800651732832193,-0.005641261115670204,-1.401298464324817e-44,0.006439641118049622
0.007810851093381643,0.007286912761628628,-0.002617171499878168,-0.005638400092720985,-1.401298464324817e-45,0.006551499478518963
0.007704518269747496,0.007501959800720215,-0.0027504994068294764,-0.005294888745993376,-0.0,0.0069883051328361034
0.007704518269747496,0.007501959800720215,-0.0027504994068294764,-0.005294888745993376,-0.0,0.0069883051328361034
0.007660586852580309,0.00765719311311841,-0.0029711169190704823,-0.005697033368051052,-0.0,0.006539289839565754
0.007660586852580309,0.00765719311311841,-0.0029711169190704823,-0.005697033368051052,-0.0,0.006539289839565754
0.00744218286126852,0.006841837894171476,-0.002769904676824808,-0.0055779931135475636,-0.0,0.006262616254389286
0.00831629242748022,0.008282110095024109,-0.0030285341199487448,-0.004859191831201315,-0.0,0.006661870516836643
0.00839646439999342,0.007936453446745872,-0.0026247501373291016,-0.00549325393512845,-0.0,0.006927650887519121
0.007958752103149891,0.007907279767096043,-0.0025960260536521673,-0.005456849467009306,-0.0,0.006731728557497263
0.0076559665612876415,0.00699946004897356,-0.002683257916942239,-0.00534815015271306,0.00033456753590144217,0.00642743892967701
0.008030951954424381,0.007300259545445442,-0.0029007438570261,-0.0055364156141877174,0.00042229294194839895,0.006792810745537281
0.008010362274944782,0.008045564405620098,-0.002725685015320778,-0.005201608408242464,0.0004282476438675076,0.007030215580016375
0.007564090192317963,0.007477795705199242,-0.002729194238781929,-0.0052289897575974464,0.00043143489165231586,0.0069644334726035595
0.008231773041188717,0.007265395950525999,-0.0023064897395670414,-0.005167611874639988,0.0004315631522331387,0.006926083471626043
0.008602375164628029,0.008051342330873013,-0.0023628943599760532,-0.004999873694032431,0.0004057037294842303,0.006686351727694273
0.00802637543529272,0.0071820588782429695,-0.0025900856126099825,-0.005302686709910631,0.0004077726334799081,0.007039722986519337
0.007879958488047123,0.00725043099373579,-0.0028418214060366154,-0.005178157705813646,0.0004090399306733161,0.006932695396244526
0.007758534047752619,0.007615444250404835,-0.0026731162797659636,-0.004564501345157623,0.0003885584301315248,0.006780581083148718
0.008004306815564632,0.007788528222590685,-0.002597695216536522,-0.004430261440575123,0.0004590126627590507,0.006943709682673216
0.007674506399780512,0.007492365315556526,-0.002629735739901662,-0.004425737541168928,0.0004293496604077518,0.006881713401526213
0.007706052158027887,0.007329084444791079,-0.002517642453312874,-0.004173545632511377,0.00046571390703320503,0.006894528400152922
0.008968416601419449,0.007277233991771936,-0.0027374413330107927,-0.004407769534736872,0.0004331508534960449,0.0072904895059764385
0.008079033344984055,0.008021129295229912,-0.002798136556521058,-0.0046224212273955345,0.00045038346434012055,0.0071341246366500854
0.00770896952599287,0.0077203419059515,-0.0024953659158200026,-0.004597653169184923,0.00043459495645947754,0.006550974678248167
0.008440106175839901,0.007491116411983967,-0.0025497274473309517,-0.0043351114727556705,0.0004074726311955601,0.00649608951061964
0.008576360531151295,0.0073541863821446896,-0.0027006519958376884,-0.004334081895649433,0.0004336490819696337,0.00666442047804594
0.007727805990725756,0.00782062765210867,-0.002844420727342367,-0.004046159330755472,0.00046103278873488307,0.006868801545351744
0.008148496970534325,0.007385725621134043,-0.0026477330829948187,-0.004194553010165691,0.0004622852138709277,0.006794732995331287
0.008784101344645023,0.007004201877862215,-0.002649636473506689,-0.003734347177669406,0.0004838964086957276,0.006414524279534817
0.008473419584333897,0.007315737195312977,-0.003073840169236064,-0.0039251274429261684,0.00046177342301234603,0.006752424873411655
0.008448222652077675,0.007663670927286148,-0.0030889923218637705,-0.004147040192037821,0.0004609626776073128,0.0068821981549263
0.008448222652077675,0.007663670927286148,-0.0030889923218637705,-0.004147040192037821,0.0004609626776073128,0.0068821981549263
0.008685749024152756,0.0074203284457325935,-0.00295054679736495,-0.004070121329277754,0.00047477136831730604,0.007146317046135664
0.008728453889489174,0.006895702797919512,-0.00348288775421679,-0.003910462372004986,0.00045871734619140625,0.007099315524101257
0.008704996667802334,0.007572466973215342,-0.0039437683299183846,-0.0033718624617904425,0.0005207699723541737,0.006835440639406443
0.009021207690238953,0.0076500424183905125,-0.0034591006115078926,-0.003027672879397869,0.0005420570960268378,0.00708360318094492
0.008530193008482456,0.007614564150571823,-0.0035879560746252537,-0.002495931461453438,0.0005332962027750909,0.006831853650510311
0.00843693595379591,0.006678122561424971,-0.0038043041713535786,-0.0021517439745366573,0.0005580934230238199,0.0065698279067873955
0.00878184475004673,0.007141247857362032,-0.004307716153562069,-0.0017212986713275313,0.0005576637340709567,0.006874332204461098
0.008676179684698582,0.006759875454008579,-0.0041328249499201775,-0.001699569751508534,0.0005486386362463236,0.006932816933840513
0.008521213196218014,0.006699345540255308,-0.004031984601169825,-0.0015817267121747136,0.000645567721221596,0.007129802368581295
0.00930858589708805,0.006843589246273041,-0.0040601324290037155,-0.0016095330938696861,0.0006936455029062927,0.007074960507452488
0.00908094085752964,0.006568082608282566,-0.004283117596060038,-0.0015169630059972405,0.0006924991612322628,0.006845449563115835
0.008704821579158306,0.006827506702393293,-0.004804608877748251,-0.0014907848089933395,0.0006669278955087066,0.0067902058362960815
0.008825121447443962,0.006808864418417215,-0.004302812274545431,-0.0014375066384673119,0.0006861938745714724,0.006696056574583054
0.009499489329755306,0.006475002970546484,-0.004441963974386454,-0.0015589637914672494,0.0007721869042143226,0.00589657761156559
0.009161950089037418,0.006474515423178673,-0.0047697145491838455,-0.001672586309723556,0.0008224634802900255,0.00717162387445569
0.008697296492755413,0.007209854666143656,-0.004911415278911591,-0.0015680082142353058,0.0008191041415557265,0.007430476136505604
0.00923219881951809,0.006480650044977665,-0.00455324025824666,-0.0013650369364768267,0.0008011154714040458,0.0074252774938941
0.009268631227314472,0.0064616734161973,-0.004412515554577112,-0.0012512477114796638,0.0007637955131940544,0.0067773181945085526
0.008692684583365917,0.0063887895084917545,-0.004820652771741152,-0.0012053715763613582,0.0007806980866007507,0.006666856352239847
0.009071433916687965,0.0061136637814342976,-0.005423036403954029,-0.0011565001914277673,0.0007616327493451536,0.007086714264005423
0.00910117756575346,0.006518005859106779,-0.004989373963326216,-0.001084095798432827,0.0007202400011010468,0.007028787396848202
0.008794426918029785,0.006508094258606434,-0.004283164627850056,-0.0011384539538994431,0.0007302695885300636,0.007260281126946211
0.0092258770018816,0.006559680216014385,-0.004369603004306555,-0.0011423268588259816,0.0007351672393269837,0.006755808833986521
0.00921512208878994,0.006567438133060932,-0.004645210225135088,-0.0013492063153535128,0.0006925241905264556,0.0068904198706150055
0.009110688231885433,0.006855479441583157,-0.005227111745625734,-0.0015077965799719095,0.0007787146023474634,0.006925482768565416
0.009110688231885433,0.006855479441583157,-0.005227111745625734,-0.0015077965799719095,0.0007787146023474634,0.006925482768565416
0.00959622859954834,0.006747873034328222,-0.004457113798707724,-0.002109142253175378,0.0008301489870063961,0.007105922792106867
0.009125866927206516,0.007149029523134232,-0.004316532518714666,-0.0025680444668978453,0.0011684350902214646,0.007538186386227608
0.009125866927206516,0.007149029523134232,-0.004316532518714666,-0.0025680444668978453,0.0011684350902214646,0.007538186386227608
0.01001152116805315,0.007529194466769695,-0.0045037465170025826,-0.0024495895486325026,0.001172024174593389,0.007311888970434666
0.009147459641098976,0.006607333198189735,-0.00413584103807807,-0.002541906666010618,0.001199007616378367,0.0071275061927735806
0.009522981010377407,0.006527348421514034,-0.0039691929705441,-0.0027969626244157553,0.001186794019304216,0.006807361729443073
0.009153023362159729,0.00670632254332304,-0.004466138780117035,-0.002753540175035596,0.0011374230962246656,0.006454248446971178
0.009435802698135376,0.007231421768665314,-0.004645362496376038,-0.0028296385426074266,0.001112172263674438,0.006834087893366814
0.009103884920477867,0.00737259816378355,-0.004280249588191509,-0.002962110098451376,0.0012020436115562916,0.006954509299248457
0.009678483940660954,0.007422060240060091,-0.004055769182741642,-0.0032233726233243942,0.0011764029040932655,0.006931241136044264
0.010470976121723652,0.006993215996772051,-0.004011329263448715,-0.003059873590245843,0.0011380987707525492,0.0065053594298660755
0.00920563843101263,0.008160985074937344,-0.004219719674438238,-0.002853328362107277,0.0012483153259381652,0.006633006501942873
0.009725161828100681,0.00799406785517931,-0.0042246426455676556,-0.002644637366756797,0.0012588936369866133,0.006851399317383766
0.009872868657112122,0.007110469043254852,-0.004790601320564747,-0.0029113716445863247,0.001202899031341076,0.006915202364325523
0.009456072933971882,0.0073293717578053474,-0.00584590807557106,-0.0034150362480431795,0.0013783166650682688,0.007085826713591814
0.009710925631225109,0.007759896107017994,-0.006603403948247433,-0.003383770352229476,0.001392184174619615,0.0074338046833872795
0.009930793195962906,0.00746915303170681,-0.005978072062134743,-0.0030554800760000944,0.001353221945464611,0.007120247930288315
0.00961662270128727,0.007246161345392466,-0.005397628527134657,-0.0028794300742447376,0.0013779986184090376,0.007282949984073639
0.009906706400215626,0.007265119813382626,-0.005793249234557152,-0.002834762679412961,0.0014284574426710606,0.00667030643671751
0.010338440537452698,0.008078807964920998,-0.0057390835136175156,-0.002873767167329788,0.0013846114743500948,0.006486912723630667
0.009817630983889103,0.0069056181237101555,-0.0061011891812086105,-0.0032746007200330496,0.001303777564316988,0.006869514472782612
0.009893730282783508,0.005297157447785139,-0.005922092590481043,-0.003198690013960004,0.0012310700258240104,0.007338648196309805
0.00967573095113039,0.004810378421097994,-0.006018347106873989,-0.0033585024066269398,0.001181121333502233,0.007054036948829889
0.0095208790153265,0.005840587895363569,-0.006519882939755917,-0.003062073839828372,0.001126777147874236,0.007257004734128714
0.009993216022849083,0.006667311768978834,-0.005638440605252981,-0.0030264018569141626,0.0010267861653119326,0.007542052306234837
0.01010921411216259,0.006430303677916527,-0.005347141530364752,-0.002933741779997945,0.0009988632518798113,0.007076137233525515
0.01023874431848526,0.006298089399933815,-0.006251359824091196,-0.002811599988490343,0.0009712267201393843,0.006662491708993912
0.010191407985985279,0.00601041316986084,-0.00577622652053833,-0.003284243168309331,0.00106831977609545,0.006941110361367464
0.010191407985985279,0.00601041316986084,-0.00577622652053833,-0.003284243168309331,0.00106831977609545,0.006941110361367464
0.009816559962928295,0.0064425342716276646,-0.005264570936560631,-0.0033840241376310587,0.0010558469220995903,0.007648844737559557
0.01027208473533392,0.0063269054517149925,-0.0050133513286709785,-0.003287749132141471,0.0010858847526833415,0.007570244371891022
0.009844496846199036,0.00611920328810811,-0.004879245068877935,-0.0032512524630874395,0.0014054338680580258,0.007051455322653055
0.009924557991325855,0.006105473730713129,-0.005250497721135616,-0.0031023197807371616,0.001339858747087419,0.007121568080037832
0.01003640703856945,0.0067434972152113914,-0.005118145607411861,-0.002930827671661973,0.0012841507559642196,0.0074239508248865604
0.010325194336473942,0.006848366931080818,-0.005348989274352789,-0.002969462191686034,0.0011490697506815195,0.007455876562744379
0.010029581375420094,0.0064740777015686035,-0.005532318260520697,-0.0033123651519417763,0.0009585002553649247,0.007541291415691376
0.010328819043934345,0.006295512896031141,-0.005116491112858057,-0.0032666875049471855,0.0009383944561704993,0.007121280767023563
0.010064655914902687,0.006590576376765966,-0.005067841615527868,-0.00312539073638618,0.0008713459828868508,0.007134422194212675
0.010211526416242123,0.006759177427738905,-0.004964063875377178,-0.0033932370133697987,0.0008710757829248905,0.007384240161627531
0.010692577809095383,0.0071718147955834866,-0.005923213437199593,-0.003364025382325053,0.0008245546487160027,0.0073954821564257145
0.010117858648300171,0.006413881201297045,-0.005442647263407707,-0.0033275242894887924,0.0007336559938266873,0.007891703397035599
0.010666750371456146,0.006502809934318066,-0.005133520346134901,-0.0033795747440308332,0.000741875555831939,0.007284316699951887
0.010250273160636425,0.007021158467978239,-0.004855836741626263,-0.00336482678540051,0.0007679397240281105,0.007120890077203512
0.010143178515136242,0.0070386226288974285,-0.004909912124276161,-0.003489265451207757,0.0007899681222625077,0.006887051742523909
0.010233715176582336,0.00659532006829977,-0.005261092446744442,-0.0035246664192527533,0.0010454949224367738,0.006876410450786352
0.010639933869242668,0.006224336102604866,-0.005501965992152691,-0.0034549899864941835,0.0010354014812037349,0.007339769043028355
0.010037860833108425,0.006614792626351118,-0.005051619838923216,-0.0036022881977260113,0.0010159679222851992,0.007201367057859898
0.01061740517616272,0.006869271397590637,-0.0051266769878566265,-0.0034115626476705074,0.0009442007867619395,0.006948466412723064
0.01017688773572445,0.007236271630972624,-0.004976667929440737,-0.0035239122807979584,0.0008865316049195826,0.007066372781991959
0.010363418608903885,0.0066101644188165665,-0.004539140500128269,-0.0036213574931025505,0.0008337993640452623,0.007326149847358465
0.010401085019111633,0.006636107340455055,-0.004639952443540096,-0.0037128364201635122,0.0007778184954077005,0.007071128115057945
0.010281519964337349,0.007117162924259901,-0.005584348924458027,-0.003397991182282567,0.0007888420950621367,0.007432340178638697
0.011036580428481102,0.007176970597356558,-0.005325810518115759,-0.0033450631890445948,0.0008009910234250128,0.007083912845700979
0.011294365860521793,0.006943614222109318,-0.004715169779956341,-0.0032517623621970415,0.0008297754684463143,0.0074533335864543915
0.011294365860521793,0.006943614222109318,-0.004715169779956341,-0.0032517623621970415,0.0008297754684463143,0.0074533335864543915
0.010261417366564274,0.00646205572411418,-0.004640818107873201,-0.003084993688389659,0.0009184795198962092,0.007534208707511425
0.010299915447831154,0.006706785876303911,-0.005118098575621843,-0.003694449318572879,0.0008630873053334653,0.006964338477700949
0.009750966913998127,0.006442236248403788,-0.005504997447133064,-0.00401443662121892,0.0009359642863273621,0.007161054294556379
0.010451790876686573,0.006610671058297157,-0.005047102924436331,-0.0036046402528882027,0.0009358227252960205,0.007428714539855719
0.01104570459574461,0.006605437025427818,-0.004610496107488871,-0.0038720499724149704,0.0009129775571636856,0.007211108226329088
0.010215185582637787,0.00730510288849473,-0.004862837493419647,-0.004177707713097334,0.000880722189322114,0.007211996708065271
0.010228380560874939,0.0074156722985208035,-0.004874484147876501,-0.004112422000616789,0.000830970355309546,0.00792064517736435
0.010321887210011482,0.006893745623528957,-0.004793778993189335,-0.003587342333048582,0.0007887245155870914,0.007828648202121258
0.01058133877813816,0.006697341799736023,-0.005467533599585295,-0.003548137843608856,0.0008056848892010748,0.007251139730215073
0.01073292177170515,0.00689740339294076,-0.005212872754782438,-0.003679476445540786,0.0008744075894355774,0.007878382690250874
0.010180841200053692,0.007051282562315464,-0.0048201060853898525,-0.003737371414899826,0.0008386423578485847,0.007813551463186741
0.011053371243178844,0.006742250639945269,-0.005193109158426523,-0.0033501186408102512,0.001080132438801229,0.007490027230232954
0.011293305084109306,0.0066224983893334866,-0.0050451485440135,-0.0032839332707226276,0.0010639309184625745,0.007913905195891857
0.010193351656198502,0.007336336653679609,-0.004815697204321623,-0.0033202082850039005,0.001040376373566687,0.007808084599673748
0.009991111233830452,0.00683634402230382,-0.005617205984890461,-0.0034981081262230873,0.0009368221508339047,0.0077761635184288025
0.010356058366596699,0.0066018789075315,-0.005303519312292337,-0.0038800074253231287,0.0009008339839056134,0.0075547294691205025
0.00911678746342659,0.0068490044213831425,-0.0048747300170362,-0.0038984252605587244,0.0008941059932112694,0.007540784310549498
0.011238273233175278,0.006879071239382029,-0.005134981591254473,-0.003687554271891713,0.0008774163434281945,0.007178772706538439
0.011360556818544865,0.0072425915859639645,-0.005044759716838598,-0.0035679165739566088,0.0008507219608873129,0.0077279782854020596
0.010105865076184273,0.006875762715935707,-0.005124433897435665,-0.003643420757725835,0.0008058121311478317,0.007852922193706036
0.01009319443255663,0.007147846277803183,-0.005931963212788105,-0.0036969073116779327,0.0007661432027816772,0.007114862557500601
0.010292699560523033,0.006844593212008476,-0.005459343083202839,-0.00405446533113718,0.000671696849167347,0.006790607701987028
0.010119328275322914,0.006887160707265139,-0.005274524912238121,-0.004130626562982798,0.0006937092402949929,0.006900268606841564
0.010923751629889011,0.006971219554543495,-0.005132373422384262,-0.004295993130654097,0.0007099091890268028,0.0072395517490804195
0.009904798120260239,0.0066565172746777534,-0.004996173549443483,-0.0036830666940659285,0.0007290442008525133,0.007326444610953331
0.009834670461714268,0.006811612285673618,-0.00525134801864624,-0.0035647607874125242,0.0007985648117028177,0.0072669400833547115
0.010246437042951584,0.007222027983516455,-0.005524825304746628,-0.0041323076002299786,0.0008411175804212689,0.00729832099750638
0.010380269028246403,0.007056832313537598,-0.005410376936197281,-0.0036363513208925724,0.000865032896399498,0.007434520870447159
0.01023611705750227,0.007304892875254154,-0.005563005805015564,-0.003388012992218137,0.0008846242562867701,0.007412903476506472
0.01023611705750227,0.007304892875254154,-0.005563005805015564,-0.003388012992218137,0.0008846242562867701,0.007412903476506472
0.009701475501060486,0.00782967172563076,-0.005181970540434122,-0.0032526585273444653,0.000904269574675709,0.007456819526851177
0.010923991911113262,0.007180172484368086,-0.006025275215506554,-0.0034025057684630156,0.0008382194791920483,0.007975130341947079
0.010279863141477108,0.006905536632984877,-0.005597187206149101,-0.0038873159792274237,0.000817918567918241,0.008169100619852543
0.009606828913092613,0.007143800612539053,-0.005782089661806822,-0.004091715440154076,0.0007991250022314489,0.0073515684343874454
0.010023298673331738,0.007288041524589062,-0.005388917867094278,-0.003935820423066616,0.0007665803423151374,0.007152799516916275
0.010946004651486874,0.007390690967440605,-0.0059716785326600075,-0.003765054512768984,0.0007225900772027671,0.007468766532838345
0.009328736923635006,0.006849073339253664,-0.005540352780371904,-0.0040603745728731155,0.0007342679891735315,0.007725569419562817
0.00986364297568798,0.006845247466117144,-0.0060381158255040646,-0.00378394010476768,0.0007536946795880795,0.008064424619078636
0.010485053062438965,0.007030875887721777,-0.005422947928309441,-0.003495053155347705,0.0007695955573581159,0.007926340214908123
0.00919491145759821,0.007446207571774721,-0.005446670576930046,-0.0034320836421102285,0.0008039244567044079,0.007184923160821199
0.009827092289924622,0.007344030309468508,-0.005742701701819897,-0.0034192888997495174,0.0008941979613155127,0.007304873783141375
0.010082399472594261,0.00731869088485837,-0.005632101092487574,-0.0034851268865168095,0.0008999876445159316,0.007491781376302242
0.009801747277379036,0.007560000754892826,-0.00580765213817358,-0.003652844112366438,0.0009116100263781846,0.0075113787315785885
0.010259618051350117,0.007832877337932587,-0.005689061712473631,-0.004045034293085337,0.001148810493759811,0.007956894114613533
0.009897638112306595,0.0069995359517633915,-0.005561299622058868,-0.003922733012586832,0.001035670400597155,0.007789315655827522
0.009517917409539223,0.0074200257658958435,-0.005307094659656286,-0.0035125366412103176,0.0010089121060445905,0.007652692496776581
0.010014564730226994,0.006978550925850868,-0.005754709709435701,-0.003474713070318103,0.0009846262400969863,0.0077508497051894665
0.010169981978833675,0.007199452258646488,-0.005399306770414114,-0.0037190376315265894,0.0008853839244693518,0.007120911497622728
0.010201533325016499,0.008004240691661835,-0.006018918938934803,-0.003967191092669964,0.0007746691699139774,0.007392241153866053
0.009947670623660088,0.006995375733822584,-0.005492794793099165,-0.00400796253234148,0.0007853928254917264,0.008058346807956696
0.00997636653482914,0.006820011418312788,-0.00537231657654047,-0.0039574517868459225,0.000799513712991029,0.008035439066588879
0.009818166494369507,0.007347943726927042,-0.0051173376850783825,-0.003810320748016238,0.0008108521578833461,0.007479775696992874
0.010607097297906876,0.007310005836188793,-0.005888872779905796,-0.0039388686418533325,0.0010253451764583588,0.007298107258975506
0.010607097297906876,0.007310005836188793,-0.005888872779905796,-0.0039388686418533325,0.0010253451764583588,0.007298107258975506
0.009863335639238358,0.006970121059566736,-0.005931271240115166,-0.00381588120944798,0.0010401962790638208,0.007956917397677898
0.010135011747479439,0.007395958993583918,-0.00556139973923564,-0.0035405990201979876,0.0011283870553597808,0.007235411554574966
0.010135011747479439,0.007395958993583918,-0.00556139973923564,-0.0035405990201979876,0.0011283870553597808,0.007235411554574966
0.010396015830338001,0.0074585904367268085,-0.006471231579780579,-0.0038591744378209114,0.0010898379841819406,0.007303380873054266
0.011030787602066994,0.006978853605687618,-0.006943045649677515,-0.004104099702090025,0.0010613574413582683,0.007589827757328749
0.010294315405189991,0.007469991687685251,-0.006165946368128061,-0.0043979003094136715,0.0009566485532559454,0.007130248937755823
0.01049824245274067,0.007047947496175766,-0.005708080250769854,-0.004171381238847971,0.0009454795508645475,0.007187608629465103
0.010432637296617031,0.0071198358200490475,-0.005696164444088936,-0.0038797950837761164,0.0009383280412293971,0.00751612801104784
0.010219150222837925,0.007087627425789833,-0.0064186411909759045,-0.003750734031200409,0.0009352114866487682,0.007732234429568052
0.010635302402079105,0.007072144187986851,-0.0069323028437793255,-0.004082470200955868,0.0010628668824210763,0.007830703631043434
0.010465331375598907,0.007474823854863644,-0.006658241152763367,-0.0042710816487669945,0.0010832450352609158,0.00746421841904521
0.010419053956866264,0.006928808055818081,-0.006082348525524139,-0.004504946060478687,0.0010765851475298405,0.007360864896327257
0.010837354697287083,0.00695562781766057,-0.006180942058563232,-0.004252214450389147,0.001255870913155377,0.007915380410850048
0.01106965634971857,0.0073311300948262215,-0.006679891142994165,-0.0040021431632339954,0.0012859961716458201,0.007811820600181818
0.011334600858390331,0.007423248142004013,-0.006726763676851988,-0.003926777746528387,0.0012624113587662578,0.007494791876524687
0.01059132069349289,0.006984113249927759,-0.006177343428134918,-0.003868522122502327,0.001421543536707759,0.0074169086292386055
0.01065773144364357,0.007191208191215992,-0.006012027617543936,-0.004092337563633919,0.0013506297254934907,0.007994423620402813
0.010969582013785839,0.007426664233207703,-0.0061455341055989265,-0.004149389918893576,0.0012717855861410499,0.008115042932331562
0.01214549783617258,0.007761433720588684,-0.00687053706496954,-0.004430809058248997,0.0012201003264635801,0.007706796284765005
0.011478693224489689,0.007683850824832916,-0.006503325887024403,-0.004609530325978994,0.0012078421423211694,0.007718779146671295
0.011939429678022861,0.007032495457679033,-0.0062370505183935165,-0.004496013280004263,0.0011881423415616155,0.007730463985353708
0.011590204201638699,0.007216166239231825,-0.005983478855341673,-0.004372559953480959,0.0014186028856784105,0.007540035992860794
0.011577606201171875,0.007779482752084732,-0.006513160187751055,-0.004872225224971771,0.001458183629438281,0.007900846190750599
0.011885293759405613,0.0074742641299963,-0.006995051167905331,-0.004668691195547581,0.0013063346268609166,0.007082431577146053
0.011535413563251495,0.007560431491583586,-0.006432090885937214,-0.003927229437977076,0.001274856273084879,0.008461308665573597
0.01161800418049097,0.007836313918232918,-0.006032383535057306,-0.004298686515539885,0.001248281099833548,0.008270417340099812
0.011648230254650116,0.007974046282470226,-0.006371531169861555,-0.004567907657474279,0.0011916824150830507,0.0078735938295722
0.012386100366711617,0.007635386195033789,-0.007018225733190775,-0.00445899460464716,0.0011177158448845148,0.007556051481515169
0.012386100366711617,0.007635386195033789,-0.007018225733190775,-0.00445899460464716,0.0011177158448845148,0.007556051481515169
0.011896708980202675,0.007503317669034004,-0.006816919893026352,-0.004582218825817108,0.0012270213337615132,0.007272588089108467
0.012194248847663403,0.00820880476385355,-0.006435162853449583,-0.003874627174809575,0.001501586870290339,0.0075784544460475445
0.011932902038097382,0.007247046567499638,-0.006385134067386389,-0.003806874854490161,0.001389044220559299,0.007941970601677895
0.012119363993406296,0.007130786776542664,-0.007100049871951342,-0.004226277582347393,0.001320923212915659,0.007979263551533222
0.012056246399879456,0.00683043897151947,-0.006814001593738794,-0.004989133682101965,0.0011631359811872244,0.007612605579197407
0.011888873763382435,0.007192377466708422,-0.006572813261300325,-0.005032151006162167,0.0011037623044103384,0.007499447092413902
0.012034173123538494,0.008055594749748707,-0.006364854983985424,-0.0046414961107075214,0.0010678624967113137,0.008045000024139881
0.011876078322529793,0.007076635025441647,-0.006621726788580418,-0.004240702372044325,0.0010428802343085408,0.007754449266940355
0.012314930558204651,0.006928238086402416,-0.006169846281409264,-0.003924161661416292,0.0011034990893676877,0.007926633581519127
0.012152043171226978,0.007522238418459892,-0.006399625446647406,-0.003853710601106286,0.001122547429986298,0.008064046502113342
0.012397916056215763,0.008053222671151161,-0.0067497179843485355,-0.004670902621001005,0.0011162722948938608,0.007944745942950249
0.011826668865978718,0.007009544409811497,-0.006224802229553461,-0.004878514911979437,0.0014242574106901884,0.007952088490128517
0.011485581286251545,0.007565025705844164,-0.006458410993218422,-0.004624176770448685,0.0015163428615778685,0.008137578144669533
0.01201565284281969,0.007318556774407625,-0.005971767008304596,-0.0045990245416760445,0.0014907183358445764,0.007834340445697308
0.012561757117509842,0.007064094766974449,-0.005906964652240276,-0.004782357253134251,0.0015087289502844214,0.008013028651475906
0.012355571612715721,0.007278751581907272,-0.005889855790883303,-0.004477291367948055,0.0014397213235497475,0.008025980554521084
0.012447335757315159,0.007318687159568071,-0.005688515026122332,-0.004372782073915005,0.001268962980248034,0.007890360429883003
0.012104054912924767,0.007715256884694099,-0.006360350642353296,-0.004426419269293547,0.0012939261505380273,0.008256646804511547
0.012308618985116482,0.007679755333811045,-0.00636163679882884,-0.004672418814152479,0.0012698696227744222,0.008268438279628754
0.011827481910586357,0.007365767378360033,-0.005586195737123489,-0.00488788029178977,0.0012686345726251602,0.007766886614263058
0.012285308912396431,0.007186246570199728,-0.005788736045360565,-0.004718123469501734,0.001233473769389093,0.007702525705099106
0.012204496189951897,0.007414049468934536,-0.006001059431582689,-0.004462631419301033,0.001252868096344173,0.007998887449502945
0.012742956168949604,0.008015313185751438,-0.006319318898022175,-0.004304112866520882,0.0011424471158534288,0.008029014803469181
0.011031270027160645,0.007607611827552319,-0.0060692280530929565,-0.004696523305028677,0.001107789110392332,0.008088033646345139
0.011948964558541775,0.0075155990198254585,-0.006079890765249729,-0.005272431764751673,0.001134107937105,0.008442903868854046
0.01274428516626358,0.007682143244892359,-0.006306563504040241,-0.004807323217391968,0.0011117617832496762,0.007920551113784313
0.01213834434747696,0.007569609675556421,-0.006797593552619219,-0.004945569671690464,0.0013215122744441032,0.008007203228771687
0.012289747595787048,0.007561153266578913,-0.0069800750352442265,-0.004823840223252773,0.0012766866711899638,0.008008072152733803
0.012289747595787048,0.007561153266578913,-0.0069800750352442265,-0.004823840223252773,0.0012766866711899638,0.008008072152733803
0.012401389889419079,0.007491925731301308,-0.006211630068719387,-0.00485255615785718,0.0012281773379072547,0.008221635594964027
0.012486324645578861,0.00749851344153285,-0.006618052255362272,-0.00518048508092761,0.001240308629348874,0.00809693057090044
0.0122695816680789,0.007370154373347759,-0.006891624070703983,-0.005255956668406725,0.001205809647217393,0.008317289873957634
0.012783174403011799,0.007265760097652674,-0.00648100208491087,-0.005573277361690998,0.0013333306415006518,0.00831842701882124
0.012461278587579727,0.008043920621275902,-0.006105958949774504,-0.004810567479580641,0.001380545785650611,0.008280940353870392
0.012244979850947857,0.007732694037258625,-0.006341327913105488,-0.004541251342743635,0.0014325997326523066,0.007873010821640491
0.012435180135071278,0.007019644137471914,-0.0061785574071109295,-0.004508777521550655,0.0016324266325682402,0.008115924894809723
0.012481867335736752,0.007302730344235897,-0.0066528026945889,-0.005378824193030596,0.0017181487055495381,0.008080339059233665
0.012632766738533974,0.008296873420476913,-0.006265274249017239,-0.005371905397623777,0.0018449390772730112,0.008118301630020142
0.012739158235490322,0.008012812584638596,-0.005964555311948061,-0.005023228470236063,0.0017281174659729004,0.007853454910218716
0.013222111389040947,0.007083428557962179,-0.006313420832157135,-0.004628003109246492,0.0016234882641583681,0.008601007051765919
0.0124181117862463,0.007244721986353397,-0.006720669101923704,-0.004534571431577206,0.0016030982369557023,0.008114311844110489
0.012654522433876991,0.008055232465267181,-0.0067894915118813515,-0.004819520283490419,0.0014439817750826478,0.008049694821238518
0.012330937199294567,0.007872942835092545,-0.006339953746646643,-0.004891108255833387,0.0014419552171602845,0.007982763461768627
0.01285034604370594,0.007055795285850763,-0.006096935365349054,-0.004747729282826185,0.0013995348708704114,0.008041095919907093
0.012900290079414845,0.007282841484993696,-0.006747978739440441,-0.004663544707000256,0.0013336970005184412,0.008115574717521667
0.012887857854366302,0.007706463802605867,-0.007022586651146412,-0.004705754108726978,0.0014261080650612712,0.008361341431736946
0.013778934255242348,0.0075628915801644325,-0.0067878360860049725,-0.004799460992217064,0.001361409085802734,0.00844789482653141
0.013151691295206547,0.007488609757274389,-0.006312209647148848,-0.005124010145664215,0.0015007725451141596,0.008274582214653492
0.013198125176131725,0.008048079907894135,-0.0064452881924808025,-0.004959627985954285,0.0015706464182585478,0.008068274706602097
0.0129166254773736,0.008022058755159378,-0.007127746473997831,-0.005032594781368971,0.0016786421183496714,0.008289456367492676
0.013730518519878387,0.007625076454132795,-0.006939311046153307,-0.005328385625034571,0.0016068280674517155,0.008766325190663338
0.01275316346436739,0.0076665133237838745,-0.00641919020563364,-0.005127365700900555,0.001511173672042787,0.008980045095086098
0.013107656501233578,0.007099970243871212,-0.006206722930073738,-0.004969915375113487,0.0015025038737803698,0.008222267031669617
0.013116593472659588,0.007380886934697628,-0.006809449288994074,-0.005013688933104277,0.0014857574133202434,0.008577090688049793
0.013422340154647827,0.007252437062561512,-0.006991788744926453,-0.005390341859310865,0.0014650729717686772,0.008083119057118893
0.013098499737679958,0.0073023769073188305,-0.0065641580149531364,-0.00554229598492384,0.0015429689083248377,0.00805649347603321
0.013475858606398106,0.007526100147515535,-0.0065989200957119465,-0.0053828139789402485,0.0016331005608662963,0.008173270151019096
0.013606092892587185,0.0076373969204723835,-0.006606790237128735,-0.00497288117185235,0.0019333641976118088,0.007463103625923395
0.013606092892587185,0.0076373969204723835,-0.006606790237128735,-0.00497288117185235,0.0019333641976118088,0.007463103625923395
0.013307509943842888,0.007474858779460192,-0.0067963022738695145,-0.004768406040966511,0.002089957008138299,0.007995819672942162
0.013539575971662998,0.00758721400052309,-0.007152344100177288,-0.0048794010654091835,0.0020714704878628254,0.008796146139502525
0.01351002138108015,0.007681974209845066,-0.006200289819389582,-0.005198753904551268,0.0015880943974480033,0.008273744024336338
0.013153649866580963,0.0075042056851089,-0.0063348873518407345,-0.005259368568658829,0.0015273663448169827,0.008197366259992123
0.013743303716182709,0.008073680102825165,-0.006918863859027624,-0.005428157281130552,0.0013576342025771737,0.008316155523061752
0.013247769325971603,0.007963793352246284,-0.0072100162506103516,-0.0050919740460813046,0.001366426469758153,0.008195537142455578
0.013583585619926453,0.007721344009041786,-0.006870773620903492,-0.005030512809753418,0.0013643912971019745,0.008153668604791164
0.01328402478247881,0.007677064277231693,-0.007234168704599142,-0.0052947839722037315,0.0017476928187534213,0.008324635215103626
0.013779835775494576,0.0073778084479272366,-0.0068550631403923035,-0.005198311060667038,0.0019348177593201399,0.0085839182138443
0.013633374124765396,0.007061365060508251,-0.007105930242687464,-0.0050852070562541485,0.002083222381770611,0.008229128085076809
0.013781548477709293,0.007838016375899315,-0.007013484835624695,-0.005144739989191294,0.0019699647091329098,0.008087408728897572
0.013369117863476276,0.0074553098529577255,-0.006623294670134783,-0.004979203455150127,0.001748348819091916,0.008645694702863693
0.01391112245619297,0.007189010735601187,-0.006970421876758337,-0.00516685051843524,0.0016620910027995706,0.008924845606088638
0.013670907355844975,0.007344331592321396,-0.007067599333822727,-0.0053511434234678745,0.001451576128602028,0.008896433748304844
0.013530361466109753,0.007670162245631218,-0.007213718257844448,-0.005234445445239544,0.0014196655247360468,0.00859862845391035
0.013497872278094292,0.00742107629776001,-0.006811982486397028,-0.005272985901683569,0.0014161408180370927,0.008041840977966785
0.013363753445446491,0.007611121982336044,-0.006735466420650482,-0.00509424414485693,0.0017548673786222935,0.008387647569179535
0.013620174489915371,0.007434564176946878,-0.007249424234032631,-0.004784485790878534,0.0021895221434533596,0.008515902794897556
0.013473939150571823,0.007729195058345795,-0.006937021855264902,-0.005279860459268093,0.00230373814702034,0.008443550206720829
0.013648765161633492,0.008297176100313663,-0.00689067505300045,-0.005406553857028484,0.0019963523373007774,0.00851449929177761
0.013169695623219013,0.00799576286226511,-0.0069261109456419945,-0.005745931528508663,0.0018416250823065639,0.008428388275206089
0.013953020796179771,0.007961638271808624,-0.007278733886778355,-0.005381306633353233,0.001623984077014029,0.00881913024932146
0.01358915213495493,0.007845863699913025,-0.0073411725461483,-0.005195916164666414,0.001378130167722702,0.008581704460084438
0.014047396369278431,0.008101140148937702,-0.0072824712842702866,-0.005434609483927488,0.0012369287433102727,0.008640994317829609
0.013702800497412682,0.007819055579602718,-0.006853226572275162,-0.005326927173882723,0.0013050911948084831,0.00869733840227127
0.012601238675415516,0.007801075000315905,-0.0072494144551455975,-0.005573749542236328,0.0015800097025930882,0.00866023637354374
0.012601238675415516,0.007801075000315905,-0.0072494144551455975,-0.005573749542236328,0.0015800097025930882,0.00866023637354374
0.014613456092774868,0.008073396980762482,-0.007481297478079796,-0.006285133305937052,0.0016681419219821692,0.008880572393536568
0.014013205654919147,0.007350536994636059,-0.006953330710530281,-0.00582277774810791,0.0019322949228808284,0.008490313775837421
0.014398805797100067,0.007624464575201273,-0.007142138201743364,-0.006082956213504076,0.0017575665842741728,0.008889271877706051
0.014459807425737381,0.008143600076436996,-0.007976056076586246,-0.006101028528064489,0.0016385476337745786,0.008531149476766586
0.014786302112042904,0.008208751678466797,-0.007687926292419434,-0.006136969663202763,0.0015625153901055455,0.008519315160810947
0.014493290334939957,0.00798895675688982,-0.007683547213673592,-0.005608296021819115,0.0015628294786438346,0.009072364307940006
0.015005713328719139,0.008322901092469692,-0.0079358434304595,-0.005398267414420843,0.0017923995619639754,0.008785734884440899
0.014507065527141094,0.009967914782464504,-0.007785870227962732,-0.0057294960133731365,0.0021460948046296835,0.008371752686798573
0.014942929148674011,0.008981789462268353,-0.006902751512825489,-0.005996845196932554,0.002536068670451641,0.008199098519980907
0.01470249705016613,0.009287887252867222,-0.00705974455922842,-0.006021297071129084,0.0023385160602629185,0.008784454315900803
0.015366761945188046,0.009175628423690796,-0.007477499078959227,-0.005979608278721571,0.002265678020194173,0.008825683034956455
0.015259452164173126,0.00923440232872963,-0.008127284236252308,-0.005611338187009096,0.002046191832050681,0.008602458983659744
0.01543124858289957,0.008930668234825134,-0.007780094165354967,-0.005967654753476381,0.0019438547315075994,0.00866374745965004
0.014959790743887424,0.009053242392838001,-0.006804625503718853,-0.006162689533084631,0.0018275728216394782,0.008775499649345875
0.015959905460476875,0.008946039713919163,-0.007214952260255814,-0.005779522005468607,0.0019863240886479616,0.008506493642926216
0.015277468599379063,0.008802341297268867,-0.008194510824978352,-0.006281031295657158,0.0018918800633400679,0.008495934307575226
0.014766834676265717,0.009244353510439396,-0.007821251638233662,-0.006179428193718195,0.0020676313433796167,0.008845354430377483
0.015423513948917389,0.008650933392345905,-0.007657194044440985,-0.006074639968574047,0.0022948929108679295,0.009136405773460865
0.01581081748008728,0.008987808600068092,-0.007972070947289467,-0.005962749477475882,0.0020767066162079573,0.008960481733083725
0.015662334859371185,0.00931742787361145,-0.007864403538405895,-0.005871955305337906,0.0018457103287801147,0.009180025197565556
0.01565694995224476,0.009955616667866707,-0.007573042996227741,-0.006090983748435974,0.0017304426291957498,0.009011431597173214
0.015890615060925484,0.00898695271462202,-0.007480241358280182,-0.005673706065863371,0.0016529258573427796,0.008928562514483929
0.015199633315205574,0.010018515400588512,-0.00763790775090456,-0.00605627428740263,0.001827799715101719,0.009242543950676918
0.015948032960295677,0.00961218774318695,-0.007593613583594561,-0.006268174387514591,0.00198829616419971,0.009119359776377678
0.015754159539937973,0.00946067925542593,-0.0075853136368095875,-0.005986080504953861,0.0021249395795166492,0.00884054321795702
0.016672344878315926,0.009687759913504124,-0.006956166122108698,-0.005790232215076685,0.002216504653915763,0.009545387700200081
0.01632724143564701,0.009288395754992962,-0.0071352748200297356,-0.0056545245461165905,0.0021906495094299316,0.009157595224678516
0.016181400045752525,0.008911018259823322,-0.008136769756674767,-0.006029398180544376,0.0019390364177525043,0.009003838524222374
0.01642599329352379,0.009190947748720646,-0.00780516117811203,-0.006468095351010561,0.0018810558831319213,0.008867175318300724
0.01642599329352379,0.009190947748720646,-0.00780516117811203,-0.006468095351010561,0.0018810558831319213,0.008867175318300724
0.015817144885659218,0.009297851473093033,-0.007593848276883364,-0.006271428428590298,0.001797728007659316,0.009085699915885925
0.01624499447643757,0.008883615955710411,-0.007877270691096783,-0.0056348745711147785,0.0020280913449823856,0.009178660809993744
0.01651158183813095,0.00949639268219471,-0.006979865487664938,-0.006194480694830418,0.0020927288569509983,0.009798969142138958
0.016538888216018677,0.00923270732164383,-0.00715837674215436,-0.006717219017446041,0.0024173222482204437,0.009592660702764988
0.01663832925260067,0.009109231643378735,-0.008234329521656036,-0.0064756800420582294,0.0024098048452287912,0.009358453564345837
0.0167776420712471,0.009214750491082668,-0.008402704261243343,-0.006213878747075796,0.0023526055738329887,0.009138510562479496
0.016307298094034195,0.008562770672142506,-0.007968893274664879,-0.006220294162631035,0.0020777625031769276,0.009203795343637466
0.016794245690107346,0.008590728975832462,-0.007801462430506945,-0.006585193797945976,0.0018898614216595888,0.009085964411497116
0.016386739909648895,0.009151207283139229,-0.007985458709299564,-0.007063211873173714,0.0017654531402513385,0.009218422695994377
0.016857942566275597,0.008982934057712555,-0.007847952656447887,-0.006959489081054926,0.001913634710945189,0.00900909211486578
0.01654179021716118,0.008826092816889286,-0.007910143584012985,-0.006100852973759174,0.0022880034521222115,0.008681150153279305
0.016818994656205177,0.009188076481223106,-0.007695544045418501,-0.00626035500317812,0.0024421445559710264,0.009016594849526882
0.016803743317723274,0.009885021485388279,-0.00785753782838583,-0.006566568277776241,0.0026694622356444597,0.008710972964763641
0.016662009060382843,0.009014200419187546,-0.007485873997211456,-0.0063995602540671825,0.002329497132450342,0.008486494421958923
0.01720568723976612,0.00873384065926075,-0.007991227321326733,-0.006260920315980911,0.0021613857243210077,0.008916160091757774
0.016544019803404808,0.00935016293078661,-0.00819623377174139,-0.006198852322995663,0.002200487069785595,0.008921775966882706
0.017682187259197235,0.008701654151082039,-0.008150490000844002,-0.006316308863461018,0.0021128396037966013,0.008872255682945251
0.017627611756324768,0.008824631571769714,-0.007631474174559116,-0.0069520724937319756,0.002148954663425684,0.008904420770704746
0.01693919114768505,0.0095587819814682,-0.007694899570196867,-0.006649984512478113,0.0021401061676442623,0.008953889831900597
0.017263051122426987,0.009031957946717739,-0.007921815849840641,-0.006055017001926899,0.0022488655522465706,0.009281613864004612
0.01749351993203163,0.008617967367172241,-0.008880212903022766,-0.0058959838934242725,0.002072186442092061,0.008992291055619717
0.0179014652967453,0.009204784408211708,-0.008126054890453815,-0.006722745485603809,0.002098990138620138,0.008927945978939533
0.017610011622309685,0.009212334640324116,-0.007964780554175377,-0.007294831797480583,0.002319433493539691,0.00877952016890049
0.017210274934768677,0.009113327600061893,-0.008556811138987541,-0.006837235763669014,0.002331249648705125,0.008882292546331882
0.017803143709897995,0.009489497169852257,-0.008278810419142246,-0.006546059623360634,0.0024219343904405832,0.009296922013163567
0.017395012080669403,0.009205984883010387,-0.008257079869508743,-0.007242201361805201,0.002557530300691724,0.009820638224482536
0.017395012080669403,0.009205984883010387,-0.008257079869508743,-0.007242201361805201,0.002557530300691724,0.009820638224482536
0.01794256642460823,0.009663388133049011,-0.008850418962538242,-0.007071215193718672,0.0026942414697259665,0.008809832856059074
0.01794256642460823,0.009663388133049011,-0.008850418962538242,-0.007071215193718672,0.0026942414697259665,0.008809832856059074
0.01792859472334385,0.009150434285402298,-0.007940312847495079,-0.007008092012256384,0.002495917258784175,0.008975972421467304
0.017830101773142815,0.008737683296203613,-0.008835324086248875,-0.00731665501371026,0.0026738455053418875,0.008803618140518665
0.017949210479855537,0.00951274111866951,-0.009322437457740307,-0.0074028815142810345,0.0025232022162526846,0.009253118187189102
0.018298279494047165,0.009056229144334793,-0.008308273740112782,-0.006938344798982143,0.002424270147457719,0.009241447784006596
0.018225187435746193,0.00936083309352398,-0.008062891662120819,-0.0070985471829771996,0.0023190707433968782,0.009030316956341267
0.017713870853185654,0.009721977636218071,-0.00872819684445858,-0.0070873284712433815,0.002287481678649783,0.009395790286362171
0.01772124134004116,0.009245844557881355,-0.008480176329612732,-0.007232664618641138,0.0024138300213962793,0.009423167444765568
0.017846839502453804,0.009106582961976528,-0.007873776368796825,-0.006943751126527786,0.0022970468271523714,0.009145415388047695
0.018392397090792656,0.009474942460656166,-0.008698705583810806,-0.006905271206051111,0.0022511109709739685,0.009753603488206863
0.017830921337008476,0.009224953129887581,-0.008995127864181995,-0.007175436243414879,0.0024478724226355553,0.009730133228003979
0.017725320532917976,0.009215481579303741,-0.008046085014939308,-0.006985770538449287,0.002810070989653468,0.009326663799583912
0.0183199942111969,0.00902288407087326,-0.008268180303275585,-0.006826813332736492,0.0030967663042247295,0.009191765449941158
0.018033387139439583,0.009485152550041676,-0.009109514765441418,-0.006462060380727053,0.0028099052142351866,0.00911953765898943
0.018127694725990295,0.009146413765847683,-0.008537079207599163,-0.007037593517452478,0.0024652667343616486,0.00925658643245697
0.018474576994776726,0.009371889755129814,-0.007936731912195683,-0.007390578743070364,0.0022578018251806498,0.009380840696394444
0.0183515977114439,0.009429861791431904,-0.008708310313522816,-0.00747695891186595,0.0019782858435064554,0.009462498128414154
0.018532587215304375,0.009208815172314644,-0.00841585360467434,-0.006975804455578327,0.001928177080117166,0.009415329433977604
0.018419085070490837,0.008861273527145386,-0.008214284665882587,-0.0070804934948682785,0.0021373205818235874,0.00957424659281969
0.01800944097340107,0.00939563475549221,-0.00790779571980238,-0.007941506803035736,0.0023843564558774233,0.009639939293265343
0.018826771527528763,0.009135987609624863,-0.008636780083179474,-0.007742363028228283,0.002471107291057706,0.009469430893659592
0.018991049379110336,0.009086214937269688,-0.008946656249463558,-0.007659026887267828,0.002919191960245371,0.010114996694028378
0.01863766461610794,0.009411814622581005,-0.007933232001960278,-0.007822210900485516,0.0029570364858955145,0.009938792325556278
0.019652871415019035,0.009260580874979496,-0.008433334529399872,-0.007844067178666592,0.0026652778033167124,0.009731737896800041
0.019674820825457573,0.00850631482899189,-0.0088474340736866,-0.00757626723498106,0.002732515335083008,0.009640665724873543
0.018939916044473648,0.009357497096061707,-0.008534284308552742,-0.007517756428569555,0.002624341519549489,0.010152703151106834
0.017614495009183884,0.009296014904975891,-0.00795824360102415,-0.007613843772560358,0.0024069880601018667,0.009094366803765297
0.01929185725748539,0.009298296645283699,-0.008963290601968765,-0.007888791151344776,0.002431257627904415,0.011063462123274803
0.019653888419270515,0.009540563449263573,-0.008192337118089199,-0.007064015604555607,0.0023847271222621202,0.010216174647212029
0.019560640677809715,0.008835332468152046,-0.008887317031621933,-0.007195113692432642,0.0025659501552581787,0.009534074924886227
0.019560640677809715,0.008835332468152046,-0.008887317031621933,-0.007195113692432642,0.0025659501552581787,0.009534074924886227
0.018726734444499016,0.009053707122802734,-0.008888455107808113,-0.007572980131953955,0.002719826065003872,0.009551321156322956
0.019505895674228668,0.009404288604855537,-0.008271527476608753,-0.007518392987549305,0.0025382707826793194,0.009468999691307545
0.019657552242279053,0.009592805989086628,-0.008441879414021969,-0.007327328901737928,0.0025385208427906036,0.009662213735282421
0.019573384895920753,0.00896767619997263,-0.008862286806106567,-0.007664800155907869,0.002301308326423168,0.009809340350329876
0.01975921541452408,0.00965880323201418,-0.00830124318599701,-0.0077542588114738464,0.002374956849962473,0.009555267170071602
0.019906044006347656,0.008760064840316772,-0.0081913648173213,-0.008071765303611755,0.0028330713976174593,0.009493726305663586
0.019151370972394943,0.00899188220500946,-0.00923029612749815,-0.007865394465625286,0.0029267757199704647,0.009909708052873611
0.01926971971988678,0.009254924952983856,-0.009392487816512585,-0.008174559101462364,0.0028809108771383762,0.010182322934269905
0.019733484834432602,0.009196125902235508,-0.008570440113544464,-0.008525779470801353,0.0026940926909446716,0.009894697926938534
0.019921714439988136,0.008669468574225903,-0.008531159721314907,-0.008087710477411747,0.002677510492503643,0.01027655228972435
0.02000884898006916,0.008939982391893864,-0.009127196855843067,-0.008232471533119678,0.0027623677160590887,0.009963218122720718
0.019710170105099678,0.00928108487278223,-0.008736972697079182,-0.008727324195206165,0.002572750672698021,0.010199974291026592
0.019809652119874954,0.0088295703753829,-0.008947102352976799,-0.008430365473031998,0.002621098654344678,0.010406702756881714
0.020102614536881447,0.008968405425548553,-0.009187019430100918,-0.008330990560352802,0.002680280478671193,0.00993591733276844
0.020129069685935974,0.009419509209692478,-0.008815223351120949,-0.008434049785137177,0.002486719284206629,0.010488557629287243
0.02003723569214344,0.009053598158061504,-0.008826609700918198,-0.008544874377548695,0.002638904843479395,0.01025465689599514
0.0197687316685915,0.008887856267392635,-0.009286000393331051,-0.008064393885433674,0.003019615076482296,0.01014114823192358
0.02055998332798481,0.009476620703935623,-0.009033160284161568,-0.008091953583061695,0.0031257302034646273,0.010099304839968681
0.02049713395535946,0.009148860350251198,-0.008844271302223206,-0.008263078518211842,0.00336819002404809,0.010292851366102695
0.01987101510167122,0.00892269890755415,-0.009741738438606262,-0.008305144496262074,0.003234665608033538,0.010373693890869617
0.020351354032754898,0.00994434766471386,-0.008153010159730911,-0.008169637061655521,0.0029821284115314484,0.010139557532966137
0.020429087802767754,0.009521106258034706,-0.0086698979139328,-0.008390282280743122,0.0028875095304101706,0.009722339920699596
0.020424656569957733,0.00961634423583746,-0.00950328353792429,-0.008254491724073887,0.002995470305904746,0.010639317333698273
0.02081250213086605,0.009420988149940968,-0.00861761812120676,-0.00783796701580286,0.0029302015900611877,0.010377844795584679
0.02058396488428116,0.009880777448415756,-0.00862479954957962,-0.008018731139600277,0.002889233874157071,0.01032198965549469
0.02058396488428116,0.009880777448415756,-0.00862479954957962,-0.008018731139600277,0.002889233874157071,0.01032198965549469
0.020548660308122635,0.009408384561538696,-0.009325883351266384,-0.007907536812126637,0.0032042665407061577,0.009998845867812634
0.020548660308122635,0.009408384561538696,-0.009325883351266384,-0.007907536812126637,0.0032042665407061577,0.009998845867812634
0.021011540666222572,0.009432250633835793,-0.00905059464275837,-0.008126093074679375,0.0032268441282212734,0.009850540198385715
0.020476393401622772,0.010047025047242641,-0.009343169629573822,-0.008393685333430767,0.0032587805762887,0.010214850306510925
0.02044445462524891,0.009725683368742466,-0.009107617661356926,-0.008025852963328362,0.0029926642309874296,0.010346712544560432
0.021039452403783798,0.009097334928810596,-0.00826419796794653,-0.008074229583144188,0.003027474507689476,0.010181833989918232
0.020263204351067543,0.00963668618351221,-0.009329557418823242,-0.008431735448539257,0.002960065146908164,0.01062377355992794
0.02158373035490513,0.009985133074223995,-0.009077715687453747,-0.008623700588941574,0.0029779395554214716,0.010257088579237461
0.02112749218940735,0.009568610228598118,-0.009107915684580803,-0.008611838333308697,0.002822563285008073,0.010733525268733501
0.021794956177473068,0.009829831309616566,-0.00919605977833271,-0.008447108790278435,0.0026853361632674932,0.010273155756294727
0.021573876962065697,0.009981343522667885,-0.009167337790131569,-0.009139505214989185,0.002709907479584217,0.009733378887176514
0.021103106439113617,0.009244476445019245,-0.008835021406412125,-0.008685367181897163,0.0029967373702675104,0.010469804517924786
0.020818624645471573,0.010892214253544807,-0.009452618658542633,-0.00838310644030571,0.002943244995549321,0.009996669366955757
0.02118920348584652,0.010667534545063972,-0.009399154223501682,-0.009420562535524368,0.003244393039494753,0.009866059757769108
0.02112320065498352,0.010009310208261013,-0.008909644559025764,-0.008993188850581646,0.0033033268991857767,0.010306315496563911
0.02152303233742714,0.01061115600168705,-0.008618668653070927,-0.00837687961757183,0.0033110841177403927,0.010099643841385841
0.021255385130643845,0.010869506746530533,-0.009097251109778881,-0.008318929001688957,0.003362551797181368,0.00976413395255804
0.021502524614334106,0.010178056545555592,-0.009246420115232468,-0.008887180127203465,0.003190835239365697,0.010620258748531342
0.02155177667737007,0.01009246613830328,-0.00914657860994339,-0.009150858037173748,0.0029203768353909254,0.010248774662613869
0.021687615662813187,0.010036525316536427,-0.0093253618106246,-0.008802344091236591,0.0029631999786943197,0.010203728452324867
0.02154969982802868,0.010482517071068287,-0.008673588745296001,-0.00881917029619217,0.0029748359229415655,0.009371593594551086
0.02209087461233139,0.010943173430860043,-0.008852633647620678,-0.009110565297305584,0.002983022714033723,0.010541347786784172
0.02125416323542595,0.010057219304144382,-0.009095572866499424,-0.008332567289471626,0.002980186138302088,0.011136170476675034
0.021566830575466156,0.010518940165638924,-0.008468488231301308,-0.00932508148252964,0.003318214090541005,0.010429034009575844
0.021964989602565765,0.010058553889393806,-0.008351883850991726,-0.008543501608073711,0.0031997982878237963,0.010496675036847591
0.021964989602565765,0.010058553889393806,-0.008351883850991726,-0.008543501608073711,0.0031997982878237963,0.010496675036847591
0.02169368602335453,0.010953148826956749,-0.009061494842171669,-0.009443300776183605,0.00298923347145319,0.010362363420426846
0.02169368602335453,0.010953148826956749,-0.009061494842171669,-0.009443300776183605,0.00298923347145319,0.010362363420426846
0.022147202864289284,0.010035311803221703,-0.008963752537965775,-0.008585582487285137,0.0029472815804183483,0.01053425669670105
0.02198951318860054,0.010461729019880295,-0.008926622569561005,-0.007911075837910175,0.0031500570476055145,0.010710885748267174
0.02171170338988304,0.010426584631204605,-0.008651907555758953,-0.008324939757585526,0.003663889830932021,0.010535107925534248
0.021228110417723656,0.010214850306510925,-0.008835223503410816,-0.008800256066024303,0.003838302567601204,0.010382630862295628
0.02160499431192875,0.010816406458616257,-0.009499559178948402,-0.008414482697844505,0.0034279651008546352,0.010539699345827103
0.022055597975850105,0.01047468464821577,-0.009230980649590492,-0.008430270478129387,0.003137441584840417,0.010245398618280888
0.02187272533774376,0.010711002163589,-0.00860962551087141,-0.009316299110651016,0.0029655795078724623,0.010470130480825901
0.021996721625328064,0.010831954888999462,-0.009598766453564167,-0.00860463734716177,0.0030996953137218952,0.010747045278549194
0.02197866141796112,0.011078481562435627,-0.009519523940980434,-0.008555127307772636,0.003482465399429202,0.010696264915168285
0.022375157102942467,0.011675534769892693,-0.009346901439130306,-0.009027039632201195,0.003641808871179819,0.010846367105841637
0.022252464666962624,0.01096710842102766,-0.008688890375196934,-0.009163133800029755,0.003429379779845476,0.010751795023679733
0.022409282624721527,0.009765295311808586,-0.009151020087301731,-0.009194329380989075,0.003536913078278303,0.011346578598022461
0.02268979884684086,0.010748513974249363,-0.00876681786030531,-0.009332612156867981,0.0033708433620631695,0.010739881545305252
0.022457681596279144,0.01062561385333538,-0.008898337371647358,-0.009591043926775455,0.003443176858127117,0.010840611532330513
0.020617857575416565,0.009973707608878613,-0.009765831753611565,-0.009601845405995846,0.0032318877056241035,0.01133745163679123
0.023150140419602394,0.010769026353955269,-0.009629306383430958,-0.009822838008403778,0.0031136509496718645,0.011174741201102734
0.02292666956782341,0.010626289993524551,-0.008870862424373627,-0.00996595248579979,0.003181461011990905,0.010912944562733173
0.022768888622522354,0.010397246107459068,-0.0095163369551301,-0.009462891146540642,0.0034782446455210447,0.01036206353455782
0.02271989732980728,0.011836983263492584,-0.009472369216382504,-0.009432218968868256,0.0037169333081692457,0.010435154661536217
0.022453637793660164,0.010623707436025143,-0.009280947037041187,-0.009672765620052814,0.0034641968086361885,0.010492674075067043
0.02260851114988327,0.010750929825007915,-0.010342929512262344,-0.009377704001963139,0.0035482272505760193,0.010731170885264874
0.022940661758184433,0.010522573255002499,-0.008465337567031384,-0.009919170290231705,0.0034901457838714123,0.010772299021482468
0.022800179198384285,0.010935151018202305,-0.00935839582234621,-0.009637545794248581,0.0036741590593010187,0.010564466938376427
0.022800179198384285,0.010935151018202305,-0.00935839582234621,-0.009637545794248581,0.0036741590593010187,0.010564466938376427
0.02269982360303402,0.010596341453492641,-0.01001858338713646,-0.00982820987701416,0.0038450779393315315,0.010723433457314968
0.0230266060680151,0.010738580487668514,-0.009596758522093296,-0.01031298004090786,0.003460739506408572,0.011023398488759995
0.022757837548851967,0.011433872394263744,-0.009831356815993786,-0.00949894730001688,0.0034679891541600227,0.011117472313344479
0.02278679981827736,0.010785087943077087,-0.010023729875683784,-0.00929545983672142,0.003278028918430209,0.01101149432361126
0.022843236103653908,0.010427635163068771,-0.009029468521475792,-0.00973438285291195,0.003248276188969612,0.01088088471442461
0.022891193628311157,0.010891595855355263,-0.009685761295258999,-0.009255838580429554,0.003201577113941312,0.010725651867687702
0.022988202050328255,0.010869746096432209,-0.009952197782695293,-0.00937314797192812,0.0034992359578609467,0.01081966795027256
0.02284541167318821,0.01155821792781353,-0.009544266387820244,-0.010376297868788242,0.003791071940213442,0.010682119987905025
0.02302117459475994,0.01086764968931675,-0.00988854467868805,-0.009248118847608566,0.0038132909685373306,0.010868098586797714
0.023031264543533325,0.010508112609386444,-0.010438726283609867,-0.008710211142897606,0.0033802222460508347,0.011086001060903072
0.023000292479991913,0.011572260409593582,-0.009345028549432755,-0.00932987593114376,0.003251780290156603,0.01086096465587616
0.022901169955730438,0.011178324930369854,-0.01008131355047226,-0.009843353182077408,0.0032778887543827295,0.010957094840705395
0.023178614675998688,0.0112977996468544,-0.010266545228660107,-0.009791668504476547,0.0038645321037620306,0.010762708261609077
0.023960459977388382,0.011665145866572857,-0.009491094388067722,-0.010095621459186077,0.004219078924506903,0.010789817199110985
0.02423955872654915,0.011378351598978043,-0.01008368469774723,-0.010075515136122704,0.004097435623407364,0.011152051389217377
0.02319718897342682,0.011345183476805687,-0.010334047488868237,-0.010437682271003723,0.003977329470217228,0.011131461709737778
0.022858280688524246,0.011021374724805355,-0.010038221254944801,-0.010625612922012806,0.003567016450688243,0.010980553925037384
0.02343701384961605,0.011024923995137215,-0.010317273437976837,-0.009888076223433018,0.0035095049533993006,0.009837291203439236
0.023933526128530502,0.01112961396574974,-0.010258691385388374,-0.009860515594482422,0.0032301656901836395,0.011275730095803738
0.023530757054686546,0.010925461538136005,-0.009763392619788647,-0.010111055336892605,0.0034047772642225027,0.012277195230126381
0.02370961382985115,0.011686205863952637,-0.010522611439228058,-0.010404806584119797,0.0034895597491413355,0.011470709927380085
0.0245146956294775,0.011419604532420635,-0.010238461196422577,-0.010150154121220112,0.003559103701263666,0.011147147044539452
0.024330951273441315,0.010983356274664402,-0.009643788449466228,-0.010023514740169048,0.0037152788136154413,0.011409299448132515
0.023168521001935005,0.01129269227385521,-0.01053936779499054,-0.00990596879273653,0.003551859874278307,0.011001803912222385
0.023767530918121338,0.012107628397643566,-0.009922623634338379,-0.009976880624890327,0.0035665472969412804,0.011105011217296124
0.023694658651947975,0.011421393603086472,-0.010848438367247581,-0.010153429582715034,0.0038328489754348993,0.010973382741212845
0.02431868016719818,0.011073106899857521,-0.009801479056477547,-0.010171862319111824,0.0038439142517745495,0.011432423256337643
0.02431868016719818,0.011073106899857521,-0.009801479056477547,-0.010171862319111824,0.0038439142517745495,0.011432423256337643
0.02440015785396099,0.011757737025618553,-0.009375201538205147,-0.010525348596274853,0.003795487340539694,0.011380738578736782
0.024085674434900284,0.011598294600844383,-0.010542287491261959,-0.010131889954209328,0.0038079058285802603,0.01190292276442051
0.02417278289794922,0.012394994497299194,-0.009727436117827892,-0.010678084567189217,0.0034371183719486,0.011414478532969952
0.02512882649898529,0.011615880765020847,-0.009584849700331688,-0.010336687788367271,0.003920990973711014,0.011292497627437115
0.024811942130327225,0.011192746460437775,-0.010381235741078854,-0.010383252054452896,0.00417462969198823,0.011744935996830463
0.024754256010055542,0.011604402214288712,-0.009635661728680134,-0.010271473787724972,0.004418397322297096,0.0115315867587924
0.02460569143295288,0.01121064368635416,-0.009746193885803223,-0.009701109491288662,0.003960903733968735,0.011598000302910805
0.02488190121948719,0.011856076307594776,-0.010336610488593578,-0.010240196250379086,0.003467343747615814,0.01186011079698801
0.02485157921910286,0.011764155700802803,-0.01056286133825779,-0.010937146842479706,0.003446129383519292,0.011339555494487286
0.024711335077881813,0.01150346640497446,-0.009916865266859531,-0.00992923229932785,0.0036586776841431856,0.0112733393907547
0.024833282455801964,0.011890052817761898,-0.009800639934837818,-0.010056605562567711,0.004186293110251427,0.011074273847043514
0.025512633845210075,0.011354999616742134,-0.010004534386098385,-0.010022874921560287,0.004512669052928686,0.011109236627817154
0.025310015305876732,0.012227421626448631,-0.010068068280816078,-0.009615050628781319,0.004142653197050095,0.011495603248476982
0.025670891627669334,0.011684336699545383,-0.010486814193427563,-0.010270077735185623,0.004280526656657457,0.011729651130735874
0.025222046300768852,0.01154609676450491,-0.009473872371017933,-0.010352385230362415,0.004145769402384758,0.012032140977680683
0.02518945001065731,0.012394290417432785,-0.010378251783549786,-0.009603859856724739,0.003580890130251646,0.011611204594373703
0.02500736527144909,0.01170499250292778,-0.010064813308417797,-0.00999231357127428,0.003488249611109495,0.011611398309469223
0.02568734996020794,0.012009945698082447,-0.009710757993161678,-0.01098146103322506,0.003209772054105997,0.01141571719199419
0.026495307683944702,0.012033211067318916,-0.01016512606292963,-0.010381357744336128,0.003414703067392111,0.011565322056412697
0.026075726374983788,0.012275504879653454,-0.010603532195091248,-0.01005045510828495,0.004142942372709513,0.011561490595340729
0.02548714354634285,0.012416436336934566,-0.009301875717937946,-0.01050011906772852,0.004370983224362135,0.011612096801400185
0.025721436366438866,0.012064853683114052,-0.010035869665443897,-0.01003714557737112,0.004280452616512775,0.011790972203016281
0.026776686310768127,0.012369371019303799,-0.010473474860191345,-0.010472791269421577,0.004120483994483948,0.012289896607398987
0.02560589276254177,0.012618189677596092,-0.00998731143772602,-0.009762427769601345,0.0034431065432727337,0.012014375068247318
0.02638840861618519,0.01229471992701292,-0.009554817341268063,-0.010125959292054176,0.003684011520817876,0.01125439815223217
0.02638840861618519,0.01229471992701292,-0.009554817341268063,-0.010125959292054176,0.003684011520817876,0.01125439815223217
0.026429589837789536,0.012229686602950096,-0.010322273708879948,-0.00969572365283966,0.004187778569757938,0.01222323626279831
0.026429589837789536,0.012229686602950096,-0.010322273708879948,-0.00969572365283966,0.004187778569757938,0.01222323626279831
0.026236938312649727,0.011976763606071472,-0.009708660654723644,-0.01001412607729435,0.004019648302346468,0.011434502899646759
0.02527194283902645,0.012908768840134144,-0.009389820508658886,-0.010219057090580463,0.003988674376159906,0.011657790280878544
0.026148943230509758,0.012150304391980171,-0.009718461893498898,-0.010130065493285656,0.0040034824050962925,0.01163757685571909
0.027200935408473015,0.012343560345470905,-0.010304474271833897,-0.010153991170227528,0.003921084105968475,0.011515563353896141
0.026827920228242874,0.012563764117658138,-0.009975535795092583,-0.010261752642691135,0.0037835538387298584,0.01200708094984293
0.02640691213309765,0.012546150013804436,-0.010016467422246933,-0.00998399406671524,0.003728196257725358,0.011880088597536087
0.026615286245942116,0.012555435299873352,-0.009609896689653397,-0.010206863284111023,0.004131573252379894,0.012367477640509605
0.026963243260979652,0.012099893763661385,-0.009739819914102554,-0.010532013140618801,0.004397595766931772,0.012130765244364738
0.026469778269529343,0.01259605959057808,-0.009869511239230633,-0.010044791735708714,0.004803317133337259,0.011020863428711891
0.026427384465932846,0.012384464032948017,-0.009334706701338291,-0.010264838114380836,0.004457168746739626,0.011675003916025162
0.026445429772138596,0.012229779735207558,-0.009267487563192844,-0.010499689728021622,0.0036201048642396927,0.012756838463246822
0.026551147922873497,0.012116152793169022,-0.009639883413910866,-0.010402255691587925,0.0033232769928872585,0.012423076666891575
0.026443177834153175,0.012016835622489452,-0.009848712012171745,-0.010459956713020802,0.003488470334559679,0.0119600435718894
0.026570575311779976,0.012368505820631981,-0.01000649482011795,-0.010558411478996277,0.0038465114776045084,0.012154635973274708
0.02697078324854374,0.01221971120685339,-0.011737283319234848,-0.011264555156230927,0.004028332885354757,0.011874592863023281
0.026836855337023735,0.013137849979102612,-0.011045494116842747,-0.011401383206248283,0.004315219819545746,0.012084136717021465
0.027365146204829216,0.012575353495776653,-0.010000333189964294,-0.010386303998529911,0.004209897480905056,0.012460751459002495
0.027123989537358284,0.013120698742568493,-0.010811981745064259,-0.010847839526832104,0.004279721062630415,0.012208973988890648
0.027246035635471344,0.01212159264832735,-0.010594536550343037,-0.010578986257314682,0.0045738923363387585,0.012514177709817886
0.027279987931251526,0.011762463487684727,-0.010300983674824238,-0.010899706743657589,0.0041627283208072186,0.011917777359485626
0.027455821633338928,0.01282691489905119,-0.010781459510326385,-0.01199842244386673,0.003955887630581856,0.012161382474005222
0.026879221200942993,0.01236431859433651,-0.010103977285325527,-0.012087395414710045,0.0035286392085254192,0.012106496840715408
0.0259737316519022,0.012758448719978333,-0.010620546527206898,-0.011107876896858215,0.0038480637595057487,0.012125029228627682
0.027507109567523003,0.012700121849775314,-0.010678643360733986,-0.011073607951402664,0.004216940142214298,0.012504183687269688
0.027136990800499916,0.012537586502730846,-0.011600449681282043,-0.011614504270255566,0.0046044304035604,0.012625637464225292
0.027136990800499916,0.012537586502730846,-0.011600449681282043,-0.011614504270255566,0.0046044304035604,0.012625637464225292
0.026918580755591393,0.012714298442006111,-0.010508039966225624,-0.011447831057012081,0.004653744399547577,0.012384872883558273
0.02670399472117424,0.012773263268172741,-0.009943834505975246,-0.01149215828627348,0.004277755506336689,0.012406190857291222
0.026141487061977386,0.012034805491566658,-0.010943173430860043,-0.011340856552124023,0.004013023804873228,0.012536697089672089
0.02675809897482395,0.01247810572385788,-0.011109752580523491,-0.011614194139838219,0.003623096738010645,0.012227578088641167
0.027043327689170837,0.012175383977591991,-0.010425051674246788,-0.011388554237782955,0.00351787731051445,0.012172685004770756
0.027213988825678825,0.012873636558651924,-0.010758052580058575,-0.01109580509364605,0.004114365205168724,0.0124191390350461
0.02719380147755146,0.012603528797626495,-0.01019874308258295,-0.010452291928231716,0.0045552426017820835,0.012342436239123344
0.02719876728951931,0.01275163795799017,-0.010628677904605865,-0.010897768661379814,0.004612098913639784,0.012623491697013378
0.027110116556286812,0.013147666119039059,-0.01083685178309679,-0.010384097695350647,0.004128435160964727,0.012353821657598019
0.02709364704787731,0.012607802636921406,-0.010485994629561901,-0.010748575441539288,0.0037788311019539833,0.012371616438031197
0.02656622976064682,0.013012643903493881,-0.01110165100544691,-0.010999573394656181,0.0036651308182626963,0.012372259981930256
0.026909291744232178,0.012957184575498104,-0.011235810816287994,-0.010577518492937088,0.004031899385154247,0.012620409950613976
0.027905508875846863,0.013375688344240189,-0.01051508542150259,-0.010880257934331894,0.004401025362312794,0.012571413069963455
0.0277110543102026,0.012909362092614174,-0.011612089350819588,-0.01111644133925438,0.004604166839271784,0.012491288594901562
0.026755889877676964,0.013299643062055111,-0.011180346831679344,-0.011577710509300232,0.004902064800262451,0.012546487152576447
0.02595522440969944,0.013017975725233555,-0.01034394558519125,-0.011777084320783615,0.004630318842828274,0.012663407251238823
0.026382625102996826,0.013162423856556416,-0.010831856168806553,-0.011197534389793873,0.004329334944486618,0.012444300577044487
0.027200745418667793,0.013036374934017658,-0.010822334326803684,-0.011689277365803719,0.0040157814510166645,0.012257191352546215
0.026391202583909035,0.012970523908734322,-0.011789477430284023,-0.011674785055220127,0.004642477259039879,0.012463269755244255
0.027362503111362457,0.013517847284674644,-0.011116893962025642,-0.011610194109380245,0.005004433915019035,0.012462769635021687
0.027986247092485428,0.012860195711255074,-0.011072692461311817,-0.012009895406663418,0.0048035611398518085,0.012949896045029163
0.027372300624847412,0.013364019803702831,-0.012723802588880062,-0.011478972621262074,0.004392813425511122,0.01252714917063713
0.02721460349857807,0.013097035698592663,-0.010906262323260307,-0.012087640352547169,0.003973440267145634,0.013301258906722069
0.026540154591202736,0.013469974510371685,-0.011022324673831463,-0.012191996909677982,0.0042241825722157955,0.012618779204785824
0.026925548911094666,0.013049779459834099,-0.011154456995427608,-0.012226360850036144,0.0041397809982299805,0.012457654811441898
0.02795814350247383,0.013612527400255203,-0.011111170053482056,-0.012407510541379452,0.004498139955103397,0.012977446429431438
0.02757115662097931,0.013492301106452942,-0.011276103556156158,-0.012304128147661686,0.0044940379448235035,0.012604798190295696
0.027425767853856087,0.013199365697801113,-0.012079142034053802,-0.011721924878656864,0.004557280335575342,0.011878138408064842
0.02759956568479538,0.013040096499025822,-0.011380019597709179,-0.011925989761948586,0.004473402164876461,0.012614620849490166
0.02759956568479538,0.013040096499025822,-0.011380019597709179,-0.011925989761948586,0.004473402164876461,0.012614620849490166
0.027368392795324326,0.013444211333990097,-0.011022739112377167,-0.011774060316383839,0.0046286326833069324,0.01388583518564701
0.027505068108439445,0.01314395759254694,-0.01197871845215559,-0.012236573733389378,0.004565293900668621,0.013894733972847462
0.027993598952889442,0.013606189750134945,-0.011847874149680138,-0.012706782668828964,0.00449153408408165,0.013284310698509216
0.028024012222886086,0.01328115165233612,-0.011826258152723312,-0.012452640570700169,0.004092202987521887,0.013149071484804153
0.027540460228919983,0.01347661018371582,-0.011211435310542583,-0.012625929899513721,0.004206906538456678,0.012602361850440502
0.027823440730571747,0.01324229221791029,-0.01068837195634842,-0.012023812159895897,0.004524830728769302,0.01261287834495306
0.02817665785551071,0.013638111762702465,-0.011693929322063923,-0.012347548268735409,0.004715839400887489,0.013101371936500072
0.028071915730834007,0.01355207059532404,-0.011416219174861908,-0.012104074470698833,0.0047376723960042,0.01340918242931366
0.028099581599235535,0.014100868254899979,-0.011457279324531555,-0.01186417043209076,0.00449056550860405,0.01381605677306652
0.02847515046596527,0.013310092501342297,-0.012109591625630856,-0.012536927126348019,0.004212600644677877,0.01312306523323059
0.029003873467445374,0.013695497065782547,-0.011579873971641064,-0.012203365564346313,0.004352000076323748,0.013125070370733738
0.028595641255378723,0.013401736505329609,-0.01153196208178997,-0.01250063069164753,0.004062782973051071,0.012897123582661152
0.027789318934082985,0.014007785357534885,-0.01112176664173603,-0.012352077290415764,0.004157519433647394,0.012762737460434437
0.02846759930253029,0.013545994646847248,-0.011303666979074478,-0.012115311808884144,0.004543268587440252,0.013083475641906261
0.028989188373088837,0.014061014167964458,-0.011345711536705494,-0.012272708117961884,0.004549180623143911,0.012974033132195473
0.02811676450073719,0.013757776468992233,-0.010772263631224632,-0.011438296176493168,0.004440078977495432,0.01295226626098156
0.028863202780485153,0.013380378484725952,-0.011066009290516376,-0.011858035810291767,0.0040047080256044865,0.013049056753516197
0.029748326167464256,0.013662135228514671,-0.011606022715568542,-0.01166689395904541,0.0038271283265203238,0.013375790789723396
0.0286667849868536,0.013873540796339512,-0.011170020326972008,-0.011726957745850086,0.0042725917883217335,0.013662290759384632
0.028165599331259727,0.01397110428661108,-0.011531638912856579,-0.01231000293046236,0.004521103575825691,0.013677454553544521
0.028397351503372192,0.01393447257578373,-0.010717840865254402,-0.011677977629005909,0.004165735561400652,0.013238071464002132
0.029497234150767326,0.014338488690555096,-0.011835663579404354,-0.012040036730468273,0.004328401293605566,0.013127211481332779
0.029621997848153114,0.01371346041560173,-0.011723129078745842,-0.012121002189815044,0.004262538626790047,0.013181384652853012
0.029512986540794373,0.013588891364634037,-0.011606358923017979,-0.012473450973629951,0.00404756423085928,0.013237863779067993
0.029584335163235664,0.013828454539179802,-0.011631474830210209,-0.01238226518034935,0.00427220156416297,0.013416511006653309
0.0299278162419796,0.013398798182606697,-0.011416723020374775,-0.012720055878162384,0.004657176788896322,0.013177113607525826
0.029949551448225975,0.013846644200384617,-0.011832782998681068,-0.012265441007912159,0.00458619836717844,0.013420294970273972
0.029949551448225975,0.013846644200384617,-0.011832782998681068,-0.012265441007912159,0.00458619836717844,0.013420294970273972
0.030168922618031502,0.013455924578011036,-0.011317640542984009,-0.012455374002456665,0.004400812089443207,0.013509604148566723
0.030581625178456306,0.014123259112238884,-0.012215635739266872,-0.012442302890121937,0.004529241006821394,0.013541997410356998
0.03036711923778057,0.013992167077958584,-0.012090392410755157,-0.012732316739857197,0.0045209345407783985,0.013401449657976627
0.030252555385231972,0.014463460072875023,-0.012092068791389465,-0.01275946106761694,0.004541387781500816,0.013264461420476437
0.03065640851855278,0.013729900121688843,-0.011605709791183472,-0.01226667407900095,0.004604005720466375,0.013684198260307312
0.03074880875647068,0.014280558563768864,-0.011251330375671387,-0.012773788534104824,0.004597065504640341,0.01339761819690466
0.030944762751460075,0.013825884088873863,-0.01198552269488573,-0.012612157501280308,0.00478772260248661,0.013357758522033691
0.030588926747441292,0.014469826593995094,-0.01151004433631897,-0.013383733108639717,0.004856637679040432,0.012939831241965294
0.03081047348678112,0.01420668326318264,-0.012042125687003136,-0.01406040508300066,0.004807868041098118,0.013481289148330688
0.03090394288301468,0.014155304059386253,-0.012225424870848656,-0.012771515175700188,0.0048332917504012585,0.013634566217660904
0.03135344386100769,0.01326591707766056,-0.011921861208975315,-0.01230904646217823,0.004930150229483843,0.014032742008566856
0.03115023672580719,0.013981231488287449,-0.012272553518414497,-0.01297611091285944,0.004680556710809469,0.013738821260631084
0.031134648248553276,0.014132716692984104,-0.011617024429142475,-0.013095006346702576,0.004478889983147383,0.013865138404071331
0.03130573034286499,0.01419776026159525,-0.012147421017289162,-0.012859990820288658,0.004948349203914404,0.013688604347407818
0.03140571340918541,0.013841780833899975,-0.011890257708728313,-0.013302135281264782,0.005001353099942207,0.013758474960923195
0.0319037139415741,0.013992994092404842,-0.01152056735008955,-0.01293784286826849,0.004809152334928513,0.01364670880138874
0.03135647997260094,0.013618279248476028,-0.012002605013549328,-0.013346097432076931,0.0046754274517297745,0.013913881964981556
0.03112395852804184,0.014239627867937088,-0.011764876544475555,-0.012952733784914017,0.004768953658640385,0.013632433488965034
0.03172130882740021,0.014277073554694653,-0.012257885187864304,-0.013625343330204487,0.004801048897206783,0.014958029612898827
0.03139146417379379,0.013918930664658546,-0.011410390958189964,-0.01335041131824255,0.004725412931293249,0.014159108512103558
0.031402092427015305,0.014087165705859661,-0.011341730132699013,-0.013644243590533733,0.004742215387523174,0.014097695238888264
0.031767748296260834,0.014211874455213547,-0.011712812818586826,-0.013060846365988255,0.0050444831140339375,0.014147723093628883
0.031732477247714996,0.014225883409380913,-0.01112496480345726,-0.013456769287586212,0.0049040233716368675,0.013996962457895279
0.03129468485713005,0.014131030067801476,-0.011468091048300266,-0.013602133840322495,0.004587090108543634,0.013819015584886074
0.03174937143921852,0.014125502668321133,-0.011201485991477966,-0.013322237879037857,0.0049061463214457035,0.013825522735714912
0.03174937143921852,0.014125502668321133,-0.011201485991477966,-0.013322237879037857,0.0049061463214457035,0.013825522735714912
0.032810259610414505,0.014327816665172577,-0.011543134227395058,-0.013201158493757248,0.0049789706245064735,0.013631326146423817
0.03220087289810181,0.014029009267687798,-0.011223740875720978,-0.013889140449464321,0.0045121461153030396,0.013882346451282501
0.031278736889362335,0.014140973798930645,-0.01157029066234827,-0.014085358940064907,0.004931842442601919,0.013597117736935616
0.03093455545604229,0.01369402464479208,-0.011532391421496868,-0.0141075374558568,0.005369114223867655,0.013990017585456371
0.03205201029777527,0.014047949574887753,-0.01180962286889553,-0.013969221152365208,0.005154062993824482,0.014004669152200222
0.031881432980298996,0.013919340446591377,-0.011905735358595848,-0.01431157998740673,0.004846754018217325,0.014345605857670307
0.03170700743794441,0.014563058502972126,-0.011592153459787369,-0.013367467559874058,0.005141840316355228,0.014088202267885208
0.03218555450439453,0.013959160074591637,-0.012065296992659569,-0.013705265708267689,0.00518103176727891,0.014037715271115303
0.033499859273433685,0.014514487236738205,-0.011796443723142147,-0.013486580923199654,0.004847888834774494,0.01366265770047903
0.031232763081789017,0.014019902795553207,-0.011819258332252502,-0.013507295399904251,0.004801373463124037,0.013940832577645779
0.03154037147760391,0.01448275987058878,-0.011997056193649769,-0.012771030887961388,0.004772113170474768,0.013852639123797417
0.03315332531929016,0.014186985790729523,-0.011480425484478474,-0.013547229580581188,0.005066192243248224,0.01418052427470684
0.03255736082792282,0.01438342034816742,-0.012376395054161549,-0.013186542317271233,0.005296238698065281,0.013894968666136265
0.032690998166799545,0.014212335459887981,-0.012204575352370739,-0.013554337434470654,0.004723757039755583,0.014440921135246754
0.0322585292160511,0.014463907107710838,-0.011740615591406822,-0.013577031902968884,0.004593912977725267,0.014446558430790901
0.03200354427099228,0.01396377943456173,-0.011922146193683147,-0.013755549676716328,0.00512255635112524,0.014590881764888763
0.03273346275091171,0.014274658635258675,-0.011613036505877972,-0.013355238363146782,0.004924185108393431,0.014153608120977879
0.032766539603471756,0.013916661962866783,-0.012514801695942879,-0.013073444366455078,0.004770263098180294,0.014369367621839046
0.032544005662202835,0.014239829033613205,-0.011999731883406639,-0.013403717428445816,0.004931730683892965,0.01422567293047905
0.03254110366106033,0.014036688022315502,-0.01280144415795803,-0.013434051536023617,0.005027185194194317,0.014613930135965347
0.03254110366106033,0.014036688022315502,-0.01280144415795803,-0.013434051536023617,0.005027185194194317,0.014613930135965347
0.032288216054439545,0.014388218522071838,-0.012532224878668785,-0.013953430578112602,0.00494600972160697,0.014239072799682617
0.03402465954422951,0.01455122884362936,-0.012452580966055393,-0.014005684293806553,0.005134180653840303,0.014276208356022835
0.0326920822262764,0.013982942327857018,-0.01192388217896223,-0.013400648720562458,0.00556645542383194,0.014492318965494633
0.03198928013443947,0.01426435075700283,-0.012557072564959526,-0.013683932833373547,0.005327841266989708,0.013938169926404953
0.033194880932569504,0.014082384295761585,-0.01215699128806591,-0.013101278804242611,0.004883734509348869,0.014127594418823719
0.032937873154878616,0.014494260773062706,-0.012906137853860855,-0.013344159349799156,0.004799291957169771,0.014098444022238255
0.03332411125302315,0.01395628321915865,-0.012602570466697216,-0.013126082718372345,0.00548756355419755,0.014777743257582188
0.03395133465528488,0.014625081792473793,-0.012538212351500988,-0.013256934471428394,0.0054360185749828815,0.014805170707404613
0.033893562853336334,0.01430610753595829,-0.012926273979246616,-0.013277726247906685,0.00518736382946372,0.015041369013488293
0.03298897296190262,0.014591063372790813,-0.012425701133906841,-0.013881644234061241,0.004818399902433157,0.014617303386330605
0.03283292055130005,0.01398875005543232,-0.01300625130534172,-0.013823424465954304,0.004573923069983721,0.014947507530450821
0.03409457579255104,0.014587799087166786,-0.012508874759078026,-0.013558344915509224,0.004781982861459255,0.01453365944325924
0.03381148725748062,0.014111727476119995,-0.013439580798149109,-0.013702592812478542,0.005260537378489971,0.014246021397411823
0.033511675894260406,0.014866759069263935,-0.013102706521749496,-0.013592075556516647,0.005377666559070349,0.01400530431419611
0.03340565040707588,0.014212463051080704,-0.013716992922127247,-0.01394935417920351,0.005348940845578909,0.014552662149071693
0.033823613077402115,0.014257555827498436,-0.013635816052556038,-0.013790056109428406,0.004999553319066763,0.014500935561954975
0.03354194760322571,0.01371348649263382,-0.013437911868095398,-0.014171208254992962,0.00515446811914444,0.015150991268455982
0.03356050327420235,0.014436804689466953,-0.013155518099665642,-0.013678666204214096,0.005464506801217794,0.014762104488909245
0.033687978982925415,0.014104599133133888,-0.013802868314087391,-0.014380759559571743,0.0054242308251559734,0.014355567283928394
0.03371370956301689,0.01453331671655178,-0.014790414832532406,-0.014258500188589096,0.005398347042500973,0.014897285029292107
0.033429235219955444,0.013814525678753853,-0.012596872635185719,-0.013803484849631786,0.0053775073029100895,0.015295193530619144
