davideferrari95/blind_handover_controller/data/Test 173 - [2024-02-08 -- 11-14-24]/joint_states_data.csv
shoulder_pan_joint,shoulder_lift_joint,elbow_joint,wrist_1_joint,wrist_2_joint,wrist_3_joint
0.0018519985023885965,-0.0014166473411023617,-0.013764587230980396,0.014888236299157143,0.0,0.0022696976084262133
0.0018313683103770018,-0.0014443937689065933,-0.013531115837395191,0.015233321115374565,0.0,0.0024545013438910246
0.0018313683103770018,-0.0014443937689065933,-0.013531115837395191,0.015233321115374565,0.0,0.0024545013438910246
0.0018831597408279777,-0.0015863038133829832,-0.013438771478831768,0.015757257118821144,0.0,0.002089716726914048
0.0021364809945225716,-0.0017051935428753495,-0.01391538418829441,0.015076632611453533,0.0,0.0019675283692777157
0.002151316264644265,-0.0023393339943140745,-0.013452163897454739,0.015347563661634922,0.0,0.0017481534741818905
0.0018974741687998176,-0.00206550071015954,-0.013254852965474129,0.015030886046588421,0.0,0.0015028587076812983
0.001759647740982473,-0.001918691210448742,-0.012863191775977612,0.015275361947715282,0.0,0.0015387116000056267
0.0017827576957643032,-0.0018318791408091784,-0.01367780938744545,0.015244049951434135,0.0,0.0014994622906669974
0.0018098802538588643,-0.0017550407210364938,-0.01329233031719923,0.015255717560648918,0.0,0.0016379568260163069
0.001878867158666253,-0.0017700836760923266,-0.013385513797402382,0.014584033749997616,0.0,0.0017208142671734095
0.001903671771287918,-0.0019819270819425583,-0.013116737827658653,0.01567740924656391,0.0,0.001853178022429347
0.0021419671829789877,-0.002044718014076352,-0.013903790153563023,0.014583691954612732,0.0,0.0017206128686666489
0.0021289344877004623,-0.0023305302020162344,-0.013044372200965881,0.014396893791854382,0.0,0.0018133936682716012
0.002053946489468217,-0.002207239856943488,-0.013521593064069748,0.014122465625405312,0.0,0.0017573132645338774
0.00207577389664948,-0.001954225357621908,-0.013898125849664211,0.014826743863523006,0.0,0.0021905063185840845
0.0020682686008512974,-0.002114053349941969,-0.01340760849416256,0.015051520429551601,0.0,0.002210854785516858
0.0020682686008512974,-0.002114053349941969,-0.01340760849416256,0.015051520429551601,0.0,0.002210854785516858
0.0019332915544509888,-0.0023288403172045946,-0.013123846612870693,0.014640113338828087,0.0,0.002112885005772114
0.001885008066892624,-0.002226389478892088,-0.013210185803472996,0.015164243057370186,0.0,0.0018795713549479842
0.0018720374209806323,-0.002327750436961651,-0.013025687076151371,0.01448223739862442,0.0,0.0017661933088675141
0.00200535892508924,-0.0021861849818378687,-0.013281247578561306,0.01431877352297306,0.0,0.0017095822840929031
0.001974264392629266,-0.002121574245393276,-0.012461603619158268,0.014093649573624134,0.0,0.001658336608670652
0.0019975623581558466,-0.0022421504836529493,-0.013095572590827942,0.014355676248669624,0.0,0.0018466772744432092
0.001958524575456977,-0.0021636164747178555,-0.012885738164186478,0.01410120353102684,0.0,0.001793251489289105
0.0019565303809940815,-0.0024990811944007874,-0.013577735051512718,0.014384844340384007,0.0,0.002042118227109313
0.0019264749716967344,-0.002398490207269788,-0.01308603584766388,0.014127117581665516,0.0,0.0018847649917006493
0.0019545026589185,-0.0024950469378381968,-0.012963548302650452,0.014362993650138378,0.0,0.0019942070357501507
0.0019272321369498968,-0.0024520689621567726,-0.013188131153583527,0.014127937145531178,0.0,0.0019538465421646833
0.001947877462953329,-0.002553677884861827,-0.012570366263389587,0.01437237486243248,0.0,0.001979728462174535
0.0019816921558231115,-0.0026323229540139437,-0.013048095628619194,0.012729445472359657,0.0,0.0019260416738688946
0.0023083945270627737,-0.0027316922787576914,-0.012593510560691357,0.014369294047355652,0.0,0.0019594242330640554
0.0020870761945843697,-0.0024647600948810577,-0.013063343241810799,0.014665069989860058,0.0,0.001924736425280571
0.0021650493144989014,-0.002531584817916155,-0.012746297754347324,0.014417506754398346,0.0,0.0019531194120645523
0.0019649602472782135,-0.002690136432647705,-0.013462438248097897,0.013726177625358105,0.0,0.0018004841404035687
0.0019811769016087055,-0.0024458840489387512,-0.012825633399188519,0.014364353381097317,0.0,0.0016357091953977942
0.002029521157965064,-0.002522799652069807,-0.013040313497185707,0.013795529492199421,0.0,0.001633870997466147
0.0022404089104384184,-0.002698096912354231,-0.012391182594001293,0.01408254262059927,0.0,0.001712396857328713
0.0023005770053714514,-0.002884574932977557,-0.012584522366523743,0.013670794665813446,0.0,0.0017484549898654222
0.002174695488065481,-0.0027939823921769857,-0.013136496767401695,0.013999206013977528,0.0,0.0020097156520932913
0.002137968549504876,-0.002848193747922778,-0.012681586667895317,0.01348669733852148,0.0,0.001966962357982993
0.0020014778710901737,-0.002824793104082346,-0.012488451786339283,0.01354866661131382,0.0,0.0020379438064992428
0.001951649785041809,-0.0026313539128750563,-0.013174382969737053,0.013828838244080544,0.0,0.0019106236286461353
0.001951649785041809,-0.0026313539128750563,-0.013174382969737053,0.013828838244080544,0.0,0.0019106236286461353
0.001995075261220336,-0.0027327395509928465,-0.012372876517474651,0.013872425071895123,0.0,0.001459256513044238
0.0024902350269258022,-0.0024841988924890757,-0.012348166666924953,0.01341464277356863,0.0,0.0014934841310605407
0.0025535160675644875,-0.002383778104558587,-0.012588071636855602,0.013338752090930939,0.0,0.0019029107643291354
0.0024304520338773727,-0.0025016122963279486,-0.013051779009401798,0.013488694094121456,0.0,0.0020436206832528114
0.002415180904790759,-0.0024017507676035166,-0.01197286881506443,0.013301990926265717,0.0,0.002562819980084896
0.0021602194756269455,-0.002645942149683833,-0.012675633653998375,0.013563355430960655,0.0,0.002305967966094613
0.0021602194756269455,-0.002645942149683833,-0.012675633653998375,0.013563355430960655,0.0,0.002305967966094613
0.0022840634919703007,-0.002770615043118596,-0.012528919614851475,0.013305864296853542,0.0,0.0021660523489117622
0.002287408569827676,-0.002595026046037674,-0.012843436561524868,0.013288679532706738,0.0,0.0019534544553607702
0.0021856450475752354,-0.0027152837719768286,-0.012586976401507854,0.012950134463608265,0.0,0.0016864974750205874
0.002413177629932761,-0.0025609845761209726,-0.012360443361103535,0.013337341137230396,0.0,0.0014971185009926558
0.0025721427518874407,-0.0024297486525028944,-0.012677608989179134,0.012756675481796265,0.0,0.0014130264753475785
0.002511807484552264,-0.0026782164350152016,-0.012604780495166779,0.013067970983684063,0.0,0.0012979324674233794
0.0024913684464991093,-0.002895156154409051,-0.013220883905887604,0.012655563652515411,0.0,0.0013594601769000292
0.0026276535354554653,-0.0029239573050290346,-0.013127577491104603,0.01306711882352829,0.0,0.0016138433711603284
0.0024732586462050676,-0.0025958241894841194,-0.01320959534496069,0.013179047033190727,0.0,0.0016799666918814182
0.002700171200558543,-0.0023356021847575903,-0.012673142366111279,0.013261702843010426,0.0,0.001578254858031869
0.0026164124719798565,-0.002286069793626666,-0.01350072305649519,0.013453054241836071,0.0,0.0014881696552038193
0.002641969360411167,-0.0026040449738502502,-0.01265297643840313,0.012845506891608238,0.0,0.0014703698689118028
0.0026800907216966152,-0.002857900457456708,-0.012559718452394009,0.012748604640364647,0.0,0.0013497753534466028
0.002734921872615814,-0.0028212813194841146,-0.012579108588397503,0.012373032048344612,0.0,0.0012858418049290776
0.0028284077998250723,-0.002592964330688119,-0.012594855390489101,0.012790479697287083,0.0,0.0013518702471628785
0.0026833158917725086,-0.0026291795074939728,-0.013299583457410336,0.012202033773064613,0.0,0.0015012373914942145
0.002929353155195713,-0.0025940225459635258,-0.013401358388364315,0.012605031952261925,0.0,0.0016693021170794964
0.002527476055547595,-0.002535811858251691,-0.011960648000240326,0.0126457829028368,1.1445756626926595e-06,0.0020609742496162653
0.0026892535388469696,-0.0026616596151143312,-0.01290401816368103,0.012928658165037632,7.47326112104929e-08,0.0019538449123501778
0.0028374227695167065,-0.0025114617310464382,-0.012683231383562088,0.01303810253739357,4.8795056883932375e-09,0.0017131962813436985
0.0028870650567114353,-0.0024933903478085995,-0.01235793624073267,0.013186614029109478,3.185968433516706e-10,0.0015375463990494609
0.0026654975954443216,-0.002207062905654311,-0.012860595248639584,0.01235994603484869,2.0802099626182624e-11,0.001293560373596847
0.0027253052685409784,-0.002208222635090351,-0.012572682462632656,0.012572113424539566,1.3582284168894843e-12,0.0009565986110828817
0.002699225442484021,-0.00237817270681262,-0.013348622247576714,0.012592384591698647,8.868262163031285e-14,0.0009180605411529541
0.002699225442484021,-0.00237817270681262,-0.013348622247576714,0.012592384591698647,8.868262163031285e-14,0.0009180605411529541
0.002648960566148162,-0.0023401142098009586,-0.012298627756536007,0.012852300889790058,5.79034094435292e-15,0.0009133975836448371
0.0027641376946121454,-0.002483344404026866,-0.012790840119123459,0.01268917229026556,3.780679149905958e-16,0.0009293953189626336
0.0024197509046643972,-0.002230052836239338,-0.012433882802724838,0.012183543294668198,2.4685129158307603e-17,0.0010579940862953663
0.0023025304544717073,-0.0022879261523485184,-0.01267226506024599,0.012655200436711311,1.6117625609329167e-18,0.0011336042080074549
0.0023063805419951677,-0.001986494055017829,-0.01236845925450325,0.01196183543652296,1.052365735542443e-19,0.0012533204862847924
0.002336677862331271,-0.0014705618377774954,-0.012037236243486404,0.012240741401910782,6.871195478021934e-21,0.0014415309997275472
0.002578234300017357,-0.00110837712418288,-0.012562931515276432,0.012304134666919708,4.486400147624331e-22,0.0014088613679632545
0.0027915029786527157,-0.0008888051379472017,-0.011999973095953465,0.012288985773921013,2.929298656373805e-23,0.001312931883148849
0.002694156486541033,-0.0007419696194119751,-0.012366266921162605,0.012119470164179802,1.9126226497770626e-24,0.0012578958412632346
0.002511341590434313,-0.0008446004940196872,-0.011945809237658978,0.012300631031394005,1.2488058862315734e-25,0.0011458739172667265
0.0025739436969161034,-0.0008780928328633308,-0.01235397718846798,0.01240643858909607,8.153810375924218e-27,0.0010323857422918081
0.00260472041554749,-0.0007333395769819617,-0.012275456450879574,0.011995740234851837,5.3238553675069275e-28,0.0010085329413414001
0.0024823476560413837,-0.0007746374467387795,-0.011358455754816532,0.012404028326272964,3.4760971140030467e-29,0.0008753678994253278
0.00281341839581728,-0.0008034132770262659,-0.012179194949567318,0.012125853449106216,2.269643364093096e-30,0.0008624761248938739
0.002975636161863804,-0.0014418119098991156,-0.011759131215512753,0.011933185160160065,1.4819149301296663e-31,0.0009355213260278106
0.0026240041479468346,-0.0011645720805972815,-0.01211635209619999,0.011812025681138039,9.675845180555557e-33,0.0012653827434405684
0.002707765204831958,-0.0009579739416949451,-0.012254462577402592,0.011528815142810345,6.317635613776843e-34,0.0013300032587721944
0.002789828460663557,-0.0009468854987062514,-0.011751275509595871,0.011870385147631168,4.1249646494351735e-35,0.0015667168190702796
0.002818607958033681,-0.0008246408542618155,-0.012337782420217991,0.011578196659684181,2.693307127869318e-36,0.0017430646112188697
0.002799142384901643,-0.0007291447836905718,-0.011905371211469173,0.011889893561601639,1.758537087029e-37,0.0015699582872912288
0.0028876527212560177,-0.0007354062399826944,-0.012009226717054844,0.011789203621447086,1.1481990185550901e-38,0.0013631160836666822
0.0031050541438162327,-0.0006802884163334966,-0.011606684885919094,0.01132931374013424,7.496918758168485e-40,0.0011675930581986904
0.0030687875114381313,-0.0005055092624388635,-0.011676570400595665,0.011804408393800259,4.895015795579451e-41,0.0008769541163928807
0.0030041926074773073,-0.0005425202543847263,-0.011908214539289474,0.011439604684710503,3.196361797124908e-42,0.0008350147400051355
0.0029610111378133297,-0.0006023964961059391,-0.011880186386406422,0.011660552583634853,1.401298464324817e-44,0.0008481991826556623
0.0028565749526023865,-0.0008594653918407857,-0.011449141427874565,0.011249768547713757,6.659406608378049e-06,0.0009703219984658062
0.0031208195723593235,-0.000899507780559361,-0.011526064947247505,0.011458361521363258,0.00012257072376087308,0.0010138670913875103
0.0030844176653772593,-0.0007763102184981108,-0.01191675290465355,0.011840121820569038,0.0001487820700276643,0.0010181628167629242
0.0027943130116909742,-0.0006787279853597283,-0.011929035186767578,0.011027645319700241,0.00016656919615343213,0.0013365430058911443
0.0029653487727046013,-0.0007018524338491261,-0.01160256378352642,0.011211458593606949,0.0001890751300379634,0.0011951079359278083
0.003067516256123781,-0.0006326770526356995,-0.011155220679938793,0.010918860323727131,0.0009057944407686591,0.0011374454479664564
0.003067516256123781,-0.0006326770526356995,-0.011155220679938793,0.010918860323727131,0.0009057944407686591,0.0011374454479664564
0.003183313412591815,-0.0006558499881066382,-0.011228896677494049,0.01101073157042265,0.0009888707427307963,0.0010724065359681845
0.003269162029027939,-0.0005957656539976597,-0.011774035170674324,0.011120271869003773,0.0009188003605231643,0.0009600826306268573
0.003005050588399172,-0.0005252366536296904,-0.0112858135253191,0.010026197880506516,0.000912471441552043,0.0008568594348616898
0.0030240239575505257,-0.0005629416555166245,-0.011465353891253471,0.01064892578870058,0.0008896351209841669,0.0006804247968830168
0.002896223682910204,-0.0005924492725171149,-0.011818338185548782,0.010922856628894806,0.0008039778913371265,0.000696830393280834
0.0030203380156308413,-0.000595207791775465,-0.011539745144546032,0.010429500602185726,0.0008125604945234954,0.0007194507634267211
0.0032655252143740654,-0.0005724414950236678,-0.01118107046931982,0.01062694750726223,0.0008236395078711212,0.0007380674942396581
0.0031231893226504326,-0.0006525694043375552,-0.010935341939330101,0.010600831359624863,0.0008324580849148333,0.0008741873898543417
0.003141700057312846,-0.0006228174897842109,-0.011591696180403233,0.01097899116575718,0.0009242916712537408,0.0008912290213629603
0.0031824642792344093,-0.0006556445150636137,-0.011364043690264225,0.011193952523171902,0.0009696775232441723,0.0008437404758296907
0.003504639258608222,-0.000649407331366092,-0.010741687379777431,0.0104295639321208,0.001003344776108861,0.0007932625594548881
0.003468531183898449,-0.0006162032368592918,-0.011346004903316498,0.010791200213134289,0.0014972533099353313,0.0007562001701444387
0.0034616633784025908,-0.0005616562557406723,-0.011363282799720764,0.010888626798987389,0.0014676640275865793,0.0007238066173158586
0.0032906632404774427,-0.0005882599507458508,-0.011259928345680237,0.010679778642952442,0.0014238121220842004,0.0006656869663856924
0.0033941753208637238,-0.0005447249277494848,-0.011309468187391758,0.010305661708116531,0.0014512678608298302,0.0005986983887851238
0.003614752786234021,-0.000506412354297936,-0.011696716770529747,0.010017787106335163,0.0013955921167507768,0.0006066950736567378
0.0032869584392756224,-0.00043883026228286326,-0.010864952579140663,0.01095508597791195,0.0010136535856872797,0.0005937116220593452
0.003290607128292322,-0.0004519752983469516,-0.011143122799694538,0.010184258222579956,0.0009818118996918201,0.0005851805326528847
0.0033673830330371857,-0.0004402840859256685,-0.011621827259659767,0.009803928434848785,0.0009584227227605879,0.0005732501158490777
0.003529612673446536,-0.0004724582831840962,-0.011180249974131584,0.010127238929271698,0.0009340193355455995,0.0006138146272860467
0.003529612673446536,-0.0004724582831840962,-0.011180249974131584,0.010127238929271698,0.0009340193355455995,0.0006138146272860467
0.0036690407432615757,-0.0004419123288244009,-0.011865243315696716,0.009622172452509403,0.0008512305212207139,0.0006206338293850422
0.0036350134760141373,-0.0004695220850408077,-0.011854141019284725,0.009283676743507385,0.0007366021163761616,0.0006017042323946953
0.0036494266241788864,-0.0004428979882504791,-0.011578576639294624,0.009596758522093296,0.0006938359583728015,0.0005879724631085992
0.0037135162856429815,-0.00041725829942151904,-0.011540724895894527,0.009451172314584255,0.0006619220366701484,0.0005739512853324413
0.003393785795196891,-0.00047345561324618757,-0.011339155957102776,0.009007951244711876,0.0006775722722522914,0.0005837369244545698
0.0036204433999955654,-0.00043166568502783775,-0.011813264340162277,0.00818503275513649,0.0006651743897236884,0.000555969774723053
0.003367609577253461,-0.0003939138841815293,-0.011573253199458122,0.009396309964358807,0.0006449924549087882,0.0005817673518322408
0.0035670411307364702,-0.00040946967783384025,-0.011222101747989655,0.009563109837472439,0.0005942973075434566,0.0005368393030948937
0.003694416955113411,-0.00040191569132730365,-0.011953724548220634,0.009608485735952854,0.0005848416476510465,0.0005271973204798996
0.004224772099405527,-0.0003743558481801301,-0.011805931106209755,0.009344847872853279,0.0005747185205109417,0.0005182187305763364
0.0036077473778277636,-0.0004075946635566652,-0.01230059564113617,0.008862517774105072,0.000560497515834868,0.0004753003013320267
0.003579790238291025,-0.0003835504758171737,-0.011478319764137268,0.009199629537761211,0.000510444981046021,0.00043697861838154495
0.003731061238795519,-0.00036154838744550943,-0.011633794754743576,0.009278788231313229,0.0005335032474249601,0.0004042508080601692
0.0038872563745826483,-0.0003419232671149075,-0.012419292703270912,0.00819344725459814,0.0005002422840334475,0.00043436032137833536
0.003900026436895132,-0.0003699955123011023,-0.011971491388976574,0.00823186431080103,0.000512670143507421,0.000409887230489403
0.003844666061922908,-0.0003524933126755059,-0.012358474545180798,0.008813890628516674,0.0004927500849589705,0.0003850710636470467
0.004356099758297205,-0.0003360497357789427,-0.012382307089865208,0.008513412438333035,0.0004902720102109015,0.0003628955746535212
0.00410651508718729,-0.00032106239814311266,-0.012000525370240211,0.007866321131587029,0.00046700387611053884,0.0003431233635637909
0.004282529000192881,-0.00030735539621673524,-0.01217460073530674,0.008005228824913502,0.0004978507058694959,0.00032539526000618935
0.004288816824555397,-0.000284261885099113,-0.012284654192626476,0.008356360718607903,0.0005218976875767112,0.0003420304856263101
0.004107764456421137,-0.0002671254042070359,-0.012564991600811481,0.0083153722807765,0.0005334162269718945,0.0003362956049386412
0.003990925848484039,-0.0002521514252293855,-0.011458661407232285,0.007887309417128563,0.0005311248824000359,0.0003219264908693731
0.004038860090076923,-0.00023877082276158035,-0.012090020813047886,0.008194544352591038,0.0007711742073297501,0.00030818814411759377
0.0040268790908157825,-0.00022673983767163008,-0.011718674562871456,0.008212960325181484,0.0008013288024812937,0.0002968040353152901
0.003945040050894022,-0.0002471074112690985,-0.012259452603757381,0.008420964702963829,0.000784628966357559,0.00023318860621657223
0.003857263596728444,-0.00023635613615624607,-0.012755115516483784,0.00844086054712534,0.0010606565047055483,0.00022156466729938984
0.0037220173981040716,-0.00022644501586910337,-0.011921021156013012,0.008221707306802273,0.0010479396441951394,0.00021115595882292837
0.0037220173981040716,-0.00022644501586910337,-0.011921021156013012,0.008221707306802273,0.0010479396441951394,0.00021115595882292837
0.00353280920535326,-0.0002173309330828488,-0.01165314856916666,0.008403332903981209,0.0010184288257732987,0.0002016893122345209
0.0037696734070777893,-0.00020892235625069588,-0.012075715698301792,0.009040458127856255,0.0009057074785232544,0.0001930356229422614
0.004023040644824505,-0.00020114010840188712,-0.011796095408499241,0.008874575607478619,0.0008985022432170808,0.00018509403162170202
0.0045122974552214146,-0.00019391703244764358,-0.011125599965453148,0.008286161348223686,0.0008177298586815596,0.0001777798170223832
0.0042380825616419315,-0.0001871942076832056,-0.011667320504784584,0.008378876373171806,0.0007746650371700525,0.00017102257697843015
0.00398830184713006,-0.00018092230311594903,-0.0117832962423563,0.008537212386727333,0.000764235039241612,0.00016476000018883497
0.003845721250399947,-0.00017505732830613852,-0.012422741390764713,0.00815234612673521,0.0007042122888378799,0.0001589395833434537
0.004350134637206793,-0.0001695606333669275,-0.012034565210342407,0.007770328316837549,0.0006348254391923547,0.00015351703041233122
0.004138014279305935,-0.00016439850151073188,-0.011422599665820599,0.008213154971599579,0.000653209222946316,0.0001484519016230479
0.004299847409129143,-0.00018505912157706916,-0.011874615214765072,0.008239379152655602,0.0006399084813892841,0.00014371065481100231
0.004294419661164284,-0.0001807757798815146,-0.011718242429196835,0.008061024360358715,0.0006241057999432087,0.00013926306564826518
0.0044244579039514065,-0.0001758130092639476,-0.011925785802304745,0.007923789322376251,0.0005748562980443239,0.0001350819511571899
0.004168231971561909,-8.394548058276996e-05,-0.011927398853003979,0.007776216603815556,0.000559263164177537,0.0001311450614593923
0.004296630155295134,-7.91290876804851e-05,-0.011357607319951057,0.00820118747651577,0.0005464900750666857,0.00012743099068757147
0.004540989175438881,-7.578237273264676e-05,-0.012295300140976906,0.007943978533148766,0.0005760306376032531,0.00012392170901875943
0.004098640289157629,-7.272063521668315e-05,-0.01142947655171156,0.008209253661334515,0.0005981562426313758,0.00012060040899086744
0.004371406976133585,-6.989638495724648e-05,-0.011722049675881863,0.008551678620278835,0.0005639364244416356,0.00011745218944270164
0.004487559199333191,-9.956094436347485e-05,-0.01188411470502615,0.008200212381780148,0.000725232413969934,0.00011446471035014838
0.004714643117040396,-9.727061114972457e-05,-0.011678717099130154,0.007645151577889919,0.0007483450463041663,0.00011162514419993386
0.004764215555042028,-9.390473132953048e-05,-0.011878159828484058,0.007921438664197922,0.0006710527231916785,0.00010892316640820354
0.004421666264533997,-9.074884292203933e-05,-0.011073959991335869,0.008047718554735184,0.000683265330735594,0.0001063490126398392
0.004546002019196749,-8.779780910117552e-05,-0.01158803142607212,0.008011989295482635,0.0006268579163588583,0.00010389351518824697
0.0041440147906541824,-8.503275603288785e-05,-0.011565460823476315,0.007879668846726418,0.0006464493926614523,0.00010154892515856773
0.004205809440463781,-8.243645424954593e-05,-0.011166836135089397,0.007821369916200638,0.0006217812187969685,9.930798842106014e-05
0.005134247709065676,-7.769227522658184e-05,-0.01157215517014265,0.007066662888973951,0.0006801733979955316,9.510987001704052e-05
0.005134247709065676,-7.769227522658184e-05,-0.01157215517014265,0.007066662888973951,0.0006801733979955316,9.510987001704052e-05
0.004602564498782158,-7.551925227744505e-05,-0.01149607915431261,0.0071748364716768265,0.0006797357345931232,9.314142516814172e-05
0.004336084704846144,-7.346447091549635e-05,-0.01141274068504572,0.008009611628949642,0.0006645727553404868,9.125257201958448e-05
0.004161871504038572,-7.151853060349822e-05,-0.010784066282212734,0.007864352315664291,0.0009744884446263313,8.943890134105459e-05
0.0048566837795078754,-6.967301305849105e-05,-0.011590600945055485,0.006861827336251736,0.0010790526866912842,8.769588748691604e-05
0.004596687387675047,-6.62538077449426e-05,-0.011228618212044239,0.007038428448140621,0.0011169333010911942,6.781463889637962e-05
0.004596687387675047,-6.62538077449426e-05,-0.011228618212044239,0.007038428448140621,0.0011169333010911942,6.781463889637962e-05
0.004949632100760937,3.873001696774736e-05,-0.011871506460011005,0.0072142137214541435,0.001081452239304781,6.630054849665612e-05
0.0049538989551365376,4.1060979128815234e-05,-0.011564409360289574,0.007027722895145416,0.0009109079255722463,6.508452497655526e-05
0.004820963367819786,3.9322014345088974e-05,-0.01161189004778862,0.0071416557766497135,0.00089973711874336,6.392768409568816e-05
0.0042927139438688755,3.767652015085332e-05,-0.01111895777285099,0.007568370085209608,0.0007939923671074212,6.281228706939146e-05
0.004386459942907095,7.181982800830156e-05,-0.01096190046519041,0.007481604348868132,0.0007919785566627979,5.0279064453206956e-05
0.005138085223734379,6.952451076358557e-05,-0.011339598335325718,0.00637882249429822,0.0007295280229300261,4.578039806801826e-05
0.00501947570592165,6.694537296425551e-05,-0.01101235393434763,0.006143451202660799,0.0005800019716843963,4.4853335566585883e-05
0.0044098543003201485,6.454468530137092e-05,-0.011362035758793354,0.0067557720467448235,0.0006048869108781219,-3.528903107508086e-05
0.004267075099050999,6.23102459940128e-05,-0.011434760875999928,0.0070473812520504,0.0006341689149849117,-3.9672926504863426e-05
0.004675820469856262,8.000186062417924e-05,-0.01080997008830309,0.006563360337167978,0.0006615373422391713,-5.6160937674576417e-05
0.004964578431099653,8.727466047275811e-05,-0.01188708283007145,0.00587825383991003,0.001023292075842619,-5.733609214075841e-05
0.004783386830240488,8.467023872071877e-05,-0.011473460122942924,0.006269484292715788,0.0011266994988545775,-5.629527731798589e-05
0.004710727836936712,8.2097300037276e-05,-0.011717064306139946,0.006631265860050917,0.0013961432268843055,-7.112893217708915e-05
0.004550613462924957,7.967488636495546e-05,-0.011374914087355137,0.007269595749676228,0.0013694975059479475,-7.191167969722301e-05
0.005044953431934118,7.739106513326988e-05,-0.011094605550169945,0.006571848876774311,0.0013786323834210634,-8.713180432096124e-05
0.004650508053600788,7.523460226366296e-05,-0.011275243014097214,0.005817003548145294,0.0012549263192340732,-0.00039022654527798295
0.005071635358035564,7.319494034163654e-05,-0.010914880782365799,0.0057089743204414845,0.001056157285347581,-0.0005124093731865287
0.0050212061032652855,9.469025826547295e-05,-0.010899265296757221,0.006375585682690144,0.0010176969226449728,-0.0005526355816982687
0.005183885805308819,9.256983321392909e-05,-0.011254901066422462,0.006550008896738291,0.0009879464050754905,-0.0005267845699563622
0.004968404769897461,9.025319013744593e-05,-0.01071353442966938,0.0058557940647006035,0.0009587884414941072,-0.0005520419799722731
0.004969193134456873,8.594396058470011e-05,-0.011032436974346638,0.006204851903021336,0.0008617705898359418,-0.0006985694053582847
0.004845710471272469,8.394012547796592e-05,-0.010821678675711155,0.0066001201048493385,0.0009440846042707562,-0.0007214552606455982
0.005376066081225872,0.0001775504497345537,-0.011601916514337063,0.005952510517090559,0.0011233906261622906,-0.000735136098228395
0.0051962705329060555,0.00018255930626764894,-0.010754474438726902,0.0050049033015966415,0.0014249838422983885,-0.0007522063096985221
0.0051962705329060555,0.00018255930626764894,-0.010754474438726902,0.0050049033015966415,0.0014249838422983885,-0.0007522063096985221
0.005174851045012474,0.00017559915431775153,-0.010836111381649971,0.00482982350513339,0.0013468823162838817,-0.0008002849062904716
0.00512001384049654,0.00016900613263715059,-0.011540034785866737,0.005233083851635456,0.0013125104596838355,-0.0008381478255614638
0.005227057263255119,0.00018861984426621348,-0.011302083730697632,0.005352254956960678,0.0011957684764638543,-0.0010789341758936644
0.005227057263255119,0.00018861984426621348,-0.011302083730697632,0.005352254956960678,0.0011957684764638543,-0.0010789341758936644
0.005099941045045853,0.0001822699559852481,-0.011013945564627647,0.00510628055781126,0.0011485625291243196,-0.001324197743088007
0.005315648391842842,0.00017631887749303132,-0.01089167594909668,0.005013156682252884,0.0010221865959465504,-0.0013058144832029939
0.005068517755717039,0.00017074360221158713,-0.01127191074192524,0.004835009574890137,0.0009911017259582877,-0.0013089569984003901
0.00529621122404933,0.0001927132543642074,-0.010966435074806213,0.00486562866717577,0.0009759890381246805,-0.0011729361722245812
0.005567439831793308,0.00018734767218120396,-0.011857783421874046,0.0049459198489785194,0.0009654933819547296,-0.0011174476239830256
0.005207024980336428,0.00018194173753727227,-0.011635467410087585,0.0051679895259439945,0.0009608289110474288,-0.0011183501919731498
0.005320223979651928,0.00020107952877879143,-0.011077720671892166,0.004890338517725468,0.0010966885602101684,-0.0011391398729756474
0.005319536197930574,0.00019656553922686726,-0.01165549922734499,0.004497431684285402,0.0010943649103865027,-0.001250589732080698
0.00556931970641017,0.00026950647588819265,-0.011237284168601036,0.004505245480686426,0.0013757612323388457,-0.0015693078748881817
0.005229524336755276,0.000290845287963748,-0.011235772632062435,0.004511542152613401,0.0013651184272021055,-0.0017258265288546681
0.005203805398195982,0.0003218726778868586,-0.01129224430769682,0.004564614500850439,0.0012435631360858679,-0.0017482375260442495
0.00545317679643631,0.0003095001738984138,-0.011734040454030037,0.004461207892745733,0.0011482849949970841,-0.001843171427026391
0.005434770602732897,0.0002927990281023085,-0.011794029735028744,0.00437815161421895,0.0010448461398482323,-0.0017996241804212332
0.005742678418755531,0.0003080644237343222,-0.011392567306756973,0.004357690457254648,0.0010553243337199092,-0.0018500200239941478
0.0056873201392591,0.000307961629005149,-0.011303509585559368,0.00408464390784502,0.0010521452641114593,-0.0018446446629241109
0.005612507462501526,0.0003213146992493421,-0.011976853013038635,0.00395907973870635,0.0012396016390994191,-0.0020915246568620205
0.005402414593845606,0.00032061830279417336,-0.011257958598434925,0.0039578452706336975,0.0013202413683757186,-0.0021850583143532276
0.005526501219719648,0.00043202677625231445,-0.01118631660938263,0.004012527409940958,0.0016171566676348448,-0.0018022875301539898
0.0059294309467077255,0.0004719251301139593,-0.01121569238603115,0.004031399264931679,0.0015077176503837109,-0.0016876753652468324
0.005628446117043495,0.0004367923247627914,-0.011422957293689251,0.0039603449404239655,0.001483880914747715,-0.001582721946761012
0.005628446117043495,0.0004367923247627914,-0.011422957293689251,0.0039603449404239655,0.001483880914747715,-0.001582721946761012
0.005581152159720659,0.0004705122846644372,-0.011395948007702827,0.0035973102785646915,0.0014182620216161013,-0.0017816743347793818
0.005420041736215353,0.0004986985586583614,-0.012184756807982922,0.003551115980371833,0.0013772024540230632,-0.0020249919034540653
0.005329350475221872,0.000638816156424582,-0.011516585946083069,0.0040805889293551445,0.0014159039128571749,-0.0021935184486210346
0.005587060935795307,0.0007151721511036158,-0.011246461421251297,0.004151478875428438,0.0014673426048830152,-0.001968031283468008
0.005525324493646622,0.0006665391265414655,-0.011929369531571865,0.0039464691653847694,0.0015921161975711584,-0.001893071224913001
0.0053612892515957355,0.0006884424365125597,-0.011637364514172077,0.003418430220335722,0.0015453448286280036,-0.001764044864103198
0.005493281874805689,0.0006239917129278183,-0.01171144749969244,0.003521278267726302,0.0014455510536208749,-0.0017092172056436539
0.005593592766672373,0.0006476956186816096,-0.011032059788703918,0.003813226008787751,0.0013976474292576313,-0.00173414614982903
0.006113617680966854,0.0006793213542550802,-0.010777248069643974,0.003900877432897687,0.001349370228126645,-0.0020540154073387384
0.005674939136952162,0.0007099363720044494,-0.011989305727183819,0.003440016647800803,0.0013064290396869183,-0.002966193947941065
0.00577235221862793,0.0006617432809434831,-0.011491294018924236,0.0029976144433021545,0.0013830369571223855,-0.0031555567402392626
0.005482155364006758,0.0007506681722588837,-0.011465826071798801,0.00287137390114367,0.0014210990630090237,-0.0029869594145566225
0.006044910289347172,0.0007173214107751846,-0.01196487806737423,0.0029446936678141356,0.0013842243934050202,-0.0026821899227797985
0.005709747318178415,0.0009803406428545713,-0.010344001464545727,0.002917511621490121,0.00136022106744349,-0.002526975004002452
0.005724010057747364,0.0009706423152238131,-0.010616647079586983,0.0027060110587626696,0.001371217891573906,-0.0023352960124611855
0.005989791359752417,0.0008795603644102812,-0.010816498659551144,0.0025429055094718933,0.0013044517254456878,-0.002491177059710026
0.00546369981020689,0.0008808898273855448,-0.011293495073914528,0.002407105639576912,0.0012767468579113483,-0.002692779991775751
0.006063480395823717,0.0008484988356940448,-0.011476519517600536,0.002458185190334916,0.0013021472841501236,-0.002677860204130411
0.005854931194335222,0.0007429953548125923,-0.010531853884458542,0.00239335629157722,0.0013643603306263685,-0.0027461822610348463
0.006284824572503567,0.0008461461402475834,-0.010762394405901432,0.002536060521379113,0.0014214200200513005,-0.0029711646493524313
0.00580799812451005,0.0012441350845620036,-0.010781156830489635,0.002482285024598241,0.0012964230263605714,-0.0028029605746269226
0.006148459855467081,0.001361664617434144,-0.01134119275957346,0.0022923001088202,0.0013893494615331292,-0.003041710238903761
0.006124717183411121,0.0019008549861609936,-0.010913505218923092,0.001958554144948721,0.0013315777759999037,-0.0031092939898371696
0.006124717183411121,0.0019008549861609936,-0.010913505218923092,0.001958554144948721,0.0013315777759999037,-0.0031092939898371696
0.006062534172087908,0.001838176161982119,-0.010706980712711811,0.0017345332307741046,0.0014724554494023323,-0.003533558687195182
0.0062346928752958775,0.0015708896098658442,-0.01119240466505289,0.00158056546933949,0.0014000646770000458,-0.0032990137115120888
0.00580244604498148,0.001403308124281466,-0.010464003309607506,0.0015870527131482959,0.001348096877336502,-0.0030831648036837578
0.0066311475820839405,0.0013132161693647504,-0.011069395579397678,0.001555927563458681,0.0014169286005198956,-0.0030161708127707243
0.0066501847468316555,0.00136801868211478,-0.011283377185463905,0.002022024942561984,0.0013183234259486198,-0.0031448539812117815
0.006279063876718283,0.0016630662139505148,-0.01038290560245514,0.0018471514340490103,0.0012738533550873399,-0.0031483452767133713
0.00633367570117116,0.0024484111927449703,-0.010956733487546444,0.0015501108719035983,0.00142662413418293,-0.00344433868303895
0.006381113547831774,0.002483811927959323,-0.010673651471734047,0.0013928823173046112,0.001419358653947711,-0.0032892217859625816
0.006418533623218536,0.0023619304411113262,-0.01102155540138483,0.0012900711735710502,0.0016971031436696649,-0.0035012229345738888
0.006460915319621563,0.002079644938930869,-0.01164944376796484,0.0012224052334204316,0.0017001917585730553,-0.003696547355502844
0.006406410131603479,0.0019007523078471422,-0.011016802862286568,0.0010097706690430641,0.0015346530126407743,-0.0038353954441845417
0.006527564954012632,0.002230249345302582,-0.01092445943504572,0.0009790763724595308,0.0015286520356312394,-0.0034852123353630304
0.007270675618201494,0.0022727795876562595,-0.010945160873234272,0.001031992258504033,0.0014672043034806848,-0.003434134880080819
0.006553632207214832,0.0026953243650496006,-0.01020842045545578,0.0009610916022211313,0.001355710788629949,-0.003543955273926258
0.006418203003704548,0.002638333709910512,-0.011131002567708492,0.0009653924498707056,0.0012668828712776303,-0.0035733284894376993
0.0061395131051540375,0.0023737784940749407,-0.010942040011286736,0.0009321164689026773,0.001290634274482727,-0.003399791894480586
0.007050170563161373,0.0021570916287600994,-0.01068421732634306,0.0008259070455096662,0.001406132010743022,-0.0031064613722264767
0.006855905055999756,0.0024243935476988554,-0.010764066129922867,0.0007181754917837679,0.001420398592017591,-0.003289522835984826
0.006319856736809015,0.0026624135207384825,-0.010581797920167446,0.0007316551054827869,0.001551835797727108,-0.004145038779824972
0.006526435725390911,0.0028534873854368925,-0.011218397878110409,0.0006611606804654002,0.0017501363763585687,-0.004124619532376528
0.00666678324341774,0.0028098367620259523,-0.01118936762213707,0.0006612403667531908,0.001787169137969613,-0.0036306120455265045
0.007275289855897427,0.0026183633599430323,-0.010149159468710423,0.0006232766900211573,0.001824027276597917,-0.003397434251382947
0.00684881629422307,0.0032571270130574703,-0.010590150021016598,0.00047850937698967755,0.0018649257253855467,-0.003409246215596795
0.006547225639224052,0.00328013370744884,-0.011055760085582733,0.00042723523802123964,0.0017914435593411326,-0.0036849798634648323
0.006547225639224052,0.00328013370744884,-0.011055760085582733,0.00042723523802123964,0.0017914435593411326,-0.0036849798634648323
0.006883248686790466,0.003580919001251459,-0.011339331977069378,0.00038980095996521413,0.0019618954975157976,-0.0038205725140869617
0.007394326385110617,0.0033043334260582924,-0.011010773479938507,0.0003586756647564471,0.0017930850153788924,-0.0038676823023706675
0.006920936517417431,0.0031467138323932886,-0.011438051238656044,0.0003939259913749993,0.0017368325497955084,-0.00425668153911829
0.006485668011009693,0.0032388765830546618,-0.010383200831711292,0.0003708850417751819,0.0016804349143058062,-0.00415043206885457
0.006493822205811739,0.0035359251778572798,-0.009916617535054684,0.00034728305763565004,0.0015818779356777668,-0.004017912317067385
0.006996660027652979,0.004189708270132542,-0.010911083780229092,0.00032630428904667497,0.001624859170988202,-0.0034738557878881693
0.007077365648001432,0.003666538977995515,-0.010632652789354324,0.000307702663121745,0.00169188785366714,-0.003187529044225812
0.006987453904002905,0.003512016963213682,-0.010045896284282207,0.00029110853211022913,0.0019439529860392213,-0.003192939329892397
0.00689369672909379,0.004255866166204214,-0.010429169982671738,0.0002762122603598982,0.0021168652456253767,-0.0035600282717496157
0.007368935272097588,0.004134331829845905,-0.009983940981328487,0.0002627677167765796,0.0019641141407191753,-0.004302318673580885
0.0076679945923388,0.003952099941670895,-0.010181883350014687,0.00025057102902792394,0.0018247554544359446,-0.004479077644646168
0.006991469766944647,0.0044369944371283054,-0.010558901354670525,0.00023945704742800444,0.0018325725104659796,-0.004352984484285116
0.006709063425660133,0.0045249564573168755,-0.010202353820204735,0.00022928701946511865,0.0017165399622172117,-0.004465324338525534
0.006798589136451483,0.004355948884040117,-0.009983912110328674,0.00021994582493789494,0.0017758493777364492,-0.004260356072336435
0.007135825697332621,0.004150385968387127,-0.00994289293885231,0.00021133643167559057,0.0016559479990974069,-0.004025224596261978
0.007316223345696926,0.004907666239887476,-0.010366233997046947,0.00020337573369033635,0.0016206372529268265,-0.004081023391336203
0.00699603371322155,0.004842496011406183,-0.010145196691155434,0.00019599302322603762,0.0016565030673518777,-0.004015909507870674
0.007314788643270731,0.004789460450410843,-0.010067415423691273,0.000159739181981422,0.0017949059838429093,-0.003971548285335302
0.007305738981813192,0.004749666899442673,-0.009649759158492088,0.0001524119288660586,0.0018432080978527665,-0.004268738441169262
0.007326792925596237,0.0049160136841237545,-0.010084801353514194,0.00014729730901308358,0.001691214507445693,-0.004614067729562521
0.007384922355413437,0.005264203529804945,-0.009737526066601276,0.00014261991600506008,0.0016975231701508164,-0.004787363577634096
0.007715803571045399,0.00499443244189024,-0.010284528136253357,0.00011424563854234293,0.0016087675467133522,-0.004498190246522427
0.007602107245475054,0.005547150503844023,-0.010412173345685005,0.0001075325344572775,0.0016146375564858317,-0.004098384641110897
0.007555173244327307,0.0058395531959831715,-0.009731288999319077,7.63393982197158e-05,0.0017049572197720408,-0.004359224811196327
0.00769759388640523,0.00527569092810154,-0.010355732403695583,-5.584095197264105e-05,0.001764130312949419,-0.005026531871408224
0.007747887168079615,0.005391434300690889,-0.010209820233285427,-8.965434972196817e-05,0.0017279153689742088,-0.005151538643985987
0.008090544492006302,0.005781017709523439,-0.01035854872316122,-0.00013421049516182393,0.001914785010740161,-0.004871760029345751
0.007701525464653969,0.00569435628131032,-0.010331190191209316,-0.0008593226666562259,0.002034050179645419,-0.004656700417399406
0.008179549127817154,0.00568403722718358,-0.009945109486579895,-0.0010728416964411736,0.0021115343552082777,-0.0042842719703912735
0.008179549127817154,0.00568403722718358,-0.009945109486579895,-0.0010728416964411736,0.0021115343552082777,-0.0042842719703912735
0.007825641892850399,0.005419386085122824,-0.00942707434296608,-0.0010570246959105134,0.0019622109830379486,-0.004510798491537571
0.0077767143957316875,0.005557159893214703,-0.009965124540030956,-0.0010259050177410245,0.0019266902236267924,-0.004714153707027435
0.006791982799768448,0.006086567882448435,-0.010086530819535255,-0.001129821641370654,0.0019180432427674532,-0.004838633816689253
0.008005338720977306,0.0057561821304261684,-0.009963169693946838,-0.0012958984589204192,0.0019154283218085766,-0.005273853894323111
0.00852071400731802,0.00644358666613698,-0.01010877825319767,-0.0020982008427381516,0.0019979600328952074,-0.005247785244137049
0.007724026683717966,0.006028504576534033,-0.009925058111548424,-0.0030286165419965982,0.001995994243770838,-0.0050234682857990265
0.007257532328367233,0.005900220479816198,-0.009522632695734501,-0.0033181693870574236,0.0020395361352711916,-0.0051583959721028805
0.00805748999118805,0.006551789119839668,-0.010519050993025303,-0.0030090410728007555,0.0020327847450971603,-0.004960174672305584
0.00820844154804945,0.0062574101611971855,-0.009701183997094631,-0.0029973830096423626,0.0019485546508803964,-0.005427470430731773
0.007911388762295246,0.006547075696289539,-0.009668051265180111,-0.003361573675647378,0.0019861317705363035,-0.004713756497949362
0.008089362643659115,0.006504654884338379,-0.010447039268910885,-0.0038216470275074244,0.002236466621980071,-0.005902818404138088
0.007878686301410198,0.006878483574837446,-0.010484698228538036,-0.004769091960042715,0.0021090449299663305,-0.005627738311886787
0.008207088336348534,0.007007219363003969,-0.009231624193489552,-0.005029802210628986,0.0021712174639105797,-0.005756016355007887
0.008418838493525982,0.006617496721446514,-0.010295730084180832,-0.004927438218146563,0.0021051689982414246,-0.0057393526658415794
0.008175099268555641,0.006572182290256023,-0.01053484808653593,-0.005106196738779545,0.002255140570923686,-0.005687121767550707
0.00849932711571455,0.006610194221138954,-0.010335843078792095,-0.00510688591748476,0.0025838948786258698,-0.005421319976449013
0.008021200075745583,0.006709445267915726,-0.011035457253456116,-0.005823289044201374,0.0027552167885005474,-0.005109147634357214
0.00882683414965868,0.007406996097415686,-0.01006598025560379,-0.005576112307608128,0.002560294233262539,-0.005256105214357376
0.00829545222222805,0.007097826339304447,-0.00993523932993412,-0.005340187810361385,0.0023171736393123865,-0.005272863898426294
0.008419381454586983,0.006787220016121864,-0.009918334893882275,-0.006569908931851387,0.0022155344486236572,-0.005850937217473984
0.008723109029233456,0.007196446880698204,-0.010492023080587387,-0.0068648261949419975,0.0021802533883601427,-0.005806169472634792
0.008226938545703888,0.008108408190310001,-0.009932958520948887,-0.006590087898075581,0.002189389895647764,-0.006023006979376078
0.00830940529704094,0.007274547591805458,-0.00991612859070301,-0.006082792766392231,0.0020254570990800858,-0.005894117057323456
0.007936893031001091,0.006761268712580204,-0.010881368070840836,-0.006409826222807169,0.0019979425705969334,-0.005693833343684673
0.00888254214078188,0.006786967162042856,-0.010406693443655968,-0.006740412674844265,0.0019154752371832728,-0.005841861944645643
0.008392995223402977,0.007231507450342178,-0.009988744743168354,-0.006536487489938736,0.0019393680850043893,-0.005824826657772064
0.008392995223402977,0.007231507450342178,-0.009988744743168354,-0.006536487489938736,0.0019393680850043893,-0.005824826657772064
0.007781714666634798,0.00796610675752163,-0.010665448382496834,-0.006234582047909498,0.0017840838991105556,-0.006279943976551294
0.00832538865506649,0.008154518902301788,-0.010011525824666023,-0.006600585300475359,0.002051169751212001,-0.006228530779480934
0.008721166290342808,0.007227944675832987,-0.009721792303025723,-0.007657274138182402,0.002575812628492713,-0.00629024812951684
0.008246243931353092,0.008020302280783653,-0.010880118235945702,-0.008324319496750832,0.002585447859019041,-0.005913725588470697
0.007901813834905624,0.008017783053219318,-0.010357609018683434,-0.007857933640480042,0.002656069118529558,-0.005780201870948076
0.008752106688916683,0.007661080453544855,-0.009770498611032963,-0.007469300180673599,0.002276150044053793,-0.0056136432103812695
0.00854985136538744,0.007501557469367981,-0.010627225041389465,-0.008725215680897236,0.0021191297564655542,-0.005770784802734852
0.008243376389145851,0.008027256466448307,-0.009827413596212864,-0.008258169516921043,0.002134916139766574,-0.005520855076611042
0.008956966921687126,0.007402180228382349,-0.009840100072324276,-0.00787142664194107,0.0024005200248211622,-0.005143087822943926
0.008656329475343227,0.007355371490120888,-0.01017339713871479,-0.00795355811715126,0.002614488359540701,-0.004819913301616907
0.008472522720694542,0.007504431530833244,-0.009771732613444328,-0.009007783606648445,0.0026789067778736353,-0.004758781753480434
0.009515657089650631,0.008716683834791183,-0.009831992909312248,-0.008602246642112732,0.0024272557348012924,-0.0054911058396101
0.009095852263271809,0.0069234054535627365,-0.010081326588988304,-0.007783589884638786,0.0023026850540190935,-0.005462822504341602
0.009042024612426758,0.004715637769550085,-0.01002398133277893,-0.008685164153575897,0.0023260819725692272,-0.005403606221079826
0.008948387578129768,0.004606880247592926,-0.00985653419047594,-0.009270885959267616,0.002278978703543544,-0.005453548859804869
0.010020816698670387,0.006257793866097927,-0.009841005317866802,-0.008762777782976627,0.0025386677589267492,-0.005519745405763388
0.009232157841324806,0.006511886604130268,-0.00956636294722557,-0.009471998549997807,0.0027920138090848923,-0.005194968078285456
0.008772717788815498,0.006274780258536339,-0.009468894451856613,-0.009525621309876442,0.0026745623908936977,-0.005888453219085932
0.009177499450743198,0.005686215125024319,-0.009624039754271507,-0.008897366933524609,0.0027265381067991257,-0.005593420471996069
0.009780244901776314,0.005727704148739576,-0.009511911310255527,-0.009265792556107044,0.002457938389852643,-0.005973486695438623
0.00978065561503172,0.006264772266149521,-0.010058345273137093,-0.009566299617290497,0.0020419619977474213,-0.005979232490062714
0.00978065561503172,0.006264772266149521,-0.010058345273137093,-0.009566299617290497,0.0020419619977474213,-0.005979232490062714
0.009213332086801529,0.0060550011694431305,-0.009836722165346146,-0.008704318664968014,0.001981668174266815,-0.005956616718322039
0.00941712036728859,0.006231590174138546,-0.009675348177552223,-0.009571685455739498,0.0024139564484357834,-0.0060006994754076
0.009517316706478596,0.006077222991734743,-0.009742249734699726,-0.010046401992440224,0.0026719830930233,-0.006566948257386684
0.009464352391660213,0.006430034060031176,-0.010272914543747902,-0.009531598538160324,0.002636965597048402,-0.0062162503600120544
0.009128295816481113,0.006419174838811159,-0.010059143416583538,-0.009716244414448738,0.002727851504459977,-0.00593332014977932
0.009413892403244972,0.006077068857848644,-0.010161801241338253,-0.009747813455760479,0.002587846014648676,-0.005691850557923317
0.010067123919725418,0.006317498628050089,-0.009781413711607456,-0.00998538825660944,0.0024666311219334602,-0.006268652155995369
0.009500843472778797,0.006345444358885288,-0.010598117485642433,-0.010354427620768547,0.0025764210149645805,-0.006683725398033857
0.009407068602740765,0.006410498637706041,-0.010068393312394619,-0.010153014212846756,0.002742768032476306,-0.006690060719847679
0.009945384226739407,0.006367993075400591,-0.009674896486103535,-0.01062298659235239,0.0027630580589175224,-0.006000367924571037
0.009554923512041569,0.006451822817325592,-0.010959052480757236,-0.011029092594981194,0.0028966653626412153,-0.0060803936794400215
0.009616538882255554,0.00616634264588356,-0.009884907864034176,-0.010710579343140125,0.002765896962955594,-0.006606759503483772
0.010807513259351254,0.006536018569022417,-0.00880009587854147,-0.01109196525067091,0.002474012318998575,-0.007205494679510593
0.009920609183609486,0.006981873419135809,-0.010569687932729721,-0.011041759513318539,0.0025062360800802708,-0.007313240319490433
0.009694511070847511,0.006885802373290062,-0.010322093963623047,-0.01143587939441204,0.002680244157090783,-0.006863714661449194
0.010392352007329464,0.006919898092746735,-0.00985922571271658,-0.012068480253219604,0.0028167373966425657,-0.00735833402723074
0.010018166154623032,0.006606278941035271,-0.009828761219978333,-0.011955508962273598,0.002874150639399886,-0.00717903021723032
0.010386431589722633,0.007136777974665165,-0.009685629978775978,-0.011391904205083847,0.0029530648607760668,-0.006416392978280783
0.010001027025282383,0.008133022114634514,-0.009331980720162392,-0.011232220567762852,0.0025791353546082973,-0.006480847485363483
0.009860211052000523,0.007988553494215012,-0.009871562011539936,-0.01157065387815237,0.002350031863898039,-0.0070841326378285885
0.01017430704087019,0.007121269591152668,-0.009557870216667652,-0.012145133689045906,0.002361594932153821,-0.007579874247312546
0.010355910286307335,0.007280608639121056,-0.009217740036547184,-0.011531888507306576,0.0026438585482537746,-0.007165072951465845
0.009612192399799824,0.007215697783976793,-0.009954341687262058,-0.011643264442682266,0.003018104238435626,-0.0071582794189453125
0.010122863575816154,0.008007005788385868,-0.00958293117582798,-0.011359252966940403,0.002957346383482218,-0.006687241140753031
0.009806239046156406,0.007771987933665514,-0.009294270537793636,-0.011305821128189564,0.0027179636526852846,-0.007437491323798895
0.010159696452319622,0.007939818315207958,-0.009603213518857956,-0.010992045514285564,0.0025689341127872467,-0.006912865210324526
0.010165531188249588,0.00773209985345602,-0.009292791597545147,-0.011542393825948238,0.0026749230455607176,-0.006841526832431555
0.009591931477189064,0.007580522447824478,-0.009159848093986511,-0.011709549464285374,0.002823472023010254,-0.0071505350060760975
0.009688927792012691,0.007693304214626551,-0.009437029249966145,-0.010971738956868649,0.0028909959364682436,-0.007531190291047096
0.010098597034811974,0.008069546893239021,-0.009027227759361267,-0.011207391507923603,0.0028427375946193933,-0.007567381951957941
0.010098597034811974,0.008069546893239021,-0.009027227759361267,-0.011207391507923603,0.0028427375946193933,-0.007567381951957941
0.009644703939557076,0.00766426045447588,-0.00885815266519785,-0.011588457971811295,0.0029882388189435005,-0.0075750285759568214
0.009931579232215881,0.008189584128558636,-0.009959353134036064,-0.011642321944236755,0.0032320187892764807,-0.007089538034051657
0.009966814890503883,0.008316942490637302,-0.009421823546290398,-0.01175229623913765,0.0031326129101216793,-0.007431953214108944
0.010674180462956429,0.008113971911370754,-0.008598320186138153,-0.01104042585939169,0.0028845479246228933,-0.00763919809833169
0.010206316597759724,0.008968138135969639,-0.009277920238673687,-0.011642866767942905,0.0025309124030172825,-0.007737036794424057
0.009711107239127159,0.008686513639986515,-0.009078160859644413,-0.011704829521477222,0.0025670286267995834,-0.00770677300170064
0.009952153079211712,0.008478476665914059,-0.008953164331614971,-0.011696028523147106,0.0029094438068568707,-0.007700355723500252
0.010082084685564041,0.008240112103521824,-0.00942559540271759,-0.012142135761678219,0.0031609435100108385,-0.007612412329763174
0.010489978827536106,0.008367321453988552,-0.009397991001605988,-0.01169425155967474,0.0029302104376256466,-0.008103568106889725
0.009728077799081802,0.008408690802752972,-0.008970813825726509,-0.01194097101688385,0.002709168940782547,-0.007632213179022074
0.010131889954209328,0.008782200515270233,-0.008876885287463665,-0.01190461777150631,0.0026146969757974148,-0.007639273069798946
0.010055125690996647,0.008616500534117222,-0.009627847000956535,-0.012706201523542404,0.002576063387095928,-0.007241776678711176
0.012010184116661549,0.009055392816662788,-0.008992496877908707,-0.01223667524755001,0.00323458481580019,-0.007587362080812454
0.012454518117010593,0.008551276288926601,-0.009556123986840248,-0.01319626159965992,0.003376449691131711,-0.00773737533017993
0.01173938624560833,0.0084801921620965,-0.00920774880796671,-0.013394007459282875,0.0030111712403595448,-0.007531572133302689
0.012289181351661682,0.00911982823163271,-0.008803813718259335,-0.012901712208986282,0.0025699918624013662,-0.007560060825198889
0.011828070506453514,0.009016280062496662,-0.008702495135366917,-0.012877162545919418,0.0023343288339674473,-0.00794342253357172
0.012027282267808914,0.00894151907414198,-0.010208234190940857,-0.013018112629652023,0.0023218162823468447,-0.008221525698900223
0.012599442154169083,0.009119806811213493,-0.009144862182438374,-0.013833293691277504,0.002271100180223584,-0.00826258398592472
0.01189830619841814,0.009449959732592106,-0.008832747116684914,-0.013530369848012924,0.0027287660632282495,-0.007846914231777191
0.012206969782710075,0.008937872014939785,-0.009269503876566887,-0.013727566227316856,0.003013283247128129,-0.008007588796317577
0.011976702138781548,0.008862072601914406,-0.00972179789096117,-0.01383353490382433,0.0032283549662679434,-0.00820645410567522
0.012200642377138138,0.009213014505803585,-0.00935377087444067,-0.013733556494116783,0.0033260416239500046,-0.00825181882828474
0.012289642356336117,0.008725794032216072,-0.0093940868973732,-0.013567861169576645,0.0032417066395282745,-0.00848905649036169
0.012416275218129158,0.008834391832351685,-0.009363427758216858,-0.014155938290059566,0.0031802919693291187,-0.007075543515384197
0.012392997741699219,0.009622414596378803,-0.009216384962201118,-0.013849341310560703,0.003068444784730673,-0.008568806573748589
0.012913135811686516,0.008864878676831722,-0.009593400172889233,-0.01403087005019188,0.0028993836604058743,-0.007845696061849594
0.01210049819201231,0.010070189833641052,-0.009846189990639687,-0.01484477799385786,0.0027154795825481415,-0.008058100938796997
0.01210049819201231,0.010070189833641052,-0.009846189990639687,-0.01484477799385786,0.0027154795825481415,-0.008058100938796997
0.012242715805768967,0.009778192266821861,-0.009778733365237713,-0.014844577759504318,0.0027947102207690477,-0.008108668029308319
0.012280604802072048,0.009261837229132652,-0.009596485644578934,-0.015499228611588478,0.002888851799070835,-0.007806495763361454
0.012392736971378326,0.00961619894951582,-0.009915238246321678,-0.014994571916759014,0.00287098647095263,-0.007444355636835098
0.012405660934746265,0.009684509597718716,-0.00979025848209858,-0.015173539519309998,0.0026848954148590565,-0.007875311188399792
0.012084810994565487,0.009542388841509819,-0.009640215896070004,-0.014815464615821838,0.0028390742372721434,-0.008373318240046501
0.013052909635007381,0.009625876322388649,-0.009096811525523663,-0.015760697424411774,0.003397115273401141,-0.008561312220990658
0.012371370568871498,0.009569419547915459,-0.009561489336192608,-0.015033637173473835,0.003359762253239751,-0.00848940759897232
0.012359371408820152,0.009803042747080326,-0.0100048016756773,-0.015614325180649757,0.0032794936560094357,-0.008855301886796951
0.012253870256245136,0.009878585115075111,-0.009613169357180595,-0.015768401324748993,0.0032712318934500217,-0.008624770678579807
0.012103969231247902,0.009859791956841946,-0.009686497040092945,-0.016408396884799004,0.0030278421472758055,-0.008288446813821793
0.012824282050132751,0.010019184090197086,-0.009806526824831963,-0.016235554590821266,0.0032262569293379784,-0.008269831538200378
0.012315736152231693,0.010452765971422195,-0.00947925727814436,-0.01627909578382969,0.003352450905367732,-0.008341347798705101
0.012995326891541481,0.009917125105857849,-0.009601116180419922,-0.016753798350691795,0.0034705442376434803,-0.008421940729022026
0.012762846425175667,0.01006812509149313,-0.010233981534838676,-0.016550855711102486,0.0036971131339669228,-0.008894464001059532
0.012766002677381039,0.010434823110699654,-0.010037875734269619,-0.017528120428323746,0.0036026258021593094,-0.009105727076530457
0.012490184977650642,0.009969712235033512,-0.009361601434648037,-0.017503060400485992,0.003458769526332617,-0.008392264135181904
0.012776535004377365,0.010348236188292503,-0.009997870773077011,-0.017455613240599632,0.00317976763471961,-0.00853803288191557
0.012761222198605537,0.010875972919166088,-0.009433379396796227,-0.01694692112505436,0.003333763685077429,-0.009070159867405891
0.01253308355808258,0.011000669561326504,-0.009180838242173195,-0.01702999323606491,0.003639181377366185,-0.008770299144089222
0.013034057803452015,0.010153739713132381,-0.00991122703999281,-0.01754949986934662,0.0034087246749550104,-0.008999938145279884
0.012227719649672508,0.010524742305278778,-0.009488312527537346,-0.01783319003880024,0.003363006515428424,-0.008726396597921848
0.012696915306150913,0.009891596622765064,-0.009116162545979023,-0.018153226003050804,0.0032367268577218056,-0.008696740493178368
0.01253155991435051,0.010140563361346722,-0.009481904096901417,-0.018648048862814903,0.0035038560163229704,-0.009121212176978588
0.012973511591553688,0.010929605923593044,-0.010122200474143028,-0.01818802021443844,0.003975011873990297,-0.008648994378745556
0.012920764274895191,0.011460021138191223,-0.009442364796996117,-0.01859578676521778,0.00360840349458158,-0.008839577436447144
0.012404624372720718,0.010460072197020054,-0.009378405287861824,-0.018014274537563324,0.003446906106546521,-0.0087416497990489
0.012137403711676598,0.01051676832139492,-0.009043467231094837,-0.018439173698425293,0.0032426100224256516,-0.008848002180457115
0.01271134428679943,0.011084257625043392,-0.00988538097590208,-0.018488988280296326,0.0035600122064352036,-0.008703396655619144
0.012547125108540058,0.010675210505723953,-0.009486816823482513,-0.018033724278211594,0.0037690112367272377,-0.008675700053572655
0.01272417139261961,0.01029231771826744,-0.00868523120880127,-0.01866217330098152,0.0034229124430567026,-0.00900748185813427
0.01272417139261961,0.01029231771826744,-0.00868523120880127,-0.01866217330098152,0.0034229124430567026,-0.00900748185813427
0.01266395766288042,0.011477228254079819,-0.009092037566006184,-0.018834074959158897,0.0035236154217272997,-0.008555843494832516
0.012723736464977264,0.010476010851562023,-0.009347088634967804,-0.01871604286134243,0.0037060026079416275,-0.009333464317023754
0.013118884526193142,0.010716535151004791,-0.008731936104595661,-0.018901994451880455,0.003734675468876958,-0.009147904813289642
0.012789027765393257,0.010973297990858555,-0.008973258547484875,-0.018588345497846603,0.0036169046070426702,-0.008953996002674103
0.013208906166255474,0.010592623613774776,-0.008917375467717648,-0.01862548477947712,0.003591750515624881,-0.008836106397211552
0.01244204118847847,0.011028843000531197,-0.009193459525704384,-0.019256196916103363,0.003382851602509618,-0.010043668560683727
0.013169881887733936,0.010979744605720043,-0.008645353838801384,-0.01890438422560692,0.0034259443636983633,-0.009931088425219059
0.012876894325017929,0.010649612173438072,-0.009058572351932526,-0.018864993005990982,0.003589192871004343,-0.009295391850173473
0.013300414197146893,0.01134928222745657,-0.009248236194252968,-0.019455796107649803,0.004121121019124985,-0.009427950717508793
0.013039380311965942,0.01050663460046053,-0.008595447987318039,-0.01944683864712715,0.004087178502231836,-0.009443742223083973
0.013140426017343998,0.010775487869977951,-0.009204651229083538,-0.01987001672387123,0.0040320660918951035,-0.00929201953113079
0.013234795071184635,0.011440766043961048,-0.0086817080155015,-0.020297564566135406,0.0035923935938626528,-0.009169583208858967
0.01344172190874815,0.010417880490422249,-0.008400946855545044,-0.020555194467306137,0.0034800656139850616,-0.009654220193624496
0.013296875171363354,0.011012380942702293,-0.009525059722363949,-0.0205235555768013,0.0035973661579191685,-0.009632864035665989
0.013561291620135307,0.011352406814694405,-0.008948659524321556,-0.02136552892625332,0.004208550788462162,-0.009348240680992603
0.013936731033027172,0.010970703326165676,-0.008685980923473835,-0.021442512050271034,0.004468163475394249,-0.009835414588451385
0.01352983433753252,0.01240200363099575,-0.008508673869073391,-0.021279778331518173,0.004332436714321375,-0.00978882610797882
0.013868073001503944,0.010649863630533218,-0.009227289818227291,-0.021676387637853622,0.003971070516854525,-0.009998757392168045
0.013983924873173237,0.011492645367980003,-0.008320542052388191,-0.022035101428627968,0.004232496488839388,-0.01032715942710638
0.013752981089055538,0.011035102419555187,-0.009119203314185143,-0.02204914391040802,0.004113485570997,-0.010112432762980461
0.013772694393992424,0.011961406096816063,-0.008625632151961327,-0.022038619965314865,0.003970462363213301,-0.009835958480834961
0.013772694393992424,0.011961406096816063,-0.008625632151961327,-0.022038619965314865,0.003970462363213301,-0.009835958480834961
0.013669587671756744,0.011375203728675842,-0.008385621011257172,-0.022514106705784798,0.0033832676708698273,-0.009713650681078434
0.014068770222365856,0.011344825848937035,-0.009732534177601337,-0.02284984290599823,0.003908536396920681,-0.010385270230472088
0.013783133588731289,0.011174820363521576,-0.008960435166954994,-0.022079765796661377,0.00414155563339591,-0.009917736053466797
0.014202686958014965,0.011134537868201733,-0.00819796696305275,-0.0229024775326252,0.00404124753549695,-0.009858368895947933
0.014029508456587791,0.011319955810904503,-0.008434683084487915,-0.022632738575339317,0.0041005536913871765,-0.010167676955461502
0.012727286666631699,0.011262159794569016,-0.008946474641561508,-0.02277313359081745,0.00394334364682436,-0.0104930829256773
0.014817729592323303,0.011332100257277489,-0.008568832650780678,-0.02312851883471012,0.003886655205860734,-0.010642895475029945
0.014818139374256134,0.012199485674500465,-0.008181479759514332,-0.022801734507083893,0.0038994797505438328,-0.01090987864881754
0.013921902514994144,0.011105387471616268,-0.00857633538544178,-0.02269543707370758,0.004142110235989094,-0.010115081444382668
0.014565450139343739,0.012219690717756748,-0.008826623670756817,-0.022780507802963257,0.0041303858160972595,-0.009992189705371857
0.01478525809943676,0.011358737014234066,-0.008368621580302715,-0.022986818104982376,0.004028188064694405,-0.010536175221204758
0.01470417995005846,0.010972597636282444,-0.008428451605141163,-0.02275880239903927,0.003983515780419111,-0.010163193568587303
0.014375222846865654,0.011706387624144554,-0.008804920129477978,-0.023119037970900536,0.003941030707210302,-0.010541901923716068
0.014997459016740322,0.011080622673034668,-0.008379412814974785,-0.023794883862137794,0.003934592008590698,-0.010814251378178596
0.014583953656256199,0.011260660365223885,-0.00824013538658619,-0.023529209196567535,0.004399894271045923,-0.011017405427992344
0.014823497273027897,0.011546105146408081,-0.009145199321210384,-0.023208359256386757,0.004581252578645945,-0.010343282483518124
0.014538328163325787,0.011098829098045826,-0.008972402662038803,-0.023056747391819954,0.004293027333915234,-0.009852299466729164
0.015436658635735512,0.011975103989243507,-0.007916467264294624,-0.02280772477388382,0.004401196260005236,-0.00895695760846138
0.015215707011520863,0.011854438111186028,-0.008127509616315365,-0.02332209050655365,0.004573286511003971,-0.010543479584157467
0.01564575359225273,0.01165335439145565,-0.008848405443131924,-0.024026308208703995,0.0044850558042526245,-0.010864708572626114
0.015231167897582054,0.01218463759869337,-0.008501049131155014,-0.023761749267578125,0.004263445269316435,-0.010755733586847782
0.01589653082191944,0.011765992268919945,-0.00797237828373909,-0.02404775284230709,0.004063342697918415,-0.01031202170997858
0.014952823519706726,0.011483043432235718,-0.008920824155211449,-0.02476644702255726,0.004433847032487392,-0.010268825106322765
0.015681419521570206,0.011946597136557102,-0.008310162462294102,-0.02411276288330555,0.00451349513605237,-0.010415967553853989
0.015747398138046265,0.011675646528601646,-0.00871315412223339,-0.023232266306877136,0.00450102286413312,-0.01005358062684536
0.015456951223313808,0.011425635777413845,-0.008849832229316235,-0.02326650358736515,0.004484767559915781,-0.0099332295358181
0.015493897721171379,0.012328713200986385,-0.008260400965809822,-0.024115750566124916,0.004272829741239548,-0.01061687059700489
0.015493897721171379,0.012328713200986385,-0.008260400965809822,-0.024115750566124916,0.004272829741239548,-0.01061687059700489
0.015709225088357925,0.011925610713660717,-0.008028574287891388,-0.024777723476290703,0.004518187139183283,-0.010437303222715855
0.015644172206521034,0.012884005904197693,-0.008940184488892555,-0.025366604328155518,0.004608500748872757,-0.011239065788686275
0.016027754172682762,0.011892520822584629,-0.008107000961899757,-0.02510477788746357,0.00464645167812705,-0.011101970449090004
0.01583012007176876,0.012212668545544147,-0.0077151944860816,-0.02485158108174801,0.004635077901184559,-0.010451104491949081
0.016627004370093346,0.012491450645029545,-0.007686683442443609,-0.025400672107934952,0.0046973275020718575,-0.010708099231123924
0.01616755500435829,0.011477229185402393,-0.008237562142312527,-0.025680191814899445,0.004880145192146301,-0.01065997127443552
0.016163919121026993,0.012091315351426601,-0.008734602481126785,-0.02552838809788227,0.004441625904291868,-0.010622726753354073
0.016405204311013222,0.012206601910293102,-0.008067087270319462,-0.025939183309674263,0.0043837763369083405,-0.011032288894057274
0.015760304406285286,0.012398972176015377,-0.007732199504971504,-0.026692423969507217,0.0044637504033744335,-0.011351227760314941
0.016227327287197113,0.012163512408733368,-0.007982726208865643,-0.026840846985578537,0.004567664582282305,-0.011275909841060638
0.016228942200541496,0.012582758441567421,-0.00807113479822874,-0.026535509154200554,0.0050293998792767525,-0.011342763900756836
0.016606813296675682,0.012492126785218716,-0.007655116729438305,-0.026835475116968155,0.00562774995341897,-0.01119294110685587
0.01674443483352661,0.012338608503341675,-0.008235467597842216,-0.027225513011217117,0.005338318180292845,-0.011398103088140488
0.017119605094194412,0.013001875020563602,-0.008283165283501148,-0.027834100648760796,0.004490972496569157,-0.011749685741961002
0.01719578355550766,0.012987799011170864,-0.007736727595329285,-0.027746714651584625,0.004138407297432423,-0.011494209058582783
0.016547013074159622,0.012943260371685028,-0.007794245146214962,-0.02752397023141384,0.004222798626869917,-0.011503400281071663
0.01728834956884384,0.01376914232969284,-0.008354166522622108,-0.029799990355968475,0.004833422601222992,-0.011103103868663311
0.01731966808438301,0.012790979817509651,-0.007787233684211969,-0.02951160818338394,0.004891164135187864,-0.011360459960997105
0.01714823953807354,0.012465490028262138,-0.0081251235678792,-0.028886253014206886,0.004792023450136185,-0.011861735954880714
0.017061226069927216,0.012421192601323128,-0.008535962551832199,-0.02796921879053116,0.004550392739474773,-0.011997423134744167
0.017233673483133316,0.012919345870614052,-0.008378049358725548,-0.02764274552464485,0.004423708654940128,-0.012284597381949425
0.017652602866292,0.012659522704780102,-0.008074824698269367,-0.0287457462400198,0.004632472526282072,-0.012342679314315319
0.01743169128894806,0.013060999102890491,-0.007787351496517658,-0.028404798358678818,0.004968610126525164,-0.012161290273070335
0.017569763585925102,0.012974108569324017,-0.009126385673880577,-0.028825324028730392,0.00555292796343565,-0.01213226467370987
0.018466465175151825,0.01279434934258461,-0.007999454624950886,-0.02926269918680191,0.004917818121612072,-0.012144867330789566
0.01792045123875141,0.012709454633295536,-0.008378858678042889,-0.028206707909703255,0.004567837808281183,-0.011990739963948727
0.017368141561746597,0.012751461006700993,-0.008760056458413601,-0.027744000777602196,0.004597746301442385,-0.012378154322504997
0.017368141561746597,0.012751461006700993,-0.008760056458413601,-0.027744000777602196,0.004597746301442385,-0.012378154322504997
0.01789565198123455,0.012510538101196289,-0.008386624045670033,-0.028963753953576088,0.004733450710773468,-0.012232858687639236
0.018317975103855133,0.013206087984144688,-0.008151151239871979,-0.029979653656482697,0.004767462611198425,-0.012565860524773598
0.017783118411898613,0.0126523831859231,-0.008645975030958652,-0.029939958825707436,0.005341892596334219,-0.012265210039913654
0.018233370035886765,0.013184573501348495,-0.008464635349810123,-0.029977813363075256,0.004864075221121311,-0.012557732872664928
0.018602868542075157,0.012909950688481331,-0.008096168749034405,-0.030747001990675926,0.004320012405514717,-0.012589660473167896
0.018025003373622894,0.01324681006371975,-0.008345643058419228,-0.03088691458106041,0.004053661599755287,-0.012727191671729088
0.018273333087563515,0.01318921148777008,-0.00836669560521841,-0.030605018138885498,0.0045465584844350815,-0.012607156299054623
0.018618648871779442,0.013127261772751808,-0.008259120397269726,-0.03072855807840824,0.005527326371520758,-0.012972845695912838
0.018686216324567795,0.013234881684184074,-0.00805333536118269,-0.03116007149219513,0.005385134369134903,-0.012989833019673824
0.018765008077025414,0.0134641844779253,-0.008872205391526222,-0.031043846160173416,0.0050488244742155075,-0.012546191923320293
0.018428880721330643,0.013569583185017109,-0.008729947730898857,-0.031318627297878265,0.0051137846894562244,-0.012748722918331623
0.018630066886544228,0.014041407033801079,-0.007880475372076035,-0.0314696840941906,0.0050088283605873585,-0.013090046122670174
0.018777448683977127,0.015325501561164856,-0.00824644323438406,-0.03156452625989914,0.005079255905002356,-0.013439424335956573
0.018708588555455208,0.014508354477584362,-0.009457629173994064,-0.03151443228125572,0.005175755824893713,-0.013674302026629448
0.018602902069687843,0.014580952934920788,-0.008269849233329296,-0.03185667842626572,0.005068023223429918,-0.013383317738771439
0.019169172272086143,0.015068738721311092,-0.007919922471046448,-0.032312676310539246,0.005328154657036066,-0.013324146158993244
0.019160082563757896,0.014948044903576374,-0.008487475104629993,-0.03253208473324776,0.00523311085999012,-0.013619430363178253
0.01913396269083023,0.01631319709122181,-0.008834871463477612,-0.03254810348153114,0.005019887816160917,-0.014241053722798824
0.019141843542456627,0.014778743498027325,-0.008471573702991009,-0.03346845880150795,0.005231197457760572,-0.013853278942406178
0.01941041462123394,0.01446222048252821,-0.008732026442885399,-0.03312193229794502,0.005354555323719978,-0.013957963325083256
0.019238367676734924,0.015233495272696018,-0.00894091185182333,-0.03246971219778061,0.0049778176471591,-0.013826437294483185
0.019423337653279305,0.015750275924801826,-0.008635684847831726,-0.032671816647052765,0.005103850271552801,-0.014038831926882267
0.019620221108198166,0.015469812788069248,-0.00848708488047123,-0.03299364075064659,0.005375285167247057,-0.0138250682502985
0.020129593089222908,0.015086752362549305,-0.008849509991705418,-0.03260247781872749,0.005493094213306904,-0.01359060499817133
0.019834551960229874,0.015922006219625473,-0.008778541348874569,-0.03283336013555527,0.00536919804289937,-0.013864120468497276
0.019834551960229874,0.015922006219625473,-0.008778541348874569,-0.03283336013555527,0.00536919804289937,-0.013864120468497276
0.01987096108496189,0.015342717058956623,-0.00896865501999855,-0.03266002982854843,0.00528834480792284,-0.014275914058089256
0.02041703835129738,0.015634244307875633,-0.008753014728426933,-0.03264044225215912,0.0055287606082856655,-0.014492984861135483
0.020223645493388176,0.015179815702140331,-0.008445029146969318,-0.032751500606536865,0.00530008040368557,-0.014683583751320839
0.02063608169555664,0.01582888886332512,-0.008576497435569763,-0.032542020082473755,0.005278758704662323,-0.014711763709783554
0.021005457267165184,0.01560043916106224,-0.009385324083268642,-0.03316847234964371,0.005327892955392599,-0.014557970687747002
0.020681947469711304,0.016037696972489357,-0.008407446555793285,-0.03410842642188072,0.0049968259409070015,-0.013826127164065838
0.020175917074084282,0.01600496657192707,-0.008140631020069122,-0.03414857015013695,0.005297988187521696,-0.014738507568836212
0.019241435453295708,0.015413248911499977,-0.009271427989006042,-0.03275221213698387,0.005276903044432402,-0.015297451056540012
0.021172186359763145,0.016113528981804848,-0.008520910516381264,-0.03236021474003792,0.00540614128112793,-0.015059499070048332
0.020908115431666374,0.016100147739052773,-0.008222091011703014,-0.03351476415991783,0.005538342986255884,-0.014916494488716125
0.021104078739881516,0.016675738617777824,-0.009421269409358501,-0.033767394721508026,0.005714708007872105,-0.0149111058562994
0.02048814482986927,0.015925124287605286,-0.00896263774484396,-0.03463555499911308,0.005818897392600775,-0.014926981180906296
0.02078937366604805,0.016386467963457108,-0.008387270383536816,-0.03501158580183983,0.005702679511159658,-0.014764136634767056
0.021018268540501595,0.016436664387583733,-0.008256105706095695,-0.03434718772768974,0.0057100411504507065,-0.014607655815780163
0.021087080240249634,0.016548369079828262,-0.008870151825249195,-0.033921558409929276,0.005523184314370155,-0.014886759221553802
0.021284006536006927,0.01617272011935711,-0.008736281655728817,-0.03430582210421562,0.00561277661472559,-0.015156599693000317
0.021494334563612938,0.01611504890024662,-0.00871240347623825,-0.03654216229915619,0.005418058019131422,-0.015324953943490982
0.02078797109425068,0.016503212973475456,-0.00849953293800354,-0.03648820146918297,0.005551524460315704,-0.015085852704942226
0.02065863087773323,0.01639881171286106,-0.008752924390137196,-0.036233846098184586,0.006039016414433718,-0.015405941754579544
0.021256286650896072,0.01702854223549366,-0.008745110593736172,-0.03655713051557541,0.006002252455800772,-0.015608553774654865
0.021991074085235596,0.016891784965991974,-0.0082395663484931,-0.03650995343923569,0.006227076519280672,-0.015940126031637192
0.021320074796676636,0.016635973006486893,-0.008501939475536346,-0.03632266819477081,0.005769848357886076,-0.015784261748194695
0.02195095829665661,0.01622624695301056,-0.008074474520981312,-0.036580272018909454,0.005522701423615217,-0.015530457720160484
0.021748745813965797,0.0168773140758276,-0.008411698043346405,-0.0360506996512413,0.005780959501862526,-0.015762578696012497
0.02173026278614998,0.0163218155503273,-0.008824613876640797,-0.03737557679414749,0.005630882456898689,-0.015859805047512054
0.021341649815440178,0.01660926453769207,-0.008561933413147926,-0.038475360721349716,0.00571066839620471,-0.015925738960504532
0.021971330046653748,0.01680808886885643,-0.008076631464064121,-0.037284232676029205,0.005431909579783678,-0.015910807996988297
0.022156765684485435,0.016965139657258987,-0.008490930311381817,-0.03604269027709961,0.005384378135204315,-0.015707653015851974
0.022040046751499176,0.01724405027925968,-0.008286562748253345,-0.0375797376036644,0.005462010391056538,-0.01583215780556202
0.022040046751499176,0.01724405027925968,-0.008286562748253345,-0.0375797376036644,0.005462010391056538,-0.01583215780556202
0.021822867915034294,0.01635786145925522,-0.008207906037569046,-0.038134850561618805,0.00597379682585597,-0.015477238222956657
0.022333243861794472,0.016725003719329834,-0.008470593951642513,-0.038824066519737244,0.0056327651254832745,-0.015764953568577766
0.02232407033443451,0.016723958775401115,-0.008347881026566029,-0.03933127224445343,0.005351618863642216,-0.015738993883132935
0.02221544459462166,0.01710907183587551,-0.008203430101275444,-0.03757885470986366,0.005246985238045454,-0.015928616747260094
0.022309165447950363,0.017118055373430252,-0.007163756061345339,-0.037866994738578796,0.0055717104114592075,-0.015667201951146126
0.022231701761484146,0.016810251399874687,-0.008071554824709892,-0.03952149674296379,0.005860885605216026,-0.015704143792390823
0.022609274834394455,0.01733763888478279,-0.008214671164751053,-0.03864046186208725,0.005553016439080238,-0.01564319245517254
0.022911399602890015,0.01698853075504303,-0.007891821675002575,-0.03988884389400482,0.0055528986267745495,-0.016187051311135292
0.022546928375959396,0.017429573461413383,-0.007652995176613331,-0.04082075133919716,0.005296978633850813,-0.016448354348540306
0.02204146981239319,0.01715756021440029,-0.007512601092457771,-0.039591412991285324,0.005860686767846346,-0.016373569145798683
0.022696664556860924,0.016882915049791336,-0.007543710060417652,-0.03932991996407509,0.005619839299470186,-0.01638585887849331
0.02270663157105446,0.017659449949860573,-0.00778088578954339,-0.03968825191259384,0.005791264120489359,-0.016346758231520653
0.023624995723366737,0.01728849858045578,-0.007664355915039778,-0.039496392011642456,0.0064953388646245,-0.016608698293566704
0.023306800052523613,0.017817964777350426,-0.008077106438577175,-0.03950415924191475,0.005961988121271133,-0.01669774204492569
0.02320653572678566,0.017585640773177147,-0.008300638757646084,-0.03994251787662506,0.005994896870106459,-0.01660202071070671
0.023326082155108452,0.01715344749391079,-0.007863600738346577,-0.03960864245891571,0.00572745269164443,-0.01641741208732128
0.022940244525671005,0.018129313364624977,-0.007616937626153231,-0.03965798765420914,0.0058782692067325115,-0.016400329768657684
0.023153603076934814,0.018105287104845047,-0.007675991393625736,-0.03965558111667633,0.0061822254210710526,-0.016775934025645256
0.023254379630088806,0.01925719901919365,-0.007589517626911402,-0.03948061168193817,0.006048491690307856,-0.017112553119659424
0.02367536909878254,0.017674045637249947,-0.007483337074518204,-0.03957679867744446,0.006287125870585442,-0.017275109887123108
0.0236501581966877,0.01871546171605587,-0.007796139921993017,-0.03961968794465065,0.006236625835299492,-0.016479957848787308
0.02416802942752838,0.018335692584514618,-0.007552709896117449,-0.03944779559969902,0.006086363457143307,-0.016760623082518578
0.023767514154314995,0.01802336797118187,-0.0074655236676335335,-0.03903358429670334,0.0061331503093242645,-0.016744060441851616
0.02353658527135849,0.01873660832643509,-0.008085730485618114,-0.03934341296553612,0.006029893644154072,-0.01640273630619049
0.022956185042858124,0.018503164872527122,-0.008191513828933239,-0.03872060403227806,0.0061273835599422455,-0.0160423144698143
0.023541169241070747,0.01849493384361267,-0.007873809896409512,-0.04024244844913483,0.005840308498591185,-0.01657220907509327
0.023612981662154198,0.01890186220407486,-0.007861852645874023,-0.040804050862789154,0.006187970284372568,-0.016975881531834602
0.023612981662154198,0.01890186220407486,-0.007861852645874023,-0.040804050862789154,0.006187970284372568,-0.016975881531834602
0.023785199970006943,0.01855899952352047,-0.008229784667491913,-0.04013291746377945,0.006614504847675562,-0.017250746488571167
0.02350449748337269,0.01874496228992939,-0.00796450860798359,-0.0398397333920002,0.006801539566367865,-0.017295656725764275
0.023701129481196404,0.018723327666521072,-0.0077306185849010944,-0.040296636521816254,0.00707810465246439,-0.016969744116067886
0.023423144593834877,0.018107382580637932,-0.008286095224320889,-0.04163510724902153,0.006644312757998705,-0.016978193074464798
0.02359553426504135,0.018860934302210808,-0.008452755399048328,-0.04102510213851929,0.006069097202271223,-0.01714577153325081
0.023679956793785095,0.019570842385292053,-0.007780229207128286,-0.039859283715486526,0.006332720629870892,-0.017390146851539612
0.023518282920122147,0.01972864754498005,-0.007660676725208759,-0.041812263429164886,0.006382517982274294,-0.017443975433707237
0.02358674816787243,0.01996881142258644,-0.007929831743240356,-0.04252879321575165,0.006713604088872671,-0.017188403755426407
0.02359015867114067,0.019818851724267006,-0.007928295992314816,-0.04425158351659775,0.006702766753733158,-0.01750705949962139
0.023721087723970413,0.01897074282169342,-0.007679732516407967,-0.04312020540237427,0.006418548058718443,-0.01668303646147251
0.0239582397043705,0.01869104988873005,-0.007719246670603752,-0.04202708229422569,0.006481295917183161,-0.016834121197462082
0.023640191182494164,0.019318440929055214,-0.0083440151065588,-0.04322709143161774,0.006222524214535952,-0.01715770550072193
0.023819727823138237,0.019111229106783867,-0.008116470649838448,-0.044127557426691055,0.0064361863769590855,-0.017665402963757515
0.02404484711587429,0.019614703953266144,-0.007658939342945814,-0.043417613953351974,0.006609351374208927,-0.018105778843164444
0.024055199697613716,0.0194571390748024,-0.0077609713189303875,-0.04355815052986145,0.006419096142053604,-0.017796998843550682
0.02427642233669758,0.018842514604330063,-0.008170772343873978,-0.04424791410565376,0.006438957527279854,-0.01754007115960121
0.02385377697646618,0.019557490944862366,-0.007391428574919701,-0.0445919930934906,0.006587900687009096,-0.0178468506783247
0.024561157450079918,0.020218247547745705,-0.007098009809851646,-0.044428225606679916,0.0065748197957873344,-0.01744520105421543
0.023930083960294724,0.01993430405855179,-0.007629379164427519,-0.04636937007308006,0.006047914735972881,-0.017755499109625816
0.02420257404446602,0.019178634509444237,-0.007989409379661083,-0.0457814559340477,0.006555815692991018,-0.018401116132736206
0.024181876331567764,0.019988521933555603,-0.0068814815022051334,-0.04509827494621277,0.007140190340578556,-0.01811387948691845
0.024198217317461967,0.019536523148417473,-0.007288825232535601,-0.044982872903347015,0.006446299143135548,-0.017582101747393608
0.02433505468070507,0.01937827654182911,-0.007924584671854973,-0.04696238040924072,0.006394973956048489,-0.017399922013282776
0.024657705798745155,0.020012935623526573,-0.007565517909824848,-0.045830149203538895,0.006423245649784803,-0.017737068235874176
0.024254241958260536,0.01966508850455284,-0.007270136848092079,-0.044028349220752716,0.007029091939330101,-0.017911536619067192
0.024094166234135628,0.020087357610464096,-0.007496197707951069,-0.04538668692111969,0.007437648251652718,-0.01791319064795971
0.024219101294875145,0.020096713677048683,-0.008185245096683502,-0.04609072953462601,0.006971679162234068,-0.01762671396136284
0.024306079372763634,0.019592445343732834,-0.007853144779801369,-0.046050865203142166,0.006446375511586666,-0.017739351838827133
0.024306079372763634,0.019592445343732834,-0.007853144779801369,-0.046050865203142166,0.006446375511586666,-0.017739351838827133
0.024723336100578308,0.020388754084706306,-0.00702538900077343,-0.04581457003951073,0.006568355020135641,-0.01810179091989994
0.024292554706335068,0.020169151946902275,-0.007157227024435997,-0.045743461698293686,0.007198892999440432,-0.018000945448875427
0.024228133261203766,0.02007109485566616,-0.008075925521552563,-0.04596596583724022,0.007029893342405558,-0.01786995492875576
0.024206524714827538,0.020144158974289894,-0.0078085195273160934,-0.045902494341135025,0.006379961501806974,-0.018001457676291466
0.024174224585294724,0.020358994603157043,-0.00689027551561594,-0.045098114758729935,0.00662321737036109,-0.018080146983265877
0.02448577620089054,0.020409507676959038,-0.008237571455538273,-0.04559142887592316,0.007383531425148249,-0.018314369022846222
0.024799039587378502,0.020421698689460754,-0.007857615128159523,-0.04572571441531181,0.007321591023355722,-0.01826997473835945
0.024973250925540924,0.020212847739458084,-0.007978526875376701,-0.04563681781291962,0.006695084273815155,-0.018353309482336044
0.025747090578079224,0.020480282604694366,-0.007898980751633644,-0.04523905739188194,0.006608901545405388,-0.018650321289896965
0.02546926587820053,0.01981435716152191,-0.008022083900868893,-0.045246634632349014,0.006684612482786179,-0.01819852739572525
0.025130096822977066,0.020579682663083076,-0.0076866173185408115,-0.04555400460958481,0.007373362313956022,-0.01833341084420681
0.024030370637774467,0.022859511896967888,-0.0074488394893705845,-0.0463046170771122,0.006850027944892645,-0.01890769973397255
0.025096945464611053,0.020384376868605614,-0.00705354381352663,-0.04609308019280434,0.0069037252105772495,-0.018986117094755173
0.025772295892238617,0.020183607935905457,-0.00761813810095191,-0.04677264392375946,0.006831315346062183,-0.018737081438302994
0.02563333511352539,0.020978368818759918,-0.007769999094307423,-0.0475739948451519,0.007281680125743151,-0.0187076348811388
0.025777090340852737,0.021078525111079216,-0.007239027880132198,-0.04771236330270767,0.007217625621706247,-0.018900485709309578
0.026500284671783447,0.020758353173732758,-0.0072181569412350655,-0.0476551353931427,0.007021829020231962,-0.018994858488440514
0.026393529027700424,0.021171074360609055,-0.007948163896799088,-0.04763045161962509,0.006660317536443472,-0.018825115635991096
0.025590430945158005,0.021067291498184204,-0.007711049169301987,-0.0478149838745594,0.006500952411442995,-0.019811471924185753
0.02565120905637741,0.020747147500514984,-0.007344813551753759,-0.04718851298093796,0.006879773922264576,-0.019519520923495293
0.02572275884449482,0.021634187549352646,-0.00813836045563221,-0.04917358607053757,0.00697933929041028,-0.018169278278946877
0.026630118489265442,0.021564394235610962,-0.008212345652282238,-0.04633074626326561,0.006928275339305401,-0.018954215571284294
0.026382245123386383,0.021690210327506065,-0.007248445879667997,-0.04802482947707176,0.007143090479075909,-0.019844943657517433
0.025929583236575127,0.021878104656934738,-0.008032172918319702,-0.04906606301665306,0.006951163522899151,-0.01989625208079815
0.02751997485756874,0.022018620744347572,-0.008402480743825436,-0.05166417360305786,0.00733117526397109,-0.019366063177585602
0.02693236991763115,0.02230052649974823,-0.0076186503283679485,-0.04952022805809975,0.007583532016724348,-0.019454708322882652
0.026920165866613388,0.02208007499575615,-0.007278601638972759,-0.048614341765642166,0.007158566266298294,-0.019613007083535194
0.026920165866613388,0.02208007499575615,-0.007278601638972759,-0.048614341765642166,0.007158566266298294,-0.019613007083535194
0.026902703568339348,0.021337075158953667,-0.007950450293719769,-0.04981890693306923,0.006922724191099405,-0.020236190408468246
0.027220984920859337,0.021664701402187347,-0.008312789723277092,-0.050440721213817596,0.007203332148492336,-0.020289789885282516
0.027389073744416237,0.02215101756155491,-0.007477239239960909,-0.05012453347444534,0.00696574104949832,-0.01950741559267044
0.026947444304823875,0.022363610565662384,-0.008062495850026608,-0.04941248521208763,0.007283550221472979,-0.0193658284842968
0.027142656967043877,0.021563200280070305,-0.008289587683975697,-0.05003056675195694,0.007197170983999968,-0.019425099715590477
0.02754964679479599,0.02209874428808689,-0.008282591588795185,-0.05244193598628044,0.007354470901191235,-0.019609695300459862
0.027725910767912865,0.023323331028223038,-0.007539356593042612,-0.04991957172751427,0.0071402802132070065,-0.019984325394034386
0.027646172791719437,0.022588415071368217,-0.007351186126470566,-0.0499340184032917,0.007302034646272659,-0.019879482686519623
0.027651838958263397,0.022108569741249084,-0.008237934671342373,-0.050345417112112045,0.0073769716545939445,-0.01954149268567562
0.027561932802200317,0.021811461076140404,-0.008214227855205536,-0.05271592363715172,0.007338343188166618,-0.019302479922771454
0.028156492859125137,0.021548118442296982,-0.007743575610220432,-0.0507606640458107,0.0073769232258200645,-0.019459718838334084
0.02866804227232933,0.022682351991534233,-0.007810118142515421,-0.05006995424628258,0.007405549753457308,-0.019764306023716927
0.028404992073774338,0.02298036962747574,-0.008522188290953636,-0.05092465132474899,0.00820703711360693,-0.01967914216220379
0.027432652190327644,0.02248433046042919,-0.008185205981135368,-0.05138217285275459,0.007501962129026651,-0.019486568868160248
0.02826167829334736,0.022103210911154747,-0.007470855489373207,-0.05045990273356438,0.007367714773863554,-0.01972455158829689
0.029054032638669014,0.022561825811862946,-0.008370925672352314,-0.05085812136530876,0.00765204569324851,-0.019308127462863922
0.028418296948075294,0.022930659353733063,-0.008579032495617867,-0.05139762535691261,0.007816826924681664,-0.019670404493808746
0.028961481526494026,0.022738968953490257,-0.008073217235505581,-0.05187669023871422,0.007846450433135033,-0.0199067834764719
0.029591593891382217,0.02276655286550522,-0.007554315030574799,-0.05186280980706215,0.007655424065887928,-0.01978735812008381
0.028848856687545776,0.022654447704553604,-0.008670629002153873,-0.052423685789108276,0.007239269092679024,-0.019867386668920517
0.02796861156821251,0.02312527224421501,-0.008311985991895199,-0.05304299667477608,0.0071904039941728115,-0.01967453770339489
0.028994593769311905,0.022653726860880852,-0.007870624773204327,-0.05321778357028961,0.007352236658334732,-0.019903820008039474
0.029571816325187683,0.022840872406959534,-0.007967370562255383,-0.05329783633351326,0.00780521659180522,-0.02038588374853134
0.02907801792025566,0.02284790202975273,-0.008122236467897892,-0.053287629038095474,0.007427566219121218,-0.02007521688938141
0.02853713370859623,0.02293604612350464,-0.00821044109761715,-0.053335629403591156,0.007101447321474552,-0.019787268713116646
0.029459906741976738,0.02324918657541275,-0.00793464481830597,-0.054414261132478714,0.007295882795006037,-0.021111473441123962
0.0290365070104599,0.023056715726852417,-0.008146652951836586,-0.054554808884859085,0.007657782640308142,-0.0197763592004776
0.029439160600304604,0.022950569167733192,-0.008710943162441254,-0.05439862981438637,0.007867712527513504,-0.019694456830620766
0.029439160600304604,0.022950569167733192,-0.008710943162441254,-0.05439862981438637,0.007867712527513504,-0.019694456830620766
0.029026305302977562,0.02304121106863022,-0.007971259765326977,-0.054652173072099686,0.007788520772010088,-0.02026285231113434
0.02923973649740219,0.02330833673477173,-0.00831118319183588,-0.05550730228424072,0.0077059464529156685,-0.020673492923378944
0.029288602992892265,0.02309311553835869,-0.007827923633158207,-0.05512377247214317,0.007737462874501944,-0.02079002372920513
0.02922993339598179,0.022871602326631546,-0.007901514880359173,-0.05565362796187401,0.007155950181186199,-0.02085104025900364
0.029491079971194267,0.022978046908974648,-0.007928403094410896,-0.057107213884592056,0.007191748358309269,-0.020656796172261238
0.029744813218712807,0.024456264451146126,-0.007957812398672104,-0.05487237498164177,0.007889971137046814,-0.021075550466775894
0.030130857601761818,0.02328457310795784,-0.007491677533835173,-0.05562124773859978,0.007962417788803577,-0.020790958777070045
0.03000851906836033,0.023317687213420868,-0.008164282888174057,-0.05706055462360382,0.007202149834483862,-0.020730745047330856
0.029939785599708557,0.023683441802859306,-0.008677174337208271,-0.0582672543823719,0.007238335441797972,-0.020541595295071602
0.030205605551600456,0.023405887186527252,-0.007954373955726624,-0.05550389364361763,0.007969317026436329,-0.020470108836889267
0.029875578358769417,0.023229533806443214,-0.0076140956953167915,-0.056436121463775635,0.007951021194458008,-0.02059894986450672
0.028565872460603714,0.023692023009061813,-0.0076989890076220036,-0.05714486539363861,0.0076564704068005085,-0.02092253789305687
0.030581189319491386,0.02369617484509945,-0.008984657004475594,-0.055921055376529694,0.007525710854679346,-0.020996810868382454
0.03030312806367874,0.022979477420449257,-0.008473793044686317,-0.05684584751725197,0.007551934570074081,-0.020753754302859306
0.03007393144071102,0.022968024015426636,-0.00798850879073143,-0.0565662756562233,0.008153032511472702,-0.02072902023792267
0.029968662187457085,0.023569969460368156,-0.007757929153740406,-0.05850476399064064,0.007996960543096066,-0.02086319401860237
0.029784580692648888,0.023738136515021324,-0.008093354292213917,-0.055884163826704025,0.0075696553103625774,-0.020902860909700394
0.030136561021208763,0.023830721154808998,-0.007725181058049202,-0.055840957909822464,0.008040102198719978,-0.021530283614993095
0.030006177723407745,0.02367616444826126,-0.007759240455925465,-0.056501664221286774,0.008537708781659603,-0.021563492715358734
0.029663974419236183,0.02319214679300785,-0.007959479466080666,-0.05530770123004913,0.008164952509105206,-0.020404163748025894
0.02967236377298832,0.023999644443392754,-0.008130344562232494,-0.05683225765824318,0.00837013591080904,-0.020499274134635925
0.029697706922888756,0.023413347080349922,-0.007727359887212515,-0.05798456817865372,0.008397996425628662,-0.020327253267169
0.029578614979982376,0.02380959503352642,-0.0078086405992507935,-0.05806620791554451,0.00804313737899065,-0.020668156445026398
0.029080400243401527,0.024061553180217743,-0.008003742434084415,-0.05826873704791069,0.008160830475389957,-0.021390719339251518
0.029080400243401527,0.024061553180217743,-0.008003742434084415,-0.05826873704791069,0.008160830475389957,-0.021390719339251518
0.029589761048555374,0.024328552186489105,-0.007846282795071602,-0.05863308534026146,0.008203343488276005,-0.021135929971933365
0.030291268602013588,0.02329770103096962,-0.0076017240062355995,-0.058859795331954956,0.008113985881209373,-0.021674789488315582
0.029742708429694176,0.023997070267796516,-0.00824070069938898,-0.05939417704939842,0.007669937331229448,-0.022117922082543373
0.028552675619721413,0.024139003828167915,-0.007591872476041317,-0.058949705213308334,0.0075937556102871895,-0.021771468222141266
0.02891681157052517,0.024029584601521492,-0.007296414114534855,-0.059141356498003006,0.008178104646503925,-0.021371128037571907
0.029757501557469368,0.024367153644561768,-0.008027132600545883,-0.05957012251019478,0.007837962359189987,-0.021135183051228523
0.029167572036385536,0.02441195212304592,-0.008064022287726402,-0.059712644666433334,0.008039810694754124,-0.020699860528111458
0.029678011313080788,0.024346722289919853,-0.007627895567566156,-0.059465426951646805,0.008346408605575562,-0.020824819803237915
0.030615877360105515,0.02463686838746071,-0.007207490503787994,-0.06030842661857605,0.008746313862502575,-0.021562283858656883
0.02994178608059883,0.024701092392206192,-0.007820311933755875,-0.06004110723733902,0.008259609341621399,-0.02213861420750618
0.029059868305921555,0.024479979649186134,-0.008791138418018818,-0.06061174347996712,0.007818210870027542,-0.02183953858911991
0.02921435236930847,0.02473101019859314,-0.007821968756616116,-0.0618843212723732,0.00804898701608181,-0.021737249568104744
0.030210789293050766,0.024734079837799072,-0.007354270201176405,-0.062064651399850845,0.008266741409897804,-0.02189558744430542
0.03025757148861885,0.024496596306562424,-0.008247709833085537,-0.061084628105163574,0.008444913662970066,-0.022199301049113274
0.03008713200688362,0.024747028946876526,-0.008351216092705727,-0.06345861405134201,0.008626806549727917,-0.022475186735391617
0.030108770355582237,0.02447834052145481,-0.007440896239131689,-0.06070996820926666,0.008088070899248123,-0.022306310012936592
0.030417386442422867,0.025156531482934952,-0.007193938363343477,-0.060846053063869476,0.0080481618642807,-0.022040314972400665
0.03017992153763771,0.025385351851582527,-0.008223989978432655,-0.06303170323371887,0.008210880681872368,-0.02208760194480419
0.030301708728075027,0.02590693160891533,-0.008012386038899422,-0.06233920529484749,0.008269601501524448,-0.022349728271365166
0.030604809522628784,0.025646483525633812,-0.0080906106159091,-0.060185402631759644,0.008473706431686878,-0.022296631708741188
0.03032911941409111,0.025313790887594223,-0.008005206473171711,-0.060587283223867416,0.008322271518409252,-0.022093849256634712
0.030501777306199074,0.02555016241967678,-0.007430775556713343,-0.06107267364859581,0.00796511396765709,-0.022514814510941505
0.03042661026120186,0.025376658886671066,-0.008009613491594791,-0.06097114831209183,0.008072631433606148,-0.02202099934220314
0.030413372442126274,0.02577006071805954,-0.007819965481758118,-0.06068665534257889,0.008629408665001392,-0.022317560389637947
0.03084557130932808,0.025507941842079163,-0.007754192687571049,-0.06402378529310226,0.008663473650813103,-0.0226033553481102
0.031352657824754715,0.026249825954437256,-0.007443348877131939,-0.06271212548017502,0.008192273788154125,-0.022670311853289604
0.031214985996484756,0.02628314681351185,-0.007414634805172682,-0.06196271628141403,0.008203691802918911,-0.023075563833117485
0.0300940852612257,0.026294520124793053,-0.007920014671981335,-0.06396070122718811,0.007961620576679707,-0.022859327495098114
0.03095702826976776,0.02596326358616352,-0.007843424566090107,-0.06498962640762329,0.008180561475455761,-0.02273007109761238
0.03095702826976776,0.02596326358616352,-0.007843424566090107,-0.06498962640762329,0.008180561475455761,-0.02273007109761238
0.031610362231731415,0.026210393756628036,-0.007045805919915438,-0.06320484727621078,0.00818191934376955,-0.022621268406510353
0.03150729835033417,0.026784032583236694,-0.0070958733558654785,-0.06429630517959595,0.008290921337902546,-0.022642742842435837
0.03248555213212967,0.026977714151144028,-0.00763347465544939,-0.06464671343564987,0.008763055317103863,-0.022907951846718788
0.03253370523452759,0.026622172445058823,-0.00793993566185236,-0.06526494026184082,0.008646881207823753,-0.023900335654616356
0.03105139546096325,0.025623155757784843,-0.007346376311033964,-0.06580556929111481,0.008377257734537125,-0.024031199514865875
0.03065311722457409,0.02652253955602646,-0.007096950430423021,-0.06623832136392593,0.00820013415068388,-0.023495811969041824
0.03171265125274658,0.027152501046657562,-0.007456986233592033,-0.0657438263297081,0.008611653000116348,-0.022136205807328224
0.03213443234562874,0.026377540081739426,-0.00804651528596878,-0.0664587914943695,0.008668807335197926,-0.022148406133055687
0.03204561769962311,0.026655031368136406,-0.007544537540525198,-0.06702966243028641,0.008949784561991692,-0.02296011708676815
0.032215751707553864,0.02789931744337082,-0.007592235691845417,-0.06734945625066757,0.009028099477291107,-0.024045025929808617
0.03256598860025406,0.028290599584579468,-0.007987238466739655,-0.06706038862466812,0.009114036336541176,-0.023490188643336296
0.032682713121175766,0.027549495920538902,-0.007744535803794861,-0.06650631129741669,0.008687680587172508,-0.023234868422150612
0.03282734379172325,0.027102215215563774,-0.007597677875310183,-0.06675507873296738,0.008538981899619102,-0.024206671863794327
0.03283359482884407,0.027090787887573242,-0.006940221879631281,-0.0660993680357933,0.009347799234092236,-0.02468852326273918
0.03322724252939224,0.027900969609618187,-0.007177324499934912,-0.0661209374666214,0.008986109867691994,-0.023408615961670876
0.03254199028015137,0.029778141528367996,-0.008053258992731571,-0.06569798290729523,0.008965973742306232,-0.02259363792836666
0.03300592675805092,0.02711157314479351,-0.007683177944272757,-0.06739220768213272,0.008723322302103043,-0.022987065836787224
0.03363377973437309,0.027482712641358376,-0.006962702609598637,-0.06447713822126389,0.008894376456737518,-0.023512855172157288
0.03366418555378914,0.027528762817382812,-0.0070558395236730576,-0.06509395688772202,0.008421246893703938,-0.02423461154103279
0.03355692699551582,0.028061876073479652,-0.008181378245353699,-0.06782945245504379,0.008535204455256462,-0.02308760955929756
0.03378593921661377,0.028399985283613205,-0.007508906535804272,-0.06579951196908951,0.008923200890421867,-0.02351043000817299
0.03411810100078583,0.028568018227815628,-0.0069643473252654076,-0.06695763766765594,0.008530540391802788,-0.023716449737548828
