davideferrari95/blind_handover_controller/data/Test 133 - [2024-02-07 -- 17-06-22]/joint_states_data.csv
shoulder_pan_joint,shoulder_lift_joint,elbow_joint,wrist_1_joint,wrist_2_joint,wrist_3_joint
0.005026332102715969,0.006961901672184467,-0.01128136646002531,0.009090382605791092,-0.0,0.006301078479737043
0.005026332102715969,0.006961901672184467,-0.01128136646002531,0.009090382605791092,-0.0,0.006301078479737043
0.005237836856395006,0.007238980382680893,-0.011719665490090847,0.009184734895825386,-0.0,0.006078613921999931
0.005237836856395006,0.007238980382680893,-0.011719665490090847,0.009184734895825386,-0.0,0.006078613921999931
0.005216567777097225,0.006906795781105757,-0.01135282963514328,0.00884548295289278,-0.0,0.006120285019278526
0.005356102250516415,0.006856492254883051,-0.011534648016095161,0.00906823668628931,-0.0,0.005637607537209988
0.00519608287140727,0.007202796638011932,-0.011303381994366646,0.008935806341469288,-0.0,0.005820360500365496
0.00496563408523798,0.006798433605581522,-0.011849086731672287,0.008808761835098267,-0.0,0.00629472266882658
0.005253623705357313,0.006851169280707836,-0.011848123744130135,0.008908411487936974,-0.0,0.006264111027121544
0.005199338309466839,0.006886815186589956,-0.01152229867875576,0.009500766173005104,-0.0,0.006171273533254862
0.005563549697399139,0.004999024327844381,-0.012533929198980331,0.008762912824749947,-0.0,0.005818779580295086
0.005592013709247112,0.0039359345100820065,-0.011691957712173462,0.00853669736534357,-0.0,0.005739243701100349
0.005188890732824802,0.0037030873354524374,-0.011963041499257088,0.009119700640439987,-0.0,0.005927234422415495
0.0047615827061235905,0.004318283870816231,-0.011779695749282837,0.008932524360716343,-0.0,0.00603136233985424
0.0051024602726101875,0.005073294043540955,-0.011534413322806358,0.008880539797246456,-0.0,0.006345199421048164
0.005329585168510675,0.004941208753734827,-0.012132266536355019,0.00931590236723423,-0.0,0.005848883185535669
0.00573688605800271,0.0045191459357738495,-0.011338342912495136,0.00898424256592989,-0.0,0.006009666249155998
0.005365930963307619,0.004117813427001238,-0.01163948979228735,0.0081040533259511,-0.0,0.00654270313680172
0.005315085407346487,0.004238347057253122,-0.011614265851676464,0.00832328386604786,-0.0,0.00688848877325654
0.005088183097541332,0.00401310296729207,-0.01206811610609293,0.008458102121949196,-0.0,0.00610119616612792
0.005433389917016029,0.0038922184612601995,-0.011955400928854942,0.008108585141599178,-0.0,0.0057939160615205765
0.005706809926778078,0.004348370712250471,-0.011876234784722328,0.008126270957291126,-0.0,0.005828641355037689
0.005482344422489405,0.00414753332734108,-0.011770430020987988,0.008024830371141434,-0.0,0.006215224973857403
0.00548203568905592,0.003947190009057522,-0.01189335621893406,0.007984155789017677,-0.0,0.006571603938937187
0.005073340609669685,0.0034724846482276917,-0.012274111621081829,0.007501164451241493,-0.0,0.006263186223804951
0.005673315841704607,0.0036402286496013403,-0.011326794512569904,0.00850153248757124,-0.0,0.005827861372381449
0.0061732507310807705,0.003580865217372775,-0.011921760626137257,0.008550601080060005,-0.0,0.005884558893740177
0.0061732507310807705,0.003580865217372775,-0.011921760626137257,0.008550601080060005,-0.0,0.005884558893740177
0.005700312089174986,0.0036193737760186195,-0.011482080444693565,0.008058540523052216,-0.0,0.006426102947443724
0.005658648908138275,0.0037706694565713406,-0.01200338639318943,0.008224503137171268,-0.0,0.005944260396063328
0.005208308342844248,0.0037809519562870264,-0.012004398740828037,0.008230061270296574,-0.0,0.0058362483978271484
0.005820352118462324,0.0040933541022241116,-0.011205625720322132,0.00860808789730072,-0.0,0.005679733585566282
0.005896544549614191,0.0041981893591582775,-0.011820201762020588,0.008766275830566883,-0.0,0.0060060890391469
0.005821015685796738,0.0040769693441689014,-0.011972428299486637,0.009004014544188976,-0.0,0.006720941048115492
0.005882664583623409,0.003614019602537155,-0.011614552699029446,0.008559977635741234,-0.0,0.006203808821737766
0.005370365921407938,0.003892437554895878,-0.011192831210792065,0.007956395857036114,-0.0,0.0058900522999465466
0.005937149748206139,0.004197869449853897,-0.010937675833702087,0.008898748084902763,-0.0,0.0059653096832334995
0.0060291229747235775,0.004078342113643885,-0.011463113129138947,0.009018567390739918,-0.0,0.0061246249824762344
0.00610033655539155,0.004364508669823408,-0.011137816123664379,0.008568305522203445,-0.0,0.006305028218775988
0.006481224205344915,0.004157939925789833,-0.010922450572252274,0.009274056181311607,-0.0,0.006046487484127283
0.005716846324503422,0.004264633636921644,-0.011239231564104557,0.00874306820333004,-0.0,0.005784941371530294
0.005910445004701614,0.004213046748191118,-0.010837869718670845,0.008439959958195686,-0.0,0.005987250711768866
0.006927958689630032,0.0043171122670173645,-0.011793108657002449,0.00840691290795803,-0.0,0.006481802091002464
0.005888589657843113,0.004472635220736265,-0.011132455430924892,0.00852157548069954,-0.0,0.006363641936331987
0.005854758433997631,0.004318223800510168,-0.010773852467536926,0.008131156675517559,-0.0,0.006256978027522564
0.005931203253567219,0.00452803447842598,-0.011681023985147476,0.007972084917128086,-0.0,0.00575464591383934
0.005921491887420416,0.004265043884515762,-0.011194153688848019,0.0077929189428687096,-0.0,0.005479589104652405
0.005974118132144213,0.004077438730746508,-0.011314604431390762,0.008646801114082336,-0.0,0.00564945163205266
0.0060515012592077255,0.004303996916860342,-0.011430417187511921,0.008155561983585358,-0.0,0.006151073146611452
0.006122869905084372,0.004533702973276377,-0.010830730199813843,0.007694147527217865,-0.0,0.00619093794375658
0.005782255902886391,0.00410864083096385,-0.011454513296484947,0.008508997038006783,-0.0,0.005864044185727835
0.005660045892000198,0.004430161323398352,-0.01132134161889553,0.008049524389207363,-0.0,0.005738211330026388
0.005948047153651714,0.004178220871835947,-0.011074408888816833,0.008056968450546265,-0.0,0.005735968705266714
0.006098142825067043,0.0043840473517775536,-0.011562838219106197,0.007830163463950157,-0.0,0.0063443551771342754
0.006131485570222139,0.00436946889385581,-0.011049019172787666,0.00819514412432909,-0.0,0.0063294474966824055
0.005701382178813219,0.004349765367805958,-0.011406371369957924,0.007800248451530933,-0.0,0.00615914911031723
0.005996711552143097,0.0044906241819262505,-0.01128839049488306,0.008123286068439484,-0.0,0.006701258011162281
0.0061437152326107025,0.004507414065301418,-0.011744317598640919,0.008467966690659523,-0.0,0.005866085644811392
0.0061437152326107025,0.004507414065301418,-0.011744317598640919,0.008467966690659523,-0.0,0.005866085644811392
0.006047824863344431,0.004383458290249109,-0.010900991037487984,0.008390703238546848,-0.0,0.0054968902841210365
0.005724193993955851,0.004434725269675255,-0.011296281591057777,0.007657596841454506,-0.0,0.005687932949513197
0.006071530282497406,0.0047532422468066216,-0.01205435860902071,0.0075938948430120945,-0.0,0.006169619970023632
0.006507816258817911,0.005125707481056452,-0.01164553314447403,0.007886705920100212,-0.0,0.0061922743916511536
0.006386213004589081,0.004583955276757479,-0.011323733255267143,0.0077351792715489864,-0.0,0.005831223912537098
0.0061051552183926105,0.004435731563717127,-0.011033839546144009,0.007615382317453623,-0.0,0.005796391051262617
0.006216788664460182,0.004647575784474611,-0.011453128419816494,0.007890012115240097,-0.0,0.005728617776185274
0.006192789878696203,0.004725918173789978,-0.011393887922167778,0.008145764470100403,-0.0,0.0056616514921188354
0.006293219979852438,0.00482979929074645,-0.01066523976624012,0.007764078676700592,-0.0,0.005600196309387684
0.0058649396523833275,0.005112575367093086,-0.01124280784279108,0.007817761972546577,-0.0,0.005606621969491243
0.005778564605861902,0.004840329755097628,-0.010963944718241692,0.007937117479741573,-0.0,0.005654838867485523
0.0052039846777915955,0.0048650107346475124,-0.011146585457026958,0.0070680188946425915,-0.0,0.006200428586453199
0.005770237185060978,0.0046653286553919315,-0.011496870778501034,0.0070967054925858974,-0.0,0.006346721667796373
0.005745940841734409,0.004853034857660532,-0.010895274579524994,0.007394682615995407,-0.0,0.0057508633472025394
0.005805884953588247,0.0049361675046384335,-0.011893507093191147,0.008099941536784172,-0.0,0.005886755883693695
0.00579485110938549,0.004945985972881317,-0.011314386501908302,0.007703818846493959,-0.0,0.005998650565743446
0.00572834862396121,0.005008625332266092,-0.011067281477153301,0.006988359149545431,-0.0,0.006152022164314985
0.005566790699958801,0.004897514823824167,-0.011190513148903847,0.006938638165593147,-0.0,0.006192613393068314
0.005610514897853136,0.004778075497597456,-0.010829214937984943,0.007424859795719385,-0.0,0.005654653534293175
0.005319933407008648,0.0046303775161504745,-0.011335673741996288,0.007445389870554209,-0.0,0.006233764346688986
0.0059688338078558445,0.005105321761220694,-0.011379371397197247,0.007221018895506859,-0.0,0.006025984883308411
0.006338461302220821,0.005155940540134907,-0.010728394612669945,0.006926448084414005,-0.0,0.006053355522453785
0.005695202387869358,0.004735633265227079,-0.01171223446726799,0.007610713131725788,-0.0,0.005628457758575678
0.0059831468388438225,0.004928004462271929,-0.011088536120951176,0.007679800037294626,-0.0,0.005638907663524151
0.0059831468388438225,0.004928004462271929,-0.011088536120951176,0.007679800037294626,-0.0,0.005638907663524151
0.005779318977147341,0.005303945392370224,-0.012042410671710968,0.007286910433322191,-0.0,0.00602379534393549
0.006092921830713749,0.005086645018309355,-0.01136914175003767,0.006889532320201397,-0.0,0.006116160191595554
0.005822071805596352,0.005425439681857824,-0.011034521274268627,0.007689524907618761,-0.0,0.006090082693845034
0.006210171151906252,0.004852783400565386,-0.011449684388935566,0.007375084329396486,-0.0,0.005942976102232933
0.006116201169788837,0.00477678282186389,-0.011106027290225029,0.007132302038371563,-0.0,0.0067151980474591255
0.006092607509344816,0.005209952127188444,-0.0112113943323493,0.007642166223376989,-0.0,0.006464462261646986
0.00610515009611845,0.005007620435208082,-0.011065336875617504,0.008073488250374794,-0.0,0.005718143656849861
0.0058993506245315075,0.0054518794640898705,-0.011433853767812252,0.007883208803832531,-0.0,0.00580228678882122
0.00656424043700099,0.0052637979388237,-0.011139806360006332,0.006872110068798065,-0.0,0.0061323451809585094
0.006413477938622236,0.004829613957554102,-0.011908931657671928,0.007185264956206083,-0.0,0.0064062392339110374
0.0059836506843566895,0.004677445627748966,-0.011845161207020283,0.00748713593930006,-0.0,0.006540598813444376
0.006244432181119919,0.0050993370823562145,-0.011280634440481663,0.007408577483147383,-0.0,0.006611498072743416
0.006050197873264551,0.0050154635682702065,-0.01161457784473896,0.007243509404361248,-0.0,0.005925618577748537
0.006405345164239407,0.00544776814058423,-0.011290564201772213,0.007296946831047535,-0.0,0.006355170160531998
0.0064502377063035965,0.005136151798069477,-0.010599387809634209,0.0073443143628537655,-0.0,0.00665219034999609
0.006525605451315641,0.004890996962785721,-0.011817333288490772,0.007149267941713333,-0.0,0.005914592649787664
0.006328190211206675,0.0050952681340277195,-0.01163856964558363,0.0070328013971447945,-0.0,0.005830565933138132
0.00652813958004117,0.005057301372289658,-0.011938473209738731,0.006906511727720499,-0.0,0.005836245603859425
0.006632823031395674,0.0050735874101519585,-0.011630235239863396,0.007233520038425922,-0.0,0.006169842556118965
0.006595691666007042,0.005468105897307396,-0.011187194846570492,0.007315716706216335,-0.0,0.00652470113709569
0.005955779459327459,0.005249036476016045,-0.01223602145910263,0.006942832842469215,-0.0,0.006404816638678312
0.006285340990871191,0.005130387842655182,-0.011384350247681141,0.006675818003714085,-0.0,0.006088037509471178
0.0067247129045426846,0.005113027524203062,-0.011828644201159477,0.007077477406710386,-0.0,0.006009760312736034
0.0064572496339678764,0.005650991108268499,-0.011621383018791676,0.006809379905462265,-0.0,0.005645341239869595
0.00627739354968071,0.00539130624383688,-0.01146573107689619,0.007018831558525562,-0.0,0.006350124254822731
0.00659522321075201,0.005830074660480022,-0.012015464715659618,0.007209802977740765,-0.0,0.006270324811339378
0.00692926999181509,0.005280997604131699,-0.011636403389275074,0.00689306017011404,-0.0,0.006513679400086403
0.006617036648094654,0.005180139560252428,-0.012433541938662529,0.0069602434523403645,-0.0,0.00621020095422864
0.006353296805173159,0.005422087386250496,-0.012200655415654182,0.006961654871702194,-0.0,0.006353309378027916
0.00673713069409132,0.005372250452637672,-0.01129679661244154,0.007361900061368942,-0.0,0.005967163946479559
0.0066531565971672535,0.0053665838204324245,-0.011047495529055595,0.007183081936091185,-0.0,0.005967192351818085
0.0066531565971672535,0.0053665838204324245,-0.011047495529055595,0.007183081936091185,-0.0,0.005967192351818085
0.006544130854308605,0.004805069882422686,-0.011804462410509586,0.006610576529055834,-0.0,0.0062213134951889515
0.0061446428298950195,0.004960753954946995,-0.010928179137408733,0.0067514716647565365,-0.0,0.006109902635216713
0.0061446428298950195,0.004960753954946995,-0.010928179137408733,0.0067514716647565365,-0.0,0.006109902635216713
0.006124990992248058,0.005659326445311308,-0.011804859153926373,0.0073558613657951355,-0.0,0.0059927054680883884
0.0069134850054979324,0.005475614219903946,-0.01132153533399105,0.007502001244574785,-0.0,0.006026572547852993
0.006471692118793726,0.005832470487803221,-0.010823520831763744,0.007016091141849756,-0.0,0.006051612552255392
0.006225872784852982,0.005277707241475582,-0.01051676832139492,0.006864333990961313,-0.0,0.006212406326085329
0.00619666138663888,0.004871860146522522,-0.010664992965757847,0.006833341438323259,-0.0,0.0062103564850986
0.006742638070136309,0.005261394660919905,-0.010909597389400005,0.006520797498524189,-0.0,0.006273895036429167
0.007183320354670286,0.005201832391321659,-0.011968033388257027,0.006307163275778294,-0.0,0.006193843204528093
0.006832288112491369,0.0051107523031532764,-0.01120704971253872,0.006868645548820496,-0.0,0.006571240723133087
0.006395466160029173,0.005252547096461058,-0.011640575714409351,0.00700514018535614,-0.0,0.006814649328589439
0.00651140371337533,0.004817113280296326,-0.010996389202773571,0.006961974781006575,-0.0,0.006466172635555267
0.006991793401539326,0.00407980103045702,-0.011452211998403072,0.006749717518687248,-0.0,0.006325481925159693
0.006927216425538063,0.003647666657343507,-0.011668963357806206,0.006543558556586504,-0.0,0.00613756338134408
0.006924081593751907,0.0038007372058928013,-0.011514093726873398,0.007067031227052212,-0.0,0.006022267043590546
0.006732901092618704,0.0041512381285429,-0.011628339998424053,0.007047721650451422,-0.0,0.006471795495599508
0.00771586038172245,0.004468697588890791,-0.010960191488265991,0.007297420408576727,-0.0,0.006786077283322811
0.007058887276798487,0.004553675185889006,-0.01120796799659729,0.007384030148386955,-0.0,0.0066870334558188915
0.006283814553171396,0.004137578420341015,-0.011181996203958988,0.007561454549431801,-0.0,0.006488684564828873
0.006582767236977816,0.004222796764224768,-0.010496525093913078,0.007477337960153818,-0.0,0.006611887831240892
0.0067455885000526905,0.0043054684065282345,-0.010984866879880428,0.007364646997302771,-0.0,0.006503727287054062
0.007469482719898224,0.004346691537648439,-0.010800338350236416,0.007446313742548227,-0.0,0.00679198931902647
0.0069103301502764225,0.004236422013491392,-0.01105998270213604,0.007756540086120367,-0.0,0.0068595753982663155
0.006767855025827885,0.004505566321313381,-0.010603245347738266,0.0069201914593577385,-0.0,0.007275490555912256
0.007251931820064783,0.004050044808536768,-0.011207960546016693,0.006773343309760094,-0.0,0.006801918148994446
0.007186094298958778,0.0038085710257291794,-0.0111446687951684,0.0070191374979913235,-0.0,0.006386081222444773
0.007186094298958778,0.0038085710257291794,-0.0111446687951684,0.0070191374979913235,-0.0,0.006386081222444773
0.0065251500345766544,0.004089295398443937,-0.010616633109748363,0.007256326265633106,-0.0,0.00619168346747756
0.007074199616909027,0.004249936901032925,-0.011450475081801414,0.007033162750303745,-0.0,0.006706813350319862
0.007786225527524948,0.004082337021827698,-0.011157392524182796,0.00638303067535162,-0.0,0.007076835725456476
0.006895255297422409,0.003951885271817446,-0.011261033825576305,0.006171017419546843,-0.0,0.006968841888010502
0.0070288642309606075,0.004166902508586645,-0.0116306496784091,0.0065283398143947124,-0.0,0.006805821321904659
0.006808089558035135,0.004057468380779028,-0.011133204214274883,0.006525710225105286,-0.0,0.0071695726364851
0.007147097960114479,0.004280560649931431,-0.011311528272926807,0.006680241785943508,-0.0,0.007453947328031063
0.007348924409598112,0.0040254718624055386,-0.010794046334922314,0.006854757200926542,-0.0,0.0067922938615083694
0.007384443189948797,0.003865183563902974,-0.011030463501811028,0.006720487494021654,-0.0,0.006670426577329636
0.007218539714813232,0.004176183603703976,-0.011834046803414822,0.0070519824512302876,-0.0,0.006998456548899412
0.0077269715256989,0.0042095123790204525,-0.01120497565716505,0.006997799966484308,-0.0,0.007059854455292225
0.007570447400212288,0.004495476838201284,-0.012204626575112343,0.006794570479542017,-0.0,0.007135685067623854
0.007334900554269552,0.004168815445154905,-0.011494618840515614,0.006712893955409527,-0.0,0.006910942494869232
0.007152428850531578,0.003838537260890007,-0.011259391903877258,0.00778018357232213,-0.0,0.007326207123696804
0.007319041993469,0.003677923697978258,-0.011281924322247505,0.007872582413256168,-0.0,0.006912530865520239
0.0075201066210865974,0.003869263920933008,-0.011002999730408192,0.007602755445986986,-0.0,0.006553431507200003
0.007615566253662109,0.0038454642053693533,-0.011338457465171814,0.0069657922722399235,-0.0,0.0068251872435212135
0.007066156715154648,0.003740261308848858,-0.011436966247856617,0.006936861667782068,-0.0,0.0064567276276648045
0.007564921397715807,0.003799648955464363,-0.011132116429507732,0.007191149517893791,-0.0,0.006998880300670862
0.007564921397715807,0.003799648955464363,-0.011132116429507732,0.007191149517893791,-0.0,0.006998880300670862
0.008118775673210621,0.003928777761757374,-0.011831439100205898,0.006897973362356424,-0.0,0.006875514518469572
0.0071778311394155025,0.0043624104000627995,-0.011077862232923508,0.007194936275482178,-0.0,0.006750406697392464
0.008533679880201817,0.003770241281017661,-0.011361725628376007,0.006913891062140465,-0.0,0.006960616447031498
0.008533679880201817,0.003770241281017661,-0.011361725628376007,0.006913891062140465,-0.0,0.006960616447031498
0.0073081254959106445,0.0037655425257980824,-0.011287723667919636,0.0066344053484499454,-0.0,0.007047456223517656
0.007336461916565895,0.004275898449122906,-0.011122200638055801,0.007153861690312624,-0.0,0.007410621270537376
0.0078102704137563705,0.004311790689826012,-0.011063775978982449,0.006932088639587164,-0.0,0.006801941432058811
0.007601086515933275,0.004003759473562241,-0.011205793358385563,0.006626700516790152,-0.0,0.00712689058855176
0.008063911460340023,0.003802146762609482,-0.01068225596100092,0.00660210195928812,-0.0,0.006800624541938305
0.00787275843322277,0.003804480191320181,-0.011252901516854763,0.0074475654400885105,-0.0,0.007107004057615995
0.007933549582958221,0.003794641699641943,-0.011445642448961735,0.0071847932413220406,-0.0,0.007063774857670069
0.0077478778548538685,0.0037542416248470545,-0.010930616408586502,0.006732622627168894,-0.0,0.007076305337250233
0.0076447585597634315,0.004185044206678867,-0.012482811696827412,0.0065373508259654045,-0.0,0.007169223856180906
0.007532539777457714,0.004176149144768715,-0.011431128717958927,0.0068910736590623856,-0.0,0.007543961517512798
0.008052232675254345,0.004345869645476341,-0.01161008421331644,0.007531215436756611,-0.0,0.007130279205739498
0.008007741533219814,0.0044575221836566925,-0.011150818318128586,0.007989795878529549,-0.0,0.0071409172378480434
0.007600861135870218,0.004210223443806171,-0.010738405399024487,0.0069666109047830105,-0.0,0.008014515973627567
0.0075918142683804035,0.004395253024995327,-0.011942432262003422,0.006878370884805918,-0.0,0.007820410653948784
0.008614981546998024,0.004288440104573965,-0.011197751387953758,0.007022927515208721,-0.0,0.007020376622676849
0.007999652065336704,0.0039971680380403996,-0.01132841594517231,0.007072256412357092,-0.0,0.006883682683110237
0.007619915530085564,0.0043572671711444855,-0.011584149673581123,0.006835392210632563,-0.0,0.006759794428944588
0.008157062344253063,0.0046173930168151855,-0.010914205573499203,0.00663674296811223,-0.0,0.006740485783666372
0.008124909363687038,0.004612856078892946,-0.011339227668941021,0.007443695794790983,-0.0,0.007157544139772654
0.008010600693523884,0.004196024965494871,-0.01082717627286911,0.00758935185149312,-0.0,0.0076812682673335075
0.008144084364175797,0.004518796689808369,-0.010901205241680145,0.007166371680796146,-0.0,0.007319063879549503
0.008331140503287315,0.004216775763779879,-0.011844300664961338,0.0066201817244291306,-0.0,0.007168988231569529
0.008209150284528732,0.004338152706623077,-0.010994208045303822,0.007122724317014217,-0.0,0.007504988461732864
0.008420332334935665,0.004186152946203947,-0.011734521947801113,0.007412401959300041,-0.0,0.007633912842720747
0.00869736447930336,0.004424219485372305,-0.011967169120907784,0.007016501855105162,-0.0,0.0076329754665493965
0.008376887068152428,0.004525741096585989,-0.011428052559494972,0.006593713071197271,-0.0,0.007458790671080351
0.008647062815725803,0.00408713985234499,-0.011359069496393204,0.006703708320856094,-0.0,0.007367648649960756
0.008647062815725803,0.00408713985234499,-0.011359069496393204,0.006703708320856094,-0.0,0.007367648649960756
0.008379234001040459,0.004171638749539852,-0.011695995926856995,0.007096238434314728,-0.0,0.007817481644451618
0.008485827594995499,0.004410089459270239,-0.012341759167611599,0.006670656614005566,-0.0,0.007732673082500696
0.007953815162181854,0.004205156583338976,-0.011577719822525978,0.006540541537106037,-0.0,0.007621242199093103
0.008396655321121216,0.004448766820132732,-0.01149494107812643,0.00717628700658679,-0.0,0.007346661761403084
0.008396655321121216,0.004448766820132732,-0.01149494107812643,0.00717628700658679,-0.0,0.007346661761403084
0.008560657501220703,0.004607798531651497,-0.0118736382573843,0.006552757695317268,-0.0,0.007282546255737543
0.008500995114445686,0.004607231821864843,-0.011471223086118698,0.006447427440434694,-0.0,0.00707579031586647
0.008621929213404655,0.004370331298559904,-0.011331051588058472,0.00682053342461586,-0.0,0.007446041330695152
0.008453411981463432,0.004447335842996836,-0.012023920193314552,0.007027145475149155,-0.0,0.008494279347360134
0.008765767328441143,0.004629704635590315,-0.011366681195795536,0.006814987864345312,-0.0,0.008532794192433357
0.008701291866600513,0.004632710944861174,-0.011716587468981743,0.006464355159550905,-0.0,0.007877708412706852
0.00873703695833683,0.004111910704523325,-0.011754357255995274,0.006806300953030586,-0.0,0.007631516549736261
0.008442167192697525,0.003896961687132716,-0.011713363230228424,0.007482731714844704,-0.0,0.00807412900030613
0.008450747467577457,0.004362103529274464,-0.011723177507519722,0.0076338015496730804,-0.0,0.007895824499428272
0.008568136021494865,0.00448860926553607,-0.011288076639175415,0.007162786554545164,-0.0,0.008038552477955818
0.009607651270925999,0.004220997914671898,-0.012330230325460434,0.007196633145213127,-0.0,0.008585107512772083
0.008532840758562088,0.004293224774301052,-0.012425554916262627,0.007495634723454714,-0.0,0.007869623601436615
0.008714641444385052,0.004573293030261993,-0.01189639326184988,0.007405082695186138,-0.0,0.006868390832096338
0.00891551747918129,0.004653646610677242,-0.011878613382577896,0.007417306303977966,-0.0,0.00725931441411376
0.009012832306325436,0.0042966026812791824,-0.011663008481264114,0.007534699980169535,-0.0,0.007715427782386541
0.008499623276293278,0.0044315531849861145,-0.012120066210627556,0.007075744681060314,-0.0,0.0074971322901546955
0.00860387459397316,0.0048981523141264915,-0.011861685663461685,0.006719940807670355,-0.0,0.007549556903541088
0.00874660536646843,0.005007828585803509,-0.011581803672015667,0.006391558330506086,-0.0,0.007413528859615326
0.008880389854311943,0.004706778097897768,-0.011429591104388237,0.006781158037483692,-0.0,0.007846156135201454
0.009386694990098476,0.004475519992411137,-0.011248973198235035,0.00698502454906702,-0.0,0.007722281385213137
0.009386694990098476,0.004475519992411137,-0.011248973198235035,0.00698502454906702,-0.0,0.007722281385213137
0.00905483216047287,0.004875105805695057,-0.012013220228254795,0.007268700283020735,-0.0,0.008081696927547455
0.008382975123822689,0.005029486957937479,-0.01133638434112072,0.007032488472759724,-0.0,0.008357536047697067
0.008948053233325481,0.0047743297182023525,-0.011523490771651268,0.007605168968439102,-0.0,0.007777714636176825
0.009093142114579678,0.004694049246609211,-0.01108129695057869,0.0075831045396625996,-0.0,0.007905256003141403
0.008612618781626225,0.004596985410898924,-0.011593740433454514,0.007445674855262041,-0.0,0.008864691480994225
0.009064982645213604,0.004430908709764481,-0.011410241015255451,0.007938777096569538,-0.0,0.00820173043757677
0.009146335534751415,0.00481681851670146,-0.011681498028337955,0.008025813847780228,-0.0,0.008156916126608849
0.008648616261780262,0.004825825337320566,-0.011779246851801872,0.007970732636749744,-0.0,0.008185924962162971
0.00951835885643959,0.004964022431522608,-0.011265043169260025,0.00726833613589406,-0.0,0.008839440532028675
0.008994280360639095,0.004873812664300203,-0.011807366274297237,0.006920964457094669,-0.0,0.008169837296009064
0.008794976398348808,0.004760384559631348,-0.011754389852285385,0.007374208886176348,-0.0,0.007988564670085907
0.009143189527094364,0.004727259743958712,-0.011517955921590328,0.00754113495349884,-0.0,0.00826361496001482
0.00983927957713604,0.004768068436533213,-0.01173704955726862,0.006980459205806255,-0.0,0.008370701223611832
0.00850390363484621,0.004755059257149696,-0.011329837143421173,0.007020356599241495,-0.0,0.008013163693249226
0.008842513896524906,0.005298222415149212,-0.012054146267473698,0.007624688092619181,-0.0,0.007854324765503407
0.009392020292580128,0.005239750258624554,-0.012402844615280628,0.0077228303998708725,-0.0,0.00825614295899868
0.009052186273038387,0.004888574592769146,-0.012028231285512447,0.0071146790869534016,-0.0,0.008052446879446507
0.008891801349818707,0.00475330138579011,-0.011905263178050518,0.0067886305041611195,-0.0,0.008161748759448528
0.010115321725606918,0.005230149254202843,-0.011350434273481369,0.006861169822514057,-0.0,0.008276088163256645
0.00908753089606762,0.0049803368747234344,-0.012225181795656681,0.0072178966365754604,-0.0,0.008920309133827686
0.008585290983319283,0.004919677507132292,-0.011447148397564888,0.007035144604742527,-0.0,0.008178533986210823
0.009079154580831528,0.00495244562625885,-0.011730873957276344,0.006787353660911322,-0.0,0.008116647601127625
0.009484491311013699,0.0051220920868217945,-0.011661062017083168,0.006651085335761309,-0.0,0.008853987790644169
0.008936230093240738,0.004928514361381531,-0.011272831819951534,0.007158661726862192,-0.0,0.008628981187939644
0.009463938884437084,0.004798135254532099,-0.011901838704943657,0.007488338742405176,-0.0,0.008376373909413815
0.009405924007296562,0.004948562942445278,-0.011666849255561829,0.006826980505138636,-0.0,0.008428671397268772
0.009843128733336926,0.004888839554041624,-0.011985410936176777,0.006584116257727146,-0.0,0.00878206081688404
0.009843128733336926,0.004888839554041624,-0.011985410936176777,0.006584116257727146,-0.0,0.00878206081688404
0.009821887128055096,0.005195726174861193,-0.011590288020670414,0.007238524500280619,-0.0,0.00843880232423544
0.008999894373118877,0.004755138885229826,-0.011863823980093002,0.007032896392047405,-0.0,0.008806548081338406
0.00954393669962883,0.0046906499192118645,-0.011549035087227821,0.006121201906353235,-0.0,0.00874292477965355
0.009847844950854778,0.004788652993738651,-0.011699371971189976,0.006528186146169901,-0.0,0.008788565173745155
0.009464413858950138,0.004899994470179081,-0.011781727895140648,0.007540862541645765,-0.0,0.008548339828848839
0.009556117467582226,0.004861191380769014,-0.011136993765830994,0.007990911602973938,-0.0,0.008814426138997078
0.010163520462810993,0.005472078919410706,-0.01168134342879057,0.007689881604164839,-0.0,0.008015804924070835
0.00926369521766901,0.005144384223967791,-0.011175242252647877,0.007847066968679428,-0.0,0.008158012293279171
0.009696650318801403,0.004608834628015757,-0.011274094693362713,0.007064073346555233,-0.0,0.008448023349046707
0.010501507669687271,0.004173580557107925,-0.011361365206539631,0.007036258466541767,-0.0,0.008525557816028595
0.009705014526844025,0.003820360405370593,-0.011066879145801067,0.006966032087802887,-0.0,0.008751164190471172
0.009744864888489246,0.0036653964780271053,-0.011755273677408695,0.007246720138937235,-0.0,0.00873231515288353
0.010159840807318687,0.004371265880763531,-0.011604012921452522,0.007701911497861147,-0.0,0.008725443854928017
0.010037382133305073,0.004651624243706465,-0.011520318686962128,0.007628293242305517,-0.0,0.008926737122237682
0.01079088170081377,0.004393808543682098,-0.011464698240160942,0.006987194065004587,-0.0,0.008365803398191929
0.010511972941458225,0.004086121916770935,-0.010862492956221104,0.007062922697514296,-0.0,0.008805644698441029
0.009550603106617928,0.003938863053917885,-0.01158901210874319,0.0075126392766833305,-0.0,0.008861979469656944
0.010196421295404434,0.003944103140383959,-0.011197103187441826,0.007450467441231012,-0.0,0.008797939866781235
0.010886144824326038,0.003982847556471825,-0.01160820759832859,0.007464864291250706,-0.0,0.009327122941613197
0.010103126987814903,0.0039939237758517265,-0.011874774470925331,0.007602102588862181,-0.0,0.009275843389332294
0.00990597065538168,0.004068821202963591,-0.011375496163964272,0.007740276865661144,-0.0,0.009641421027481556
0.009854838252067566,0.0041293795220553875,-0.01205570437014103,0.007466819137334824,-0.0,0.009008152410387993
0.009953591041266918,0.004075690638273954,-0.011884763836860657,0.007280928082764149,-0.0,0.008533887565135956
0.010493207722902298,0.004033694043755531,-0.011199994012713432,0.007341989781707525,-0.0,0.008772256784141064
0.010045100003480911,0.0034758620895445347,-0.011896844021975994,0.0075851441361010075,-0.0,0.009284786880016327
0.010045100003480911,0.0034758620895445347,-0.011896844021975994,0.0075851441361010075,-0.0,0.009284786880016327
0.010294719599187374,0.0035991526674479246,-0.01158169936388731,0.007291411515325308,-0.0,0.009587017819285393
0.010609432123601437,0.004145846702158451,-0.012519209645688534,0.006976576056331396,-0.0,0.009029863402247429
0.010155483148992062,0.004244787152856588,-0.01171328779309988,0.007255247328430414,-0.0,0.009118640795350075
0.010732912458479404,0.004098793491721153,-0.01212176214903593,0.007503670174628496,-0.0,0.009206338785588741
0.010222314856946468,0.004337462596595287,-0.012033387087285519,0.007006146013736725,-0.0,0.008680114522576332
0.010401380248367786,0.004189678467810154,-0.012349015101790428,0.007265614811331034,-0.0,0.009376099333167076
0.010480512864887714,0.004002510104328394,-0.010397080332040787,0.00794066023081541,-0.0,0.009407523088157177
0.009943883866071701,0.00389087968505919,-0.012409674935042858,0.007779567968100309,-0.0,0.00951235368847847
0.010703811421990395,0.0038733924739062786,-0.012552019208669662,0.007227557711303234,-0.0,0.009316966868937016
0.011056903749704361,0.004073622170835733,-0.012459030374884605,0.007325082551687956,-0.0,0.009559083729982376
0.010034721344709396,0.004227729048579931,-0.01203662808984518,0.007860363461077213,-0.0,0.009548993781208992
0.010407261550426483,0.004374213051050901,-0.012050466611981392,0.0076108877547085285,-0.0,0.009670223109424114
0.010746950283646584,0.0044442941434681416,-0.01283678412437439,0.007255167234688997,-0.0,0.009571929462254047
0.01167586725205183,0.0042615728452801704,-0.012134254910051823,0.007978633977472782,-0.0,0.00965510867536068
0.009930911473929882,0.003962045069783926,-0.012533142231404781,0.008302612230181694,-0.0,0.009247250854969025
0.010432467795908451,0.004335375037044287,-0.012403568252921104,0.007853989489376545,-0.0,0.00982747133821249
0.010031625628471375,0.0044403523206710815,-0.012651796452701092,0.0070727067068219185,-0.0,0.00929106306284666
0.01030062697827816,0.004749493207782507,-0.012270173989236355,0.007137837819755077,-0.0,0.009532785974442959
0.010264795273542404,0.004719420336186886,-0.01185648888349533,0.007841961458325386,-0.0,0.009748654440045357
0.010321756824851036,0.004395649302750826,-0.012486487627029419,0.007854594849050045,-0.0,0.009465421549975872
0.010993780568242073,0.004063685890287161,-0.012074475176632404,0.007596442010253668,-0.0,0.009151567704975605
0.010262132622301579,0.004321332089602947,-0.012404666282236576,0.007691847626119852,-0.0,0.009482359513640404
0.010670401155948639,0.004158360417932272,-0.012154597789049149,0.00801481120288372,-0.0,0.009464382193982601
0.010261465795338154,0.004302210174500942,-0.0119626484811306,0.008031678386032581,-0.0,0.009100494906306267
0.00987040065228939,0.00455971946939826,-0.01243588700890541,0.0075898501090705395,-0.0,0.009786377660930157
0.010705484077334404,0.004740516655147076,-0.011764535680413246,0.007987185381352901,-0.0,0.009715032763779163
0.010721457190811634,0.004236919339746237,-0.012409708462655544,0.008226928301155567,-0.0,0.009592391550540924
0.011022237129509449,0.004429231397807598,-0.01225066464394331,0.007755090482532978,-0.0,0.009868748486042023
0.011022237129509449,0.004429231397807598,-0.01225066464394331,0.007755090482532978,-0.0,0.009868748486042023
0.010608717799186707,0.0042826891876757145,-0.012278533540666103,0.007904596626758575,-3.396881766093429e-06,0.009542503394186497
0.0100712850689888,0.004188328515738249,-0.012040875852108002,0.007749080192297697,-1.4481439158942067e-08,0.009353111498057842
0.010732787661254406,0.0048642088659107685,-0.012538663111627102,0.007601828780025244,-9.455345395537051e-10,0.009124857373535633
0.010732787661254406,0.0048642088659107685,-0.012538663111627102,0.007601828780025244,-9.455345395537051e-10,0.009124857373535633
0.010360939428210258,0.004449987318366766,-0.012609347701072693,0.008624175563454628,-4.030961762296892e-12,0.009444473311305046
0.01068305503576994,0.004377359990030527,-0.012648573145270348,0.008121965453028679,-2.631930047167219e-13,0.009822404943406582
0.010826613754034042,0.004611921031028032,-0.012225807644426823,0.007585918065160513,-1.7184623068620085e-14,0.00968496035784483
0.011260755360126495,0.004266705829650164,-0.012244422920048237,0.008050852455198765,-1.1220329932504864e-15,0.00974893756210804
0.010548111982643604,0.004565934184938669,-0.011680793948471546,0.00848887674510479,-7.326075311075129e-17,0.010218795388936996
0.009958408772945404,0.004748820792883635,-0.012277116999030113,0.008477055467665195,-4.783403502659397e-18,0.009869192726910114
0.010521200485527515,0.004520184360444546,-0.012074580416083336,0.008012184873223305,-3.1232209939925e-19,0.009830903261899948
0.010464991442859173,0.00441602012142539,-0.012552065774798393,0.008116121403872967,-2.0392401246325963e-20,0.010177395306527615
0.010385719127953053,0.004862541798502207,-0.012101900763809681,0.008236193098127842,-0.00029615923995152116,0.009805899113416672
0.011000031605362892,0.004482125397771597,-0.012360917404294014,0.008251454681158066,-0.0003613042936194688,0.009782576933503151
0.010463904589414597,0.004379842430353165,-0.01227604504674673,0.008502554148435593,-0.00035467397538013756,0.010170570574700832
0.010657711885869503,0.00432218424975872,-0.01172521710395813,0.008375125005841255,-0.00038563975249417126,0.009813071228563786
0.010781465098261833,0.004526887554675341,-0.012437286786735058,0.008634342812001705,-0.0004154188500251621,0.01009246427565813
0.0107618672773242,0.004599540960043669,-0.011703139171004295,0.008011311292648315,-0.0006801459239795804,0.010859927162528038
0.010890605859458447,0.004581586457788944,-0.01226526778191328,0.00829178374260664,-0.0007357517024502158,0.009823720902204514
0.010883975774049759,0.004348996095359325,-0.012576899491250515,0.008044464513659477,-0.0007026495295576751,0.009899012744426727
0.010790640488266945,0.004554409068077803,-0.012392844073474407,0.007707688957452774,-0.0006752496701665223,0.010329632088541985
0.011282877996563911,0.004556309897452593,-0.012398742139339447,0.008013508282601833,-0.0006504116463474929,0.010278826579451561
0.010744924657046795,0.004817108623683453,-0.01161167025566101,0.009032825008034706,-0.0005921620759181678,0.010581662878394127
0.010961302556097507,0.004690586589276791,-0.012332295067608356,0.008303533308207989,-0.0006132302805781364,0.010833652690052986
0.011006549932062626,0.004315956030040979,-0.012246852740645409,0.007962753996253014,-0.0005864150007255375,0.011058163829147816
0.010463842190802097,0.004557107575237751,-0.012256475165486336,0.008195027709007263,-0.0005364645039662719,0.011137351393699646
0.011021182872354984,0.005090371705591679,-0.012548423372209072,0.008448125794529915,-0.0005694914143532515,0.011144828982651234
0.010811601765453815,0.004962604958564043,-0.0120697021484375,0.008492146618664265,-0.000520449539180845,0.011325250379741192
0.011437403038144112,0.0043824040330946445,-0.01243487186729908,0.00828951969742775,-0.0005089787882752717,0.010446569882333279
0.011437403038144112,0.0043824040330946445,-0.01243487186729908,0.00828951969742775,-0.0005089787882752717,0.010446569882333279
0.01233215257525444,0.004412114154547453,-0.012331053614616394,0.008646450005471706,-0.000520641275215894,0.010609851218760014
0.012361402623355389,0.00443185493350029,-0.012353867292404175,0.0079080481082201,-0.0004998664371669292,0.010596190579235554
0.012196187861263752,0.00455501489341259,-0.012320010922849178,0.008217445574700832,-0.0004683404404204339,0.010470777750015259
0.012769696302711964,0.0046678869985044,-0.012208469212055206,0.008081724867224693,-0.00047622868441976607,0.010206468403339386
0.012409655377268791,0.004587757866829634,-0.011870701797306538,0.007678651716560125,-0.00044362107291817665,0.010404655709862709
0.011867166496813297,0.00470443069934845,-0.012302941642701626,0.007367743644863367,-0.00047976250061765313,0.010823051445186138
0.012591189704835415,0.004723813384771347,-0.011829093098640442,0.007581715472042561,-0.0004451507702469826,0.011077293194830418
0.012415401637554169,0.004633940756320953,-0.012186002917587757,0.00799152534455061,-0.0004115240299142897,0.010521589778363705
0.012581069953739643,0.004523123148828745,-0.011862818151712418,0.007553218398243189,-0.0004416332521941513,0.010674824006855488
0.012636926956474781,0.00475110812112689,-0.01205200981348753,0.007296540774405003,-0.0004163027333561331,0.010898157954216003
0.01250117365270853,0.004753250628709793,-0.012652568519115448,0.008169219829142094,-0.0003907226782757789,0.010494687594473362
0.012593274004757404,0.004871587734669447,-0.011878648772835732,0.008350539952516556,-0.00036791132879443467,0.010681060142815113
0.01280552800744772,0.004878560081124306,-0.012531332671642303,0.007891466841101646,-0.0003718049847520888,0.010814392939209938
0.012813946232199669,0.0049178581684827805,-0.011838357895612717,0.007695257198065519,-0.0003748181916307658,0.01076001487672329
0.012780101969838142,0.004482461605221033,-0.012372580356895924,0.00822569988667965,-0.0003576597082428634,0.011039924807846546
0.012637420557439327,0.004385432228446007,-0.012474175542593002,0.008255178108811378,-0.00034082020283676684,0.010722610168159008
0.012743093073368073,0.004307352006435394,-0.012027187272906303,0.007758431136608124,-0.00032541793189011514,0.01078194659203291
0.012650446966290474,0.0044139595702290535,-0.012613902799785137,0.008088046684861183,-0.0003113439306616783,0.011294153518974781
0.012625609524548054,0.004755774978548288,-0.012086438946425915,0.008525554090738297,-0.0002984357124660164,0.011224999092519283
0.012602990493178368,0.004691488109529018,-0.012684904970228672,0.008133810013532639,-0.0002878445666283369,0.011213026009500027
0.012776631861925125,0.004313261713832617,-0.01251074206084013,0.007653848733752966,-0.0002611768722999841,0.010872194543480873
0.012570654042065144,0.0044737327843904495,-0.013190658763051033,0.008259785361588001,-0.0002462266420479864,0.010801124386489391
0.01284398976713419,0.0042354753240942955,-0.012382757849991322,0.008545179851353168,-0.00023340780171565711,0.011305287480354309
0.012528142891824245,0.0040250071324408054,-0.012439140118658543,0.008032026700675488,-0.00022189182345755398,0.011110805906355381
0.012528142891824245,0.0040250071324408054,-0.012439140118658543,0.008032026700675488,-0.00022189182345755398,0.011110805906355381
0.012753447517752647,0.004149651154875755,-0.012914490886032581,0.00788535550236702,-0.00021146249491721392,0.010590017773211002
0.012774079106748104,0.004164842888712883,-0.012713709846138954,0.008325845934450626,-0.00022185439593158662,0.011468612588942051
0.013095907866954803,0.003915773704648018,-0.012644922360777855,0.007727223914116621,-0.00022173550678417087,0.011724811978638172
0.012649924494326115,0.004249560181051493,-0.012849954888224602,0.008128183893859386,-0.00021355377975851297,0.011268974281847477
0.013101885095238686,0.004348573740571737,-0.012680741026997566,0.008265964686870575,-0.0002054646611213684,0.011430365964770317
0.012498004361987114,0.004076498094946146,-0.012695943005383015,0.009305604733526707,-0.00019793481624219567,0.011380680836737156
0.012907104566693306,0.0043121143244206905,-0.012958998791873455,0.008198156952857971,-0.00019093583978246897,0.011044185608625412
0.012741816230118275,0.004442648496478796,-0.012869257479906082,0.00833353865891695,-0.00018441386055201292,0.012995252385735512
0.01291168574243784,0.004366467706859112,-0.013384797610342503,0.008238928392529488,-0.00017832334560807794,0.011431782506406307
0.012495141476392746,0.004329213406890631,-0.012798729352653027,0.008290423080325127,-0.0001726222108118236,0.01074419915676117
0.012858966365456581,0.004113998729735613,-0.013383102603256702,0.00883909035474062,-0.00016727436741348356,0.011269512586295605
0.012791002169251442,0.004067810717970133,-0.012947311624884605,0.008648611605167389,-0.00016224803403019905,0.01130038220435381
0.012747467495501041,0.004008587449789047,-0.013679295778274536,0.00831558182835579,-0.00015751519822515547,0.011637763120234013
0.013373534195125103,0.004454331938177347,-0.013340363278985023,0.00824577547609806,-0.00015305043780244887,0.011887267231941223
0.012632543221116066,0.004755445756018162,-0.01368457730859518,0.00854744017124176,-0.00014883163385093212,0.011633872985839844
0.012931471690535545,0.004569411277770996,-0.013390637934207916,0.008359091356396675,-0.0001673594379099086,0.011708675883710384
0.012737163342535496,0.004213068634271622,-0.013253826647996902,0.008142206817865372,-0.00016445913934148848,0.011637141928076744
0.013272250071167946,0.0038591555785387754,-0.013254910707473755,0.008293574675917625,-0.00016036891611292958,0.011562573723495007
0.012946399860084057,0.0037743684370070696,-0.01335427537560463,0.008484986610710621,-0.00015639362391084433,0.011379552073776722
0.012844360433518887,0.0043456582352519035,-0.01373555138707161,0.007890727370977402,-0.00015260525105986744,0.01144676748663187
0.012953106313943863,0.004624274559319019,-0.01306283101439476,0.008015788160264492,-0.00014899636153131723,0.011864575557410717
0.012744639068841934,0.0045809075236320496,-0.013353213667869568,0.008843323215842247,-0.00014555384404957294,0.011878016404807568
0.01308682281523943,0.004336909856647253,-0.013129460625350475,0.008797002024948597,-0.0001422665809514001,0.01146678626537323
0.012794849462807178,0.004040392115712166,-0.013736375607550144,0.008720300160348415,-0.0001391249825246632,0.011310417205095291
0.013137842528522015,0.0038882363587617874,-0.01292852871119976,0.008991728536784649,-0.00014568080950994045,0.011337844654917717
0.012483792379498482,0.0038969528395682573,-0.013323783874511719,0.00866115465760231,-0.00015162899217102677,0.011979875154793262
0.012483792379498482,0.0038969528395682573,-0.013323783874511719,0.00866115465760231,-0.00015162899217102677,0.011979875154793262
0.013149728998541832,0.004066890571266413,-0.01351833250373602,0.008643850684165955,-0.00014609185745939612,0.012000013142824173
0.013135263696312904,0.0039001822005957365,-0.013358314521610737,0.008692888543009758,-0.00014318885223474354,0.011795961298048496
0.01315506175160408,0.004318602383136749,-0.013676323927938938,0.008700606413185596,-0.00014039671805221587,0.01196139957755804
0.013215114362537861,0.004494749940931797,-0.013484928756952286,0.008452141657471657,-0.0001377114385832101,0.012116146273911
0.013278999365866184,0.004319541156291962,-0.013315906748175621,0.008655590936541557,-0.00013512694567907602,0.01215785089880228
0.013090293854475021,0.004056018311530352,-0.013529600575566292,0.008864139206707478,-0.0001326377096120268,0.012654379941523075
0.01356821320950985,0.0039380993694067,-0.013221309520304203,0.008628013543784618,-0.00013023827341385186,0.012563695199787617
0.013330331072211266,0.004353830590844154,-0.0133757209405303,0.008787955157458782,-0.00011454305058578029,0.012176924385130405
0.014030756428837776,0.004133969079703093,-0.012793989852070808,0.00915237981826067,-0.00010996495984727517,0.011836158111691475
0.01368732936680317,0.0042150020599365234,-0.013810891658067703,0.00871058739721775,-0.0001072282757377252,0.011820342391729355
0.013883169740438461,0.004155653063207865,-0.01331687718629837,0.008444683626294136,-0.00010472508438397199,0.012256546877324581
0.01363279763609171,0.0038852384313941,-0.01345826219767332,0.009069610387086868,-0.00010234285582555458,0.012090422213077545
0.013921144418418407,0.003725789487361908,-0.012858418747782707,0.00896877609193325,-0.00010990648297592998,0.012614266946911812
0.013821951113641262,0.0042480831034481525,-0.013674993067979813,0.008474459871649742,-0.00011680377792799845,0.012586676515638828
0.014148596674203873,0.004130937159061432,-0.013321934267878532,0.008804435841739178,-0.00011492357589304447,0.013250073418021202
0.013928953558206558,0.003919915296137333,-0.013726313598453999,0.008791272528469563,-0.00011256748257437721,0.013099361211061478
0.014254113659262657,0.004220001865178347,-0.01341464463621378,0.008955302648246288,-0.00011027141590602696,0.012682834640145302
0.013767128810286522,0.004280105698853731,-0.013280223123729229,0.008571525104343891,-0.00010806469799717888,0.012741679325699806
0.014388658106327057,0.004066442139446735,-0.013241243548691273,0.009162974543869495,-0.00012242599041201174,0.012765797786414623
0.01427336037158966,0.003450025338679552,-0.01303032599389553,0.008731147274374962,-0.00012114688433939591,0.012456303462386131
0.014331305399537086,0.003494605189189315,-0.013570863753557205,0.008762815035879612,-0.00011893000919371843,0.012423529289662838
0.01394528429955244,0.0032401217613369226,-0.01370787713676691,0.009121978655457497,-0.00011673103290377185,0.01244305819272995
0.014376692473888397,0.0034059472382068634,-0.013880019076168537,0.009173260070383549,-0.00011460765381343663,0.013429473154246807
0.014567207545042038,0.0035451604053378105,-0.01329654548317194,0.008986085653305054,-0.00011256006109761074,0.012463817372918129
0.01450640894472599,0.003730307100340724,-0.01355364266782999,0.009559662081301212,-0.00010867664241231978,0.012877958826720715
0.01450640894472599,0.003730307100340724,-0.01355364266782999,0.009559662081301212,-0.00010867664241231978,0.012877958826720715
0.014950369484722614,0.003658909583464265,-0.013868988491594791,0.009025358594954014,-0.00010683359869290143,0.013206882402300835
0.014723140746355057,0.0035850871354341507,-0.013358157128095627,0.00910926889628172,-0.0001050522259902209,0.012780329212546349
0.015057445503771305,0.003657785477116704,-0.013986612670123577,0.00979696400463581,-0.0001033291919156909,0.013231713324785233
0.014534995891153812,0.00417435634881258,-0.013579660095274448,0.008662860840559006,-0.00010166184802073985,0.013442599214613438
0.01508198119699955,0.0040603154338896275,-0.01407675538212061,0.008781674318015575,-0.00010004734940594062,0.013516293838620186
0.014663925394415855,0.0034982229117304087,-0.013582054525613785,0.009163688868284225,-0.00011161914153490216,0.013582182116806507
0.015311479568481445,0.0034021646715700626,-0.014154757373034954,0.008901202119886875,-0.0001107591888285242,0.013703164644539356
0.014886698685586452,0.0036437322851270437,-0.01343648973852396,0.008950207382440567,-0.00010913625010289252,0.01339317113161087
0.015231283381581306,0.0042900159023702145,-0.013786866329610348,0.01038014329969883,-0.00010751029185485095,0.013563505373895168
0.015301789157092571,0.004063797183334827,-0.013731289654970169,0.009409970603883266,-0.00010592884791549295,0.014149339869618416
0.015533310361206532,0.003862815909087658,-0.013544337823987007,0.009416244924068451,-0.00010439301695441827,0.013521548360586166
0.014931918121874332,0.003767276182770729,-0.013334600254893303,0.009589863009750843,-0.00012413175136316568,0.01324419304728508
0.01541215367615223,0.0037257063668221235,-0.013567173853516579,0.009304352104663849,-0.00014047494914848357,0.01302120741456747
0.016017502173781395,0.004127299878746271,-0.013968011364340782,0.009203125722706318,-0.00013750328798778355,0.013660463504493237
0.015600483864545822,0.004275089595466852,-0.013575506396591663,0.009508284740149975,-0.00013350986409932375,0.013886364176869392
0.015425571240484715,0.004100077785551548,-0.013808419927954674,0.009390373714268208,-0.00012966780923306942,0.014578850008547306
0.015217550098896027,0.0038691209629178047,-0.013328098691999912,0.009233000688254833,-0.00012603632058016956,0.014264821074903011
0.015625376254320145,0.003820085199549794,-0.01364066544920206,0.010152297094464302,-0.00014547679165843874,0.014156353659927845
0.015802213922142982,0.00338622834533453,-0.01308609452098608,0.009757938794791698,-0.00014311305130831897,0.013883145526051521
0.016101451590657234,0.003561720484867692,-0.0139452600851655,0.009130412712693214,-0.00013951282016932964,0.014099730178713799
0.016015535220503807,0.0037446836940944195,-0.01347642857581377,0.009504880756139755,-0.00013600527017842978,0.014115187339484692
0.016379648819565773,0.003785997861996293,-0.014024138450622559,0.00978002231568098,-0.00014352811558637768,0.014256639406085014
0.01634957082569599,0.003839137265458703,-0.013492112047970295,0.009642480872571468,-0.0001503289386164397,0.014087018556892872
0.016297219321131706,0.003943856805562973,-0.014018776826560497,0.009783006273210049,-0.00015783627168275416,0.014197532087564468
0.015624269843101501,0.0034462918993085623,-0.014230194501578808,0.00959133543074131,-0.0002362251398153603,0.014373883605003357
0.015624269843101501,0.0034462918993085623,-0.014230194501578808,0.00959133543074131,-0.0002362251398153603,0.014373883605003357
0.016353460028767586,0.003524425672367215,-0.014179343357682228,0.009945583529770374,-0.0003299160744063556,0.014184614643454552
0.01707470417022705,0.003528465749695897,-0.013977382332086563,0.009384454227983952,-0.00031438376754522324,0.013942300342023373
0.01707470417022705,0.003528465749695897,-0.013977382332086563,0.009384454227983952,-0.00031438376754522324,0.013942300342023373
0.01660712994635105,0.003523002378642559,-0.014066877774894238,0.010330157354474068,-0.00034343937295489013,0.014296405017375946
0.016373228281736374,0.0034504644572734833,-0.014102843590080738,0.009390978142619133,-0.0003514557029120624,0.014050043188035488
0.016995441168546677,0.0036478503607213497,-0.014610701240599155,0.008924719877541065,-0.000357488461304456,0.01431528851389885
0.01695646345615387,0.0038811517879366875,-0.014256354421377182,0.00946058426052332,-0.0006972685805521905,0.01425864640623331
0.01786639168858528,0.003885151818394661,-0.01496205199509859,0.009633069857954979,-0.0007542431703768671,0.015010432340204716
0.017380645498633385,0.0038653924129903316,-0.014299060218036175,0.009655952453613281,-0.0007723306771367788,0.013628697954118252
0.01716518960893154,0.003914142493158579,-0.014493465423583984,0.009663119912147522,-0.001000643358565867,0.01411154679954052
0.017122283577919006,0.0034933662973344326,-0.01444808766245842,0.009626238606870174,-0.001153831253759563,0.014317674562335014
0.01690383069217205,0.003499476006254554,-0.01487177424132824,0.009253564290702343,-0.0011606297921389341,0.014698630198836327
0.016983626410365105,0.003735398408025503,-0.014515550807118416,0.009430095553398132,-0.0012176446616649628,0.014362617395818233
0.016980886459350586,0.003966922406107187,-0.01470138505101204,0.010227455757558346,-0.0013026214437559247,0.014626344665884972
0.017295220866799355,0.003939344547688961,-0.014610732905566692,0.009279664605855942,-0.0013020428596064448,0.014531156979501247
0.017978549003601074,0.0038210595957934856,-0.014745121821761131,0.009634988382458687,-0.0016342627350240946,0.014672310091555119
0.01715383119881153,0.003779777092859149,-0.014306510798633099,0.010520536452531815,-0.002227681688964367,0.014349828474223614
0.01747838221490383,0.0039108144119381905,-0.014799974858760834,0.009847640991210938,-0.0031915095169097185,0.014730939641594887
0.01756916381418705,0.004042243119329214,-0.014118248596787453,0.009817271493375301,-0.0037235936615616083,0.01463201455771923
0.017431002110242844,0.0035392434801906347,-0.014751691371202469,0.0099107027053833,-0.003503540763631463,0.014795145019888878
0.017543751746416092,0.0039986502379179,-0.01434872206300497,0.009618205949664116,-0.0028807728085666895,0.014865580014884472
0.01744261384010315,0.004265322349965572,-0.014962416142225266,0.00984665472060442,-0.002292151330038905,0.015009990893304348
0.018045872449874878,0.004592986311763525,-0.014659404754638672,0.01057441160082817,-0.001962054520845413,0.0147072309628129
0.017733458429574966,0.004283862188458443,-0.015047559514641762,0.009900898672640324,-0.0017551271012052894,0.014962342567741871
0.017934491857886314,0.004010909702628851,-0.014137978665530682,0.009788432158529758,-0.001424496527761221,0.014900656417012215
0.01803145557641983,0.003923462238162756,-0.014976046048104763,0.009862605482339859,-0.0011972979409620166,0.014925968833267689
0.017857171595096588,0.003937092609703541,-0.014682088978588581,0.009720523841679096,-0.0008833726169541478,0.01510834414511919
0.018101973459124565,0.0039901454001665115,-0.014288452453911304,0.009485805407166481,-0.0007587688742205501,0.014828504994511604
0.017871636897325516,0.004185930360108614,-0.014761907979846,0.008933178149163723,-0.000665056228172034,0.014956205151975155
0.017871636897325516,0.004185930360108614,-0.014761907979846,0.008933178149163723,-0.000665056228172034,0.014956205151975155
0.018033726140856743,0.004127681255340576,-0.014896577224135399,0.010149450972676277,-0.0005334693705663085,0.015023499727249146
0.018033726140856743,0.004127681255340576,-0.014896577224135399,0.010149450972676277,-0.0005334693705663085,0.015023499727249146
0.018328692764043808,0.004006137605756521,-0.0143573684617877,0.00961936917155981,-0.00048555899411439896,0.015149571932852268
0.018121879547834396,0.003999869339168072,-0.014542673714458942,0.010422277264297009,-0.0004114852345082909,0.014994479715824127
0.018121879547834396,0.003999869339168072,-0.014542673714458942,0.010422277264297009,-0.0004114852345082909,0.014994479715824127
0.01835620030760765,0.004304505884647369,-0.014531562104821205,0.010035174898803234,-0.0003569752152543515,0.015402555465698242
0.01835620030760765,0.004304505884647369,-0.014531562104821205,0.010035174898803234,-0.0003569752152543515,0.015402555465698242
0.017982156947255135,0.004579133819788694,-0.014691374264657497,0.009965279139578342,-0.0003348817699588835,0.015228290110826492
0.018679611384868622,0.004411614965647459,-0.014155901037156582,0.009779416024684906,-0.00031530731939710677,0.015292146243155003
0.01828468032181263,0.004097741562873125,-0.014851877465844154,0.00996672548353672,-0.00029787159292027354,0.01492166519165039
0.018091300502419472,0.003902793861925602,-0.014419580809772015,0.009946727193892002,-0.0002823216491378844,0.01529967226088047
0.01853695884346962,0.004323679022490978,-0.015288244001567364,0.009521432220935822,-0.00026830166461877525,0.015420838259160519
0.018502552062273026,0.004205191507935524,-0.014604225754737854,0.009601902216672897,-0.00025556585751473904,0.01566608063876629
0.018370909616351128,0.004309904295951128,-0.014249220490455627,0.010232994332909584,-0.00023348297690972686,0.01552615500986576
0.018370909616351128,0.004309904295951128,-0.014249220490455627,0.010232994332909584,-0.00023348297690972686,0.01552615500986576
0.01837039552628994,0.004456944763660431,-0.014924214221537113,0.01001302246004343,-0.00022380991140380502,0.014987627975642681
0.018815279006958008,0.0041902633383870125,-0.014495054259896278,0.009696277789771557,-0.00021490153449121863,0.015450909733772278
0.01837140880525112,0.003990566357970238,-0.014892468228936195,0.009931175038218498,-0.00020667586068157107,0.015624669380486012
0.018537268042564392,0.003954690881073475,-0.014788354746997356,0.010122320614755154,-0.00019905589579138905,0.01568908430635929
0.018692178651690483,0.003929078113287687,-0.014897109009325504,0.010081109590828419,-0.000191977946087718,0.015807315707206726
0.019548935815691948,0.004163513425737619,-0.014430349692702293,0.009835940785706043,-0.00018538645235821605,0.016066398471593857
0.01860097423195839,0.004717179574072361,-0.014891156926751137,0.010502630844712257,-0.00017923246196005493,0.016568394377827644
0.01860097423195839,0.004717179574072361,-0.014891156926751137,0.010502630844712257,-0.00017923246196005493,0.016568394377827644
0.016994386911392212,0.003899621544405818,-0.01453680731356144,0.010241813026368618,-0.00016300029528792948,0.01556718721985817
0.019343994557857513,0.004263302776962519,-0.014623375609517097,0.010320963338017464,-0.00015822405111975968,0.015289852395653725
0.019567884504795074,0.0041695283725857735,-0.014441963285207748,0.010085275396704674,-0.00015371921472251415,0.015172282233834267
0.018987329676747322,0.004160737618803978,-0.014884079806506634,0.010672449134290218,-0.00014946454029995948,0.015704307705163956
0.018877364695072174,0.004116453230381012,-0.014973804354667664,0.010569497011601925,-0.0001454386510886252,0.015734434127807617
0.018932074308395386,0.00437899911776185,-0.01478002592921257,0.010253584012389183,-0.00014162392471916974,0.016009066253900528
0.018932074308395386,0.00437899911776185,-0.01478002592921257,0.010253584012389183,-0.00014162392471916974,0.016009066253900528
0.0188976489007473,0.004045398440212011,-0.01485847495496273,0.010749105364084244,-0.00013800433953292668,0.016367623582482338
0.019451996311545372,0.0038647279143333435,-0.014651069417595863,0.010208098217844963,-0.00013456512533593923,0.015822669491171837
0.01944110170006752,0.004361373372375965,-0.014805778861045837,0.010537959635257721,-0.00013129328726790845,0.016133103519678116
0.018989892676472664,0.004120110999792814,-0.014668375253677368,0.010795681737363338,-0.00012817667447961867,0.01599380187690258
0.0192627664655447,0.004196115769445896,-0.014668632298707962,0.00998591911047697,-0.0001252046349691227,0.01621987298130989
0.01851727068424225,0.004260759335011244,-0.01476136315613985,0.010636917315423489,-0.00012236724433023483,0.01608426682651043
0.018303759396076202,0.0040904157795012,-0.015310213901102543,0.010882212780416012,-0.00011965564044658095,0.016472676768898964
0.01923481747508049,0.003899049013853073,-0.014890993945300579,0.010095374658703804,-0.00011706176883308217,0.01608307473361492
0.019785676151514053,0.00406066095456481,-0.015499822795391083,0.010389252565801144,-0.00011457781511126086,0.01572466641664505
0.0190888699144125,0.00405316473916173,-0.014543944038450718,0.01070959959179163,-0.00011219712905585766,0.015729906037449837
0.01944269984960556,0.004268941469490528,-0.0157492496073246,0.010690649040043354,-0.00010991328599629924,0.015943817794322968
0.019097719341516495,0.0040068430826067924,-0.01504028681665659,0.01069254707545042,-0.00010772073437692598,0.016111712902784348
0.01887213997542858,0.003912759479135275,-0.015108100138604641,0.010633490979671478,-0.00010561397357378155,0.015846462920308113
0.01910194382071495,0.004293724428862333,-0.014311212114989758,0.010344925336539745,-0.00010358787403674796,0.016434531658887863
0.01894458942115307,0.004300010856240988,-0.015398627147078514,0.010594941675662994,-0.00010163809929508716,0.016450542956590652
0.01930985413491726,0.004000386223196983,-0.014903217554092407,0.010010638274252415,-9.976036380976439e-05,0.016486087813973427
0.019773591309785843,0.0037796846590936184,-0.01575082540512085,0.010573289357125759,-9.79508477030322e-05,0.016711600124835968
0.01895706169307232,0.004112166352570057,-0.015040923841297626,0.010338006541132927,-9.452179074287415e-05,0.016507916152477264
0.01973077282309532,0.004084229003638029,-0.014936167746782303,0.010784481652081013,-9.289575973525643e-05,0.016197117045521736
0.01966243050992489,0.004030775744467974,-0.015752678737044334,0.010616580955684185,-9.13245530682616e-05,0.017873328179121017
0.01966243050992489,0.004030775744467974,-0.015752678737044334,0.010616580955684185,-9.13245530682616e-05,0.017873328179121017
0.01966243050992489,0.004030775744467974,-0.015752678737044334,0.010616580955684185,-9.13245530682616e-05,0.017873328179121017
0.01983499713242054,0.004323434550315142,-0.0157641489058733,0.010268750600516796,-8.833668107399717e-05,0.015978338196873665
0.01998361013829708,0.004146893508732319,-0.015367956832051277,0.010533391498029232,-8.691492257639766e-05,0.016140488907694817
0.019499272108078003,0.004011194221675396,-0.01542219053953886,0.010277885012328625,-8.553813677281141e-05,0.016517067328095436
0.019476570188999176,0.004031284246593714,-0.016263704746961594,0.010429153218865395,-8.420429367106408e-05,0.016671428456902504
0.019352376461029053,0.0039965249598026276,-0.015356367453932762,0.01014623325318098,-8.291138510685414e-05,0.01674288883805275
0.01943216286599636,0.003961958456784487,-0.015059026889503002,0.010573972947895527,-8.165773033397272e-05,0.017172034829854965
0.019755560904741287,0.0039373659528791904,-0.014674685895442963,0.010784687474370003,-8.04412629804574e-05,0.017314737662672997
0.01961946301162243,0.004393571987748146,-0.015431893058121204,0.010810828767716885,-7.926047692308202e-05,0.017125887796282768
0.019650619477033615,0.0041844844818115234,-0.015215047635138035,0.010541299358010292,-7.811402610968798e-05,0.016882216557860374
0.019838083535432816,0.004410270135849714,-0.015668276697397232,0.01059334073215723,-7.700019341427833e-05,0.01657997816801071
0.019969623535871506,0.00414259871467948,-0.015230754390358925,0.010836053639650345,-7.59176691644825e-05,0.016896439716219902
0.01945648156106472,0.003911388572305441,-0.01528527494519949,0.011047924868762493,-7.486513641197234e-05,0.016621753573417664
0.01997355744242668,0.004072558134794235,-0.014924216084182262,0.010515070520341396,-7.384145283140242e-05,0.016949033364653587
0.02027827687561512,0.004055592697113752,-0.015297148376703262,0.010652369819581509,-7.284532330231741e-05,0.016994090750813484
0.020097000524401665,0.004329005256295204,-0.01527651958167553,0.010861953720450401,-7.187572191469371e-05,0.01696939952671528
0.019887452945113182,0.004104049410670996,-0.015369758009910583,0.010353160090744495,-7.093164458638057e-05,0.017039060592651367
0.019890882074832916,0.004531691782176495,-0.015434280037879944,0.010401535779237747,-7.00119708199054e-05,0.01671013981103897
0.02023310959339142,0.004786426667124033,-0.015041311271488667,0.010647181421518326,-6.911590025993064e-05,0.016615362837910652
0.020135944709181786,0.004323543980717659,-0.015204956755042076,0.010660502128303051,-6.824242882430553e-05,0.016743114218115807
0.020157665014266968,0.003950615879148245,-0.014790822751820087,0.011117899790406227,-6.739081436535344e-05,0.017167318612337112
0.020016517490148544,0.004117627628147602,-0.015701143071055412,0.010473043657839298,-6.656018376816064e-05,0.01788780465722084
0.0199468694627285,0.0041586896404623985,-0.014960147440433502,0.010151905938982964,-6.574975850526243e-05,0.017204048112034798
0.01985648274421692,0.004312547389417887,-0.015581324696540833,0.010911455377936363,-6.495881825685501e-05,0.01740770787000656
0.020644089207053185,0.004151884000748396,-0.01534909289330244,0.011981770396232605,-6.343270797515288e-05,0.01659577153623104
0.020644089207053185,0.004151884000748396,-0.01534909289330244,0.011981770396232605,-6.343270797515288e-05,0.01659577153623104
0.02030767872929573,0.004306461662054062,-0.01460739690810442,0.011563355103135109,-6.269628647714853e-05,0.016865631565451622
0.02057625912129879,0.004189758095890284,-0.015195678919553757,0.010762003250420094,-6.197669426910579e-05,0.017019882798194885
0.020700642839074135,0.004089781083166599,-0.014605799689888954,0.0110100032761693,-6.127344386186451e-05,0.017393507063388824
0.01994926668703556,0.003537227399647236,-0.015167354606091976,0.010850399732589722,-5.991378930048086e-05,0.016954239457845688
0.01994926668703556,0.003537227399647236,-0.015167354606091976,0.010850399732589722,-5.991378930048086e-05,0.016954239457845688
0.020106445997953415,0.0036226590164005756,-0.01522405631840229,0.011195982806384563,-1.5224996786855627e-05,0.016879744827747345
0.02049814909696579,0.0042726448737084866,-0.014917935244739056,0.010794417932629585,-9.940835070665344e-07,0.017168408259749413
0.02080252580344677,0.004086041823029518,-0.015563695691525936,0.011748670600354671,-6.490655124480327e-08,0.01749660260975361
0.020336981862783432,0.003813104471191764,-0.01546537782996893,0.011352196335792542,-4.2379344478149505e-09,0.01788281835615635
0.0203366968780756,0.0037539901677519083,-0.015023371204733849,0.010507781989872456,-2.767068241205095e-10,0.01755497418344021
0.020175237208604813,0.003925185184925795,-0.015216675586998463,0.011084531433880329,-1.8066978468844752e-11,0.017234528437256813
0.021405009552836418,0.003554894821718335,-0.014888382516801357,0.011237481608986855,-1.1796447065698379e-12,0.016568999737501144
0.02067614533007145,0.003572211368009448,-0.01530446670949459,0.010958200320601463,-7.702236607841015e-14,0.016733935102820396
0.019863905385136604,0.003991215024143457,-0.014830639585852623,0.01105443574488163,-5.029011214218284e-15,0.016869766637682915
0.020381268113851547,0.004216370638459921,-0.015551671385765076,0.01072168629616499,-3.283584894617767e-16,0.01645250804722309
0.02061052992939949,0.004066891502588987,-0.014954272657632828,0.01151520200073719,-2.1439464340551635e-17,0.017060771584510803
0.02063821628689766,0.0038691239897161722,-0.015499847009778023,0.01139098685234785,-1.3998438510805063e-18,0.017469210550189018
0.020330704748630524,0.003784425789490342,-0.014806907624006271,0.011017745360732079,-9.139980646018696e-20,0.01779908500611782
0.020906686782836914,0.003786821849644184,-0.01501237042248249,0.011808652430772781,-5.967753902090989e-21,0.017391463741660118
0.020908735692501068,0.003956126514822245,-0.014736282639205456,0.011560801416635513,-3.896516973297453e-22,0.017644209787249565
0.02093547023832798,0.0036226490046828985,-0.01540364883840084,0.011599094606935978,-2.5441467857305088e-23,0.01783698983490467
0.02080444060266018,0.003246196312829852,-0.014627144671976566,0.01150013692677021,-1.661146020536635e-24,0.01774490624666214
0.020811982452869415,0.003359157359227538,-0.014964411035180092,0.011407271027565002,-1.0846096657095103e-25,0.018075374886393547
0.020811982452869415,0.003359157359227538,-0.014964411035180092,0.011407271027565002,-1.0846096657095103e-25,0.018075374886393547
0.02061714045703411,0.004117188509553671,-0.015272527933120728,0.010799744166433811,-4.198037458991166e-06,0.018159477040171623
0.02105189487338066,0.0038317223079502583,-0.014964844100177288,0.010975409299135208,-2.7410186476117815e-07,0.018164943903684616
0.021315939724445343,0.003815919393673539,-0.014863058924674988,0.010843010619282722,-1.1685390433058274e-09,0.01804286614060402
0.02052762731909752,0.003558130469173193,-0.015314057469367981,0.011832576245069504,-7.629725323754499e-11,0.017873307690024376
0.020665103569626808,0.003619816852733493,-0.015540113672614098,0.01137608103454113,-4.981664820241649e-12,0.01747014746069908
0.020665103569626808,0.003619816852733493,-0.015540113672614098,0.01137608103454113,-4.981664820241649e-12,0.01747014746069908
0.0210472010076046,0.003999806474894285,-0.01560070738196373,0.011168290860950947,-3.252671027485776e-13,0.017931362614035606
0.021149208769202232,0.004144283477216959,-0.01592900976538658,0.011891772970557213,-2.12376181229915e-14,0.01804022118449211
0.020729823037981987,0.0043289572931826115,-0.015248787589371204,0.011682276614010334,-1.3866648265766879e-15,0.01807953417301178
0.021388988941907883,0.004047895781695843,-0.015531854704022408,0.012359821237623692,-9.053929879245296e-17,0.01825522445142269
0.021525045856833458,0.0038877162151038647,-0.015169861726462841,0.01167838554829359,-5.9115690839311764e-18,0.01830105111002922
0.02094697766005993,0.0043379515409469604,-0.015820814296603203,0.011546644382178783,-0.00029278756119310856,0.0184598620980978
0.02105804719030857,0.004198641516268253,-0.015937507152557373,0.011963053606450558,-0.00035170605406165123,0.017857028171420097
0.022299110889434814,0.004065250512212515,-0.01639891043305397,0.01139243133366108,-0.0003798954130616039,0.017886275425553322
0.021570932120084763,0.0040709879249334335,-0.01550575252622366,0.011841285042464733,-0.00039939404814504087,0.018422799184918404
0.021503614261746407,0.004090478643774986,-0.01580193266272545,0.01184680312871933,-0.00040240836096927524,0.018346820026636124
0.021310487762093544,0.004402052145451307,-0.015718722715973854,0.011485029011964798,-0.0004305271140765399,0.018441926687955856
0.022009829059243202,0.0041848961263895035,-0.015707535669207573,0.011770597659051418,-0.0006239541107788682,0.018760114908218384
0.021426767110824585,0.0039022983983159065,-0.015967698767781258,0.01118919625878334,-0.0006688055582344532,0.01866297237575054
0.021407853811979294,0.0037199787329882383,-0.01558355800807476,0.011920140124857426,-0.0006453786045312881,0.018496405333280563
0.022098803892731667,0.0038762593176215887,-0.01620381325483322,0.011555565521121025,-0.0005797208868898451,0.018341997638344765
0.022602517157793045,0.0038521308451890945,-0.01564388908445835,0.011723261326551437,-0.0006046302733011544,0.01830833964049816
0.0225176103413105,0.0037993984296917915,-0.015491613186895847,0.012527935206890106,-0.0005564763559959829,0.01832253858447075
0.0225176103413105,0.0037993984296917915,-0.015491613186895847,0.012527935206890106,-0.0005564763559959829,0.01832253858447075
0.020915305241942406,0.003902580589056015,-0.01615128479897976,0.011763532646000385,-0.0005359782953746617,0.01859613135457039
0.020915305241942406,0.003902580589056015,-0.01615128479897976,0.011763532646000385,-0.0005359782953746617,0.01859613135457039
0.02249295823276043,0.004094025120139122,-0.016022782772779465,0.011574379168450832,-0.00047007270040921867,0.018849702551960945
0.022530579939484596,0.003877889597788453,-0.016025984659790993,0.012200412340462208,-0.00044126505963504314,0.018869012594223022
0.021938277408480644,0.003943340387195349,-0.01593918539583683,0.011730821803212166,-0.00039813516195863485,0.01937604881823063
0.02271812967956066,0.004056136589497328,-0.01638360135257244,0.011816847138106823,-0.00036205913056619465,0.01891530491411686
0.023197118192911148,0.00409232173115015,-0.015664605423808098,0.011747529730200768,-0.0003348330792505294,0.01896224357187748
0.023015648126602173,0.004465651232749224,-0.016920071095228195,0.012192627415060997,-0.00036544338217936456,0.01940309815108776
0.02236684411764145,0.004614412784576416,-0.01513899676501751,0.012098405510187149,-0.000349148380337283,0.018931973725557327
0.022616980597376823,0.004491436295211315,-0.015537974424660206,0.011957487091422081,-0.0003757166850846261,0.018907800316810608
0.022551795467734337,0.004039122257381678,-0.015397836454212666,0.011975402943789959,-0.0003606983518693596,0.019215494394302368
0.022799324244260788,0.0037484322674572468,-0.01616726815700531,0.011555425822734833,-0.0003775399527512491,0.019884521141648293
0.02350791171193123,0.003748736111447215,-0.015991786494851112,0.011878927238285542,-0.0003694664628710598,0.018484245985746384
0.023579616099596024,0.0038526777643710375,-0.01631271094083786,0.012038923799991608,-0.0003521305334288627,0.018851516768336296
0.023009827360510826,0.004317618906497955,-0.0163132194429636,0.0120298583060503,-0.0003357541572768241,0.019615046679973602
0.023640256375074387,0.004569254815578461,-0.015903111547231674,0.011970452964305878,-0.00038398330798372626,0.019909460097551346
0.02385331131517887,0.004632910247892141,-0.0164734348654747,0.011743108741939068,-0.0003628261911217123,0.020046360790729523
0.023536700755357742,0.0041395677253603935,-0.015468976460397243,0.011824537068605423,-0.0003857479023281485,0.019063299521803856
0.023543696850538254,0.0034075037110596895,-0.016175517812371254,0.011631885543465614,-0.00037439443985931575,0.018245158717036247
0.02349112741649151,0.003523444989696145,-0.015951044857501984,0.01111119706183672,-0.0004016261955257505,0.018756363540887833
0.022269582375884056,0.004113206639885902,-0.016394605860114098,0.01149034034460783,-0.00038410251727327704,0.019507234916090965
0.023996584117412567,0.0043049645610153675,-0.01638040505349636,0.011450055055320263,-0.0004072437877766788,0.020119421184062958
0.02440166287124157,0.004102308303117752,-0.016490917652845383,0.01229576300829649,-0.0003912620013579726,0.019797107204794884
0.024110985919833183,0.004285805393010378,-0.01669378951191902,0.011920853517949581,-0.0003714725316967815,0.019605353474617004
0.023895202204585075,0.004482194781303406,-0.015832403674721718,0.011658092960715294,-0.0003536015283316374,0.019432801753282547
0.02371734380722046,0.004045744426548481,-0.016006803140044212,0.012184598483145237,-0.0004122660611756146,0.020802505314350128
0.02412261627614498,0.004234772641211748,-0.01664113625884056,0.012301159091293812,-0.0004215027147438377,0.019920222461223602
0.02415936067700386,0.004072795622050762,-0.016200006008148193,0.01231667585670948,-0.0003930401580873877,0.019677801057696342
0.02415936067700386,0.004072795622050762,-0.016200006008148193,0.01231667585670948,-0.0003930401580873877,0.019677801057696342
0.02459060028195381,0.003946919925510883,-0.01652272790670395,0.011939294636249542,-0.0004114203911740333,0.01950225979089737
0.024751324206590652,0.004443788435310125,-0.016474835574626923,0.012297260574996471,-0.00039934151573106647,0.019699620082974434
0.02434801310300827,0.004266461357474327,-0.016132283955812454,0.012180848978459835,-0.0003763915738090873,0.02029295265674591
0.024541297927498817,0.004105937201529741,-0.016349734738469124,0.012420566752552986,-0.0003926213539671153,0.02076205238699913
0.024629291146993637,0.0038466753903776407,-0.015573253855109215,0.012232051230967045,-0.0003834210801869631,0.02043791487812996
0.024858994409441948,0.0036959887947887182,-0.01634806953370571,0.012452241033315659,-0.00040929875103756785,0.020069438964128494
0.024984177201986313,0.0036230753175914288,-0.01609061285853386,0.01252785325050354,-0.00045471926569007337,0.02039705216884613
0.02527434192597866,0.0035067694261670113,-0.016479182988405228,0.012837431393563747,-0.00045563842286355793,0.02057359740138054
0.024945693090558052,0.0037744399160146713,-0.01669745333492756,0.012775605544447899,-0.0004833232087548822,0.020405542105436325
0.025108512490987778,0.004230840131640434,-0.01632726937532425,0.01236598752439022,-0.0004884129739366472,0.02061610110104084
0.02508419379591942,0.004389351699501276,-0.016539473086595535,0.012876316905021667,-0.0004850598343182355,0.02068161778151989
0.02519015036523342,0.004005557857453823,-0.015611349605023861,0.012332442216575146,-0.0006477416027337313,0.02100774087011814
0.025901025161147118,0.0038585474248975515,-0.0161556676030159,0.012727037072181702,-0.0007129901787266135,0.020662685856223106
0.026193704456090927,0.0033858006354421377,-0.01614861935377121,0.012158720754086971,-0.0006578725297003984,0.020615577697753906
0.02551872842013836,0.00344847165979445,-0.016520829871296883,0.012207401916384697,-0.0006597366882488132,0.020671453326940536
0.02533680759370327,0.003664623945951462,-0.016340088099241257,0.012413683347404003,-0.000617136072833091,0.02113601192831993
0.025821475312113762,0.004193756729364395,-0.01669410616159439,0.012396852485835552,-0.000563342880923301,0.021087592467665672
0.026192471385002136,0.004614933393895626,-0.016896972432732582,0.013054272159934044,-0.0005857694777660072,0.020863665267825127
0.027043428272008896,0.004217376932501793,-0.016283690929412842,0.012528213672339916,-0.0005466709262691438,0.021006476134061813
0.02619430422782898,0.003915740642696619,-0.016985436901450157,0.013016443699598312,-0.0005272886482998729,0.020882215350866318
0.02421809360384941,0.003861921839416027,-0.016156338155269623,0.012043317779898643,-0.0005438874941319227,0.020827392116189003
0.026623692363500595,0.00394609896466136,-0.016631772741675377,0.012378664687275887,-0.0005550089990720153,0.020766427740454674
0.026623692363500595,0.00394609896466136,-0.016631772741675377,0.012378664687275887,-0.0005550089990720153,0.020766427740454674
0.025931552052497864,0.003997344523668289,-0.016557300463318825,0.012526767328381538,-0.0005715307197533548,0.020984234288334846
0.026372291147708893,0.004093499388545752,-0.017041845247149467,0.01354195550084114,-0.0005347970873117447,0.02098965458571911
0.026481065899133682,0.004131297580897808,-0.01624343916773796,0.013080636970698833,-0.0006489825900644064,0.02126472257077694
0.027038803324103355,0.004002313129603863,-0.017027202993631363,0.013234279118478298,-0.0006774153443984687,0.02097354829311371
0.02693641558289528,0.00387057033367455,-0.01686132699251175,0.013122125528752804,-0.0006144640501588583,0.021067161113023758
0.025478918105363846,0.003820638172328472,-0.016575289890170097,0.014147061854600906,-0.0006378180696628988,0.021645592525601387
0.025333097204566002,0.004289954900741577,-0.016937177628278732,0.013048572465777397,-0.0006245404365472496,0.022333120927214622
0.02641827054321766,0.004102940205484629,-0.016846612095832825,0.013698653317987919,-0.0006114676361903548,0.022081684321165085
0.026095079258084297,0.0038880312349647284,-0.017960578203201294,0.013240030035376549,-0.0006525746430270374,0.02140658162534237
0.026287591084837914,0.003912205342203379,-0.01742437481880188,0.01298693660646677,-0.0006842322763986886,0.021030157804489136
0.02631826139986515,0.004032727796584368,-0.016875427216291428,0.013468940742313862,-0.0006885458715260029,0.02081933431327343
0.026130886748433113,0.003997128922492266,-0.01764250546693802,0.013865940272808075,-0.0006859377608634531,0.020850785076618195
0.02660396695137024,0.004009556490927935,-0.016840366646647453,0.013742822222411633,-0.0007782868924550712,0.021825669333338737
0.0265018492937088,0.003647236619144678,-0.01709614135324955,0.013099521398544312,-0.0008923345012590289,0.021980250254273415
0.026643594726920128,0.0035285991616547108,-0.016659580171108246,0.013176798820495605,-0.0008996996330097318,0.02191358059644699
0.026581810787320137,0.0034092452842742205,-0.016804605722427368,0.013407993130385876,-0.0008566053002141416,0.022020084783434868
0.026545993983745575,0.0034207759890705347,-0.01776057854294777,0.013618161901831627,-0.0008099062833935022,0.022192727774381638
0.026254868134856224,0.0036328700371086597,-0.0173556599766016,0.013108649291098118,-0.0008365231333300471,0.022031206637620926
0.026631146669387817,0.004226782824844122,-0.0176872406154871,0.013650036416947842,-0.0008463769336231053,0.02189408615231514
0.02673744224011898,0.004162922501564026,-0.017157044261693954,0.013515115715563297,-0.0008540354901924729,0.021541746333241463
0.02613128535449505,0.00404650904238224,-0.017269080504775047,0.01399571355432272,-0.0008598135318607092,0.021315615624189377
0.026289330795407295,0.0036327762063592672,-0.0172940231859684,0.013089821673929691,-0.0008018863736651838,0.021677421405911446
0.02705979347229004,0.003557763993740082,-0.016986558213829994,0.013230457901954651,-0.000815231935121119,0.022561054676771164
0.02666282467544079,0.0037013378459960222,-0.017155617475509644,0.013028576970100403,-0.0008182977326214314,0.02270108461380005
0.026839062571525574,0.003858484560623765,-0.01699060946702957,0.01298181526362896,-0.0007249621558003128,0.022604526951909065
0.026839062571525574,0.003858484560623765,-0.01699060946702957,0.01298181526362896,-0.0007249621558003128,0.022604526951909065
0.026648947969079018,0.004005645401775837,-0.017782535403966904,0.01326629240065813,-0.0006910413503646851,0.022299084812402725
0.027537956833839417,0.003969140816479921,-0.01774054393172264,0.013276973739266396,-0.0006638268241658807,0.02235044352710247
0.02764398232102394,0.0040168147534132,-0.017374826595187187,0.013430560007691383,-0.0006277597858570516,0.022376367822289467
0.02764398232102394,0.0040168147534132,-0.017374826595187187,0.013430560007691383,-0.0006277597858570516,0.022376367822289467
0.02665604278445244,0.003700264962390065,-0.01750188320875168,0.013110974803566933,-0.0005750514683313668,0.022452494129538536
0.02741013653576374,0.00368695636279881,-0.017255546525120735,0.013144769705832005,-0.0006058954750187695,0.02238859049975872
0.02784062549471855,0.003727615810930729,-0.01706530712544918,0.012691400945186615,-0.0006326399161480367,0.02266009896993637
0.027306556701660156,0.0042145089246332645,-0.017966527491807938,0.012794725596904755,-0.0006047303322702646,0.02249300293624401
0.027695566415786743,0.0035636124666780233,-0.017326533794403076,0.012931205332279205,-0.0008987121982499957,0.023037264123558998
0.027906030416488647,0.0034620603546500206,-0.017102204263210297,0.01326901838183403,-0.0008477333467453718,0.022998616099357605
0.02762526273727417,0.004193564876914024,-0.01726207137107849,0.013748941011726856,-0.0008429231238551438,0.022548550739884377
0.027408810332417488,0.004158682189881802,-0.016784492880105972,0.014343386515974998,-0.0007561608799733222,0.023649170994758606
0.0271140206605196,0.003928591962903738,-0.017461340874433517,0.014187703840434551,-0.0007653589127585292,0.021928347647190094
0.0274257380515337,0.003784188535064459,-0.016784073784947395,0.014118513092398643,-0.0007011830457486212,0.022139979526400566
0.027928980067372322,0.003860024269670248,-0.017354780808091164,0.014067914336919785,-0.0006461009033955634,0.023095183074474335
0.028044452890753746,0.004020858556032181,-0.017258282750844955,0.014066092669963837,-0.0006725118146277964,0.023116810247302055
0.02802237495779991,0.004013230558484793,-0.016879182308912277,0.0145473787561059,-0.0006975984433665872,0.022899877279996872
0.028065640479326248,0.0039635151624679565,-0.017444388940930367,0.013889563269913197,-0.0007179295644164085,0.023231277242302895
0.028067950159311295,0.0038907139096409082,-0.016454916447401047,0.013892329297959805,-0.0007777239079587162,0.023059429600834846
0.02766895852982998,0.004369633737951517,-0.017140157520771027,0.013489888049662113,-0.0007597840740345418,0.022880563512444496
0.028336791321635246,0.004188117571175098,-0.017135879024863243,0.013998406939208508,-0.0007513449527323246,0.02275785431265831
0.028330616652965546,0.003939455840736628,-0.017188409343361855,0.013711084611713886,-0.0006851412472315133,0.022755639627575874
0.028333069756627083,0.004299302119761705,-0.017278380692005157,0.013959367759525776,-0.0006836776155978441,0.02264273911714554
0.02848951146006584,0.004184537101536989,-0.016716985031962395,0.013551110401749611,-0.0006812226492911577,0.02267071232199669
0.02866228111088276,0.00419143121689558,-0.017338942736387253,0.0137743279337883,-0.0006598168984055519,0.022916289046406746
0.02902684360742569,0.004032476805150509,-0.01723799854516983,0.013488713651895523,-0.0006188124534673989,0.023180881515145302
0.029039530083537102,0.004327058792114258,-0.017057927325367928,0.014158185571432114,-0.0006280405214056373,0.023355446755886078
0.029039530083537102,0.004327058792114258,-0.017057927325367928,0.014158185571432114,-0.0006280405214056373,0.023355446755886078
0.028468769043684006,0.004217363428324461,-0.017693649977445602,0.013482851907610893,-0.0005846766871400177,0.023235401138663292
0.029292697086930275,0.004335752688348293,-0.017644667997956276,0.013316186144948006,-0.0005591233493760228,0.023087061941623688
0.029292697086930275,0.004335752688348293,-0.017644667997956276,0.013316186144948006,-0.0005591233493760228,0.023087061941623688
0.02898194082081318,0.0043786875903606415,-0.01790865696966648,0.013938979245722294,-0.0005471102194860578,0.023577116429805756
0.029525818303227425,0.004204521421343088,-0.018558839336037636,0.014414305798709393,-0.0005832843598909676,0.023798136040568352
0.02979360707104206,0.00404466362670064,-0.018290864303708076,0.013894977979362011,-0.0005987511831335723,0.024180596694350243
0.02940993197262287,0.003950643818825483,-0.01834668032824993,0.014168168418109417,-0.0006054197438061237,0.02344968356192112
0.03011387400329113,0.003913972061127424,-0.018590183928608894,0.014296397566795349,-0.0005907151498831809,0.023166825994849205
0.030194483697414398,0.004115530755370855,-0.01792655512690544,0.014747010543942451,-0.0006145571242086589,0.023617206141352654
0.030172649770975113,0.004586511757224798,-0.017956560477614403,0.014427636750042439,-0.0005753943114541471,0.024290528148412704
0.030342862010002136,0.004204513039439917,-0.017479654401540756,0.014250935055315495,-0.0006433002417907119,0.023735741153359413
0.03010791353881359,0.004278832580894232,-0.017752794548869133,0.013877219520509243,-0.0006695159827359021,0.023705968633294106
0.030202539637684822,0.004222630988806486,-0.018741540610790253,0.014010150916874409,-0.0006951211835257709,0.024820586666464806
0.030344968661665916,0.004501774907112122,-0.018516499549150467,0.01435086503624916,-0.000715877627953887,0.024732159450650215
0.030102653428912163,0.004432868678122759,-0.017808109521865845,0.015265829861164093,-0.0008652734104543924,0.02421538159251213
0.030765287578105927,0.004186261910945177,-0.018396882340312004,0.015143024735152721,-0.0008843772811815143,0.023239117115736008
0.0314764566719532,0.0043996479362249374,-0.017774969339370728,0.015526129864156246,-0.0007765801856294274,0.024310078471899033
0.03150651976466179,0.004067013505846262,-0.018755046650767326,0.014864189550280571,-0.0007340164738707244,0.024549704045057297
0.029954643920063972,0.0038275907281786203,-0.018611310049891472,0.014648358337581158,-0.0007005189545452595,0.024941638112068176
0.030230645090341568,0.004325199406594038,-0.017820656299591064,0.013890448957681656,-0.000633196730632335,0.024509236216545105
0.03131221607327461,0.004501942079514265,-0.01833435148000717,0.014008479192852974,-0.0005754880257882178,0.024087797850370407
0.03078218549489975,0.004406653344631195,-0.0177204180508852,0.01393784862011671,-0.0005637083668261766,0.024441402405500412
0.03091183491051197,0.004057482350617647,-0.018039876595139503,0.014460889622569084,-0.0005534885567612946,0.024287868291139603
0.03188060224056244,0.004209969192743301,-0.0184940192848444,0.015363636426627636,-0.0005167716881260276,0.024258682504296303
0.030536014586687088,0.00454964954406023,-0.017965644598007202,0.014781841076910496,-0.0004281279107090086,0.02436559461057186
0.03045862913131714,0.004254963248968124,-0.018389498814940453,0.013802356086671352,-0.0003885188198182732,0.024178896099328995
0.03040841966867447,0.003985224291682243,-0.018551554530858994,0.014477512799203396,-0.00042387403664179146,0.024499792605638504
0.031621698290109634,0.004387512803077698,-0.017924191430211067,0.014734175987541676,-0.0003970129764638841,0.02478189207613468
0.03145381063222885,0.004590644035488367,-0.01806682161986828,0.014945462346076965,-0.0004233518848195672,0.024709217250347137
0.032213322818279266,0.0048770303837955,-0.018086230382323265,0.014865905977785587,-0.00041961492388509214,0.02485901117324829
0.031901247799396515,0.0043419902212917805,-0.018235383555293083,0.014558992348611355,-0.00040832915692590177,0.024820799008011818
0.031901247799396515,0.0043419902212917805,-0.018235383555293083,0.014558992348611355,-0.00040832915692590177,0.024820799008011818
0.031332653015851974,0.004323248751461506,-0.018032817170023918,0.014965592883527279,-0.0004760251322295517,0.025117510929703712
0.03126543387770653,0.004273382015526295,-0.01814764179289341,0.014419898390769958,-0.0005252047558315098,0.02531851828098297
0.03147808462381363,0.0040659853257238865,-0.01838099956512451,0.014783094637095928,-0.0005604377365671098,0.025584692135453224
0.03127756342291832,0.004357922822237015,-0.01775209978222847,0.014276058413088322,-0.0005702683702111244,0.025459006428718567
0.031148042529821396,0.004213892854750156,-0.018258798867464066,0.01464396994560957,-0.0005607521161437035,0.025771327316761017
0.031845103949308395,0.004416429903358221,-0.018401633948087692,0.01432462502270937,-0.0005223362240940332,0.02565923146903515
0.03212382271885872,0.004496656823903322,-0.017804739996790886,0.015216033905744553,-0.0006664110696874559,0.025432294234633446
0.03201277181506157,0.004060415551066399,-0.018324602395296097,0.01505834050476551,-0.0006053430843167007,0.0252817552536726
0.031779944896698,0.003900292795151472,-0.01773691177368164,0.015332437120378017,-0.000586370297241956,0.02530413307249546
0.03162234276533127,0.004397646524012089,-0.01793002523481846,0.014964689500629902,-0.000570255215279758,0.02566121332347393
0.03306890279054642,0.004606152419000864,-0.018473662436008453,0.01527321431785822,-0.0005928707541897893,0.026787741109728813
0.032652877271175385,0.004392489790916443,-0.017602834850549698,0.015103600919246674,-0.000551255012396723,0.026748619973659515
0.031094620004296303,0.0040612416341900826,-0.017913388088345528,0.015317647717893124,-0.0005606809281744063,0.026255590841174126
0.03189834579825401,0.004106882028281689,-0.01856236718595028,0.015283358283340931,-0.0005354966851882637,0.025097332894802094
0.03282221034169197,0.004054575692862272,-0.01807752437889576,0.015277758240699768,-0.0004994134651497006,0.025029577314853668
0.03232340142130852,0.004382608458399773,-0.018413051962852478,0.01518549770116806,-0.0004700847784988582,0.025947844609618187
0.03391429781913757,0.0041481126099824905,-0.018144283443689346,0.015045191161334515,-0.00042836397187784314,0.025711406022310257
0.03358403593301773,0.003967359662055969,-0.01826791651546955,0.015387450344860554,-0.0004486257676035166,0.026110341772437096
0.03307255730032921,0.004272961523383856,-0.018781382590532303,0.015622920356690884,-0.00046544382348656654,0.026927415281534195
0.031626541167497635,0.004694350063800812,-0.01826183684170246,0.016018178313970566,-0.00046407608897425234,0.027023395523428917
0.03299320116639137,0.004472787491977215,-0.018577437847852707,0.015759695321321487,-0.0004342311294749379,0.02626759372651577
0.03362633287906647,0.00434838654473424,-0.018632840365171432,0.015867216512560844,-0.0004565214039757848,0.026234174147248268
0.033153727650642395,0.004133668728172779,-0.018195433542132378,0.015393530949950218,-0.00043574190931394696,0.02596711926162243
0.03363858908414841,0.004429167602211237,-0.018879296258091927,0.015585373155772686,-0.0005214420962147415,0.027693811804056168
0.033552732318639755,0.004262028262019157,-0.017993798479437828,0.01616455242037773,-0.0005149475182406604,0.027323180809617043
0.033396318554878235,0.004507062491029501,-0.018493395298719406,0.01606452651321888,-0.0005304210353642702,0.026874395087361336
0.033396318554878235,0.004507062491029501,-0.018493395298719406,0.01606452651321888,-0.0005304210353642702,0.026874395087361336
0.033456552773714066,0.004634039476513863,-0.019041704013943672,0.016054941341280937,-0.0005058537935838103,0.026827218011021614
0.033730827271938324,0.004467997699975967,-0.018691090866923332,0.01601172238588333,-0.0004693256050813943,0.026599081233143806
0.034051813185214996,0.004541620146483183,-0.01945161074399948,0.01562751643359661,-0.0004948658170178533,0.026488199830055237
0.0337444469332695,0.004696317948400974,-0.01948239468038082,0.016027456149458885,-0.0005307266837917268,0.026811057701706886
0.03421720117330551,0.004309896845370531,-0.01865742914378643,0.015434305183589458,-0.0005316187161952257,0.02711070142686367
0.034110065549612045,0.0043287393637001514,-0.01885853335261345,0.01610422693192959,-0.0005680110189132392,0.02679857425391674
0.0342516154050827,0.0049933032132685184,-0.01913256198167801,0.01581590063869953,-0.0005939874099567533,0.026963451877236366
0.03496740013360977,0.004513620864599943,-0.01940159499645233,0.015578125603497028,-0.0006102877086959779,0.02728002332150936
0.03420368209481239,0.004539187066257,-0.019937267526984215,0.015712792053818703,-0.0005847716820426285,0.02763252519071102
0.03390628844499588,0.0037244854029268026,-0.019936103373765945,0.016129689291119576,-0.0008336330647580326,0.027605243027210236
0.0351252518594265,0.0036091955844312906,-0.01870364509522915,0.01627744361758232,-0.0008245464414358139,0.027950730174779892
0.03492586314678192,0.0038442357908934355,-0.019676094874739647,0.016249921172857285,-0.0007792564574629068,0.02791411243379116
0.03493201360106468,0.004064035136252642,-0.02021731063723564,0.016055956482887268,-0.0007889378466643393,0.028060495853424072
0.034634966403245926,0.004153482150286436,-0.01974746212363243,0.015589001588523388,-0.0008457500953227282,0.02824096567928791
0.034522734582424164,0.004126721061766148,-0.019212845712900162,0.016085751354694366,-0.0008819773211143911,0.028220264241099358
0.034707728773355484,0.004029040224850178,-0.019797880202531815,0.016143323853611946,-0.000869455689098686,0.027992581948637962
0.03533076122403145,0.0034976357128471136,-0.019103137776255608,0.016461534425616264,-0.0008441342506557703,0.02855670265853405
0.03506799787282944,0.004018942825496197,-0.019725844264030457,0.015679340809583664,-0.00080026377690956,0.0283860731869936
0.03476826101541519,0.004237325396388769,-0.019877644255757332,0.015355330891907215,-0.0007230874034576118,0.028384925797581673
0.034754153341054916,0.0040441094897687435,-0.019838925451040268,0.015397393144667149,-0.0006970399990677834,0.02694026380777359
0.034724220633506775,0.0038914319593459368,-0.020266445353627205,0.01606116071343422,-0.000716108363121748,0.028325585648417473
0.03631418198347092,0.003954997286200523,-0.020118821412324905,0.015698213130235672,-0.0006451535737141967,0.02847389690577984
0.0362277515232563,0.003986778669059277,-0.019942572340369225,0.015689101070165634,-0.000666209205519408,0.02824351377785206
0.03427312523126602,0.003850305685773492,-0.019624145701527596,0.016934361308813095,-0.0006496284622699022,0.028842363506555557
0.03446808084845543,0.0037331136409193277,-0.020053675398230553,0.017143821343779564,-0.0006308683077804744,0.028881067410111427
0.035664547234773636,0.003680457593873143,-0.020319301635026932,0.016455192118883133,-0.0005824353429488838,0.027457283809781075
0.036701709032058716,0.0036619286984205246,-0.020332006737589836,0.01686505228281021,-0.0006127075175754726,0.02732042968273163
0.036146681755781174,0.0036426156293600798,-0.02034560590982437,0.01780383102595806,-0.0005559046985581517,0.028764652088284492
0.03507108613848686,0.003675761166960001,-0.019752608612179756,0.017114844173192978,-0.0005823412793688476,0.028380120173096657
0.03499424085021019,0.004206381272524595,-0.020174961537122726,0.016942502930760384,-0.0005940604605711997,0.02864065207540989
0.03639838844537735,0.0036023524589836597,-0.020876970142126083,0.016287073493003845,-0.0005651807296089828,0.029571866616606712
0.03639838844537735,0.0036023524589836597,-0.020876970142126083,0.016287073493003845,-0.0005651807296089828,0.029571866616606712
0.03610803931951523,0.0035689768847078085,-0.02068120427429676,0.016670409590005875,-0.0005900969263166189,0.029449516907334328
0.036303356289863586,0.004199153743684292,-0.02035725861787796,0.016677256673574448,-0.0005834665498696268,0.028417488560080528
0.036488208919763565,0.00413475139066577,-0.020893270149827003,0.01651817187666893,-0.0005684054340235889,0.02762647159397602
0.03588555008172989,0.003957868088036776,-0.020648442208766937,0.01707928255200386,-0.0005911786574870348,0.02816069684922695
0.03603105992078781,0.0038716162089258432,-0.02024763450026512,0.016784660518169403,-0.0006175999878905714,0.029230933636426926
0.036653101444244385,0.003854188369587064,-0.020443014800548553,0.017036546021699905,-0.0005834176554344594,0.029449742287397385
0.035935260355472565,0.004031728021800518,-0.020837238058447838,0.016843944787979126,-0.0006755769718438387,0.029235461726784706
0.03615165874361992,0.003910745494067669,-0.020579880103468895,0.016768859699368477,-0.0007083113305270672,0.029301712289452553
0.03583909571170807,0.0037976750172674656,-0.020369231700897217,0.017188461497426033,-0.0007238187245093286,0.02917378954589367
0.036416225135326385,0.0038596768863499165,-0.02071528695523739,0.01681983657181263,-0.0007296380354091525,0.02892450802028179
0.03747902810573578,0.004299711436033249,-0.020714379847049713,0.017302727326750755,-0.0007782035390846431,0.029264284297823906
0.036678511649370193,0.004543968476355076,-0.020213108509778976,0.01714264042675495,-0.0008171724621206522,0.029059870168566704
0.035103749483823776,0.004566400311887264,-0.020755643025040627,0.0170685276389122,-0.0008304808288812637,0.029239829629659653
0.03601643443107605,0.004361987113952637,-0.0209443848580122,0.0170733742415905,-0.0007854253053665161,0.029331069439649582
0.03629784658551216,0.004163221921771765,-0.02071201242506504,0.01663696952164173,-0.0007945809047669172,0.029668306931853294
0.03577372059226036,0.003970674239099026,-0.020283548161387444,0.01714155450463295,-0.0009402436553500593,0.029697144404053688
0.03736923635005951,0.00388644402846694,-0.02082425355911255,0.016557887196540833,-0.0009531687246635556,0.02970835752785206
0.03674513101577759,0.003940998110920191,-0.0209809597581625,0.016619132831692696,-0.0009470587829127908,0.029461121186614037
0.03516619652509689,0.004335717763751745,-0.020874641835689545,0.017057163640856743,-0.0008910124306567013,0.030448462814092636
0.03516619652509689,0.004335717763751745,-0.020874641835689545,0.017057163640856743,-0.0008910124306567013,0.030448462814092636
0.03736734390258789,0.004751041065901518,-0.02088373713195324,0.017480921000242233,-0.0009412362123839557,0.030360134318470955
0.03736734390258789,0.004751041065901518,-0.02088373713195324,0.017480921000242233,-0.0009412362123839557,0.030360134318470955
0.03705036640167236,0.004262332338839769,-0.020830323919653893,0.017009718343615532,-0.0009212209261022508,0.030424736440181732
0.03686918690800667,0.004163502249866724,-0.021436460316181183,0.01786964014172554,-0.0008361018844880164,0.03052946925163269
0.03708025813102722,0.004827007185667753,-0.021829161792993546,0.017548952251672745,-0.00084546091966331,0.03013976290822029
0.03739495202898979,0.004851991776376963,-0.021429548040032387,0.018052924424409866,-0.0008535597589798272,0.03101346828043461
0.037328917533159256,0.004739708732813597,-0.020367972552776337,0.01743372529745102,-0.0008596383850090206,0.03199446201324463
0.037042222917079926,0.004897102247923613,-0.020880797877907753,0.017923321574926376,-0.0008157414849847555,0.03146251291036606
0.03767193481326103,0.004311143420636654,-0.021337641403079033,0.017957814037799835,-0.0008886773721314967,0.029425667598843575
