davideferrari95/blind_handover_controller/data/Test 79 - [2024-02-07 -- 16-04-29]/joint_states_data.csv
shoulder_pan_joint,shoulder_lift_joint,elbow_joint,wrist_1_joint,wrist_2_joint,wrist_3_joint
0.005656133871525526,0.008053298108279705,-0.008381873369216919,0.0009533705888316035,0.0,0.006306033115833998
0.005656133871525526,0.008053298108279705,-0.008381873369216919,0.0009533705888316035,0.0,0.006306033115833998
0.005149210337549448,0.0070171356201171875,-0.008461843244731426,0.0009358334937132895,0.0,0.0055953701958060265
0.004950057249516249,0.00717075215652585,-0.007947282865643501,0.0009149956167675555,0.0,0.005391083192080259
0.004874128382652998,0.008122182451188564,-0.007829518988728523,0.0008358869818039238,0.0,0.005441674962639809
0.005208583548665047,0.007766155991703272,-0.00894198752939701,0.0007796607678756118,0.0,0.00578712485730648
0.005612453445792198,0.00703940074890852,-0.007885965518653393,0.0007867481326684356,0.0,0.005610145162791014
0.005196469370275736,0.0075788614340126514,-0.008046834729611874,0.0008007560973055661,0.0,0.005756797268986702
0.004883208312094212,0.0077805849723517895,-0.007880412973463535,0.0008196724811568856,0.0,0.005736291874200106
0.005080126691609621,0.007433767896145582,-0.008401311002671719,0.0010298268171027303,0.0,0.005749289412051439
0.005021147895604372,0.007307363674044609,-0.007605698890984058,0.0010202295379713178,0.0,0.005498893093317747
0.005410299636423588,0.00749879190698266,-0.007351916749030352,0.0010031592100858688,0.0,0.005603702738881111
0.005410299636423588,0.00749879190698266,-0.007351916749030352,0.0010031592100858688,0.0,0.005603702738881111
0.0055598546750843525,0.007556647527962923,-0.008528315462172031,0.0010416590375825763,0.0,0.00601222412660718
0.00518419872969389,0.008020689710974693,-0.008483120240271091,0.0010780044831335545,0.0,0.005577354691922665
0.00493879709392786,0.007229776121675968,-0.0076461066491901875,0.0010514574823901057,0.0,0.005803667474538088
0.005132046062499285,0.0073807379230856895,-0.0074925837107002735,0.001046741846948862,0.0,0.005383579060435295
0.005426663439720869,0.006891428958624601,-0.007838635705411434,0.0010600696550682187,0.0,0.006236760877072811
0.005208307411521673,0.006933423690497875,-0.0073894476518034935,0.001023891381919384,0.0,0.0053659463301301
0.005768166854977608,0.006868584547191858,-0.007321871351450682,0.000988772721029818,0.0,0.005439829546958208
0.0053933970630168915,0.007600163575261831,-0.007789368741214275,0.0009045388433150947,0.0,0.00545147992670536
0.004751561209559441,0.0070092948153615,-0.007789300754666328,0.0008039853419177234,0.0,0.005858311429619789
0.004970087669789791,0.006873310077935457,-0.007462933659553528,0.0008117297547869384,0.0,0.005361031740903854
0.005484967492520809,0.006907869130373001,-0.0070312777534127235,0.0008147360640577972,0.0,0.005250431597232819
0.005546035245060921,0.006804090458899736,-0.007881156168878078,0.0008241120958700776,0.0,0.005640542600303888
0.005527084227651358,0.007164916954934597,-0.007643896620720625,0.0008609163342043757,0.0,0.005665285978466272
0.004951796494424343,0.006801839917898178,-0.007198210805654526,0.0008890957687981427,0.0,0.005202909465879202
0.004976938478648663,0.006574226077646017,-0.00715594133362174,0.0008920987602323294,0.0,0.005168056581169367
0.005596473813056946,0.006684338208287954,-0.007548734545707703,0.000893165182787925,0.0,0.005559955723583698
0.0052743954584002495,0.006942162290215492,-0.007272996474057436,0.0009588337852619588,0.0,0.00536658801138401
0.0052172159776091576,0.006890235003083944,-0.00707212183624506,0.0009592728456482291,0.0,0.005633304826915264
0.005160873290151358,0.006820168346166611,-0.0072910781018435955,0.0009154313011094928,0.0,0.005397208966314793
0.00514213927090168,0.006829383783042431,-0.0075906673446297646,0.0009111089748330414,0.0,0.005246781278401613
0.004820176865905523,0.007323583588004112,-0.007260078098624945,0.000858090294059366,0.0,0.005245658569037914
0.005117142107337713,0.007227994501590729,-0.007129517383873463,0.0008199327276088297,0.0,0.005049102008342743
0.005517084617167711,0.007013978436589241,-0.007188425865024328,0.0008342274813912809,0.0,0.005020099692046642
0.005266281776130199,0.006647192407399416,-0.008431343361735344,0.0009012186783365905,0.0,0.0053959377110004425
0.005008862819522619,0.0069985478185117245,-0.008375498466193676,0.0008645962225273252,0.0,0.005587033927440643
0.005224119406193495,0.007242383435368538,-0.007672784384340048,0.0010943342931568623,1.0686521818570327e-05,0.005828362889587879
0.005116783548146486,0.007340181153267622,-0.007661954499781132,0.0011828013230115175,6.977534781071881e-07,0.005334251094609499
0.005887454841285944,0.0068497550673782825,-0.0078994520008564,0.001264635706320405,4.5558312677940194e-08,0.005142129957675934
0.00539423106238246,0.00728177186101675,-0.00789421983063221,0.0013206911971792579,2.974632096197638e-09,0.005304506979882717
0.004957844037562609,0.006485184654593468,-0.007711724378168583,0.0012450490612536669,1.9422223551668338e-10,0.005557251628488302
0.0052953665144741535,0.006661113351583481,-0.007552939932793379,0.001187265501357615,1.268132474030459e-11,0.005285643506795168
0.005143625196069479,0.007168455980718136,-0.008397555910050869,0.0010491114808246493,8.279999407466432e-13,0.0052985623478889465
0.005143625196069479,0.007168455980718136,-0.008397555910050869,0.0010491114808246493,8.279999407466432e-13,0.0052985623478889465
0.005092548206448555,0.007151010446250439,-0.007838115096092224,0.0009945996571332216,5.4062480945964164e-14,0.005472474731504917
0.00589437922462821,0.007195757236331701,-0.0074917348101735115,0.000996698741801083,3.529893552410286e-15,0.005343457218259573
0.00520334392786026,0.007376428693532944,-0.008193949237465858,0.0009843031875789165,2.3047681791494787e-16,0.005256400443613529
0.00525275245308876,0.007618021219968796,-0.007683956529945135,0.001012982684187591,1.504848825695463e-17,0.0050730155780911446
0.005146313924342394,0.007105620577931404,-0.007660883478820324,0.0009950284147635102,9.825588392004478e-19,0.00525779789313674
0.005425875540822744,0.006952332332730293,-0.007910022512078285,0.0008752240100875497,4.188802636186968e-21,0.005355496425181627
0.005016221199184656,0.0067101409658789635,-0.008036389015614986,0.0008665313944220543,2.7349888363369174e-22,0.0052237482741475105
0.005204147659242153,0.006788741797208786,-0.008251281455159187,0.0007978967623785138,1.7857523197578566e-23,0.004993638023734093
0.005510411225259304,0.007097950670868158,-0.008484874852001667,0.0007978652720339596,1.1659686626061564e-24,0.005192868877202272
0.006104573607444763,0.0068856277503073215,-0.008019926957786083,0.0007804910419508815,7.612942225178218e-26,0.0054320767521858215
0.00563764525577426,0.006752754561603069,-0.007839398458600044,0.0007926821708679199,4.970707319550859e-27,0.005296431947499514
0.005941561423242092,0.006752457935363054,-0.007578955963253975,0.000760450609959662,3.2455167162293647e-28,0.00539486575871706
0.005297479219734669,0.007045359816402197,-0.007588993292301893,0.0009552356204949319,2.119090636769723e-29,0.005081443581730127
0.00545488391071558,0.007047809194773436,-0.008066619746387005,0.0008871767786331475,1.383614779279441e-30,0.0052316635847091675
0.005531849805265665,0.006480569951236248,-0.008182652294635773,0.0008848787401802838,9.034015567178193e-32,0.00496737752109766
0.0056535336188972,0.006702992133796215,-0.007710612844675779,0.0008642348693683743,5.898566367578928e-33,0.004869906231760979
0.005914443638175726,0.007367413025349379,-0.008131245151162148,0.0008523883298039436,3.8513419365761406e-34,0.005254683084785938
0.006038818508386612,0.007070880848914385,-0.00805592630058527,0.0008465975406579673,2.5146513222210606e-35,0.005472309421747923
0.005573525093495846,0.0073545644991099834,-0.007658717688173056,0.0008536962559446692,1.641887554610173e-36,0.0050971973687410355
0.0056333779357373714,0.006652336101979017,-0.0073722777888178825,0.0008044927380979061,1.0720352520585377e-37,0.004911415744572878
0.006096809171140194,0.006645664572715759,-0.008019626140594482,0.0008116402896121144,6.99962455785043e-39,0.004774820525199175
0.006044153124094009,0.007059005089104176,-0.00822403747588396,0.0008670343668200076,4.570250863487531e-40,0.004662258084863424
0.006092877592891455,0.006880890112370253,-0.0077327704057097435,0.0008757813484407961,2.984065079779698e-41,0.0048272437416017056
0.005825424566864967,0.006617350038141012,-0.008199724368751049,0.0008626627968624234,1.9478048654114957e-42,0.005471982527524233
0.005809676367789507,0.006623104680329561,-0.008028489537537098,0.0008662902400828898,1.2751816025355835e-43,0.005386282689869404
0.005809676367789507,0.006623104680329561,-0.008028489537537098,0.0008662902400828898,1.2751816025355835e-43,0.005386282689869404
0.006238923408091068,0.007028929889202118,-0.007541585247963667,0.0009172042482532561,8.407790785948902e-45,0.005332211498171091
0.006091870367527008,0.006979428697377443,-0.007359825074672699,0.0009409203776158392,0.0,0.005030983593314886
0.006252868566662073,0.0065164766274392605,-0.00786744337528944,0.0009458803688175976,0.0,0.00472526578232646
0.005968580022454262,0.006876658648252487,-0.007679386995732784,0.0009421317954547703,0.0,0.004771774169057608
0.005780363921076059,0.007011201698333025,-0.007275397423654795,0.0011369569692760706,0.0,0.004836345557123423
0.006192357279360294,0.006746568251401186,-0.0076936776749789715,0.0011314696166664362,0.0,0.005061639007180929
0.006313431542366743,0.006424065679311752,-0.007634972687810659,0.0011266282526776195,0.0,0.004799314774572849
0.0063499873504042625,0.006586958188563585,-0.008076231926679611,0.001207045977935195,0.0,0.004647193942219019
0.005910975392907858,0.007501617539674044,-0.007867985405027866,0.001162302796728909,0.0,0.0045252833515405655
0.00628284178674221,0.00705661391839385,-0.007977120578289032,0.001152248471044004,0.0,0.004866759292781353
0.006881223991513252,0.0072409044951200485,-0.00788811407983303,0.001147680333815515,0.0,0.004816885106265545
0.006343895103782415,0.006684965919703245,-0.007651947438716888,0.001127410214394331,0.0,0.004753494635224342
0.006210585590451956,0.006772335153073072,-0.007613445166498423,0.0011033170158043504,0.0,0.004746655933558941
0.005802481435239315,0.007087955251336098,-0.008316151797771454,0.0011893028859049082,0.0,0.0047023412771523
0.005505077540874481,0.006872718688100576,-0.0076978774741292,0.0011514562647789717,0.0,0.0045193699188530445
0.005197496619075537,0.0064191375859081745,-0.007416877429932356,0.0011482929112389684,0.0,0.004328250419348478
0.005345304496586323,0.006244630552828312,-0.0074588097631931305,0.0011418807553127408,0.0,0.004531320184469223
0.005420939065515995,0.00686545018106699,-0.007709181401878595,0.0012071883538737893,0.0,0.004463867284357548
0.005649988539516926,0.006655666511505842,-0.007740729954093695,0.0011724994983524084,0.0,0.004253124352544546
0.005350947845727205,0.006625736597925425,-0.007358645088970661,0.0011989845661446452,0.0,0.004437461961060762
0.0051732356660068035,0.0067408098839223385,-0.007387684192508459,0.0013423209311440587,0.0,0.0046018254943192005
0.005943978670984507,0.006679636891931295,-0.007865272462368011,0.0013377554714679718,0.0,0.004629127681255341
0.005675368942320347,0.007102818228304386,-0.007690439000725746,0.0014716230798512697,0.0,0.004675732925534248
0.005543042905628681,0.006403759121894836,-0.00812605582177639,0.0014531916240230203,0.0,0.004675777163356543
0.005247968714684248,0.006023945286870003,-0.007935874164104462,0.0013880243059247732,0.0,0.004726708400994539
0.0059144445694983006,0.007030907087028027,-0.00775457127019763,0.0014339775079861283,0.0,0.004793472122400999
0.006110950373113155,0.006802339572459459,-0.006876612547785044,0.001343713840469718,0.0,0.0046640015207231045
0.005834447685629129,0.006871257908642292,-0.007390706799924374,0.0012909537181258202,0.0,0.004561936482787132
0.006140561308711767,0.006586948409676552,-0.008350982330739498,0.0013370462693274021,0.0,0.004553474951535463
0.005479644052684307,0.006394144147634506,-0.00833034235984087,0.0014016649220138788,0.0,0.004755811300128698
0.005911733955144882,0.007349364925175905,-0.007390008307993412,0.0014040499227121472,0.0,0.0045969984494149685
0.005911733955144882,0.007349364925175905,-0.007390008307993412,0.0014040499227121472,0.0,0.0045969984494149685
0.006028877571225166,0.006887053605169058,-0.006905524991452694,0.0015039859572425485,0.0,0.004630522336810827
0.006337062455713749,0.006950322538614273,-0.007368294522166252,0.0014210989465937018,0.0,0.0048667616210877895
0.005509849637746811,0.006709524430334568,-0.007582801394164562,0.001389291021041572,0.0,0.004043653141707182
0.005415730178356171,0.006848081015050411,-0.006880227476358414,0.0013019262114539742,0.0,0.004329100251197815
0.005741611588746309,0.007228739093989134,-0.0074843536131083965,0.0011665511410683393,0.0,0.004463090095669031
0.006297709885984659,0.006636383011937141,-0.008080406114459038,0.0011197595158591866,0.0,0.004773037973791361
0.006138576194643974,0.006492547690868378,-0.008174178190529346,0.0010815297719091177,0.0,0.004674317315220833
0.006122892256826162,0.00701645202934742,-0.007945433259010315,0.0010660277912393212,0.0,0.0043243663385510445
0.005607136525213718,0.006939595099538565,-0.008031453937292099,0.0012065457412973046,0.0,0.004375610500574112
0.0062131634913384914,0.006658227648586035,-0.007764078676700592,0.001182622741907835,0.0,0.004180471878498793
0.006820506416261196,0.006514451466500759,-0.007494942285120487,0.0013352809473872185,0.0,0.0039846692234277725
0.006880556233227253,0.006818026769906282,-0.007438888773322105,0.00138708739541471,0.0,0.004105755593627691
0.005921639502048492,0.007141463924199343,-0.008219785057008266,0.001396975014358759,0.0,0.004610383417457342
0.005896927323192358,0.006782230921089649,-0.008149518631398678,0.0013388957595452666,0.0,0.0043075308203697205
0.007062662858515978,0.006667416077107191,-0.007925284095108509,0.0014201152371242642,0.0,0.004337175749242306
0.006374390795826912,0.0066857668571174145,-0.007789537310600281,0.0013738257111981511,0.0,0.0041810995899140835
0.006327919661998749,0.006620285101234913,-0.008806533180177212,0.0014858118956908584,0.0,0.004015406593680382
0.006049199961125851,0.006612854544073343,-0.0079501923173666,0.00156197021715343,0.0,0.0043043941259384155
0.0061380513943731785,0.006669100373983383,-0.00787284318357706,0.0015360440593212843,0.0,0.004269421100616455
0.0067311786115169525,0.006755881942808628,-0.008287440985441208,0.00162099814042449,0.0,0.004314059857279062
0.00701491441577673,0.007264541462063789,-0.009156867861747742,0.0015547325601801276,0.0,0.004128703381866217
0.006282285787165165,0.006959029473364353,-0.008044790476560593,0.001587582752108574,0.0,0.004347667563706636
0.0059819030575454235,0.006689859088510275,-0.007813710719347,0.0014765047235414386,0.0,0.004076346755027771
0.006532351486384869,0.006664926651865244,-0.008418961428105831,0.0014978568069636822,0.0,0.003485627006739378
0.00670244824141264,0.006737314164638519,-0.00861107837408781,0.0014500183751806617,0.0,0.0035239211283624172
0.006449648644775152,0.006859401240944862,-0.008549495600163937,0.0014908992452546954,0.0,0.004209525883197784
0.006449648644775152,0.006859401240944862,-0.008549495600163937,0.0014908992452546954,0.0,0.004209525883197784
0.00650709168985486,0.0066476138308644295,-0.008386430330574512,0.001414143480360508,0.0,0.004102347884327173
0.006556514650583267,0.007267255801707506,-0.008591162040829659,0.001492591225542128,0.0,0.004203452728688717
0.0076605649664998055,0.007120078895241022,-0.00801792275160551,0.0014967323513701558,0.0,0.0043804398737847805
0.0071867420338094234,0.006899269297719002,-0.008577849715948105,0.0015637845499441028,0.0,0.004211392253637314
0.006165389437228441,0.006611596327275038,-0.008095407858490944,0.0016690554330125451,0.0,0.004002769477665424
0.006128167733550072,0.006836140062659979,-0.00866470392793417,0.0017086828593164682,0.0,0.003958144225180149
0.006807761732488871,0.006796583533287048,-0.008911468088626862,0.0015947261126711965,0.0,0.0038815282750874758
0.0071488795801997185,0.007120620924979448,-0.009422278963029385,0.001625199569389224,0.0,0.003954300656914711
0.006647440604865551,0.006692396476864815,-0.008343360386788845,0.0015288089634850621,0.0,0.004097345285117626
0.006605718284845352,0.006411309819668531,-0.00825564470142126,0.0015195804880931973,0.0,0.00409682048484683
0.007286769803613424,0.006893556099385023,-0.009314105845987797,0.0014476235955953598,0.0,0.0039277225732803345
0.0076112146489322186,0.006985718850046396,-0.008647278882563114,0.0013725919416174293,0.0,0.0038955353666096926
0.007088114507496357,0.006622954737395048,-0.008636939339339733,0.0014336920576170087,0.0,0.0038969700690358877
0.00652314955368638,0.006606098264455795,-0.0090862475335598,0.0015109335072338581,0.0,0.003636455163359642
0.007173989899456501,0.006732879672199488,-0.008877058513462543,0.001782650826498866,0.0,0.0033448636531829834
0.007334559690207243,0.007223521359264851,-0.008316416293382645,0.0018251065630465746,0.0,0.00330915255472064
0.007152257952839136,0.0066840448416769505,-0.008439267054200172,0.0018788718152791262,0.0,0.0036345343105494976
0.006614963058382273,0.006755058187991381,-0.008877093903720379,0.0018649380654096603,0.0,0.004376260098069906
0.007393574342131615,0.006712030153721571,-0.009001204743981361,0.0016581531381234527,0.0,0.004169668070971966
0.007138495799154043,0.007401629351079464,-0.00821119174361229,0.0016357800923287868,0.0,0.0038484458345919847
0.007138495799154043,0.007401629351079464,-0.00821119174361229,0.0016357800923287868,0.0,0.0038484458345919847
0.007379236631095409,0.0069512599147856236,-0.008814290165901184,0.0015607761451974511,0.0,0.003335682675242424
0.00688591692596674,0.006367607973515987,-0.008968391455709934,0.0016056745080277324,0.0,0.0034940349869430065
0.007166922092437744,0.006671525537967682,-0.008039205335080624,0.0015917874407023191,0.0,0.0037505391519516706
0.008028598502278328,0.00700994161888957,-0.008325561881065369,0.0015822239220142365,0.0,0.003818686120212078
0.007106803823262453,0.007060118950903416,-0.008699333295226097,0.0015740484232082963,0.0,0.0037901566829532385
0.007289287634193897,0.006454947404563427,-0.008697555400431156,0.0018110242672264576,0.0,0.0033966409973800182
0.007289287634193897,0.006454947404563427,-0.008697555400431156,0.0018110242672264576,0.0,0.0033966409973800182
0.007886546663939953,0.006972761359065771,-0.008699980564415455,0.00218945718370378,0.0,0.0030820847023278475
0.007409099955111742,0.007146628573536873,-0.008210072293877602,0.00212479499168694,0.0,0.0033024833537638187
0.007767308969050646,0.007414276245981455,-0.009312865324318409,0.0020612410735338926,0.0,0.0035176353994756937
0.0078268488869071,0.006983904168009758,-0.009018076583743095,0.002031087875366211,0.0,0.0035423794761300087
0.007867553271353245,0.007446651812642813,-0.008407381363213062,0.001836372772231698,0.0,0.0033060568384826183
0.007333653513342142,0.007467193063348532,-0.008701213635504246,0.0017730372492223978,0.0,0.003427284536883235
0.007614828180521727,0.006710471119731665,-0.008769350126385689,0.001817056443542242,0.0,0.0034310598857700825
0.008714075200259686,0.0069985766895115376,-0.008641780354082584,0.002010645344853401,0.0,0.003373676910996437
0.00792990904301405,0.00739983981475234,-0.008377299644052982,0.002076328033581376,0.0,0.0029751532711088657
0.007734058424830437,0.007239040918648243,-0.00896745827049017,0.002252152655273676,0.0,0.002664125757291913
0.00787216518074274,0.006747321225702763,-0.009399711154401302,0.002243272727355361,0.0,0.002368444809690118
0.007943025790154934,0.006845889147371054,-0.008645376190543175,0.0023290319368243217,0.0,0.002433766145259142
0.007608614396303892,0.007031633052974939,-0.008981225080788136,0.002138125244528055,0.0,0.0028217900544404984
0.00808042660355568,0.007191278971731663,-0.008703521452844143,0.002071244176477194,0.0,0.003135169390588999
0.008324009366333485,0.007279797922819853,-0.008647832088172436,0.0021980965975672007,0.0,0.0031006434001028538
0.007755706086754799,0.007496648468077183,-0.008061150088906288,0.002200987422838807,0.0,0.002888662274926901
0.007790186442434788,0.007721115369349718,-0.008964428678154945,0.0023518081288784742,0.0,0.0028670900501310825
0.007846725173294544,0.007165300194174051,-0.008895177394151688,0.0021451350767165422,0.0,0.0026752441190183163
0.007846725173294544,0.007165300194174051,-0.008895177394151688,0.0021451350767165422,0.0,0.0026752441190183163
0.008132942020893097,0.007332857698202133,-0.008844410069286823,0.001993612851947546,0.0,0.0024691468570381403
0.008772690780460835,0.006811932660639286,-0.009272083640098572,0.001901810523122549,0.0,0.0026470927987247705
0.008063201792538166,0.007124755065888166,-0.009091376326978207,0.0018313911277800798,0.0,0.0028912811540067196
0.008171919733285904,0.008154872804880142,-0.008076433092355728,0.001831092406064272,0.0,0.003011563094332814
0.00823171902447939,0.007233392912894487,-0.008796263486146927,0.0021257931366562843,0.0,0.00330127845518291
0.008884227834641933,0.0066469707526266575,-0.009329095482826233,0.0023061649408191442,0.0,0.0027319504879415035
0.008203627541661263,0.007337294984608889,-0.008817085064947605,0.0024607896339148283,0.0,0.002387359971180558
0.00816361978650093,0.0069541605189442635,-0.00911958608776331,0.0024552270770072937,0.0,0.0022339653223752975
0.00798740703612566,0.007213960867375135,-0.0090078329667449,0.002618912374600768,0.0,0.0024425704032182693
0.008329840376973152,0.006993567105382681,-0.008578980341553688,0.002553706057369709,0.0,0.002928075846284628
0.008370650000870228,0.007397474721074104,-0.009207998402416706,0.0023900221567600965,0.0,0.0029066794086247683
0.008364374749362469,0.007281269878149033,-0.008779508993029594,0.0022648232989013195,0.0,0.0030082829762250185
0.008303837850689888,0.00645006587728858,-0.008515549823641777,0.0020449396688491106,-0.0001787179644452408,0.002967359498143196
0.008631076663732529,0.0061063398607075214,-0.00907586608082056,0.002127317478880286,-0.0001924731332110241,0.0026578924153000116
0.008558360859751701,0.006294407416135073,-0.00865099299699068,0.0023163422010838985,-0.00018591924163047224,0.0026459607761353254
0.008279165253043175,0.007120651192963123,-0.008180066011846066,0.0024082569871097803,-0.0002050420589512214,0.0026667506899684668
0.009151496924459934,0.0063906023278832436,-0.00872708484530449,0.00262559880502522,-0.00020556854724418372,0.002381583210080862
0.008344508707523346,0.006383308209478855,-0.009396584704518318,0.0025687471497803926,-0.00019855356367770582,0.0022136769257485867
0.008407322689890862,0.006396291311830282,-0.008958947844803333,0.0024553039111196995,-0.0001915452303364873,0.0023428057320415974
0.008703594096004963,0.0063707842491567135,-0.00851313304156065,0.002423453377559781,-0.0001849849650170654,0.002350429305806756
0.008590923622250557,0.00685968017205596,-0.00909142941236496,0.0022679271642118692,-0.0001934711035573855,0.0028442915063351393
0.008404115214943886,0.006502628792077303,-0.00849441159516573,0.0023906882852315903,-0.00020098402455914766,0.0030139368027448654
0.00825479906052351,0.006324301939457655,-0.008235091343522072,0.0026073374319821596,-0.00019563686510082334,0.0027144469786435366
0.008973135612905025,0.006230984814465046,-0.009821022860705853,0.002439036499708891,-0.00018980077584274113,0.0025791889056563377
0.008644458837807178,0.006725975312292576,-0.009060125797986984,0.0023083535488694906,-0.00018425290181767195,0.0022834741976112127
0.008853010833263397,0.006307520903646946,-0.008404592983424664,0.0022965336684137583,-0.00017901710816659033,0.002226692857220769
0.00863330252468586,0.006404874846339226,-0.00823004450649023,0.002177797257900238,-0.00017407046107109636,0.0023748246021568775
0.00871289987117052,0.005850028712302446,-0.008824450895190239,0.0023918291553854942,-0.00016938983753789216,0.0026129477191716433
0.008717559278011322,0.00647948682308197,-0.009161487221717834,0.0023798493202775717,-0.0001649542828090489,0.0026717386208474636
0.008642788976430893,0.006632839795202017,-0.008574348874390125,0.00253966823220253,-0.00016074537415988743,0.0028064073994755745
0.008642788976430893,0.006632839795202017,-0.008574348874390125,0.00253966823220253,-0.00016074537415988743,0.0028064073994755745
0.009064188227057457,0.006234210915863514,-0.009322866797447205,0.002449760679155588,-0.00015674560563638806,0.0025509335100650787
0.008657184429466724,0.0059567904099822044,-0.009237083606421947,0.0023111002519726753,-0.00015294019249267876,0.0023237920831888914
0.008149459026753902,0.006427126470953226,-0.00808463990688324,0.0024077303241938353,-0.00014931528130546212,0.002202350413426757
0.008579741232097149,0.006522227078676224,-0.008577588945627213,0.0024553854018449783,-0.0001639557012822479,0.002035688143223524
0.009127814322710037,0.0064767333678901196,-0.008536536246538162,0.002455688314512372,-0.00016274410882033408,0.0020870810840278864
0.009154302068054676,0.005759903695434332,-0.00847003236413002,0.0025594569742679596,-0.00015586780500598252,0.002292416524142027
0.008757374249398708,0.006031987257301807,-0.009396432898938656,0.0025219263043254614,-0.000152565524331294,0.002312391297891736
0.008737650699913502,0.006914198864251375,-0.009270827285945415,0.002797943539917469,-0.00014939982793293893,0.0022088070400059223
0.008699139580130577,0.006914878264069557,-0.0091436468064785,0.0027017935644835234,-0.00014636263949796557,0.0017846374539658427
0.009239316917955875,0.005972313228994608,-0.0085847033187747,0.002600079635158181,-0.0001434465666534379,0.0017333382274955511
0.009117004461586475,0.005876785609871149,-0.008593707345426083,0.0028133969753980637,-0.00014064452261663973,0.0016415190184488893
0.008437592536211014,0.005873797927051783,-0.008898044936358929,0.002931520575657487,-0.0001379496679874137,0.0016807091888040304
0.009225407615303993,0.006296511739492416,-0.008530857972800732,0.003082719398662448,-0.00014058829401619732,0.0016472189454361796
0.009042318910360336,0.006126590073108673,-0.00915227085351944,0.0027589863166213036,-0.00013819978630635887,0.001955233281478286
0.008753134869039059,0.005800159648060799,-0.008673712611198425,0.002717681461945176,-0.00013420384493656456,0.0019786455668509007
0.008953814394772053,0.006095064803957939,-0.008086063899099827,0.002723288955166936,-0.00013032507558818907,0.0021679732017219067
0.009230522438883781,0.005659750197082758,-0.008774501271545887,0.0032045391853898764,-0.0001266572071472183,0.002172220265492797
0.00933658704161644,0.006029886659234762,-0.008483203127980232,0.003218199359253049,-0.0001231896603712812,0.00210278551094234
0.008473045192658901,0.00617176154628396,-0.008785756304860115,0.0031161345541477203,-0.0001199070320581086,0.0020278804004192352
0.008729861117899418,0.005616690963506699,-0.009378993883728981,0.002943406580016017,-0.0001167945665656589,0.001981589710339904
0.00934108067303896,0.0059209465980529785,-0.009086704812943935,0.0027463389560580254,-0.00011383987293811515,0.0017475122585892677
0.008696867153048515,0.005527692846953869,-0.008520974777638912,0.0027938028797507286,-0.00013175036292523146,0.0018792945193126798
0.008851880207657814,0.005912452004849911,-0.008474927395582199,0.0033047990873456,-0.00012993143172934651,0.002038391772657633
0.009213111363351345,0.005899746902287006,-0.009332666173577309,0.0031433170661330223,-0.00012696466001216322,0.0021211737766861916
0.009168208576738834,0.00589602068066597,-0.009158040396869183,0.003078732406720519,-0.00012405346205923706,0.0022971131838858128
0.008596428669989109,0.005598032381385565,-0.00867281574755907,0.0029511386528611183,-0.000121267992653884,0.002101477235555649
0.008596428669989109,0.005598032381385565,-0.00867281574755907,0.0029511386528611183,-0.000121267992653884,0.002101477235555649
0.009236100129783154,0.005851804744452238,-0.008850234560668468,0.0029476680792868137,-0.00011860440281452611,0.0019154091132804751
0.009065181016921997,0.006295578088611364,-0.008424943313002586,0.0029876551125198603,-0.00011605529289226979,0.0016888441750779748
0.009110947139561176,0.005690379999577999,-0.008098816499114037,0.003201059764251113,-0.0001312861277256161,0.0015684327809140086
0.009395291097462177,0.005948071833699942,-0.00848974660038948,0.0031888096127659082,-0.00012973518460057676,0.0014297504676505923
0.009587645530700684,0.005471531301736832,-0.00903476681560278,0.00302507053129375,-0.0001271911896765232,0.001421530032530427
0.009801127016544342,0.005515214055776596,-0.008276143111288548,0.0032488785218447447,-0.00012225963291712105,0.0016259639523923397
0.009363577701151371,0.005977705121040344,-0.009109041653573513,0.003560073208063841,-0.00011993214138783514,0.0019010099349543452
0.009474989958107471,0.0054183946922421455,-0.008629908785223961,0.0033298193011432886,-0.0001176915320684202,0.002043030923232436
0.009740280918776989,0.005978996865451336,-0.008132608607411385,0.0032916630152612925,-0.00011553318472579122,0.0020346567034721375
0.00956649985164404,0.005836972035467625,-0.008932560682296753,0.003250392386689782,-0.00012858252739533782,0.0016215614741668105
0.009117227979004383,0.005688497330993414,-0.009059772826731205,0.003083324758335948,-0.00012729618174489588,0.0014458730584010482
0.009369408711791039,0.006293870508670807,-0.008520069532096386,0.002989949192851782,-0.0001251479989150539,0.0011854905169457197
0.009714611805975437,0.006151341367512941,-0.008839372545480728,0.002847819123417139,-0.00012301401875447482,0.0011291528353467584
0.00938640721142292,0.005891930777579546,-0.009033840149641037,0.003045705845579505,-0.00012094776320736855,0.0009069558000192046
0.00932556763291359,0.005742834880948067,-0.008456290699541569,0.0032411175779998302,-0.00011894963245140389,0.0007984389085322618
0.009400442242622375,0.006003351882100105,-0.008823081851005554,0.0031360166613012552,-0.00011722826457116753,0.0008777473703958094
0.009051620960235596,0.006478718016296625,-0.009531576186418533,0.002982750069350004,-0.0001419427862856537,0.0010830366518348455
0.010284767486155033,0.005809730384498835,-0.009631025604903698,0.002879117149859667,-0.000139401585329324,0.0014070924371480942
0.00907825119793415,0.005878514610230923,-0.009006974287331104,0.0029387040995061398,-0.00013533022138290107,0.001387859578244388
0.008430462330579758,0.005808969493955374,-0.009233077056705952,0.0031305993907153606,-0.00013138655049260706,0.0015862479340285063
0.009655432775616646,0.006318355444818735,-0.008542166091501713,0.0035506957210600376,-0.00012765941210091114,0.0014893601182848215
0.009711706079542637,0.006373276002705097,-0.008700313977897167,0.0034423605538904667,-0.00013632685295306146,0.0013786436757072806
0.00916141364723444,0.006012565456330776,-0.009445768781006336,0.003441332606598735,-0.00014414060569833964,0.001151712262071669
0.008967026136815548,0.006201585289090872,-0.00962065625935793,0.003221001010388136,-0.0001411217381246388,0.0011804846581071615
0.009410790167748928,0.006301600951701403,-0.009104494005441666,0.0029998822137713432,-0.00013757501437794417,0.0011762959184125066
0.009410790167748928,0.006301600951701403,-0.009104494005441666,0.0029998822137713432,-0.00013757501437794417,0.0011762959184125066
0.009005209431052208,0.005694783758372068,-0.00949771236628294,0.0033464424777776003,-0.0001519830693723634,0.0011583002051338553
0.010130767710506916,0.00576212489977479,-0.0086319949477911,0.0038751319516450167,-0.00014906233991496265,0.0012748104054480791
0.010130767710506916,0.00576212489977479,-0.0086319949477911,0.0038751319516450167,-0.00014906233991496265,0.0012748104054480791
0.00975694227963686,0.0060846456326544285,-0.009058043360710144,0.003977226093411446,-0.00014565997116733342,0.001228015054948628
0.009119943715631962,0.006268416531383991,-0.009761108085513115,0.003779516089707613,-0.0001423709181835875,0.0012188805267214775
0.0096455542370677,0.006303742527961731,-0.009239248931407928,0.003493427997455001,-0.00015437490947078913,0.001103056245483458
0.009787151589989662,0.006069167982786894,-0.009691811166703701,0.003966099116951227,-0.00015229401469696313,0.0010739569552242756
0.00999973714351654,0.005912027787417173,-0.009137690998613834,0.004137309733778238,-0.00014921528054401278,0.0009806748712435365
0.009957614354789257,0.0063154385425150394,-0.009426675736904144,0.004284498281776905,-0.00014630024088546634,0.0008109360933303833
0.009570037014782429,0.006989656016230583,-0.010008741170167923,0.003795526921749115,-0.0002194841072196141,0.0008044422720558941
0.00991612859070301,0.006140678655356169,-0.009779127314686775,0.0034474306739866734,-0.0002142818266293034,0.0008157568518072367
0.010175453498959541,0.005901131313294172,-0.00991396140307188,0.003444635309278965,-0.00020486750872805715,0.0008118563564494252
0.009347694925963879,0.006280042231082916,-0.009867338463664055,0.0036346788983792067,-0.00019596642232500017,0.0008285749354399741
0.009433564729988575,0.006401261314749718,-0.009263289161026478,0.0039088111370801926,-0.00018778807134367526,0.0008950349874794483
0.009901105426251888,0.006408587098121643,-0.009014024399220943,0.0043550292029976845,-0.00021386452135629952,0.0009708832367323339
0.009725062176585197,0.006429554894566536,-0.010033060796558857,0.004057991784065962,-0.0002078236429952085,0.0009121491457335651
0.009545300155878067,0.005871757864952087,-0.009964966215193272,0.004298171494156122,-0.00020025855337735265,0.001017760718241334
0.010033749043941498,0.006115690339356661,-0.010456372983753681,0.004151767119765282,-0.0001931055448949337,0.0008601974113844335
0.009446118958294392,0.00662372587248683,-0.009850176982581615,0.004099121317267418,-0.00020943146955687553,0.0007237173849716783
0.010497065261006355,0.006674677599221468,-0.009341638535261154,0.0040188864804804325,-0.00020972378842998296,0.0007299546268768609
0.010042796842753887,0.006333569530397654,-0.008967090398073196,0.004036778584122658,-0.00020342582138255239,0.0006555696600116789
0.009417294524610043,0.00629236688837409,-0.010099793784320354,0.004371542017906904,-0.00019709207117557526,0.0005853212205693126
0.010293861851096153,0.006568703800439835,-0.010085188783705235,0.0042510321363806725,-0.00021657803154084831,0.0005280543700791895
0.00988368783146143,0.006724752020090818,-0.009585829451680183,0.0039499904960393906,-0.000211865539313294,0.0005500295083038509
0.009174089878797531,0.0064376844093203545,-0.010003991425037384,0.0038057337515056133,-0.00020591427164617926,0.0005144680035300553
0.009849218651652336,0.005996156949549913,-0.00987577810883522,0.0037978030741214752,-0.00025791238294914365,0.0004761673044413328
0.009849218651652336,0.005996156949549913,-0.00987577810883522,0.0037978030741214752,-0.00025791238294914365,0.0004761673044413328
0.010244951583445072,0.00605742959305644,-0.008888163603842258,0.00421448377892375,-0.0002520217967685312,0.000497342727612704
0.009558307006955147,0.006601973436772823,-0.009752833284437656,0.004778342787176371,-0.0002694462309591472,0.0004012904828414321
0.009558307006955147,0.006601973436772823,-0.009752833284437656,0.004778342787176371,-0.0002694462309591472,0.0004012904828414321
0.01016188133507967,0.00632800068706274,-0.009557067416608334,0.00471886619925499,-0.00025926713715307415,0.00033297057962045074
0.009609246626496315,0.0060724918730556965,-0.009713529609143734,0.004438519943505526,-0.00027479141135700047,0.000287797738565132
0.00974432285875082,0.0067695132456719875,-0.009242826141417027,0.004943761043250561,-0.00026447916752658784,0.0003208185371477157
0.009519966319203377,0.007052807603031397,-0.009736898355185986,0.004611867945641279,-0.00028533898876048625,0.00030591952963732183
0.00980127789080143,0.00672509241849184,-0.009509870782494545,0.004564893431961536,-0.00027861641137860715,0.00033150435774587095
0.010237006470561028,0.005968972109258175,-0.009199476800858974,0.004328944720327854,-0.00026850728318095207,0.0003203761007171124
0.009249639697372913,0.006460912059992552,-0.009464236907660961,0.0045279813930392265,-0.0003214529133401811,0.000305225228657946
0.009626788087189198,0.006597074680030346,-0.00913211703300476,0.004521687049418688,-0.00035573734203353524,0.00029114127391949296
0.009915265254676342,0.0063966005109250546,-0.009775162674486637,0.004564408678561449,-0.0003332916821818799,0.00031272185151465237
0.009629451669752598,0.0058977375738322735,-0.00994317140430212,0.0047324649058282375,-0.0003562039928510785,0.0003042302269022912
0.009587327018380165,0.006158000789582729,-0.00927247479557991,0.004368814639747143,-0.0003475169069133699,0.00029219131101854146
0.009645713493227959,0.006053886376321316,-0.008849212899804115,0.004361681640148163,-0.00032737283618189394,0.0002808133140206337
0.009500272572040558,0.006611148361116648,-0.009624393656849861,0.004746359307318926,-0.00033377192448824644,0.00027027149917557836
0.00973845086991787,0.006755189038813114,-0.010156210511922836,0.0048304833471775055,-0.00033895907108671963,0.000260492175584659
0.00981749314814806,0.0061257281340658665,-0.009427378885447979,0.004709798377007246,-0.0003230853471904993,0.00025139556964859366
0.009670964442193508,0.005976337008178234,-0.009324789978563786,0.004515320528298616,-0.00030741491355001926,0.0002429125306662172
0.010888975113630295,0.006622126325964928,-0.009216736070811749,0.004580729641020298,-0.00032938329968601465,0.00023498448717873544
0.01005543302744627,0.0068429140374064445,-0.009173785336315632,0.004678248893469572,-0.000319726241286844,0.00022755659301765263
0.009355422109365463,0.00642240047454834,-0.0094726188108325,0.004481066949665546,-0.00030644042999483645,0.00022058469767216593
0.009663054719567299,0.0060477470979094505,-0.009714811109006405,0.00458395155146718,-0.000294916913844645,0.00021262175869196653
0.010136821307241917,0.006522542331367731,-0.008997997269034386,0.004446055740118027,-0.00031721938285045326,0.00020318463793955743
0.009280356578528881,0.006959489081054926,-0.009034211747348309,0.00473212031647563,-0.0002989593194797635,0.00019441504264250398
0.009714043699204922,0.0063444809056818485,-0.01035116333514452,0.004752354230731726,-0.0003077894216403365,0.00018636262393556535
0.01007550023496151,0.006390770897269249,-0.008962122723460197,0.00436709588393569,-0.0003149723634123802,0.000178950242116116
0.01007550023496151,0.006390770897269249,-0.008962122723460197,0.00436709588393569,-0.0003149723634123802,0.000178950242116116
0.009633426554501057,0.006617188453674316,-0.010060789994895458,0.004482566379010677,-0.0002991633955389261,0.00017210512305609882
0.00979963131248951,0.006923352368175983,-0.009202168323099613,0.0051907808519899845,-0.00031350358040072024,0.00015987457300070673
0.00949322059750557,0.006629128474742174,-0.008932688273489475,0.005115257576107979,-0.00029932070174254477,0.00015438861737493426
0.010490301065146923,0.006323682144284248,-0.009388751350343227,0.00478338822722435,-0.0002857849467545748,0.00014926718722563237
0.010057547129690647,0.006077300291508436,-0.009224196895956993,0.004637794103473425,-0.0003097733424510807,0.00014447429566644132
0.009736777283251286,0.006174420937895775,-0.009095722809433937,0.004669785965234041,-0.00029926831484772265,0.00013997976202517748
0.010361462831497192,0.00625573517754674,-0.010454574599862099,0.004988350905478001,-0.0002874722413253039,0.00011564909073058516
0.010202497243881226,0.006074831821024418,-0.009748999029397964,0.0052137537859380245,-0.000276442791800946,0.00010588427539914846
0.010824319906532764,0.005761745385825634,-0.009213573299348354,0.005237956997007132,-0.0003074199485126883,0.00010245494195260108
0.011868760921061039,0.005280795507133007,-0.009255706332623959,0.004968016874045134,-0.00030096271075308323,9.95930822682567e-05
0.012113265693187714,0.005409187637269497,-0.009398818016052246,0.005114287603646517,-0.00028295328957028687,9.691007289802656e-05
0.012210218235850334,0.005874155554920435,-0.009082618169486523,0.005188104696571827,-0.00026626369799487293,9.436938853468746e-05
0.011970511637628078,0.00590254133567214,-0.009312964975833893,0.005169674754142761,-0.0002948851033579558,9.195883467327803e-05
0.011932081542909145,0.0058290050365030766,-0.009791827760636806,0.005278661847114563,-0.0002852556935977191,8.96681594895199e-05
0.012887373566627502,0.0057949223555624485,-0.008990948088467121,0.005154895130544901,-0.0002713085268624127,8.74890320119448e-05
0.011492491699755192,0.006170967593789101,-0.009529612958431244,0.00503333006054163,-0.0002901356783695519,8.541315037291497e-05
0.0122357327491045,0.005988276097923517,-0.00915179867297411,0.0050346581265330315,-0.00028690884937532246,6.396939716069028e-05
0.012593158520758152,0.005731206852942705,-0.009260662831366062,0.005041785538196564,-0.0002750338753685355,6.12487128819339e-05
0.012388160452246666,0.0055742100812494755,-0.008988282643258572,0.005745024885982275,-0.00029139284742996097,5.980904825264588e-05
0.012491523288190365,0.006130560766905546,-0.009568403474986553,0.005379719194024801,-0.0002884833957068622,5.85075504204724e-05
0.012276030145585537,0.00571930268779397,-0.0091197919100523,0.004716940224170685,-0.00027791905449703336,-5.120958303450607e-05
0.012650908902287483,0.005909088999032974,-0.009120290167629719,0.004833949729800224,-0.0002676252624951303,-6.419828423531726e-05
0.012283414602279663,0.005568475928157568,-0.009549197740852833,0.004973852541297674,-0.0002580347645562142,-8.622664608992636e-05
0.012784910388290882,0.005878333933651447,-0.009441780857741833,0.005105436313897371,-0.00026982746203429997,-9.075382695300505e-05
0.012784910388290882,0.005878333933651447,-0.009441780857741833,0.005105436313897371,-0.00026982746203429997,-9.075382695300505e-05
0.012801047414541245,0.005654982291162014,-0.009630685672163963,0.005318135488778353,-0.0002591195807326585,-0.00011208913201699033
0.012801047414541245,0.005654982291162014,-0.009630685672163963,0.005318135488778353,-0.0002591195807326585,-0.00011208913201699033
0.012533959932625294,0.0057577756233513355,-0.00889596063643694,0.005462658125907183,-0.00023242970928549767,-0.0001330996456090361
0.012930420227348804,0.005639588925987482,-0.011460891924798489,0.005436341278254986,-0.0002592847740743309,-0.0004695974930655211
0.011969905346632004,0.005650162696838379,-0.01060557458549738,0.005441824905574322,-0.00025240666582249105,-0.0005554247181862593
0.012825286015868187,0.006174180656671524,-0.009887589141726494,0.005786026827991009,-0.00024146078794728965,-0.0005740594351664186
0.012830931693315506,0.006036351900547743,-0.010467477142810822,0.005879459902644157,-0.0002311452990397811,-0.0005442739347927272
0.012782642617821693,0.005816651042550802,-0.010777506045997143,0.005307184532284737,-0.00022165676637087017,-0.000568817718885839
0.012651637196540833,0.006108264904469252,-0.011447960510849953,0.005102464463561773,-0.00024367732112295926,-0.0006475420668721199
0.013320811092853546,0.005578050389885902,-0.01126789953559637,0.005031281150877476,-0.00023866868286859244,-0.0007603264530189335
0.013206557370722294,0.005966236814856529,-0.01011156290769577,0.005757451057434082,-0.0002302217617398128,-0.0007988358847796917
0.01302681677043438,0.005962979048490524,-0.01086401380598545,0.005688656587153673,-0.00022212146723177284,-0.0008188263163901865
0.013315517455339432,0.006239810958504677,-0.010916417464613914,0.005478714592754841,-0.0002145571052096784,-0.0011311734560877085
0.01311597228050232,0.005855285096913576,-0.01034165732562542,0.0051717087626457214,-0.0002074898948194459,-0.0011288970708847046
0.01341529656201601,0.005630042403936386,-0.011176775209605694,0.005256995093077421,-0.00020087325538042933,-0.00109435326885432
0.01290857419371605,0.005786368157714605,-0.011066454462707043,0.005483267828822136,-0.00021525729971472174,-0.0010070049902424216
0.013542377389967442,0.0059447684325277805,-0.01064613088965416,0.005727575626224279,-0.00021533500694204122,-0.0010381151223555207
0.012718429788947105,0.005943437106907368,-0.011454025283455849,0.005714181810617447,-0.00020949494501110166,-0.0010625130962580442
0.013206679373979568,0.005770948715507984,-0.010769643820822239,0.005518619436770678,-0.00020359821792226285,-0.001059089438058436
0.01314571313560009,0.006014324724674225,-0.010824901051819324,0.00552400853484869,-0.00021033347002230585,-0.0015344525454565883
0.013384925201535225,0.005613291636109352,-0.011294501833617687,0.005485060159116983,-0.00020286627113819122,-0.0016425130888819695
0.013414537534117699,0.005968473386019468,-0.010573028586804867,0.005999693181365728,-0.0001942396629601717,-0.002009379444643855
0.013458414003252983,0.006210047286003828,-0.011500915512442589,0.006183796562254429,-0.00018620904302224517,-0.0018854867666959763
0.013577804900705814,0.005566206760704517,-0.010973140597343445,0.00578458933159709,-0.00017880936502479017,-0.0017330525442957878
0.013251670636236668,0.005817581433802843,-0.010896895080804825,0.005889349151402712,-0.0002040340768871829,-0.0014723904896527529
0.013466631062328815,0.006015273742377758,-0.011683869175612926,0.005648762919008732,-0.0001986191637115553,-0.0014762314967811108
0.01302818488329649,0.006199957337230444,-0.011423003859817982,0.006080065853893757,-0.00019170413725078106,-0.0015784770948812366
0.013807416893541813,0.006172166671603918,-0.011599119752645493,0.0058076572604477406,-0.0001851395209087059,-0.001665264368057251
0.013409820385277271,0.005737775471061468,-0.011208755895495415,0.005929680075496435,-0.00017900204693432897,-0.0022996345069259405
0.013409820385277271,0.005737775471061468,-0.011208755895495415,0.005929680075496435,-0.00017900204693432897,-0.0022996345069259405
0.013567844405770302,0.005701414309442043,-0.011326816864311695,0.005573722533881664,-0.0001956005726242438,-0.002879105042666197
0.0140296071767807,0.006355996243655682,-0.010946233756840229,0.005870003718882799,-0.00018992825062014163,-0.00262960116378963
0.013868238776922226,0.00681099109351635,-0.011107047088444233,0.006055326666682959,-0.0001843836798798293,-0.00220095319673419
0.013854932971298695,0.005930631421506405,-0.01108029205352068,0.005964310839772224,-0.00017914119234774262,-0.0020225662738084793
0.013651289977133274,0.005830185022205114,-0.010719293728470802,0.005781345535069704,-0.0001864047080744058,-0.001909216633066535
0.014165990054607391,0.005844988394528627,-0.011069250293076038,0.005946995224803686,-0.0001928883430082351,-0.0020898303482681513
0.013848679140210152,0.006408874876797199,-0.010922861285507679,0.006453216541558504,-0.00018858576368074864,-0.00216110423207283
0.014073317870497704,0.006424248684197664,-0.011113886721432209,0.006483084987848997,-0.0001838198077166453,-0.002183105330914259
0.013947213999927044,0.005426277406513691,-0.011221161112189293,0.006134796887636185,-0.00017924635903909802,-0.0023690746165812016
0.014237762428820133,0.0051935771480202675,-0.010633513331413269,0.006307663396000862,-0.00017489257152192295,-0.0030805545393377542
0.014010765589773655,0.005388656631112099,-0.011332087218761444,0.00579767907038331,-0.0001971796591533348,-0.0036246248055249453
0.014357751235365868,0.006095433607697487,-0.010554679669439793,0.006894284393638372,-0.0001974152837647125,-0.0037727761082351208
0.014219271019101143,0.005717399064451456,-0.01063986774533987,0.006940812338143587,-0.0001896740577649325,-0.0034789557103067636
0.014361322857439518,0.005216806661337614,-0.011556302197277546,0.0064423042349517345,-0.00019985168182756752,-0.0030581566970795393
0.014276097528636456,0.005217018537223339,-0.010861913673579693,0.006212012376636267,-0.00020873920584563166,-0.00285804970189929
0.014523501507937908,0.005503795575350523,-0.01048450730741024,0.006371874827891588,-0.0002020151587203145,-0.0029598167166113853
0.014307818375527859,0.0055560884065926075,-0.01154391374439001,0.006767849903553724,-0.00021070221555419266,-0.0032477928325533867
0.014869198203086853,0.006202174816280603,-0.010989120230078697,0.006459658499807119,-0.00021827439195476472,-0.003573087276890874
0.01461559347808361,0.005595865659415722,-0.011041327379643917,0.006296179257333279,-0.00021190369443502277,-0.0036612844560295343
0.014653236605226994,0.005249652545899153,-0.011047936044633389,0.0062529039569199085,-0.000219432869926095,-0.003418440232053399
0.014550813473761082,0.00537248607724905,-0.010854622349143028,0.006689816247671843,-0.00022600521333515644,-0.0033143346663564444
0.01505717821419239,0.005621122196316719,-0.011458885855972767,0.00678240368142724,-0.00021997907606419176,-0.0030613369308412075
0.014648874290287495,0.0057895793579518795,-0.010970760136842728,0.006525328848510981,-0.00028643777477554977,-0.0031811995431780815
0.014981536194682121,0.006211814936250448,-0.011191469617187977,0.006183679681271315,-0.00033357509528286755,-0.0032939224038273096
0.01481577567756176,0.005643882788717747,-0.011226486414670944,0.006529782898724079,-0.0003147188399452716,-0.003536093980073929
0.015159533359110355,0.005679077468812466,-0.01069367490708828,0.006885404698550701,-0.00034529619733802974,-0.0037537605967372656
0.014296387322247028,0.005578251555562019,-0.011342838406562805,0.006655511911958456,-0.00033108616480603814,-0.0037966244854032993
0.014296387322247028,0.005578251555562019,-0.011342838406562805,0.006655511911958456,-0.00033108616480603814,-0.0037966244854032993
0.014606432989239693,0.006041903514415026,-0.010809839703142643,0.006316456478089094,-0.00034430521191097796,-0.0036111376248300076
0.015349735505878925,0.0053303902968764305,-0.011183863505721092,0.0070289927534759045,-0.0003494184638839215,-0.0037892318796366453
0.01486420538276434,0.0046718427911400795,-0.010675019584596157,0.007331308908760548,-0.0003533661365509033,-0.003489653579890728
0.015416912734508514,0.004871566779911518,-0.011218185536563396,0.006827459670603275,-0.00034005651832558215,-0.003539837198331952
0.015171132050454617,0.005379474256187677,-0.011342869140207767,0.00634528836235404,-0.0004305462643969804,-0.0036730074789375067
0.015156939625740051,0.005386180244386196,-0.010266916826367378,0.00710532208904624,-0.00043902514153160155,-0.0037951942067593336
0.015169212594628334,0.005242104176431894,-0.011193917132914066,0.00747631024569273,-0.00043897773139178753,-0.004251520149409771
0.015659958124160767,0.004902730695903301,-0.011210069060325623,0.006802394986152649,-0.00046684491098858416,-0.004190977197140455
0.015631912276148796,0.0047796680592000484,-0.011020319536328316,0.0065468973480165005,-0.00044221733696758747,-0.004000579006969929
0.016073334962129593,0.005041858181357384,-0.011055351234972477,0.006674007512629032,-0.000457184505648911,-0.004210434854030609
0.01596084050834179,0.004916465375572443,-0.010843507945537567,0.00754499901086092,-0.00044268518104217947,-0.004080343525856733
0.015455299988389015,0.005274735391139984,-0.011436834000051022,0.0071334331296384335,-0.0005512867355719209,-0.004205993842333555
0.015900690108537674,0.005609083920717239,-0.011824321001768112,0.006370549090206623,-0.0005487555754370987,-0.004207502119243145
0.0151212802156806,0.005180610343813896,-0.01152742002159357,0.0063634999096393585,-0.0005378969362936914,-0.004499926697462797
0.01564490981400013,0.005181755870580673,-0.01149003952741623,0.00725098280236125,-0.0005517820827662945,-0.004603119101375341
0.015308459289371967,0.0049780914559960365,-0.01107949297875166,0.007188092917203903,-0.0005245432839728892,-0.004538334906101227
0.015792537480592728,0.0048684789799153805,-0.011348883621394634,0.006557385437190533,-0.0005362437223084271,-0.004629496019333601
0.015877962112426758,0.005353903863579035,-0.011723090894520283,0.00613913731649518,-0.0005138455890119076,-0.004166843369603157
0.016274569556117058,0.005025638733059168,-0.011402258649468422,0.006569592282176018,-0.0005261273472569883,-0.003903849981725216
0.015872729942202568,0.00504131056368351,-0.012107070535421371,0.007337921764701605,-0.000511901977006346,-0.004301346838474274
0.015254657715559006,0.005385213531553745,-0.011523343622684479,0.007385557051748037,-0.0005298300529830158,-0.004575676750391722
0.016050368547439575,0.004851651843637228,-0.011903895065188408,0.0069335829466581345,-0.0005015598144382238,-0.0045206304639577866
0.016145095229148865,0.0049977549351751804,-0.010616188868880272,0.006997652351856232,-0.0005313890287652612,-0.004859037231653929
0.016107182949781418,0.005393067374825478,-0.01243601180613041,0.007486401125788689,-0.0005462748813442886,-0.004849759396165609
0.016107182949781418,0.005393067374825478,-0.01243601180613041,0.007486401125788689,-0.0005462748813442886,-0.004849759396165609
0.015743505209684372,0.0051509663462638855,-0.012455636635422707,0.0070684016682207584,-0.0005229864618740976,-0.0046797022223472595
0.016597718000411987,0.004790726117789745,-0.011327077634632587,0.006869940552860498,-0.000488553021568805,-0.004470007959753275
0.016496386379003525,0.004782191477715969,-0.011797243729233742,0.00722197862342,-0.0004932492738589644,-0.00522323464974761
0.016485247761011124,0.0047630914486944675,-0.011535042896866798,0.007674029096961021,-0.00048817042261362076,-0.005222920328378677
0.01660250872373581,0.005250144749879837,-0.011891867965459824,0.007172813639044762,-0.00048321738722734153,-0.005013894289731979
0.01685441844165325,0.005056736990809441,-0.01176273450255394,0.006988288834691048,-0.00044583354610949755,-0.005148892756551504
0.016371184960007668,0.005185912828892469,-0.012045282870531082,0.00754341296851635,-0.00041195956873707473,-0.005158367566764355
0.016987299546599388,0.005360066890716553,-0.01164510939270258,0.007686309516429901,-0.0004420559271238744,-0.004576378967612982
0.01665319874882698,0.00488987285643816,-0.01139118429273367,0.007205812260508537,-0.000416674796724692,-0.004898217041045427
0.016838453710079193,0.0049818879924714565,-0.012238546274602413,0.006858070380985737,-0.00039105117321014404,-0.004843614995479584
0.017006170004606247,0.005475712474435568,-0.011787948198616505,0.007480198983103037,-0.00041715396218933165,-0.004955960437655449
0.016713520511984825,0.005111644975841045,-0.012251983396708965,0.007486814167350531,-0.00039731888682581484,-0.004922998603433371
0.017159532755613327,0.005127978976815939,-0.012028995901346207,0.007461760193109512,-0.00037673162296414375,-0.0047674719244241714
0.017004702240228653,0.00497288117185235,-0.012343916110694408,0.007070921827107668,-0.00035801553167402744,-0.004971207585185766
0.017118288204073906,0.004901085048913956,-0.011809860356152058,0.007367847952991724,-0.00033306024852208793,-0.005019848234951496
0.017214111983776093,0.005470313597470522,-0.011406878009438515,0.007893192581832409,-0.00031018914887681603,-0.005048155784606934
0.017037784680724144,0.005244909320026636,-0.012346270494163036,0.007419734727591276,-0.0003441660664975643,-0.005383738316595554
0.01750575564801693,0.004920528270304203,-0.011629913002252579,0.0071834078989923,-0.00032684809411875904,-0.005164663307368755
0.017105964943766594,0.005104172509163618,-0.012389685958623886,0.0074515147134661674,-0.0003084034251514822,-0.005169122014194727
0.016953174024820328,0.0050795855931937695,-0.011824404820799828,0.007599746808409691,-0.0003154538571834564,-0.0050851390697062016
0.01738041453063488,0.004882690962404013,-0.011891258880496025,0.00753475958481431,-0.00032129528699442744,-0.005324401427060366
0.01742168329656124,0.005270340014249086,-0.012398118153214455,0.00772465905174613,-0.00030706627876497805,-0.005564510356634855
0.017604274675250053,0.005218325182795525,-0.011687260121107101,0.007711068727076054,-0.00029288113000802696,-0.00546256173402071
0.017286788672208786,0.005275266710668802,-0.012236847542226315,0.008130233734846115,-0.0002798721252474934,-0.0056199803948402405
0.0176033116877079,0.00534517178311944,-0.012320010922849178,0.008208201266825199,-0.0002679660974536091,-0.005168138537555933
0.017692137509584427,0.00492108054459095,-0.012749768793582916,0.00798808503895998,-0.0002888562739826739,-0.005309983156621456
0.017692137509584427,0.00492108054459095,-0.012749768793582916,0.00798808503895998,-0.0002888562739826739,-0.005309983156621456
0.01761152409017086,0.0049573821015655994,-0.012470116838812828,0.008183233439922333,-0.00028191343881189823,-0.005538459867238998
0.017847122624516487,0.005547741428017616,-0.011861694976687431,0.008252540603280067,-0.00027156437863595784,-0.005706734023988247
0.017852939665317535,0.005592536646872759,-0.012198549695312977,0.008529817685484886,-0.0002716214512474835,-0.005561957135796547
0.017978087067604065,0.005138551816344261,-0.01300975400954485,0.008106810972094536,-0.0002625003398861736,-0.005284583196043968
0.017545364797115326,0.0054417140781879425,-0.01321069523692131,0.007976233027875423,-0.0002484429569449276,-0.00517712626606226
0.018185202032327652,0.005185702815651894,-0.012705663219094276,0.0077146622352302074,-0.00023546697048004717,-0.005632572807371616
0.01781669445335865,0.005436460953205824,-0.01318768598139286,0.008015069179236889,-0.0002567804476711899,-0.005617639981210232
0.017885945737361908,0.005674971733242273,-0.013025248423218727,0.008703350089490414,-0.00025502018979750574,-0.00585391977801919
0.018390590324997902,0.005057219415903091,-0.01318368036299944,0.008158239535987377,-0.00024416507221758366,-0.005464988294988871
0.018918486312031746,0.004789595492184162,-0.012264057993888855,0.00827747955918312,-0.00023364239314105362,-0.005931398831307888
0.018800903111696243,0.005236233118921518,-0.013175133615732193,0.008753680624067783,-0.00022395329142455012,-0.00619601970538497
0.018703259527683258,0.005185259040445089,-0.012575877830386162,0.008644706569612026,-0.00024152804689947516,-0.006069780793040991
0.01816539838910103,0.005382395815104246,-0.013347962871193886,0.008329766802489758,-0.00024065334582701325,-0.0061595444567501545
0.018101327121257782,0.005411385092884302,-0.012956573627889156,0.009033962152898312,-0.00023232368403114378,-0.005781533662229776
0.018481209874153137,0.005534034688025713,-0.013407787308096886,0.008966694585978985,-0.00022409412486013025,-0.0060440171509981155
0.01862240955233574,0.00524543784558773,-0.012835194356739521,0.008683841675519943,-0.00021639798069372773,-0.00615757517516613
0.019239069893956184,0.005002922378480434,-0.01274622231721878,0.009006613865494728,-0.00020921087707392871,-0.006328452378511429
0.01883016899228096,0.0058141532354056835,-0.013380593620240688,0.00888223946094513,-0.00020248620421625674,-0.006466245278716087
0.018182985484600067,0.005714558530598879,-0.01332433894276619,0.00883722398430109,-0.00019618013175204396,-0.006297818385064602
0.019284270703792572,0.005760518833994865,-0.013215353712439537,0.008570363745093346,-0.0001902551157400012,-0.006508651189506054
0.01944689080119133,0.005231212358921766,-0.012643815018236637,0.008933897130191326,-0.00020757516904268414,-0.006663956679403782
0.019047392532229424,0.0054290457628667355,-0.013362905010581017,0.008967122994363308,-0.0002048209571512416,-0.006699621677398682
0.019255569204688072,0.005129215773195028,-0.013288256712257862,0.0085327522829175,-0.00019935559248551726,-0.006510297767817974
0.019802233204245567,0.005924745928496122,-0.013773612678050995,0.008445332758128643,-0.00019399711163714528,-0.006393773015588522
0.01818387396633625,0.005426077637821436,-0.012938474304974079,0.008888802491128445,-0.0001889077393570915,-0.006198368966579437
0.01874431036412716,0.005296502262353897,-0.013405129313468933,0.008457666262984276,-0.00018766618450172246,-0.006387872155755758
0.0196053609251976,0.005403002258390188,-0.013213109225034714,0.009267795830965042,-0.0001836313313106075,-0.006686155218631029
0.0196053609251976,0.005403002258390188,-0.013213109225034714,0.009267795830965042,-0.0001836313313106075,-0.006686155218631029
0.02003256231546402,0.005350238177925348,-0.013268412090837955,0.008998926728963852,-0.00018664619710762054,-0.0066064754500985146
0.019173771142959595,0.005624399520456791,-0.013412874191999435,0.009812804870307446,-0.00018959317822009325,-0.007039383519440889
0.019173771142959595,0.005624399520456791,-0.013412874191999435,0.009812804870307446,-0.00018959317822009325,-0.007039383519440889
0.01985936611890793,0.005182384978979826,-0.013583858497440815,0.009222464635968208,-0.0002116999530699104,-0.007098544854670763
0.02002202346920967,0.0052292547188699245,-0.013773570768535137,0.009057082235813141,-0.00022109816200099885,-0.007345958147197962
0.01961309090256691,0.005343081895262003,-0.012929788790643215,0.009234737604856491,-0.00022778823040425777,-0.007320279721170664
0.020027710124850273,0.005776091478765011,-0.013561386615037918,0.00971345417201519,-0.00034836289705708623,-0.007454737555235624
0.01998346671462059,0.00585513561964035,-0.013339342549443245,0.009277569130063057,-0.000474723638035357,-0.007453540805727243
0.019539818167686462,0.00528815109282732,-0.012744502164423466,0.00982059258967638,-0.0004787365032825619,-0.007178803440183401
0.020023945719003677,0.005696894135326147,-0.013520943000912666,0.009243456646800041,-0.0005110453348606825,-0.007795989513397217
0.020487790927290916,0.00531106349080801,-0.01446946058422327,0.009141030721366405,-0.0005358506459742785,-0.00828794576227665
0.020170986652374268,0.005501418374478817,-0.013500562869012356,0.010095331817865372,-0.0005070845363661647,-0.008344116620719433
0.01972811110317707,0.005579111631959677,-0.013666719198226929,0.009780715219676495,-0.0007038160692900419,-0.00833185389637947
0.02036849409341812,0.005606282968074083,-0.01333936583250761,0.00924078281968832,-0.0007399932364933193,-0.008058927021920681
0.020630614832043648,0.005261754617094994,-0.014074528589844704,0.010325342416763306,-0.0007600655662827194,-0.00840878114104271
0.02037825435400009,0.005790499970316887,-0.013857509009540081,0.010082204826176167,-0.0007686854223720729,-0.00797430519014597
0.02036094106733799,0.0053426469676196575,-0.014014774933457375,0.009179764427244663,-0.0008088181493803859,-0.008576804772019386
0.02066492848098278,0.005410370882600546,-0.014104018919169903,0.009470704942941666,-0.0008468421292491257,-0.00839240662753582
0.0203920416533947,0.00544085493311286,-0.014235439710319042,0.009485282935202122,-0.0007931312429718673,-0.008404496125876904
0.020363813266158104,0.005100545473396778,-0.014078374020755291,0.009330219589173794,-0.0007948122802190483,-0.007924549281597137
0.020775239914655685,0.005495430901646614,-0.014251592569053173,0.009558171033859253,-0.0007926934631541371,-0.008047188632190228
0.020775239914655685,0.005495430901646614,-0.014251592569053173,0.009558171033859253,-0.0007926934631541371,-0.008047188632190228
0.02088501863181591,0.0052607241086661816,-0.014293167740106583,0.009712867438793182,-0.0007354568224400282,-0.008260727860033512
0.020828917622566223,0.005468717310577631,-0.013974343426525593,0.009729258716106415,-0.0006322173285298049,-0.008140990510582924
0.020871011540293694,0.0058045051991939545,-0.014213262125849724,0.009891705587506294,-0.0006590315024368465,-0.008219446986913681
0.020722562447190285,0.005426217336207628,-0.014090124517679214,0.009639153257012367,-0.0006655926699750125,-0.007761999499052763
0.020410694181919098,0.005069112870842218,-0.013742505572736263,0.009306460618972778,-0.00062237010570243,-0.008166618645191193
0.020931528881192207,0.005124955903738737,-0.01402010302990675,0.00975831039249897,-0.0005677064182236791,-0.007825515232980251
0.020931528881192207,0.005124955903738737,-0.01402010302990675,0.00975831039249897,-0.0005677064182236791,-0.007825515232980251
0.020726392045617104,0.005519012920558453,-0.014232787303626537,0.009562072344124317,-0.0005493987700901926,-0.007842266000807285
0.020612027496099472,0.004989941604435444,-0.014080039225518703,0.009642938151955605,-0.0005130338249728084,-0.008176528848707676
0.021169036626815796,0.005274339113384485,-0.014468669891357422,0.009285945445299149,-0.0004913011798635125,-0.008206306956708431
0.021864058449864388,0.005679289810359478,-0.014067484997212887,0.009192267432808876,-0.0004449224506970495,-0.008350085467100143
0.021095696836709976,0.00526195066049695,-0.014262283220887184,0.009556513279676437,-0.0004049787821713835,-0.008129002526402473
0.021158313378691673,0.005805368535220623,-0.014073804952204227,0.00984000600874424,-0.0004405311483424157,-0.008218360133469105
0.020624784752726555,0.005227569490671158,-0.01431901752948761,0.00995580293238163,-0.000411447137594223,-0.008479184471070766
0.020624784752726555,0.005227569490671158,-0.01431901752948761,0.00995580293238163,-0.000411447137594223,-0.008479184471070766
0.020861847326159477,0.00526775186881423,-0.014518317766487598,0.010056738741695881,-0.0004087137058377266,-0.008288434706628323
0.02137753926217556,0.00536353699862957,-0.014172139577567577,0.01007595844566822,-0.00039040285628288984,-0.008281574584543705
0.021380683407187462,0.005651901476085186,-0.0142908850684762,0.010601242072880268,-0.0003680457011796534,-0.008478149771690369
0.02087860368192196,0.005568719934672117,-0.014014102518558502,0.010153369978070259,-0.00039399598608724773,-0.008383248932659626
0.0214005745947361,0.005477273371070623,-0.014680411666631699,0.010184496641159058,-0.00037641054950654507,-0.00835136417299509
0.022085532546043396,0.005136379972100258,-0.014729266054928303,0.010193520225584507,-0.00035789149114862084,-0.008836954832077026
0.02150646038353443,0.005447233095765114,-0.014851530082523823,0.009752433747053146,-0.0003464722540229559,-0.00858248583972454
0.021157491952180862,0.00501276133581996,-0.014440774917602539,0.009916217066347599,-0.00032429807470180094,-0.008984728716313839
0.02109070122241974,0.004803717602044344,-0.014383082278072834,0.009879523888230324,-0.0003026567865163088,-0.007873804308474064
0.02113734930753708,0.00494645768776536,-0.014166383072733879,0.009832873940467834,-0.000283584842691198,-0.007885614410042763
0.021286742761731148,0.00484104547649622,-0.014657475985586643,0.010439037345349789,-0.0002927383757196367,-0.008222308941185474
0.02090277336537838,0.00482393940910697,-0.014327460899949074,0.010781721211969852,-0.00030040863202884793,-0.008817256428301334
0.020117266103625298,0.00518317986279726,-0.01480584591627121,0.010330169461667538,-0.0002860580279957503,-0.00841422751545906
0.022218942642211914,0.004986893851310015,-0.014622492715716362,0.010634207166731358,-0.00027175978175364435,-0.008500287309288979
0.022180750966072083,0.004876608960330486,-0.015192277729511261,0.010575994849205017,-0.0002960865094792098,-0.008656913414597511
0.0217275433242321,0.005082537420094013,-0.015167439356446266,0.010298356413841248,-0.00028768167248927057,-0.008511512540280819
0.02152297832071781,0.004860838875174522,-0.015155086293816566,0.010523113422095776,-0.00030953175155445933,-0.008733395487070084
0.021849308162927628,0.004913132172077894,-0.015340290032327175,0.010694965720176697,-0.00030127650825306773,-0.008588913828134537
0.022199828177690506,0.00473749591037631,-0.014962393790483475,0.010320770554244518,-0.000323298794683069,-0.008860084228217602
0.02239830233156681,0.0052895438857376575,-0.015312942676246166,0.010143347084522247,-0.0003111153782811016,-0.008321341127157211
0.02239830233156681,0.0052895438857376575,-0.015312942676246166,0.010143347084522247,-0.0003111153782811016,-0.008321341127157211
0.022635238245129585,0.005020581651479006,-0.015429934486746788,0.0102115198969841,-0.0003452761739026755,-0.009002018719911575
0.022672539576888084,0.005111942999064922,-0.015300139784812927,0.010700336657464504,-0.00035445790854282677,-0.009046134538948536
0.022475924342870712,0.00487897265702486,-0.016496693715453148,0.0101249311119318,-0.00035901094088330865,-0.00942715723067522
0.02221319079399109,0.004781447816640139,-0.01517761591821909,0.010145994834601879,-0.00036495193489827216,-0.009002597071230412
0.022765811532735825,0.004996489267796278,-0.015448455698788166,0.01070309430360794,-0.0003683701215777546,-0.009389898739755154
0.02269405871629715,0.005381157621741295,-0.01506527978926897,0.010000864043831825,-0.00035181065322831273,-0.009393039159476757
0.02262021228671074,0.005178385879844427,-0.015834445133805275,0.010569926351308823,-0.0004078534839209169,-0.009114779531955719
0.022433549165725708,0.005028532352298498,-0.01535140722990036,0.010012976825237274,-0.00043649625149555504,-0.008121135644614697
0.022407231852412224,0.004884567577391863,-0.015627365559339523,0.00975981168448925,-0.00040195704787038267,-0.007506456691771746
0.022943319752812386,0.0046022310853004456,-0.015810932964086533,0.01034562848508358,-0.0003692376776598394,-0.007465020287781954
0.02323010563850403,0.004918178543448448,-0.015295627526938915,0.01073546428233385,-0.00034123327350243926,-0.007649792358279228
0.023019112646579742,0.005511278752237558,-0.01637955754995346,0.01078832894563675,-0.0003637951740529388,-0.008436446078121662
0.02305508591234684,0.005110403057187796,-0.015352391637861729,0.011036006733775139,-0.00035442825173959136,-0.008418828248977661
0.022858360782265663,0.00475246412679553,-0.01549525000154972,0.010439937934279442,-0.00033348071156069636,-0.008436838164925575
0.023443637415766716,0.004677660763263702,-0.014971666038036346,0.010132362134754658,-0.00031413431861437857,-0.008430495858192444
0.02329120971262455,0.0048297373577952385,-0.01623082160949707,0.01079276017844677,-0.0002968610788229853,-0.008486541919410229
0.02331581711769104,0.005221739411354065,-0.015456225723028183,0.010634745471179485,-0.0003159795014653355,-0.008893744088709354
0.023065704852342606,0.005602740217000246,-0.015620040707290173,0.010429386980831623,-0.00031121631036512554,-0.008326176553964615
0.02295924723148346,0.0052911206148564816,-0.015623855404555798,0.01089758425951004,-0.0002972391084767878,-0.00867260992527008
0.02295924723148346,0.0052911206148564816,-0.015623855404555798,0.01089758425951004,-0.0002972391084767878,-0.00867260992527008
0.023287253454327583,0.004990446846932173,-0.01592767983675003,0.010991894640028477,-0.00028388825012370944,-0.008950033225119114
0.02345101721584797,0.004939619917422533,-0.015276658348739147,0.01127459853887558,-0.00030780539964325726,-0.008172550238668919
0.024022480472922325,0.004887476563453674,-0.01584438979625702,0.0105982581153512,-0.00028114154702052474,-0.009043908677995205
0.024022480472922325,0.004887476563453674,-0.01584438979625702,0.0105982581153512,-0.00028114154702052474,-0.009043908677995205
0.023797230795025826,0.005431034602224827,-0.01562249194830656,0.011136290617287159,-0.0002616400015540421,-0.00920460931956768
0.023669015616178513,0.005009745713323355,-0.015412888489663601,0.012502576224505901,-0.00027779792435467243,-0.008935398422181606
0.024013344198465347,0.005056098569184542,-0.015266059897840023,0.012856981717050076,-0.00029402293148450553,-0.008820788934826851
0.024013344198465347,0.005056098569184542,-0.015266059897840023,0.012856981717050076,-0.00029402293148450553,-0.008820788934826851
0.024360505864024162,0.005390906240791082,-0.016038568690419197,0.012531833723187447,-0.0002833839680533856,-0.009366819635033607
0.023806339129805565,0.005641345400363207,-0.01553870178759098,0.0118663739413023,-0.0003074653213843703,-0.00962265394628048
0.024076886475086212,0.005739449989050627,-0.015439625829458237,0.012248280458152294,-0.00041925162076950073,-0.009294863790273666
0.02462584152817726,0.005053886212408543,-0.015379980206489563,0.011702467687427998,-0.0004881698696408421,-0.009302016347646713
0.024648046121001244,0.004773328080773354,-0.015624329447746277,0.011667449958622456,-0.0005241931066848338,-0.009297449141740799
0.024437906220555305,0.0048010521568357944,-0.015736160799860954,0.011904314160346985,-0.0005270626861602068,-0.008988547138869762
0.02397812530398369,0.005145155359059572,-0.015272126533091068,0.011819133535027504,-0.0005198946455493569,-0.008994541130959988
0.023587578907608986,0.0055380105040967464,-0.015609308145940304,0.011883298866450787,-0.0005465089925564826,-0.009715798310935497
0.024281281977891922,0.004993270616978407,-0.015283963643014431,0.011814644560217857,-0.000618290388956666,-0.009142574854195118
0.025090470910072327,0.0045945607125759125,-0.01579124666750431,0.012047043070197105,-0.0006933933473192155,-0.00948387198150158
0.024990005418658257,0.0046701268292963505,-0.015188977122306824,0.012169343419373035,-0.0007216213271021843,-0.009650918655097485
0.024868542328476906,0.004759594332426786,-0.015764784067869186,0.011988108977675438,-0.0006937927682884037,-0.00939199049025774
0.02520609460771084,0.0048669506795704365,-0.015132496133446693,0.012468361295759678,-0.000711185741238296,-0.009360617958009243
0.0250654648989439,0.004927314352244139,-0.01595812663435936,0.012081066146492958,-0.0007499319035559893,-0.009549121372401714
0.025097791105508804,0.005259760655462742,-0.015413518063724041,0.012692764401435852,-0.000722968194168061,-0.009901581332087517
0.02510913275182247,0.005032517947256565,-0.015658419579267502,0.01209220290184021,-0.0007441762136295438,-0.0097294170409441
0.024941574782133102,0.004782285541296005,-0.015149028971791267,0.012236982583999634,-0.0007554991170763969,-0.009448877535760403
0.02501682937145233,0.004728082567453384,-0.015311859548091888,0.01259529311209917,-0.0007707636104896665,-0.009434844367206097
0.02501682937145233,0.004728082567453384,-0.015311859548091888,0.01259529311209917,-0.0007707636104896665,-0.009434844367206097
0.02549525536596775,0.004649177193641663,-0.01597018726170063,0.011965611018240452,-0.0007130199810490012,-0.009590613655745983
0.025526782497763634,0.004986427258700132,-0.015729958191514015,0.012115344405174255,-0.000715957023203373,-0.009722198359668255
0.02567056566476822,0.005556841846555471,-0.016713015735149384,0.011683614924550056,-0.000731075182557106,-0.009833584539592266
0.025660570710897446,0.005083219613879919,-0.016051100566983223,0.012518254108726978,-0.0007367407088167965,-0.009815886616706848
0.025366229936480522,0.004430542699992657,-0.01569543033838272,0.012255274690687656,-0.0006987593369558454,-0.01007095631211996
0.025300847366452217,0.004505640361458063,-0.01633347012102604,0.01247730478644371,-0.0006418516859412193,-0.009871800430119038
0.025660250335931778,0.004551643040031195,-0.015733305364847183,0.012225120328366756,-0.0006398495752364397,-0.010126312263309956
0.025907689705491066,0.004837850108742714,-0.016262417659163475,0.012983235530555248,-0.0005689640529453754,-0.010051037184894085
0.026005296036601067,0.004867236129939556,-0.016559362411499023,0.012545966543257236,-0.0005992636433802545,-0.010467923246324062
0.025870276615023613,0.0049940962344408035,-0.016597962006926537,0.013151243329048157,-0.0005886301514692605,-0.010975530371069908
0.025993455201387405,0.0044079856015741825,-0.016827741637825966,0.012766631320118904,-0.0005747202085331082,-0.010362383909523487
0.026192132383584976,0.004501944873481989,-0.016054630279541016,0.012893686071038246,-0.0005655901040881872,-0.010022144764661789
0.025332828983664513,0.004189203027635813,-0.016850491985678673,0.012947953306138515,-0.0005553645314648747,-0.01047173235565424
0.025716058909893036,0.004433460533618927,-0.016581516712903976,0.012956900522112846,-0.0005176058621145785,-0.010142399929463863
0.025808263570070267,0.0050778635777533054,-0.01721741445362568,0.013004577718675137,-0.0005066529847681522,-0.009807164780795574
0.0264553464949131,0.004838199820369482,-0.016791461035609245,0.0122456643730402,-0.0004640449769794941,-0.010705646127462387
0.026607682928442955,0.004250217694789171,-0.016467489302158356,0.012668469920754433,-0.0004211914201732725,-0.009778400883078575
0.025503475219011307,0.004280940163880587,-0.017382364720106125,0.012365062721073627,-0.00045153696555644274,-0.01056609395891428
0.026021480560302734,0.004465480335056782,-0.016096848994493484,0.012765544466674328,-0.00042500876588746905,-0.010554167442023754
0.027144379913806915,0.004588691983371973,-0.01682528294622898,0.012441663071513176,-0.00039452683995477855,-0.01052153017371893
0.026576979085803032,0.004893874749541283,-0.016900554299354553,0.012948855757713318,-0.00042062249849550426,-0.010313128121197224
0.026625212281942368,0.004435398615896702,-0.0168775524944067,0.012841097079217434,-0.00042895766091533005,-0.010461322963237762
0.02659897319972515,0.004438586067408323,-0.01585986837744713,0.012933546677231789,-0.0004295012622606009,-0.010170542635023594
0.026743482798337936,0.004448045510798693,-0.016674013808369637,0.013120068237185478,-0.00043816902325488627,-0.01075815875083208
0.026828838512301445,0.004587558098137379,-0.017584649845957756,0.012890834361314774,-0.00046832222142256796,-0.010542021133005619
0.025809386745095253,0.004720262251794338,-0.016593944281339645,0.013019345700740814,-0.00046720061800442636,-0.010602760128676891
0.025809386745095253,0.004720262251794338,-0.016593944281339645,0.013019345700740814,-0.00046720061800442636,-0.010602760128676891
0.02533673122525215,0.0047342474572360516,-0.01658899150788784,0.012469851411879063,-0.0004323542525526136,-0.010806282982230186
0.02655506692826748,0.004667348228394985,-0.0171248447149992,0.012940916232764721,-0.00045804682304151356,-0.010149418376386166
0.027238354086875916,0.004230269230902195,-0.016651274636387825,0.012759856879711151,-0.00043431867379695177,-0.01004372164607048
0.02702121064066887,0.004452234599739313,-0.01682836376130581,0.01269932184368372,-0.0004350260132923722,-0.010998791083693504
0.027225103229284286,0.004620019346475601,-0.016641052439808846,0.012340635061264038,-0.00043476265273056924,-0.010979178361594677
0.027181118726730347,0.004541195463389158,-0.017204202711582184,0.012743277475237846,-0.00047204745351336896,-0.01061710249632597
0.027350345626473427,0.004800163209438324,-0.016461797058582306,0.012633385136723518,-0.00043925835052505136,-0.010557488538324833
0.027191339060664177,0.004780588671565056,-0.01716727949678898,0.013279333710670471,-0.00045970160863362253,-0.01097261905670166
0.02748185768723488,0.004693377297371626,-0.016878683120012283,0.01296751108020544,-0.000476030952995643,-0.011215890757739544
0.027441564947366714,0.004737463314086199,-0.017207620665431023,0.013227710500359535,-0.00047385721700266004,-0.010637950152158737
0.027354175224900246,0.004698959644883871,-0.01685054413974285,0.013509268872439861,-0.0004973849281668663,-0.010819385759532452
0.02777695469558239,0.004900377709418535,-0.016886522993445396,0.014196299947798252,-0.0004723400343209505,-0.010330495424568653
0.027543021366000175,0.004701805766671896,-0.01728607341647148,0.013877330347895622,-0.0005494813667610288,-0.010526757687330246
0.027219241484999657,0.004816681612282991,-0.016557687893509865,0.013838688842952251,-0.0005724087241105735,-0.010295485146343708
0.027711451053619385,0.004781970754265785,-0.017224732786417007,0.013962488621473312,-0.0005603423924185336,-0.01029246672987938
0.027591200545430183,0.004835220519453287,-0.017259685322642326,0.014020525850355625,-0.0005837072967551649,-0.01081259734928608
0.027611935511231422,0.004734834656119347,-0.017472224310040474,0.013968901708722115,-0.0005810408620163798,-0.01140709687024355
0.028088659048080444,0.004510233178734779,-0.017614420503377914,0.014156853780150414,-0.0005698283785022795,-0.011009872891008854
0.027901915833353996,0.004411560948938131,-0.016880372539162636,0.01406248938292265,-0.0006489677471108735,-0.01111042220145464
0.028084110468626022,0.0049744476564228535,-0.017512710765004158,0.014074696227908134,-0.0006043227040208876,-0.01136854849755764
0.028387026861310005,0.004562728106975555,-0.01660258136689663,0.01401300448924303,-0.0006270052981562912,-0.011160033755004406
0.028079088777303696,0.004511995706707239,-0.01726224087178707,0.013927292078733444,-0.0006189726409502327,-0.011408793739974499
0.028079476207494736,0.005094055086374283,-0.01756349951028824,0.014239934273064137,-0.000601927051320672,-0.011181511916220188
0.028393028303980827,0.005098259542137384,-0.01708073541522026,0.013916155323386192,-0.0005900139221921563,-0.011056949384510517
0.028393028303980827,0.005098259542137384,-0.01708073541522026,0.013916155323386192,-0.0005900139221921563,-0.011056949384510517
0.028387870639562607,0.004833567887544632,-0.017739085480570793,0.013834415934979916,-0.0005774366436526179,-0.011007538996636868
0.028379159048199654,0.004813700448721647,-0.01742335595190525,0.013273579068481922,-0.0005717681488022208,-0.011068825609982014
0.02792954631149769,0.004693215247243643,-0.017241060733795166,0.013477841392159462,-0.0005407581338658929,-0.011689809150993824
0.028890637680888176,0.004662147257477045,-0.017646174877882004,0.013286533765494823,-0.0005748042603954673,-0.011444034986197948
0.02919384092092514,0.004717939533293247,-0.017292769625782967,0.013517219573259354,-0.0005670873797498643,-0.011234927922487259
0.028822649270296097,0.005159740336239338,-0.01774117350578308,0.01323110144585371,-0.0005555372918024659,-0.010838156566023827
0.02773875743150711,0.004779929760843515,-0.017547477036714554,0.01384482067078352,-0.0007254285737872124,-0.011038160882890224
0.028072331100702286,0.004783745855093002,-0.018035709857940674,0.013994994573295116,-0.0007562564569525421,-0.01102739293128252
0.029247086495161057,0.004733504261821508,-0.016955435276031494,0.013264440931379795,-0.000766870507504791,-0.011124924756586552
0.028468618169426918,0.004606342408806086,-0.017528342083096504,0.013705942779779434,-0.000743389711715281,-0.011262055486440659
0.02893754467368126,0.004628160037100315,-0.017961079254746437,0.013892482966184616,-0.0007133815088309348,-0.011021921411156654
0.03031131625175476,0.004919369705021381,-0.017616799101233482,0.014126121066510677,-0.0007044532685540617,-0.01171073131263256
0.02903149463236332,0.004836495965719223,-0.018336191773414612,0.013720224611461163,-0.000658767472486943,-0.0118868388235569
0.029045678675174713,0.004911467432975769,-0.017576878890395164,0.013873846270143986,-0.0006847466574981809,-0.012202052399516106
0.0288553424179554,0.004822686780244112,-0.017731593921780586,0.01444967556744814,-0.0007088880520313978,-0.012154439464211464
0.02897866629064083,0.004523886367678642,-0.01785043068230152,0.014610030688345432,-0.0006431072833947837,-0.011804752983152866
0.02951272577047348,0.00457406509667635,-0.017804421484470367,0.014283829368650913,-0.0006612713332287967,-0.011770733632147312
0.029381921514868736,0.004704361781477928,-0.018512167036533356,0.01404279563575983,-0.0007045233505778015,-0.012025462463498116
0.029042501002550125,0.005144876893609762,-0.018252626061439514,0.014151202514767647,-0.0006403904408216476,-0.011175769381225109
0.02945360168814659,0.005425434093922377,-0.017689567059278488,0.014562509953975677,-0.0006666885456070304,-0.011008325032889843
0.02940017357468605,0.004963678307831287,-0.01837204024195671,0.014903134666383266,-0.0006475195405073464,-0.011361226439476013
0.029509326443076134,0.004895280115306377,-0.01834011636674404,0.014969746582210064,-0.0006265389965847135,-0.012142239138484001
0.029641855508089066,0.004832313396036625,-0.01848996989428997,0.014294246211647987,-0.0006118887686170638,-0.011762982234358788
0.02953783981502056,0.004786098841577768,-0.01839030534029007,0.013921543024480343,-0.0005970778875052929,-0.011602985672652721
0.02902166359126568,0.004769079387187958,-0.018116023391485214,0.014265540055930614,-0.0005982143920846283,-0.011954345740377903
0.02936268039047718,0.0050973547622561455,-0.01892051100730896,0.014159570448100567,-0.0005957523244433105,-0.01212974451482296
0.029576126486063004,0.0049326554872095585,-0.019342977553606033,0.013863366097211838,-0.0005794505123049021,-0.011988159269094467
0.0299950260668993,0.004715032409876585,-0.018074210733175278,0.014215020462870598,-0.0006074398406781256,-0.01206924393773079
0.0299950260668993,0.004715032409876585,-0.018074210733175278,0.014215020462870598,-0.0006074398406781256,-0.01206924393773079
0.028758270666003227,0.005072480998933315,-0.018742650747299194,0.014625980518758297,-0.0005590105429291725,-0.011844726279377937
0.030373962596058846,0.00500745652243495,-0.01910804957151413,0.014704164117574692,-0.000581917876843363,-0.012222527526319027
0.03052102029323578,0.0047614239156246185,-0.018489018082618713,0.014713547192513943,-0.0005425121635198593,-0.012413016520440578
0.03016429767012596,0.004929308779537678,-0.019037028774619102,0.014199946075677872,-0.0005736289895139635,-0.012597525492310524
0.030055873095989227,0.005361902993172407,-0.019244641065597534,0.014233695343136787,-0.0005826210835948586,-0.01272053923457861
0.03036079742014408,0.004969213157892227,-0.018794264644384384,0.015282354317605495,-0.0005802421947009861,-0.012624946422874928
0.03143468126654625,0.004870366770774126,-0.01719389297068119,0.015378482639789581,-0.000549269316252321,-0.012717393226921558
0.030949141830205917,0.004906932823359966,-0.01949353888630867,0.015219742432236671,-0.0005687784287147224,-0.01283305510878563
0.029194053262472153,0.005340736825019121,-0.0203597042709589,0.014889861457049847,-0.0005379809881560504,-0.012466770596802235
0.02988627925515175,0.005453955382108688,-0.01984575390815735,0.01422867365181446,-0.0006053644465282559,-0.012637301348149776
0.030751459300518036,0.004767197649925947,-0.018840081989765167,0.014950093813240528,-0.000620602979324758,-0.012371030636131763
0.030632292851805687,0.0048737917095422745,-0.019680043682456017,0.014506595209240913,-0.0005787484697066247,-0.012632986530661583
0.03045833669602871,0.004998414311558008,-0.01913483813405037,0.014492479152977467,-0.0005241270991973579,-0.012574490159749985
0.03131207451224327,0.004998492076992989,-0.018739860504865646,0.013906990177929401,-0.0005517294048331678,-0.012504625134170055
0.03145504370331764,0.005653865169733763,-0.01981954835355282,0.014315246604382992,-0.0005117121618241072,-0.012240128591656685
0.03058364987373352,0.005201720166951418,-0.020524177700281143,0.014428848400712013,-0.0005364079843275249,-0.012391630560159683
0.030593695119023323,0.004773699212819338,-0.019178606569767,0.014550108462572098,-0.0005336460890248418,-0.01299811340868473
0.03166454657912254,0.004618729464709759,-0.01947072707116604,0.015492739155888557,-0.0005529821501113474,-0.012919154949486256
0.031857822090387344,0.0046949381940066814,-0.020051507279276848,0.016221782192587852,-0.0005429175216704607,-0.012699639424681664
0.031570397317409515,0.004752627108246088,-0.01968913897871971,0.016028277575969696,-0.0004959942889399827,-0.012629058212041855
0.03152450546622276,0.005359812639653683,-0.01998605765402317,0.01597246713936329,-0.0005196991842240095,-0.012910944409668446
0.03136134520173073,0.0050910888239741325,-0.02027185447514057,0.015340694226324558,-0.0004882881185039878,-0.013028515502810478
0.031369321048259735,0.004778726492077112,-0.019497796893119812,0.015446138568222523,-0.0005139413406141102,-0.013185292482376099
0.031369321048259735,0.004778726492077112,-0.019497796893119812,0.015446138568222523,-0.0005139413406141102,-0.013185292482376099
0.029960235580801964,0.004595551639795303,-0.019387340173125267,0.01545785367488861,-0.0005809584981761873,-0.013172988779842854
0.03220999240875244,0.004701812751591206,-0.020032988861203194,0.015509098768234253,-0.0005457252846099436,-0.01315534207969904
0.03227633237838745,0.005120040383189917,-0.020067812874913216,0.015196088701486588,-0.0005727110547013581,-0.013236786238849163
0.03216494619846344,0.005094557534903288,-0.020115654915571213,0.014946609735488892,-0.0005926544545218349,-0.013018145225942135
0.0324847437441349,0.005367771256715059,-0.02005685679614544,0.015346905216574669,-0.0006193298613652587,-0.013183725997805595
0.03239095211029053,0.0050361440517008305,-0.020056143403053284,0.015746498480439186,-0.0005925603327341378,-0.012894713319838047
0.03257021680474281,0.005085307639092207,-0.020041270181536674,0.015341239050030708,-0.0007278839475475252,-0.012805294245481491
0.032368436455726624,0.00537765072658658,-0.020327482372522354,0.015708163380622864,-0.0006547500961460173,-0.013204390183091164
0.0323641337454319,0.005166022572666407,-0.020109646022319794,0.015160826966166496,-0.000675050774589181,-0.013926323503255844
0.032640598714351654,0.004812608007341623,-0.019896116107702255,0.01580643653869629,-0.0006793387583456933,-0.012386282905936241
0.032525572925806046,0.00467402208596468,-0.020137034356594086,0.015789242461323738,-0.0006391820497810841,-0.012650026008486748
0.03333301469683647,0.004650804214179516,-0.01987287774682045,0.016358014196157455,-0.0006156229646876454,-0.013273822143673897
0.033035051077604294,0.00480625731870532,-0.02015519142150879,0.016516022384166718,-0.000566494301892817,-0.013737864792346954
0.032845281064510345,0.005165121518075466,-0.020618679001927376,0.01626403070986271,-0.0005982632865197957,-0.013628038577735424
0.033241789788007736,0.004898163489997387,-0.020189255475997925,0.016279926523566246,-0.0006222219089977443,-0.013572356663644314
0.03349838778376579,0.004474802874028683,-0.020002156496047974,0.01580597087740898,-0.000636619923170656,-0.013274218887090683
0.03358810395002365,0.003707361873239279,-0.02027783915400505,0.016247829422354698,-0.0006043381872586906,-0.013665822334587574
0.03340534865856171,0.0034617451019585133,-0.020191866904497147,0.0160199161618948,-0.0007117855129763484,-0.01381228119134903
0.033853013068437576,0.0036751937586814165,-0.019973186776041985,0.016442283987998962,-0.0006857560365460813,-0.013932242058217525
0.03506185859441757,0.004112748429179192,-0.02061772160232067,0.016548607498407364,-0.000655961805023253,-0.01340058445930481
0.0345693863928318,0.004116456024348736,-0.020166752859950066,0.016535554081201553,-0.0006722030229866505,-0.013491455465555191
0.031892552971839905,0.004244563169777393,-0.020042652264237404,0.016715003177523613,-0.0006604263326153159,-0.013322070240974426
0.03433423861861229,0.00453049223870039,-0.020766697824001312,0.016246622428297997,-0.0006407953915186226,-0.01343261357396841
0.034532129764556885,0.004129399079829454,-0.021731004118919373,0.016415994614362717,-0.0006476234993897378,-0.013751917518675327
0.034532129764556885,0.004129399079829454,-0.021731004118919373,0.016415994614362717,-0.0006476234993897378,-0.013751917518675327
0.03409808874130249,0.0043754419311881065,-0.020847512409090996,0.016117960214614868,-0.0006753495545126498,-0.013672035187482834
0.035201992839574814,0.004183174576610327,-0.02034963294863701,0.01672823540866375,-0.0006618163315579295,-0.013591041788458824
0.03490457311272621,0.004343192558735609,-0.020829254761338234,0.017346886917948723,-0.0006836242391727865,-0.013711116276681423
0.033928532153367996,0.004307892173528671,-0.02100658416748047,0.017123090103268623,-0.00066786864772439,-0.014060570858418941
0.03415333107113838,0.0040182992815971375,-0.020808743312954903,0.016816550865769386,-0.0007967305718921125,-0.013642925769090652
0.035252153873443604,0.004546360578387976,-0.0216665081679821,0.01603497937321663,-0.0008056986844167113,-0.014100838452577591
0.03512338921427727,0.004145746119320393,-0.021640952676534653,0.016056830063462257,-0.0007382393814623356,-0.014411062002182007
0.03530256822705269,0.004015828482806683,-0.02109517715871334,0.01665891334414482,-0.000731390027794987,-0.014593984931707382
0.03500455990433693,0.00402973173186183,-0.020798224955797195,0.016748661175370216,-0.0006832601502537727,-0.01445638108998537
0.03503559157252312,0.004050171468406916,-0.021567774936556816,0.01684993878006935,-0.0006467174971476197,-0.014196541160345078
0.035248350352048874,0.003964846022427082,-0.021831030026078224,0.016511928290128708,-0.000625290151219815,-0.014486939646303654
0.03532116115093231,0.004417781252413988,-0.02141799032688141,0.015878163278102875,-0.0006041721790097654,-0.014245579019188881
0.03578232601284981,0.00419350853189826,-0.021120017394423485,0.016519663855433464,-0.0006127585656940937,-0.013744237832725048
0.03561130911111832,0.00382489082403481,-0.021412329748272896,0.016279079020023346,-0.0005772559088654816,-0.01366075873374939
0.03546164929866791,0.004171259235590696,-0.021584203466773033,0.017104297876358032,-0.0006003305898047984,-0.014119929634034634
0.03525833040475845,0.00416156928986311,-0.02097953110933304,0.016692398115992546,-0.0005615153932012618,-0.013833536766469479
0.0353575237095356,0.004042981192469597,-0.021240463480353355,0.01646779105067253,-0.0005781749496236444,-0.014510126784443855
0.03553424030542374,0.0041055623441934586,-0.021888718008995056,0.01669914647936821,-0.0006063895998522639,-0.014407145790755749
0.036519456654787064,0.004014909267425537,-0.022221865132451057,0.01597016304731369,-0.0006241189548745751,-0.014288254082202911
0.03692404180765152,0.003985488787293434,-0.020870547741651535,0.016310565173625946,-0.0006491497624665499,-0.013909339904785156
0.03513823077082634,0.004322993103414774,-0.020957494154572487,0.01637229509651661,-0.0008256405708380044,-0.014737000688910484
0.03470489755272865,0.00444535817950964,-0.02189972996711731,0.017063207924365997,-0.0008912605117075145,-0.013514203950762749
0.03621971979737282,0.004337926395237446,-0.02207021228969097,0.017482031136751175,-0.0008960642153397202,-0.01411779597401619
0.03570656105875969,0.00404835632070899,-0.021146362647414207,0.017308278009295464,-0.0008819066570140421,-0.014478320255875587
0.036605093628168106,0.004384257365018129,-0.021270686760544777,0.017952941358089447,-0.0009053371613845229,-0.014679975807666779
0.03676803037524223,0.004225431941449642,-0.021852998062968254,0.017811328172683716,-0.0009141310583800077,-0.014442753046751022
0.035986047238111496,0.004450095817446709,-0.021844636648893356,0.018179720267653465,-0.0008455004426650703,-0.014591975137591362
0.035255733877420425,0.004563852213323116,-0.02091691456735134,0.018318908289074898,-0.0008483520359732211,-0.014107752591371536
0.035255733877420425,0.004563852213323116,-0.02091691456735134,0.018318908289074898,-0.0008483520359732211,-0.014107752591371536
0.03641362860798836,0.004563203081488609,-0.020693708211183548,0.0178399458527565,-0.000854156562127173,-0.01439609844237566
0.036623649299144745,0.004218080081045628,-0.021628927439451218,0.018387190997600555,-0.0008525879238732159,-0.01443919725716114
0.03648185729980469,0.004483567085117102,-0.021690387278795242,0.018179243430495262,-0.0008016375941224396,-0.014541921205818653
0.03651375696063042,0.0049387612380087376,-0.021124329417943954,0.01746251806616783,-0.0007580388337373734,-0.01453480590134859
0.036221250891685486,0.0049599455669522285,-0.021352024748921394,0.01704554818570614,-0.000772794708609581,-0.014448435045778751
0.035919465124607086,0.00477452902123332,-0.021132413297891617,0.01742357760667801,-0.0007816207362338901,-0.014232106506824493
0.03626590967178345,0.004499675240367651,-0.021012291312217712,0.01745925284922123,-0.0008097806130535901,-0.014101543463766575
0.03651564568281174,0.004246806260198355,-0.021325208246707916,0.017662279307842255,-0.0007195811485871673,-0.014310730621218681
0.036847200244665146,0.004898382816463709,-0.021100768819451332,0.01812354475259781,-0.0007339853327721357,-0.014285755343735218
0.035325150936841965,0.005081317853182554,-0.02125799097120762,0.017779948189854622,-0.0007446086383424699,-0.014574960805475712
0.03686338663101196,0.005065335426479578,-0.02129778452217579,0.01812073215842247,-0.0006904526962898672,-0.01446740422397852
0.0369621217250824,0.005161080043762922,-0.021640539169311523,0.018123265355825424,-0.0006938824080862105,-0.014600642956793308
0.036622583866119385,0.004941417835652828,-0.021723370999097824,0.01783919706940651,-0.0007197106606326997,-0.014135582372546196
0.036692000925540924,0.004687462002038956,-0.021983811631798744,0.018381590023636818,-0.0006931188981980085,-0.014434462413191795
0.036908071488142014,0.0050981249660253525,-0.02137380838394165,0.018010741099715233,-0.000666041043587029,-0.014622523449361324
0.03683756664395332,0.004931105766445398,-0.021863123401999474,0.01785339042544365,-0.0006852635415270925,-0.014964712783694267
0.03716432303190231,0.004931391682475805,-0.021962450817227364,0.018446698784828186,-0.0006874463288113475,-0.014469380490481853
0.03715371713042259,0.004846152849495411,-0.022322168573737144,0.018072407692670822,-0.0007100342772901058,-0.014649780467152596
0.03745261952280998,0.004671257920563221,-0.022006632760167122,0.017959855496883392,-0.0007336909766308963,-0.014857702888548374
0.03758835792541504,0.004662858322262764,-0.02277540974318981,0.018400412052869797,-0.0007039327174425125,-0.015310410410165787
0.03782285377383232,0.004544693510979414,-0.02253010682761669,0.01796361617743969,-0.0007144024129956961,-0.01486204657703638
0.03781178593635559,0.004844842478632927,-0.021531058475375175,0.018201543018221855,-0.0008482032571919262,-0.014661481603980064
0.03711627051234245,0.005374804139137268,-0.021338382735848427,0.017984097823500633,-0.0008684521890245378,-0.014849190600216389
0.03822591155767441,0.005101542454212904,-0.02189648523926735,0.017562096938490868,-0.0008570293430238962,-0.015358280390501022
0.03962036222219467,0.004853891208767891,-0.022773468866944313,0.017920538783073425,-0.0007800598395988345,-0.014923159033060074
0.03687997907400131,0.0047500948421657085,-0.022543076425790787,0.01763683557510376,-0.0007878001779317856,-0.015651900321245193
0.0369458943605423,0.004720042925328016,-0.02179786190390587,0.01796897128224373,-0.0007832085830159485,-0.01381370797753334
0.03841739147901535,0.004807686433196068,-0.021809959784150124,0.018669987097382545,-0.0007570250891149044,-0.014244834892451763
0.03834278881549835,0.005627970676869154,-0.022877931594848633,0.018264658749103546,-0.0008032599580474198,-0.014305631630122662
0.03834278881549835,0.005627970676869154,-0.022877931594848633,0.018264658749103546,-0.0008032599580474198,-0.014305631630122662
0.03875720500946045,0.004902621731162071,-0.02248038351535797,0.018435150384902954,-0.0007562785758636892,-0.015051338821649551
0.03785354271531105,0.005183184519410133,-0.021449515596032143,0.01798228919506073,-0.0008122281869873405,-0.015240238048136234
0.03832489997148514,0.004686352796852589,-0.021801035851240158,0.018309688195586205,-0.0008283437346108258,-0.015564912930130959
0.03969351947307587,0.003985258284956217,-0.02248544991016388,0.018265342339873314,-0.0007917587645351887,-0.015297339297831059
0.038472507148981094,0.00535163888707757,-0.023105019703507423,0.018303824588656425,-0.0007501429063268006,-0.01512867584824562
0.03979073092341423,0.006089217495173216,-0.022685881704092026,0.01855766959488392,-0.0007195532671175897,-0.015028838068246841
0.03986840695142746,0.004082514438778162,-0.022452015429735184,0.018746696412563324,-0.000692082685418427,-0.015369398519396782
0.03912155702710152,0.004679170437157154,-0.022682921960949898,0.019015900790691376,-0.0006648139096796513,-0.015034941025078297
0.039866697043180466,0.005143984220921993,-0.022718176245689392,0.019792620092630386,-0.0006942682666704059,-0.01566728949546814
0.039263129234313965,0.005194099619984627,-0.023128967732191086,0.019301818683743477,-0.0007178705418482423,-0.015531664714217186
0.03964702785015106,0.004958152770996094,-0.022308172658085823,0.019237656146287918,-0.0007366575882770121,-0.015732457861304283
0.03987531363964081,0.005175034515559673,-0.022494154050946236,0.01904352754354477,-0.0008658504229970276,-0.015667414292693138
0.039797186851501465,0.005524151958525181,-0.022868048399686813,0.018403584137558937,-0.0009170270641334355,-0.015674687922000885
0.03948744758963585,0.00523108197376132,-0.02311740256845951,0.0186932273209095,-0.0008665447821840644,-0.015402767807245255
0.041219644248485565,0.004809029400348663,-0.02286887727677822,0.01971232332289219,-0.0008677808800712228,-0.015809591859579086
0.04060882329940796,0.004828487988561392,-0.02254849299788475,0.02015436813235283,-0.0008251970866695046,-0.01625552773475647
0.03921381011605263,0.004952301271259785,-0.022467950358986855,0.019897716119885445,-0.0008145305328071117,-0.016659000888466835
0.040511585772037506,0.004926028195768595,-0.0232101958245039,0.020001119002699852,-0.0008259760797955096,-0.016554100438952446
0.04012439772486687,0.004699711222201586,-0.02319192700088024,0.019779641181230545,-0.0008274491410702467,-0.01576927676796913
