davideferrari95/blind_handover_controller/data/Test 51 - [2024-02-07 -- 15-37-30]/joint_states_data.csv
shoulder_pan_joint,shoulder_lift_joint,elbow_joint,wrist_1_joint,wrist_2_joint,wrist_3_joint
0.00015630113193765283,0.0003650388971436769,-0.00020837612100876868,0.0002182288735639304,0.00030583367333747447,0.0
0.00015298026846721768,0.0003620700736064464,-0.00020251653040759265,0.00024006074818316847,0.0003633572196122259,0.0
0.00015298026846721768,0.0003620700736064464,-0.00020251653040759265,0.00024006074818316847,0.0003633572196122259,0.0
0.00022172614990267903,0.00034492992563173175,-0.00019697612151503563,0.00023525684082414955,0.0003580042102839798,0.0
0.0002141751756425947,0.00032916374038904905,-0.00019173053442500532,0.00022704921138938516,0.000333037314703688,0.0
0.00023129733745008707,0.0003286092251073569,-0.0001867573446361348,0.00021916726836934686,0.0003557820455171168,0.0
0.00023129733745008707,0.0003286092251073569,-0.0001867573446361348,0.00021916726836934686,0.0003557820455171168,0.0
0.00022493329015560448,0.00032640653080306947,-0.00018163095228374004,0.00022657823865301907,0.0003270232700742781,0.0
0.00022493329015560448,0.00032640653080306947,-0.00018163095228374004,0.00022657823865301907,0.0003270232700742781,0.0
0.0002159401774406433,0.00032522750552743673,-0.00017461551760789007,0.00022630835883319378,0.0003083985357079655,0.0
0.0002408376894891262,0.0003069857193622738,-0.00016809359658509493,0.00021984538761898875,0.0002917349338531494,0.0
0.0002332537405891344,0.00033312264713458717,-0.0001620402472326532,0.0002133590605808422,0.00027677661273628473,0.0
0.00022494298173114657,0.00032150925835594535,-0.00015640798665117472,0.00020721978216897696,0.0002632782852742821,0.0
0.00023756176233291626,0.00030596545548178256,-0.00017782326904125512,0.00020181527361273766,0.0002510354097466916,0.0
0.0002397999633103609,0.0002917936653830111,-0.00017544218280818313,0.00022966679534874856,0.00027451792266219854,0.0
0.0002322027285117656,0.00027887645410373807,-0.0001699654822004959,0.00022088675177656114,0.0002676064323168248,0.0
0.0002249494573334232,0.00030365140992216766,-0.00018282282690051943,0.00021070476213935763,0.00025699808611534536,0.0
0.000312948104692623,0.00029277251451276243,-0.00018642409122548997,0.00020128779578953981,0.00024694300373084843,0.0
0.00030414998764172196,0.0003596286114770919,-0.0001811835536500439,0.0002115103998221457,0.00023762830824125558,0.0
0.00028504771762527525,0.00033622700721025467,-0.00017612011288292706,0.00022042181808501482,0.00022898968018125743,0.0
0.00030356229399330914,0.0003308083687443286,-0.00016679427062626928,0.00020487551228143275,0.00023992315982468426,0.0
0.00028742977883666754,0.00032935052877292037,-0.00018538563745096326,0.00019739010895136744,0.00023570458870381117,0.0
0.00028742977883666754,0.00032935052877292037,-0.00018538563745096326,0.00019739010895136744,0.00023570458870381117,0.0
0.00030299590434879065,0.00034070195397362113,-0.00017659558216109872,0.00019896622688975185,0.00022145098773762584,0.0
0.0002891558106057346,0.00032500462839379907,-0.00017236798885278404,0.0002065075095742941,0.00021484302124008536,0.0
0.00031435160781256855,0.00030908288317732513,-0.00016833785048220307,0.00020084247807972133,0.0002006722061196342,0.0
0.00030265707755461335,0.00029462677775882185,-0.00021479422866832465,0.00019469484686851501,0.00018521689344197512,0.0
0.0002904668217524886,0.0002814643376041204,-0.00021133391419425607,0.0001888619299279526,0.00017744110664352775,0.0
0.00035394608858041465,0.00026942623662762344,-0.00020193873206153512,0.00018336463836021721,0.0001706794137135148,0.0
0.00037448504008352757,0.0002947696193587035,-0.0001932664745254442,0.00017817823390942067,0.00019509854610078037,0.0
0.0003699420194607228,0.00028364622266963124,-0.00018530750821810216,0.00017327730893157423,0.00019022385822609067,0.0
0.0003699420194607228,0.00028364622266963124,-0.00018530750821810216,0.00017327730893157423,0.00019022385822609067,0.0
0.00034648433211259544,0.00027290135039947927,-0.00017797781038098037,0.0001911134459078312,0.00018387679301667958,0.0
0.00037908399826847017,0.0002644460182636976,-0.00020140415290370584,0.0001875994203146547,0.000203541771043092,0.0
0.00035824478254653513,0.00026985909789800644,-0.00019786297343671322,0.00018292883760295808,0.00020059678354300559,0.0
0.000385411229217425,0.00025486008962616324,-0.00019091869762632996,0.00017840210057329386,0.000194629785255529,0.0
0.00036766298580914736,0.0002412019675830379,-0.000211510865483433,0.0001740885927574709,0.00018881121650338173,0.0
0.000517181761097163,0.00027406797744333744,-0.0002079806727124378,0.00016997857892420143,0.00020604796009138227,0.0
0.0005554295494221151,0.0002614070544950664,-0.0002013788471231237,0.00016605810378678143,0.00020335594308562577,0.0
0.0005068598547950387,0.00024934386601671576,-0.00019514156156219542,0.00016768582281656563,0.00019796870765276253,0.0
0.0005373734747990966,0.00023833784507587552,-0.000213138060644269,0.00016700781998224556,0.00019268368487246335,0.0
0.0004978443030267954,0.00026180371060036123,-0.00020996591774746776,0.00016138027422130108,0.0002671052352525294,0.0
0.0005263732164166868,0.00025544510572217405,-0.00026088967570103705,0.0001558152143843472,0.0002765049284789711,0.0
0.0005948093021288514,0.0002455460198689252,-0.0002737125032581389,0.00015060132136568427,0.00026208488270640373,0.0
0.0005710648838430643,0.0002687274245545268,-0.000309323106193915,0.0001457238831790164,0.00024776134523563087,0.0
0.0006072732503525913,0.0002603120228741318,-0.0002932148636318743,0.00016747986956033856,0.00023483320546802133,0.0
0.0005791099974885583,0.0003156147722620517,-0.00026449657161720097,0.0001593751076143235,0.0002543979207985103,0.0
0.0005973386578261852,0.00029787298990413547,-0.0002891846525017172,0.00015481292211916298,0.00024359588860534132,0.0
0.000559256412088871,0.0003286181599833071,-0.0002809785364661366,0.0001504984829807654,0.00023312147823162377,0.0
0.000616150617133826,0.0003156058955937624,-0.00030591050744988024,0.00016760258586145937,0.00022347480989992619,0.0
0.0006505617639049888,0.0002982553851325065,-0.00042144785402342677,0.0001661005080677569,0.0002145926555385813,0.0
0.0006775568472221494,0.0003290842578280717,-0.0004428480751812458,0.00016201917605940253,0.0002063894207822159,0.0
0.0006992729613557458,0.0003133388818241656,-0.0004039299674332142,0.00015796883963048458,0.000215016640140675,0.0
0.0009216790203936398,0.0003405423485673964,-0.00037065890501253307,0.00016492254508193582,0.0002225821081083268,0.0
0.0009287552675232291,0.0003257019561715424,-0.0003871626395266503,0.00017118391406256706,0.00021594292775262147,0.0
0.0009245463879778981,0.00045368546852841973,-0.0003815462696366012,0.00016785800107754767,0.00020884866535197943,0.0
0.0009180530323646963,0.0004911078722216189,-0.0004089534340891987,0.00016407626389991492,0.0002021507389144972,0.0
0.0009410695638507605,0.000458607537439093,-0.00039020218537189066,0.00016042313654907048,0.00019586540292948484,0.0
0.0009410695638507605,0.000458607537439093,-0.00039020218537189066,0.00016042313654907048,0.00019586540292948484,0.0
0.0009460123837925494,0.00042281131027266383,-0.0004192796186544001,0.00015721061208751053,0.00018995908612851053,0.0
0.0009392013307660818,0.00045650865649804473,-0.00039686387754045427,0.00020948192104697227,0.00020390991994645447,0.0
0.0009453566162846982,0.0004264672170393169,-0.0004353400145191699,0.0002038852690020576,0.00020430167205631733,0.0
0.00119163712952286,0.00045413561747409403,-0.0004044380330014974,0.00019528978737071157,0.00019905676890630275,0.0
0.0012666798429563642,0.00042924514855258167,-0.00043644450488500297,0.00018718135834205896,0.00019372675160411745,7.990911399247125e-07
0.0014535692753270268,0.0004713689850177616,-0.00041134533239528537,0.0002108609478455037,0.00018865223682951182,5.217493637132975e-08
0.0015570636605843902,0.00045666645746678114,-0.0004451257991604507,0.00020705204224213958,0.00018384860595688224,3.406650517234766e-09
0.0014277907321229577,0.0004879000480286777,-0.00047518813516944647,0.0001996743812924251,0.00017925897554960102,2.224299494590909e-10
0.0012675392208620906,0.0004557896463666111,-0.0006588126416318119,0.00019257099484093487,0.0001749154762364924,1.4523084991557855e-11
0.0013333044480532408,0.0004820378089789301,-0.0005991257494315505,0.00021282107627484947,0.00016724290617275983,0.0008148126071318984
0.0012988753151148558,0.0004549365839920938,-0.0006302446709014475,0.0002094403316732496,0.0001584132987773046,0.0009367471793666482
0.0015590344555675983,0.00046402023872360587,-0.0005679471069015563,0.00020293456327635795,0.00015283604443538934,0.0009589080000296235
0.001623234711587429,0.00045411885366775095,-0.0005959366681054235,0.0001966166018974036,0.0001478197955293581,0.0013465951196849346
0.0018587077502161264,0.0005002524121664464,-0.0006161365890875459,0.0002160701696993783,0.00014311517588794231,0.0013047463726252317
0.0017998885596171021,0.0004839369794353843,-0.0006464039906859398,0.000211383230634965,0.00013869440590497106,0.0012369247851893306
0.0018010050989687443,0.0005301788332872093,-0.000631603179499507,0.00023939297534525394,0.00015654854360036552,0.001155893667601049
0.0020328795071691275,0.0005122791044414043,-0.0006558160530403256,0.0002633682743180543,0.00015234266174957156,0.0011672228574752808
0.0018341087270528078,0.0005389576544985175,-0.0005972115322947502,0.0002511526399757713,0.00014816450129728764,0.0014383766101673245
0.0016763020539656281,0.0005038594827055931,-0.0006201700307428837,0.0002731370332185179,0.00014420473598875105,0.0015393312787637115
0.0015331754693761468,0.0006266931304708123,-0.0006592590361833572,0.00027047397452406585,0.00014046653814148158,0.001773189753293991
0.0015377356903627515,0.0006240131333470345,-0.0007195862708613276,0.00029003634699620306,0.00015671625442337245,0.0017293225973844528
0.0014134306693449616,0.0005898246308788657,-0.0007502502994611859,0.00028686036239378154,0.00015556690050289035,0.001604918041266501
0.0016619000816717744,0.000532131758518517,-0.0007690754719078541,0.0003090375103056431,0.0001520015939604491,0.0015531332464888692
0.0021613265853375196,0.0005639225128106773,-0.0010291944490745664,0.0003010687360074371,0.0001484325184719637,0.0015229912241920829
0.0021225314121693373,0.0005836939672008157,-0.0009597335592843592,0.0004811197577510029,0.00014501654368359596,0.0014121029525995255
0.002114154864102602,0.0005474564386531711,-0.0008574773673899472,0.00044722846359945834,0.00014175334945321083,0.0014596064575016499
0.002114154864102602,0.0005474564386531711,-0.0008574773673899472,0.00044722846359945834,0.00014175334945321083,0.0014596064575016499
0.0020027640275657177,0.0005686277290806174,-0.0008484962163493037,0.0004778195288963616,0.00015332191833294928,0.0014509261818602681
0.0015716381603851914,0.0005966134485788643,-0.0008545357850380242,0.0004477781185414642,0.00015469317440874875,0.0017569345654919744
0.0015274282777681947,0.000547182047739625,-0.0007854937575757504,0.0004140476230531931,0.00015173773863352835,0.0016534210881218314
0.0014821201330050826,0.0005762671353295445,-0.0008913921192288399,0.00044416746823117137,0.00014862547686789185,0.0017248049844056368
0.001779722748324275,0.0005308545078150928,-0.0008938244427554309,0.0004185349680483341,0.00014562052092514932,0.0017017769860103726
0.0020155461970716715,0.0004896267200820148,-0.0011145096505060792,0.00044488281127996743,0.00014273173292167485,0.0017768389079719782
0.0020872962195426226,0.0004967112909071147,-0.0011818698840215802,0.0004852857964579016,0.0001399592001689598,0.0018163200002163649
0.0019447198137640953,0.0004839806351810694,-0.0011318816104903817,0.0005262541817501187,0.00013729045167565346,0.0018902348820120096
0.0016805804334580898,0.0004582347464747727,-0.0010960340732708573,0.0004997554933652282,0.00013496614701580256,0.0017863753018900752
0.00163746764883399,0.0004587228177115321,-0.0012017125263810158,0.0005297336028888822,0.00016370965749956667,0.0017151833744719625
0.0013868431560695171,0.0004900915664620697,-0.0011986723402515054,0.000553787627723068,0.000160084426170215,0.001573606044985354
0.0014027631841599941,0.00045766879338771105,-0.0011627700878307223,0.0005257285083644092,0.0001547233114251867,0.0014378984924405813
0.0013674547662958503,0.0004913220764137805,-0.0012336228974163532,0.0007000101031735539,0.0001495887408964336,0.0013539844658225775
0.0015930917579680681,0.000514032959472388,-0.001295692753046751,0.0007352603715844452,0.00014477634977083653,0.0012595870066434145
0.0018316985806450248,0.0004557968059089035,-0.0012044364120811224,0.000677886011544615,0.0001360230817226693,0.0017035261262208223
0.0017790948040783405,0.0004286578041501343,-0.001323957578279078,0.0006147576496005058,0.00013203159323893487,0.0017698640003800392
0.0016172482864931226,0.0004045677196700126,-0.0015825413865968585,0.0006345250294543803,0.00012826817692257464,0.0021038686390966177
0.0016596084460616112,0.00042254087748005986,-0.0017010607989504933,0.0005901598487980664,0.00012471296940930188,0.001996999140828848
0.0015387431485578418,0.0004049921699333936,-0.0015793375205248594,0.0005644086049869657,0.00012134946882724762,0.0020651486702263355
0.0017604570602998137,0.00037179497303441167,-0.0014125722227618098,0.0005909061874262989,0.00011816299956990406,0.0018919381545856595
0.001623057760298252,0.0004092256131116301,-0.001281056902371347,0.0005433307960629463,0.00011513937351992354,0.0016564178513363004
0.0017675503622740507,0.0003828348417300731,-0.0013336640549823642,0.000570790667552501,0.0001122666581068188,0.0015314463526010513
0.0017833219608291984,0.0004146324936300516,-0.0014615554828196764,0.0005930284969508648,0.00010953378659905866,0.00157291314098984
0.002096054842695594,0.00039116761763580143,-0.0015522197354584932,0.000652116781566292,0.00010693090007407591,0.0017024765256792307
0.0019763102754950523,0.000418772833654657,-0.002179105067625642,0.0007459751213900745,0.00010444896906847134,0.0021066414192318916
0.0021966591011732817,0.00039766315603628755,-0.0020923553965985775,0.000784531410317868,0.0001198106401716359,0.002188403159379959
0.0021966591011732817,0.00039766315603628755,-0.0020923553965985775,0.000784531410317868,0.0001198106401716359,0.002188403159379959
0.0020370481070131063,0.0004477292241062969,-0.0016927409451454878,0.0008145749452523887,0.0001196028824779205,0.002213613595813513
0.0019932386931031942,0.00043997811735607684,-0.001480401842854917,0.0012096470454707742,0.00011716755398083478,0.002119001466780901
0.0018682568334043026,0.0004780768940690905,-0.0014787967083975673,0.001049039070494473,0.00011468937009340152,0.0019813976250588894
0.0018683555535972118,0.00044200100819580257,-0.001482711872085929,0.0010173674672842026,0.00011230479867663234,0.0018552299588918686
0.0018331385217607021,0.00047384039498865604,-0.0015584253706037998,0.0008838044595904648,0.00011001672828570008,0.001666202093474567
0.002045587170869112,0.00044311044621281326,-0.002116125775501132,0.0008560590213164687,0.00010781997116282582,0.0018259779317304492
0.0021938493009656668,0.0004723157617263496,-0.00208639120683074,0.0007866967935115099,0.00010570932499831542,0.001988220028579235
0.0021902634762227535,0.000560370332095772,-0.0017417980125173926,0.0006623385706916451,0.00010367958748247474,0.0020673584658652544
0.0023716569412499666,0.0006207340629771352,-0.0016817726427689195,0.0006515240529552102,0.0001017265603877604,0.0023023108951747417
0.0025353655219078064,0.0005877725780010223,-0.001584149431437254,0.0006897816783748567,9.98455288936384e-05,0.0021477474365383387
0.002368130022659898,0.0006175657035782933,-0.0016716733807697892,0.0007116697379387915,9.803286957321689e-05,0.0021398102398961782
0.0022876826114952564,0.0006342239794321358,-0.0020182954613119364,0.0008370592840947211,9.628484258428216e-05,0.0021031610667705536
0.0022556327749043703,0.000590986164752394,-0.002343617146834731,0.0009921560995280743,9.459812281420454e-05,0.0020827006082981825
0.002645300468429923,0.0006924545741640031,-0.00195670360699296,0.0009970823302865028,9.296955249737948e-05,0.002193005755543709
0.0025063937064260244,0.0006514189881272614,-0.0012783342972397804,0.00114362349268049,8.987476758193225e-05,0.00239505129866302
0.0025063937064260244,0.0006514189881272614,-0.0012783342972397804,0.00114362349268049,8.987476758193225e-05,0.00239505129866302
0.002668266650289297,0.0006891614175401628,-0.0010997701901942492,0.00099253561347723,8.697948942426592e-05,0.002519884379580617
0.0028498887550085783,0.000637669232673943,-0.0012878014240413904,0.0009624464437365532,8.5600717284251e-05,0.0026413786690682173
0.0027339006774127483,0.0006770521285943687,-0.002024178160354495,0.0008948933100327849,8.426490239799023e-05,0.0027295558247715235
0.0030066196341067553,0.0006962725310586393,-0.0021049929782748222,0.0009722558897919953,8.297018939629197e-05,0.0026222255546599627
0.0030081025324761868,0.0006960442988201976,-0.0017743316711857915,0.0010390644893050194,8.171473746187985e-05,0.0026301683392375708
0.0028884971980005503,0.0006560382316820323,-0.0015366695588454604,0.00172657601069659,8.049658936215565e-05,0.0023554114159196615
0.0027756427880376577,0.0006758628878742456,-0.0013941762736067176,0.0016492401482537389,7.931428990559652e-05,0.002449124353006482
0.0028110393323004246,0.0007151635363698006,-0.001303813187405467,0.0014082647394388914,7.816615834599361e-05,0.002719372743740678
0.0028341368306428194,0.0007725983741693199,-0.0011802819790318608,0.001148904557339847,7.705087045906112e-05,0.002687229309231043
0.002776896581053734,0.0006887110066600144,-0.0012879809364676476,0.001005097059533,7.596689101774246e-05,0.002664128551259637
0.002659608842805028,0.0007112164748832583,-0.002112566027790308,0.0009090336970984936,7.491304131690413e-05,0.002793838968500495
0.003011518158018589,0.0007278190460056067,-0.0022562406957149506,0.000893348827958107,7.388802623609081e-05,0.0028115948662161827
0.003011518158018589,0.0007278190460056067,-0.0022562406957149506,0.000893348827958107,7.388802623609081e-05,0.0028115948662161827
0.0032969312742352486,0.0007779727457091212,-0.002452359301969409,0.0009097439469769597,7.289065251825377e-05,0.0025589081924408674
0.0032036053016781807,0.0008373064338229597,-0.001948020071722567,0.000965489074587822,7.191986514953896e-05,0.0025807709898799658
0.0031117182224988937,0.0008183825993910432,-0.0016551002627238631,0.0010185935534536839,7.097460184013471e-05,0.002634902484714985
0.0034602803643792868,0.0008279173052869737,-0.0016181605169549584,0.0016510961577296257,7.005390943959355e-05,0.0027615195140242577
0.0031340736895799637,0.0007728719501756132,-0.0015834938967600465,0.0015771884936839342,6.91567111061886e-05,0.0027519960422068834
0.0032957475632429123,0.0008530599880032241,-0.0016864213394001126,0.0014453463954851031,6.828222831245512e-05,0.0030826861038804054
0.003354519372805953,0.0008619221043772995,-0.0023457598872482777,0.0012202492216601968,6.742960977135226e-05,0.003124144161120057
0.003214453114196658,0.0008286908851005137,-0.0026944223791360855,0.0010669776238501072,6.659804057562724e-05,0.0031898561865091324
0.0033454590011388063,0.0007658852264285088,-0.002430305117741227,0.0010713828960433602,6.578670581802726e-05,0.0035986381117254496
0.0036357478238642216,0.000746727513615042,-0.0018701385706663132,0.001065575983375311,6.499486335087568e-05,0.003952495753765106
0.0033347508870065212,0.000704000354744494,-0.001562657649628818,0.0012342702830210328,6.422189471777529e-05,0.003985760733485222
0.003448221366852522,0.0006550613325089216,-0.0015589342219755054,0.0012168288230895996,6.346711597871035e-05,0.003468564245849848
0.00368997803889215,0.000579106796067208,-0.0015791486948728561,0.001147879404015839,6.272980681387708e-05,0.002947056433185935
0.0033934987150132656,0.0006142028723843396,-0.0016894880682229996,0.001135148573666811,6.20095306658186e-05,0.0025737513788044453
0.0034456041175872087,0.0006335499929264188,-0.0025345494505017996,0.0011115455999970436,6.130553083494306e-05,0.002583960769698024
0.003463778644800186,0.0005847679567523301,-0.002686335239559412,0.0011502387933433056,6.061737076379359e-05,0.0025111620780080557
0.0036802126560360193,0.000661415106151253,-0.0020447121933102608,0.0015316253993660212,1.5232747500704136e-05,0.0030905581079423428
0.0037043059710413218,0.0006196804461069405,-0.0017744420329108834,0.0019336428958922625,9.945895271812333e-07,0.0031089510302990675
0.00365473423153162,0.0006408033659681678,-0.0018967546056956053,0.0018787139561027288,6.493959148201611e-08,0.0030103041790425777
0.003655355656519532,0.0005833330214954913,-0.0018998476443812251,0.0016930457204580307,4.240091389107192e-09,0.0028658523224294186
0.0037653930485248566,0.000603653839789331,-0.0026129717007279396,0.0014633857645094395,2.7684768366675883e-10,0.002789618680253625
0.003859769320115447,0.0005595959373749793,-0.002771276282146573,0.001384277711622417,1.807617597271438e-11,0.002828225027769804
0.003845498664304614,0.0005864102859050035,-0.0025549517013132572,0.0013214338105171919,1.1802451377329604e-12,0.0027263157535344362
0.0037524744402617216,0.0006178428884595633,-0.002437582006677985,0.0013377843424677849,7.706158031573623e-14,0.002978074597194791
0.003795267315581441,0.0006513426778838038,-0.0021187332458794117,0.001427095732651651,5.031570100751939e-15,0.003011454828083515
0.004311692900955677,0.0006705168634653091,-0.0020767601672559977,0.0016937669133767486,3.2852559318040223e-16,0.0027072736993432045
0.004311692900955677,0.0006705168634653091,-0.0020767601672559977,0.0016937669133767486,3.2852559318040223e-16,0.0027072736993432045
0.004054277669638395,0.0006156102172099054,-0.002113149967044592,0.0016335916006937623,2.1450373198469984e-17,0.002762026619166136
0.004007476847618818,0.0006398724508471787,-0.00238801259547472,0.0015356139047071338,1.400556156985491e-18,0.002988360822200775
0.004068948794156313,0.0007176573853939772,-0.002754369517788291,0.00150117720477283,9.144630952024893e-20,0.0031315810047090054
0.00447176955640316,0.0006753188790753484,-0.002866690745577216,0.001533349510282278,5.97079039810914e-21,0.003089476376771927
0.004287656396627426,0.0006909117219038308,-0.0026757135055959225,0.0015725609846413136,3.898499349197837e-22,0.0028993389569222927
0.004503737203776836,0.0006237222114577889,-0.002681227633729577,0.001515956362709403,2.5454417797925196e-23,0.0028826326597481966
0.004227162804454565,0.0006410697242245078,-0.0025235540233552456,0.0014541181735694408,1.6619914822118056e-24,0.0029369634576141834
0.003971983212977648,0.0005910564796067774,-0.00230909651145339,0.0015117294387891889,1.0851617450836486e-25,0.0032957149669528008
0.004049689043313265,0.0006144216749817133,-0.0022964314557611942,0.001413034275174141,7.085330635425423e-27,0.003205595538020134
0.004082817118614912,0.0006184615776874125,-0.002116331597790122,0.001319274422712624,4.626214208171873e-28,0.0030426529701799154
0.004409761633723974,0.000647577631752938,-0.0024222591891884804,0.001255856011994183,3.0205872978390687e-29,0.0030314703471958637
0.0044988589361310005,0.0005889307940378785,-0.0031495890580117702,0.001346857869066298,1.9722278708491744e-30,0.0029089131858199835
0.004624831955879927,0.0006183400982990861,-0.0028910264372825623,0.001718528801575303,1.2877238511209998e-31,0.0028310739435255527
0.0042637246660888195,0.0006349448813125491,-0.0026982624549418688,0.0019137139897793531,8.407915831456359e-33,0.0028534841258078814
0.004366074688732624,0.000591599615290761,-0.0026677269488573074,0.002063064370304346,5.489768003271323e-34,0.0029631871730089188
0.0051199896261096,0.0006893360987305641,-0.002435518428683281,0.001915670232847333,2.3403741684577828e-36,0.0037184907123446465
0.004713630303740501,0.0006443476304411888,-0.002722763689234853,0.001823634491302073,1.5280970297909753e-37,0.0037782681174576283
0.004577389918267727,0.0006679645157419145,-0.0031688683666288853,0.0017558891559019685,9.977382393242201e-39,0.0035011954605579376
0.004937819205224514,0.0006636985926888883,-0.0031189965084195137,0.0017709885723888874,6.5145244567689286e-40,0.003491549752652645
0.005029973573982716,0.0006370168412104249,-0.0031209385488182306,0.0018966436618939042,4.2535013586115497e-41,0.0036524587776511908
0.004937866702675819,0.0006748604355379939,-0.0032961468677967787,0.0019238496897742152,2.7773735562917874e-42,0.004086415283381939
0.005087052471935749,0.0007042191573418677,-0.0029115190263837576,0.0020914210472255945,1.807675018979014e-43,0.004029176663607359
0.0051499842666089535,0.0007156014326028526,-0.002794890431687236,0.0020747093949466944,1.1210387714598537e-44,0.003636392066255212
0.005087373312562704,0.0006527163204737008,-0.0027794695924967527,0.002029936760663986,1.401298464324817e-45,0.0034546225797384977
0.005262712016701698,0.0006657803314737976,-0.003143108217045665,0.001897862064652145,0.0,0.0036918618716299534
0.004760043229907751,0.0006202356307767332,-0.0030761673115193844,0.001842458383180201,0.0,0.0038447945844382048
0.0050030299462378025,0.0006424924358725548,-0.0032148240134119987,0.0017282484332099557,0.0,0.00415477529168129
0.005025743041187525,0.0006744518759660423,-0.0031828193459659815,0.0019464950310066342,0.0,0.004132414236664772
0.005198812577873468,0.0006967197987250984,-0.0030267571564763784,0.0020337742753326893,0.0,0.004337742924690247
0.005198812577873468,0.0006967197987250984,-0.0030267571564763784,0.0020337742753326893,0.0,0.004337742924690247
0.0050470270216465,0.000689402804709971,-0.0034549052361398935,0.0023557355161756277,0.0,0.004142953082919121
0.005407755263149738,0.0006548662786372006,-0.0032625426538288593,0.0022044603247195482,0.0,0.0039997342973947525
0.005320535507053137,0.0007625950966030359,-0.0026164096780121326,0.002069813199341297,0.0,0.0038834314327687025
0.005320535507053137,0.0007625950966030359,-0.0026164096780121326,0.002069813199341297,0.0,0.0038834314327687025
0.005223201122134924,0.0006805671728216112,-0.0028209425508975983,0.002055870136246085,0.0,0.004187123384326696
0.006050129886716604,0.0007037481409497559,-0.0033660056069493294,0.0021872154902666807,0.0,0.004749436862766743
0.005538882687687874,0.0007137593347579241,-0.0036527367774397135,0.002186455996707082,0.0,0.005239142570644617
0.005278886761516333,0.0006583589711226523,-0.0036847516894340515,0.002430880442261696,0.0,0.004966838750988245
0.0052800485864281654,0.0006745780119672418,-0.003075665095821023,0.0023605062160640955,0.0,0.003742684843018651
0.0052800485864281654,0.0006745780119672418,-0.003075665095821023,0.0023605062160640955,0.0,0.003742684843018651
0.005760038271546364,0.0006321099936030805,-0.0033657150343060493,0.0021358963567763567,0.0,0.004336534533649683
0.005336441099643707,0.0006491187959909439,-0.0032828780822455883,0.002077302662655711,0.0,0.004707172978669405
0.005305918864905834,0.0006534095737151802,-0.0036043566651642323,0.0018917323322966695,0.0,0.004807730205357075
0.005486449226737022,0.0006236904882825911,-0.003808217588812113,0.002031381707638502,0.0,0.004766905680298805
0.006091824732720852,0.0006607943796552718,-0.0042128427885472775,0.002440681913867593,0.0,0.005058052949607372
0.006643441505730152,0.0006910893134772778,-0.0037137968465685844,0.0024390972685068846,0.0,0.004998341202735901
0.005941248964518309,0.00072656967677176,-0.0028864170890301466,0.002347103785723448,0.0,0.004587060771882534
0.005475508514791727,0.0006793003994971514,-0.002982109086588025,0.002285074908286333,0.0,0.004910915158689022
0.006028897128999233,0.000787337077781558,-0.003479201579466462,0.002104033250361681,0.0,0.0050847637467086315
0.006047248374670744,0.0008050226024352014,-0.0043035149574279785,0.002078418619930744,0.0,0.004925413988530636
0.006283495109528303,0.0008140087011270225,-0.004057476297020912,0.0022378708235919476,0.0,0.004716928582638502
0.006310866214334965,0.0008155761170201004,-0.0038583457935601473,0.0025948386173695326,0.0,0.004796495661139488
0.0060174427926540375,0.0007454604492522776,-0.0033747542183846235,0.0030398103408515453,0.0,0.004600465763360262
0.006352097727358341,0.0007347262580879033,-0.0032138570677489042,0.0029486417770385742,0.0,0.004474102985113859
0.0070275492034852505,0.0007573949405923486,-0.003177475882694125,0.0028009710367769003,0.0,0.004918274469673634
0.006965781096369028,0.0007717912085354328,-0.0034729682374745607,0.0023449512664228678,0.0,0.005300547927618027
0.006306742783635855,0.0007858041790314019,-0.003742779139429331,0.0022873282432556152,0.0,0.005053460597991943
0.0062995911575853825,0.0008850121521390975,-0.0039306324906647205,0.0025948118418455124,0.0,0.005317007657140493
0.0062995911575853825,0.0008850121521390975,-0.0039306324906647205,0.0025948118418455124,0.0,0.005317007657140493
0.006087095011025667,0.0009053662070073187,-0.0036281791981309652,0.0029388717375695705,0.0,0.005267173983156681
0.006722021382302046,0.0009047783096320927,-0.003554384922608733,0.0033187635708600283,0.0,0.004829866345971823
0.006966272369027138,0.0008950388291850686,-0.0037217780482023954,0.0032322260085493326,0.0,0.004935295786708593
0.0063377912156283855,0.0009238453349098563,-0.0037267161533236504,0.003011429915204644,0.0,0.00515364296734333
0.006484925281256437,0.0009604708757251501,-0.0036879454273730516,0.0027818712405860424,0.0,0.004965086933225393
0.0065773241221904755,0.0009629825362935662,-0.0038879867643117905,0.0028512966819107533,0.0,0.005353706888854504
0.006374597083777189,0.0009627312538214028,-0.004075103905051947,0.002932731993496418,0.0,0.0053511434234678745
0.006682906299829483,0.0012621665373444557,-0.004449348896741867,0.0030018514953553677,0.0,0.0059431190602481365
0.0064585027284920216,0.0011964704608544707,-0.004250912461429834,0.0031468868255615234,0.0,0.005824282765388489
0.0062118819914758205,0.0011603008024394512,-0.003961170557886362,0.0030889061745256186,0.0,0.005142909474670887
0.006739165633916855,0.0012850542552769184,-0.0037518676836043596,0.0034410576336085796,0.0,0.004836154170334339
0.006828115787357092,0.001214772928506136,-0.0037231764290481806,0.0032811476849019527,0.0,0.0049837674014270306
0.006821617484092712,0.0011966548627242446,-0.00432245759293437,0.003146081930026412,0.0,0.005585818085819483
0.006273130886256695,0.0011837668716907501,-0.004170625936239958,0.0030596209689974785,0.0,0.005438620690256357
0.006727969739586115,0.0012670776341110468,-0.004405008163303137,0.003129230346530676,0.0,0.00586578156799078
0.006628273520618677,0.001279356423765421,-0.004373927600681782,0.0034982573706656694,0.0,0.005031413398683071
0.006335476413369179,0.0013996283523738384,-0.004335145931690931,0.003709083655849099,0.0,0.0050932359881699085
0.0073720673099160194,0.0013594158226624131,-0.003997871186584234,0.0033920714631676674,0.0,0.005500379018485546
0.006989795248955488,0.0015409167390316725,-0.004368958063423634,0.003415054641664028,0.0,0.006187604274600744
0.007029780652374029,0.0015360265970230103,-0.004861732479184866,0.0032261828891932964,0.0,0.006265647243708372
0.006741775199770927,0.0014077097875997424,-0.0047845724038779736,0.0032381934579461813,0.0,0.005987549666315317
0.006836141459643841,0.0014635035768151283,-0.004746218211948872,0.003222963074222207,0.0,0.006209225859493017
0.00708055729046464,0.0014551503118127584,-0.004690130241215229,0.0036313673481345177,0.0,0.005810862872749567
0.007227805443108082,0.0018069258658215404,-0.004843862261623144,0.0038623050786554813,0.0,0.006021853536367416
0.007418655324727297,0.0017172930529341102,-0.004354201722890139,0.003922042436897755,0.0,0.00618075393140316
0.007418655324727297,0.0017172930529341102,-0.004354201722890139,0.003922042436897755,0.0,0.00618075393140316
0.007491942495107651,0.0017400413053110242,-0.004341653548181057,0.0034610729198902845,0.0,0.005994548089802265
0.00771072693169117,0.0016841577598825097,-0.004678632132709026,0.0034088860265910625,0.0,0.006087380927056074
0.007710626348853111,0.0014580448623746634,-0.00464231614023447,0.003668765537440777,0.0,0.005798070691525936
0.007121432106941938,0.0013121658703312278,-0.004858676344156265,0.0038684383034706116,0.0,0.00605299137532711
0.007165831979364157,0.00140599743463099,-0.00489319022744894,0.004256852902472019,0.0,0.00615905225276947
0.007564033381640911,0.001626743352971971,-0.004516697488725185,0.004190650302916765,0.0,0.005695102270692587
0.008234193548560143,0.0017314739525318146,-0.004409162327647209,0.0039191474206745625,0.0,0.005783994682133198
0.00799948163330555,0.0018713237950578332,-0.004800805356353521,0.0037726126611232758,0.0,0.005997931119054556
0.0070918891578912735,0.0017203837633132935,-0.004857663996517658,0.003665140364319086,0.0,0.006289143580943346
0.008148464374244213,0.001550010871142149,-0.005178206600248814,0.0036453416105359793,0.0,0.006502849515527487
0.008193831890821457,0.00140675890725106,-0.005107193719595671,0.0041949148289859295,0.0,0.006624358706176281
0.00827459990978241,0.0013422754127532244,-0.004777530208230019,0.004495892208069563,0.0,0.006257043685764074
0.007756390143185854,0.0012913240352645516,-0.004604642279446125,0.004552315920591354,0.0,0.006262374576181173
0.008204322308301926,0.00138677260838449,-0.0047079576179385185,0.004110606387257576,0.0,0.006952495779842138
0.0084450114518404,0.001455778139643371,-0.004748065955936909,0.00346282753162086,0.0,0.006935924757272005
0.008005845360457897,0.0017646325286477804,-0.005165924318134785,0.003099480178207159,8.601670060670585e-07,0.006456176750361919
0.008158321492373943,0.001726535614579916,-0.005752224009484053,0.003158026374876499,5.6162761552513984e-08,0.006538244895637035
0.008388510905206203,0.0014417897909879684,-0.0054441639222204685,0.004850380122661591,2.3943064197951003e-10,0.007383916061371565
0.008341917768120766,0.0013270324561744928,-0.005136722233146429,0.004802081733942032,1.5633109390345012e-11,0.007065806072205305
0.008773008361458778,0.0012668156996369362,-0.005280404817312956,0.004416021518409252,1.020730375222989e-12,0.007388904690742493
0.008565446361899376,0.001239880220964551,-0.00533556193113327,0.004198702983558178,6.664639543366158e-14,0.0069917417131364346
0.008547846227884293,0.0011900567915290594,-0.005876661743968725,0.003949652425944805,4.3515335106970865e-15,0.007107027806341648
0.009578158147633076,0.0013733148807659745,-0.005708036012947559,0.003912152256816626,2.84124046675993e-16,0.007231727708131075
0.008950861170887947,0.0013614221243187785,-0.005378545727580786,0.004389065783470869,1.8551268933232907e-17,0.007225631270557642
0.008659955114126205,0.0012743538245558739,-0.0051458594389259815,0.005153310019522905,1.2112652829821984e-18,0.007454368285834789
0.008659955114126205,0.0012743538245558739,-0.0051458594389259815,0.005153310019522905,1.2112652829821984e-18,0.007454368285834789
0.008932922035455704,0.0010821438627317548,-0.005800704937428236,0.004351708106696606,5.1638127026654396e-21,0.007291696034371853
0.009024995379149914,0.0010455658193677664,-0.00576488021761179,0.004382717423141003,3.371600344156743e-22,0.007253666874021292
0.008652244694530964,0.0011160174617543817,-0.0055293976329267025,0.004624248947948217,2.2014141747714808e-23,0.006994954310357571
0.008652244694530964,0.0011160174617543817,-0.0055293976329267025,0.004624248947948217,2.2014141747714808e-23,0.006994954310357571
0.008966042660176754,0.0010187053121626377,-0.005532973445951939,0.004969666711986065,1.437366297678517e-24,0.007149813696742058
0.009340786375105381,0.0010821837931871414,-0.005644700489938259,0.004587965551763773,9.384974035122985e-26,0.007202497683465481
0.008202247321605682,0.0010648972820490599,-0.006075732875615358,0.004919053521007299,6.127716666989291e-27,0.007063001859933138
0.008837628178298473,0.0010532985907047987,-0.0058347140438854694,0.004987228196114302,-0.00021109881345182657,0.007423707749694586
0.009006734937429428,0.0012630217242985964,-0.005755612161010504,0.004818166606128216,-0.00022779790742788464,0.007666207849979401
0.008903917856514454,0.0011941439006477594,-0.006067503709346056,0.004377858247607946,-0.00021852509235031903,0.00805643480271101
0.009355072863399982,0.001048670499585569,-0.005466809496283531,0.0040352242067456245,-0.0002085149026243016,0.008876530453562737
0.009508591145277023,0.0010259720729663968,-0.005939529277384281,0.004777674563229084,-0.00022872647969052196,0.008327014744281769
0.0093380780890584,0.0009054936817847192,-0.005965057760477066,0.0050671580247581005,-0.0002283194480696693,0.007601408753544092
0.009328453801572323,0.0009009515051729977,-0.005985213443636894,0.005234322976320982,-0.00021963765902910382,0.007566445041447878
0.009473356418311596,0.0009881636360660195,-0.005474500823765993,0.004959858953952789,-0.0002283113863086328,0.008082340471446514
0.009089859202504158,0.0009186309762299061,-0.005830653011798859,0.004848850890994072,-0.0002358351048314944,0.008186094462871552
0.009214802645146847,0.0011564944870769978,-0.006479295901954174,0.004751854110509157,-0.00022833711409475654,0.007946635596454144
0.010140814818441868,0.0011136975372210145,-0.006397957447916269,0.005551208276301622,-0.0002204159100074321,0.007851365953683853
0.009284638799726963,0.0009524053311906755,-0.005694438703358173,0.0053748865611851215,-0.00023491668980568647,0.008691856637597084
0.010661927983164787,0.0008880581590346992,-0.005765991751104593,0.005356259178370237,-0.00022794415417592973,0.0081868227571249
0.010302001610398293,0.0008908562012948096,-0.00657716253772378,0.004982813261449337,-0.00022097803594078869,0.007935496047139168
0.009698540903627872,0.0008920556283555925,-0.006887700874358416,0.004917910322546959,-0.00021439882402773947,0.008052625693380833
0.010288153775036335,0.0008996462565846741,-0.006033001001924276,0.005491349846124649,-0.0002534070226829499,0.008698592893779278
0.010095958597958088,0.001086335047148168,-0.0063768550753593445,0.005280937068164349,-0.0002540828427299857,0.008630846627056599
0.010651512071490288,0.0010696460958570242,-0.0062084197998046875,0.005173274781554937,-0.0002414279879303649,0.008316047489643097
0.009741181507706642,0.001055802102200687,-0.006455710623413324,0.004987612832337618,-0.0002688738168217242,0.008393333293497562
0.009754125028848648,0.0012783562997356057,-0.0063727549277246,0.004730583634227514,-0.0002613000979181379,0.008951625786721706
0.009742031805217266,0.001247644773684442,-0.005765127018094063,0.00464724563062191,-0.0002495771914254874,0.008327673189342022
0.010669276118278503,0.0011898488737642765,-0.006030349060893059,0.004724477417767048,-0.00027561551542021334,0.008659756742417812
0.01023990847170353,0.0011019037337973714,-0.006375315133482218,0.005000182427465916,-0.000266377319348976,0.009032951667904854
0.01023990847170353,0.0011019037337973714,-0.006375315133482218,0.005000182427465916,-0.000266377319348976,0.009032951667904854
0.010033907368779182,0.0012031856458634138,-0.00644043879583478,0.00522317411378026,-0.00025572089361958206,0.00823445338755846
0.010208475403487682,0.0011934608919546008,-0.00619169045239687,0.004901837557554245,-0.000278476596577093,0.008236344903707504
0.010129287838935852,0.0014748810790479183,-0.006534881889820099,0.004817936569452286,-0.0002701606135815382,0.008783681318163872
0.01050284318625927,0.001428416115231812,-0.005856785923242569,0.004738707561045885,-0.0002605231129564345,0.008728115819394588
0.01071808859705925,0.0013302458683028817,-0.00596955930814147,0.005065667908638716,-0.0003459348517935723,0.00875771138817072
0.009725207462906837,0.0012356486404314637,-0.006337034050375223,0.005310920067131519,-0.00033417672966606915,0.008915283717215061
0.01023589726537466,0.0013035917654633522,-0.00605853321030736,0.004966678097844124,-0.00031190880690701306,0.00869777798652649
0.010929946787655354,0.001270310371182859,-0.006318553816527128,0.004753880202770233,-0.0003201049112249166,0.008772030472755432
0.010187052190303802,0.0012256125919520855,-0.006425852887332439,0.004923559259623289,-0.00032680563163012266,0.008648124523460865
0.010781368240714073,0.0012060735607519746,-0.006307690404355526,0.005265051033347845,-0.0003097604785580188,0.008907919749617577
0.01044262945652008,0.0011551639763638377,-0.006471659056842327,0.005469551309943199,-0.00029305415228009224,0.009085810743272305
0.010001914575695992,0.0011230150703340769,-0.006559091620147228,0.005147229880094528,-0.00027797435177490115,0.008547857403755188
0.010265803895890713,0.001166007248684764,-0.005813190713524818,0.0052654012106359005,-0.00030539347790181637,0.009162603877484798
0.010581104084849358,0.0011564056621864438,-0.0060761552304029465,0.0051355608738958836,-0.00029382426873780787,0.00917969923466444
0.009828171692788601,0.0011280425824224949,-0.006953217089176178,0.005301738157868385,-0.00028089521219953895,0.009620626457035542
0.010365422815084457,0.0012695324840024114,-0.007076387293636799,0.005704076495021582,-0.00029346521478146315,0.009594093076884747
0.010118749924004078,0.0012299082009121776,-0.006320310290902853,0.006289440672844648,-0.0002830713929142803,0.009214271791279316
0.010648882016539574,0.0013878236059099436,-0.006409100256860256,0.005765652749687433,-0.0002724339428823441,0.009605108760297298
0.009976271539926529,0.0013049114495515823,-0.006629450712352991,0.005363572854548693,-0.0002735474263317883,0.009548276662826538
0.009852562099695206,0.001239591627381742,-0.00620057201012969,0.005142152309417725,-0.00026831592549569905,0.009287482127547264
0.01045054942369461,0.0012634391896426678,-0.006252860184758902,0.005360146518796682,-0.00025389541406184435,0.00912332721054554
0.009990599006414413,0.0012364961439743638,-0.006812184117734432,0.005511733703315258,-0.0002403769176453352,0.009221003390848637
0.010678622871637344,0.0012109902454540133,-0.006979337893426418,0.005679619032889605,-0.00027068358031101525,0.009488091804087162
0.01034707110375166,0.0013850702671334147,-0.00662545720115304,0.005532419309020042,-0.0002603992179501802,0.009226256981492043
0.010141868144273758,0.001287523889914155,-0.006030078046023846,0.005534302908927202,-0.0002485897275619209,0.009279890917241573
0.010204373858869076,0.0012333814520388842,-0.006092364434152842,0.006102787330746651,-0.00026691704988479614,0.00911154504865408
0.010200322605669498,0.001272936468012631,-0.006193774752318859,0.00617047818377614,-0.00026490268646739423,0.009682981297373772
0.010422608815133572,0.0012446907348930836,-0.006697271019220352,0.005645101424306631,-0.00025479000760242343,0.009760511107742786
0.010170215740799904,0.0012033641105517745,-0.006612795405089855,0.005393009167164564,-0.0002449219464324415,0.009551793336868286
0.010484999045729637,0.001412500743754208,-0.006889751181006432,0.005554397590458393,-0.0002671500260476023,0.009462502785027027
0.010484999045729637,0.001412500743754208,-0.006889751181006432,0.005554397590458393,-0.0002671500260476023,0.009462502785027027
0.009836381301283836,0.001445719855837524,-0.006919205654412508,0.005246446933597326,-0.00025956769241020083,0.009445741772651672
0.010510222986340523,0.0014319524634629488,-0.006687861401587725,0.005344724282622337,-0.00025066392845474184,0.009554383344948292
0.010425855405628681,0.0013775847619399428,-0.006909796968102455,0.005641762632876635,-0.000306760601233691,0.00970503967255354
0.01048355083912611,0.0014464310370385647,-0.0063280570320785046,0.005447177682071924,-0.0002962433791253716,0.010495590977370739
0.010369976982474327,0.0013679664116352797,-0.006316903978586197,0.00543232960626483,-0.0002785325050354004,0.01058257557451725
0.010317065753042698,0.00127947807777673,-0.006321949418634176,0.00533685926347971,-0.00030770833836868405,0.009854704141616821
0.01013392023742199,0.0013570337323471904,-0.0069480468519032,0.00571336830034852,-0.0002969891647808254,0.00988880917429924
0.01032887864857912,0.001286154380068183,-0.00671166367828846,0.005746679846197367,-0.00028188584838062525,0.01000448502600193
0.010144808329641819,0.001349139609374106,-0.006592021323740482,0.005786493886262178,-0.00030950733344070613,0.010099533945322037
0.011082010343670845,0.0013201978290453553,-0.007228055968880653,0.00604188721626997,-0.00029759787139482796,0.010776147246360779
0.011438132263720036,0.0014814918395131826,-0.007830900140106678,0.005603392608463764,-0.0002843405236490071,0.010511544533073902
0.01015465334057808,0.0014247879153117537,-0.007031440734863281,0.006342107895761728,-0.0003057460126001388,0.01072749961167574
0.010761737823486328,0.001444360357709229,-0.0064204661175608635,0.005967219825834036,-0.0002861899556592107,0.010700579732656479
0.010541139170527458,0.001459116698242724,-0.0071619912050664425,0.005999306682497263,-0.00033427332527935505,0.01128408033400774
0.010635574348270893,0.0013800386805087328,-0.007316038943827152,0.005587754305452108,-0.0003295124042779207,0.011670771054923534
0.010665434412658215,0.0014560101553797722,-0.006990544963628054,0.00619634659960866,-0.00030822239932604134,0.010727480985224247
0.010590248741209507,0.0014047748409211636,-0.006795871537178755,0.006711491383612156,-0.00031659353408031166,0.011644545011222363
0.010946476832032204,0.0015616846503689885,-0.007229316979646683,0.007046522572636604,-0.0003234371542930603,0.011530696414411068
0.010403144173324108,0.0016222649719566107,-0.008138565346598625,0.00635042879730463,-0.00030674782465212047,0.01073405984789133
0.010786863043904305,0.0018370836041867733,-0.007108023855835199,0.00583251379430294,-0.0003322393458802253,0.010502057150006294
0.011096712201833725,0.0017768106190487742,-0.0072899856604635715,0.006293283775448799,-0.00032104316051118076,0.010423867963254452
0.010630170814692974,0.001586710917763412,-0.006896805018186569,0.006683031562715769,-0.00030582945328205824,0.01091405563056469
0.010971100069582462,0.0016032931162044406,-0.008097462356090546,0.00654098205268383,-0.0002916906669270247,0.010811300948262215
0.01073167659342289,0.0015223731752485037,-0.00759406853467226,0.006081622559577227,-0.000313285447191447,0.010783097706735134
0.010924139060080051,0.0016227137530222535,-0.007585269398987293,0.005921046249568462,-0.00030475514358840883,0.011030515655875206
0.010924139060080051,0.0016227137530222535,-0.007585269398987293,0.005921046249568462,-0.00030475514358840883,0.011030515655875206
0.011313799768686295,0.001614048727788031,-0.006813248619437218,0.006660869810730219,-0.0002926751330960542,0.01129827369004488
0.012783494777977467,0.0015135882422327995,-0.007338372990489006,0.0069280583411455154,-0.00028125985409133136,0.01117199007421732
0.01415167935192585,0.0015691081061959267,-0.007392653729766607,0.006382372695952654,-0.00030458951368927956,0.010549687780439854
0.013752545230090618,0.001501097111031413,-0.007207528222352266,0.006026647984981537,-0.0002903742133639753,0.010444959625601768
0.013229752890765667,0.0015950966626405716,-0.0071136862970888615,0.006165497470647097,-0.00027309966390021145,0.011075249873101711
0.013435439206659794,0.0015943647595122457,-0.008183063007891178,0.006833006627857685,-0.0002954398514702916,0.011095759458839893
0.013903072103857994,0.0017053611809387803,-0.00778408395126462,0.006675407290458679,-0.00029137422097846866,0.010749979875981808
0.014106886461377144,0.0017466226126998663,-0.007419649977236986,0.006420515477657318,-0.00029973528580740094,0.011573173105716705
0.014297997578978539,0.0016654811333864927,-0.0073699988424777985,0.006384240463376045,-0.00030610666726715863,0.01143671479076147
0.014113853685557842,0.0017612384399399161,-0.008151371963322163,0.007053119130432606,-0.0002932252536993474,0.011768145486712456
0.01444325502961874,0.0017911005998030305,-0.0076830401085317135,0.0072609977796673775,-0.0002802680537570268,0.011303470470011234
0.014338396489620209,0.0018478413112461567,-0.007551387883722782,0.006912388373166323,-0.00028707925230264664,0.011249843053519726
0.013935239054262638,0.001802843064069748,-0.007582643069326878,0.006504676304757595,-0.00029285752680152655,0.011355169117450714
0.013957292772829533,0.0017844035755842924,-0.008017580956220627,0.006627586670219898,-0.0003318556700833142,0.011406995356082916
0.014205744490027428,0.0016770726069808006,-0.007485605776309967,0.006766191218048334,-0.00035356063744984567,0.011063477024435997
0.014150045812129974,0.0016768511850386858,-0.006952311843633652,0.006826946046203375,-0.00035357472370378673,0.011622896417975426
0.014424516819417477,0.001691683428362012,-0.007622515317052603,0.00725636025890708,-0.0003451088268775493,0.012212105095386505
0.014165159314870834,0.0017179754795506597,-0.007631149608641863,0.007098957896232605,-0.00032524188281968236,0.012235719710588455
0.014045939780771732,0.0018416194943711162,-0.0073478068225085735,0.007297060452401638,-0.0003544086357578635,0.012670918367803097
0.01398064848035574,0.0016983604291453958,-0.007577203214168549,0.007034679874777794,-0.00036206390359438956,0.012444010004401207
0.014624538831412792,0.0017156809335574508,-0.007927518337965012,0.006906346417963505,-0.00036569914664141834,0.0120706707239151
0.014252380467951298,0.001796411699615419,-0.00765509158372879,0.007333343382924795,-0.0004557713109534234,0.01263551227748394
0.014646370895206928,0.0018175358418375254,-0.007359875366091728,0.007447133772075176,-0.00044651408097706735,0.011687209829688072
0.014092574827373028,0.0018153954297304153,-0.0076103173196315765,0.007294473238289356,-0.00040832257946021855,0.011791307479143143
0.014279533177614212,0.0017364361556246877,-0.008050914853811264,0.007170962169766426,-0.00044402381172403693,0.011762102134525776
0.014611720107495785,0.00196072761900723,-0.008206541649997234,0.0081013273447752,-0.0004144693084526807,0.012256480753421783
0.015105056576430798,0.0019666124135255814,-0.007817968726158142,0.00790905486792326,-0.0003851829969789833,0.012840296141803265
0.013890247792005539,0.001997151644900441,-0.00869514886289835,0.007514496799558401,-0.0004152691690251231,0.012362820096313953
0.014332077465951443,0.0017542475834488869,-0.009429685771465302,0.00754309119656682,-0.0003929915837943554,0.012750484049320221
0.014571228995919228,0.0016636347863823175,-0.009275701828300953,0.0077225337736308575,-0.0003701313689816743,0.012369507923722267
0.014571228995919228,0.0016636347863823175,-0.009275701828300953,0.0077225337736308575,-0.0003701313689816743,0.012369507923722267
0.014735698699951172,0.0016945302486419678,-0.009525480680167675,0.00798186007887125,-0.0003928077348973602,0.01253514364361763
0.01478654332458973,0.002022945089265704,-0.009723929688334465,0.007349635474383831,-0.0003780887054745108,0.012239491567015648
0.01361894328147173,0.0019252559868618846,-0.009604276157915592,0.007662826217710972,-0.00035958713851869106,0.012496854178607464
0.014921337366104126,0.0023994636721909046,-0.010361992754042149,0.007918943651020527,-0.00036161806201562285,0.012830417603254318
0.015279203653335571,0.002349339658394456,-0.0102982297539711,0.007720974273979664,-0.0003380606067366898,0.012704026885330677
0.014681943692266941,0.0020183122251182795,-0.009824146516621113,0.00700360257178545,-0.00036899661063216627,0.012677223421633244
0.01444061566144228,0.0018071396043524146,-0.009935480542480946,0.00702799903228879,-0.0003523408086039126,0.012502070516347885
0.014647704549133778,0.0017480956157669425,-0.010368547402322292,0.0074419379234313965,-0.00037893845001235604,0.013117996044456959
0.014628555625677109,0.0016826519276946783,-0.009748201817274094,0.007944663986563683,-0.00036361452657729387,0.013196643441915512
0.014879906550049782,0.0019181293901056051,-0.010470271110534668,0.007369703613221645,-0.0003867197665385902,0.013099665753543377
0.015282496809959412,0.0023122464772313833,-0.0107352240011096,0.0072676921263337135,-0.00037255536881275475,0.012967761605978012
0.015369403176009655,0.0020145659800618887,-0.010627198964357376,0.008022588677704334,-0.0003545847430359572,0.01316644437611103
0.015319744125008583,0.001592569169588387,-0.011150087229907513,0.008089167065918446,-0.00041369348764419556,0.013177151791751385
0.015070709399878979,0.0016190046444535255,-0.010450169444084167,0.008201115764677525,-0.00038523683906532824,0.0132397236302495
0.01563451997935772,0.0015723132528364658,-0.010718567296862602,0.008003419265151024,-0.00035525328712537885,0.01309098582714796
0.01527753658592701,0.001628959202207625,-0.00948398094624281,0.008057421073317528,-0.0003904821933247149,0.013407047837972641
0.015608015470206738,0.0016143317334353924,-0.01093288604170084,0.008106647990643978,-0.0003678620851133019,0.013666965067386627
0.01539546437561512,0.0017374665476381779,-0.0112862354144454,0.008069608360528946,-0.0003446350747253746,0.013517365790903568
0.01595659740269184,0.0016288454644382,-0.010230118408799171,0.008594614453613758,-0.0003706553834490478,0.013371368870139122
0.015434997156262398,0.0017699646996334195,-0.010679158382117748,0.008032488636672497,-0.000356082571670413,0.013816594146192074
0.015722250565886497,0.0016290564090013504,-0.010455319657921791,0.008084675297141075,-0.0003374215739313513,0.013714534230530262
0.015589961782097816,0.001706303795799613,-0.011062373407185078,0.008443855680525303,-0.0003202895459253341,0.014362722635269165
0.01538350060582161,0.0016831276006996632,-0.011134032160043716,0.008343426510691643,-0.00034534494625404477,0.014067196287214756
0.015344447456300259,0.0017775328597053885,-0.010467449203133583,0.008164556697010994,-0.0003320582036394626,0.014064740389585495
0.015526940114796162,0.0016494656447321177,-0.011096588335931301,0.007977533154189587,-0.0003175813762936741,0.013689657673239708
0.015526940114796162,0.0016494656447321177,-0.011096588335931301,0.007977533154189587,-0.0003175813762936741,0.013689657673239708
0.01599709875881672,0.001659166649915278,-0.011001551523804665,0.008621237240731716,-0.000304172484902665,0.013747471384704113
0.015729928389191628,0.0017412675078958273,-0.01047794334590435,0.008721398189663887,-0.0002971212670672685,0.013273535296320915
0.01622794009745121,0.002035746583715081,-0.010967615060508251,0.008212141692638397,-0.0002840481174644083,0.013360042124986649
0.015848634764552116,0.0020570210181176662,-0.010739283636212349,0.008726155385375023,-0.00026752526173368096,0.014469779096543789
0.016087142750620842,0.0018249636050313711,-0.010275812819600105,0.008444743230938911,-0.0002525305317249149,0.013904252089560032
0.015959808602929115,0.0018519897712394595,-0.01078252773731947,0.008394291624426842,-0.00023910966410767287,0.014241298660635948
0.016281407326459885,0.001795936026610434,-0.01029940415173769,0.009000422433018684,-0.00026054459158331156,0.01463725883513689
0.016322430223226547,0.001774981734342873,-0.01113711018115282,0.008434304967522621,-0.0002585825859569013,0.01445995457470417
0.015869341790676117,0.001670384663157165,-0.01140589453279972,0.008575274609029293,-0.00024742024834267795,0.014502343721687794
0.01630059815943241,0.0017043955158442259,-0.010411493480205536,0.008987714536488056,-0.0002707909734454006,0.01503053493797779
0.016170833259820938,0.0017083280254155397,-0.0110182398930192,0.009150631725788116,-0.00026412607985548675,0.015078410506248474
0.016459614038467407,0.001777398749254644,-0.01062710676342249,0.00907130166888237,-0.00028059337637387216,0.015445001423358917
0.016459863632917404,0.0017892055911943316,-0.010174472816288471,0.00832746084779501,-0.0002782170777209103,0.015213669277727604
0.01676267944276333,0.0019160524243488908,-0.011058107018470764,0.008936461061239243,-0.0003352283383719623,0.014701818116009235
0.016453010961413383,0.0019559250213205814,-0.01037993561476469,0.008454385213553905,-0.00037207675632089376,0.014821241609752178
0.016955917701125145,0.0019198717782273889,-0.011165622621774673,0.009425497613847256,-0.0003554286959115416,0.014883638359606266
0.016960343345999718,0.0018683180678635836,-0.011297608725726604,0.009099363349378109,-0.0003857405681628734,0.014834579080343246
0.017654698342084885,0.0018575444119051099,-0.011424201540648937,0.00908072292804718,-0.0004120329685974866,0.015189056284725666
0.017664901912212372,0.0021685324609279633,-0.0109377047047019,0.008889994584023952,-0.0005611280794255435,0.015200335532426834
0.017528079450130463,0.0021891104988753796,-0.010614586062729359,0.0094646867364645,-0.0007287424523383379,0.016059180721640587
0.018100952729582787,0.002372834598645568,-0.011202175170183182,0.009157977066934109,-0.000758323643822223,0.015831105411052704
0.01785590872168541,0.002237345091998577,-0.010693338699638844,0.009152347221970558,-0.0007014472503215075,0.015781555324792862
0.017982713878154755,0.002121151890605688,-0.010196773335337639,0.009272292256355286,-0.0007165576098486781,0.015313209965825081
0.01763438619673252,0.0020622084848582745,-0.010964027605950832,0.009709633886814117,-0.0006567293894477189,0.015396795235574245
0.01696200668811798,0.002002112101763487,-0.01035764068365097,0.008974570780992508,-0.0006081200554035604,0.015398697927594185
0.017131894826889038,0.002118619391694665,-0.010447140783071518,0.009616859257221222,-0.0006211526924744248,0.015501799061894417
0.017449257895350456,0.0021096542477607727,-0.010552531108260155,0.009150462225079536,-0.0006534882122650743,0.015509514138102531
0.01904096081852913,0.002282478380948305,-0.01104266382753849,0.008988441899418831,-0.0005891841719858348,0.015782469883561134
0.01904096081852913,0.002282478380948305,-0.01104266382753849,0.008988441899418831,-0.0005891841719858348,0.015782469883561134
0.019043250009417534,0.002155433874577284,-0.010698164813220501,0.009036916308104992,-0.0005742383655160666,0.015728432685136795
0.01827819086611271,0.0020909870509058237,-0.010352807119488716,0.009298478253185749,-0.0005615529371425509,0.015274826437234879
0.018245134502649307,0.002270791446790099,-0.009763916954398155,0.008862592279911041,-0.000517881300766021,0.015095855109393597
0.0185060054063797,0.002220497466623783,-0.010447842068970203,0.008917310275137424,-0.0005422139656729996,0.015247375704348087
0.018445055931806564,0.0024526629131287336,-0.010377001017332077,0.009090133011341095,-0.0006072679534554482,0.01563975214958191
0.019085809588432312,0.0021967501379549503,-0.010949624702334404,0.008942688815295696,-0.0006451875087805092,0.015696140006184578
0.018772240728139877,0.002262554597109556,-0.011470953933894634,0.00883735716342926,-0.0006277299835346639,0.015770407393574715
0.01797102391719818,0.0020873325411230326,-0.010170790366828442,0.009344068355858326,-0.000644210260361433,0.015548576600849628
0.018203595653176308,0.002223990624770522,-0.009889394044876099,0.009345551021397114,-0.0006002542795613408,0.01571386493742466
0.01834411732852459,0.0022176129277795553,-0.010272663086652756,0.008965802378952503,-0.0007568939472548664,0.014653184451162815
0.01897493377327919,0.00211411458440125,-0.010377667844295502,0.009257078170776367,-0.00079201883636415,0.014890529215335846
0.019523875787854195,0.0023851636797189713,-0.011406990699470043,0.00924074836075306,-0.0008070749463513494,0.01559399627149105
0.018946310505270958,0.002289459342136979,-0.009672951884567738,0.009589790366590023,-0.0007497696205973625,0.016018502414226532
0.0197603702545166,0.002075793920084834,-0.010413402691483498,0.009399834088981152,-0.0007998018991202116,0.016100507229566574
0.0190388523042202,0.0022224581334739923,-0.010667686350643635,0.009658979251980782,-0.0008070803014561534,0.016329912468791008
0.01905687525868416,0.0022685222793370485,-0.01047001127153635,0.009837266989052296,-0.000773496285546571,0.015852276235818863
0.01950715109705925,0.0021767972502857447,-0.010239149443805218,0.009773919358849525,-0.0007348007638938725,0.01606113277375698
0.01896802894771099,0.0023123614955693483,-0.010544916614890099,0.009815097786486149,-0.0007485607056878507,0.01593833602964878
0.018987493589520454,0.0021862599533051252,-0.010077150538563728,0.009843829087913036,-0.000718044291716069,0.016461342573165894
0.019508985802531242,0.002115338807925582,-0.010368854738771915,0.009849964641034603,-0.0006538794259540737,0.016537552699446678
0.019329959526658058,0.0022316607646644115,-0.010063105262815952,0.009516358375549316,-0.0006791407940909266,0.01632249541580677
0.019365055486559868,0.002153834793716669,-0.009792576543986797,0.009566821157932281,-0.0006582500063814223,0.016580361872911453
0.019625460729002953,0.002131591085344553,-0.010738663375377655,0.009441480040550232,-0.0006358763203024864,0.01654932275414467
0.019240735098719597,0.00211650924757123,-0.01008872501552105,0.009228119626641273,-0.0006515620043501258,0.016353117302060127
0.01906670443713665,0.00212471024133265,-0.010297095403075218,0.009487522765994072,-0.000611509254667908,0.016080934554338455
0.019620297476649284,0.0021199947223067284,-0.010757694952189922,0.009691241197288036,-0.0006309322197921574,0.01668950915336609
0.019854890182614326,0.002192392246797681,-0.010344519279897213,0.010418610647320747,-0.0006629477720707655,0.01685299538075924
0.019854890182614326,0.002192392246797681,-0.010344519279897213,0.010418610647320747,-0.0006629477720707655,0.01685299538075924
0.01977180875837803,0.0020953891798853874,-0.011000032536685467,0.010387935675680637,-0.0005968031473457813,0.016790013760328293
0.020241066813468933,0.0022365497425198555,-0.011073669418692589,0.010546608828008175,-0.0006208819686435163,0.016589242964982986
0.020012512803077698,0.0022462818305939436,-0.010099540464580059,0.010170266032218933,-0.0005701027694158256,0.01656169816851616
0.019356682896614075,0.002200304064899683,-0.010407589375972748,0.010476170107722282,-0.000559226144105196,0.01653398387134075
0.019909821450710297,0.0021516780834645033,-0.010171238332986832,0.010001875460147858,-0.0005494409124366939,0.016599740833044052
0.01990637369453907,0.0021069601643830538,-0.009987438097596169,0.009512652643024921,-0.0005124693270772696,0.01655968837440014
0.019873926416039467,0.002120647579431534,-0.011017858050763607,0.009704181924462318,-0.0004524108371697366,0.01676313951611519
0.019873926416039467,0.002120647579431534,-0.011017858050763607,0.009704181924462318,-0.0004524108371697366,0.01676313951611519
0.020337000489234924,0.002102468628436327,-0.011285177432000637,0.009617363102734089,-0.00045124036842025816,0.016749795526266098
0.019825812429189682,0.00232251500710845,-0.011438878253102303,0.009246841073036194,-0.000449660379672423,0.016288669779896736
0.01980874501168728,0.0022579864598810673,-0.011262781918048859,0.010146195068955421,-0.0004172541666775942,0.016653701663017273
0.020344320684671402,0.0024154132697731256,-0.010641380213201046,0.010040422901511192,-0.00044320899178273976,0.016959935426712036
0.01959180273115635,0.002323107561096549,-0.011815826408565044,0.010435855016112328,-0.00042117861448787153,0.017207162454724312
0.019807415083050728,0.0022334710229188204,-0.010496080853044987,0.009827228263020515,-0.00039523988380096853,0.01732279732823372
0.021137896925210953,0.0023077570367604494,-0.011817575432360172,0.010269389487802982,-0.00040111728594638407,0.016520878300070763
0.02029961347579956,0.002765397075563669,-0.011435124091804028,0.009836643934249878,-0.00038014361052773893,0.016604943200945854
0.02028263360261917,0.0029455635230988264,-0.011776397936046124,0.00976288691163063,-0.00037806687760166824,0.016972770914435387
0.01994882896542549,0.0025421716272830963,-0.011942492797970772,0.010172110982239246,-0.0003653294697869569,0.01724744401872158
0.019570665434002876,0.002386197680607438,-0.012592554092407227,0.00984138436615467,-0.0003887740895152092,0.017375830560922623
0.021034834906458855,0.0023915176279842854,-0.01193856168538332,0.009904013015329838,-0.00037716366932727396,0.0178377628326416
0.020982328802347183,0.0022927159443497658,-0.013027540408074856,0.010457315482199192,-0.00035348095116205513,0.0177600234746933
0.020835870876908302,0.0025811789091676474,-0.01275166217237711,0.009983699768781662,-0.0003832710790447891,0.017836207523941994
0.02004394493997097,0.0026444485411047935,-0.012047971598803997,0.010718269273638725,-0.0003898261347785592,0.017201554030179977
0.021169112995266914,0.0025044733192771673,-0.012971916235983372,0.010316560976207256,-0.0003922233881894499,0.016770310699939728
0.02091912552714348,0.002533131279051304,-0.01267232745885849,0.009816060774028301,-0.00045950812636874616,0.017482517287135124
0.020707251504063606,0.0025660416577011347,-0.012680593878030777,0.010031112469732761,-0.0004904462257400155,0.017463570460677147
0.020711537450551987,0.0024415517691522837,-0.012827916070818901,0.010627003386616707,-0.0005240075406618416,0.017702432349324226
0.020811066031455994,0.002565021626651287,-0.01282755471765995,0.010515286587178707,-0.00048746142419986427,0.017850561067461967
0.02021717093884945,0.0025931308045983315,-0.012922948226332664,0.010140851140022278,-0.0005170261138118804,0.017289841547608376
0.02021717093884945,0.0025931308045983315,-0.012922948226332664,0.010140851140022278,-0.0005170261138118804,0.017289841547608376
0.020408999174833298,0.0024826645385473967,-0.012923241592943668,0.0104608703404665,-0.0004820148751605302,0.017832765355706215
0.02106226608157158,0.002762927208095789,-0.012538883835077286,0.01025126501917839,-0.0004480107163544744,0.017935756593942642
0.021508952602744102,0.0026567645836621523,-0.012286940589547157,0.010627610608935356,-0.0004622248816303909,0.018370073288679123
0.02114887908101082,0.0024810407776385546,-0.01333791296929121,0.010499134659767151,-0.00044721379526890814,0.018365809693932533
0.020876627415418625,0.002429418731480837,-0.013078739866614342,0.010108544491231441,-0.00042189459782093763,0.017646733671426773
0.02114713564515114,0.0025055641308426857,-0.013910879381000996,0.010645315982401371,-0.00042788987047970295,0.017205333337187767
0.021041784435510635,0.0024212137795984745,-0.01353475172072649,0.010953981429338455,-0.00040091521805152297,0.017209727317094803
0.02102263644337654,0.002544763730838895,-0.013821045868098736,0.011194374412298203,-0.00043237218051217496,0.01735832169651985
0.02121082693338394,0.0025526932440698147,-0.013245230540633202,0.011386161670088768,-0.00040836248081177473,0.017623160034418106
0.021592749282717705,0.0024625184014439583,-0.013526094146072865,0.01093317847698927,-0.0003801647399086505,0.017848901450634003
0.021282557398080826,0.0027351512107998133,-0.01318455208092928,0.011035380885004997,-0.0004102416569367051,0.018174434080719948
0.021422138437628746,0.0029379981569945812,-0.01346240658313036,0.010580142959952354,-0.0003885243204422295,0.018258577212691307
0.021676091477274895,0.0029308225493878126,-0.013444495387375355,0.010342054069042206,-0.00041141375550068915,0.01792600192129612
0.021870015189051628,0.002689557848498225,-0.013251743279397488,0.011090179905295372,-0.0003950377576984465,0.018255988135933876
0.022070497274398804,0.002654200652614236,-0.013616984710097313,0.011216871440410614,-0.0004480312345549464,0.01818031631410122
0.02192656323313713,0.002719622105360031,-0.013791454955935478,0.01129822339862585,-0.0004707173502538353,0.0198842603713274
0.022529304027557373,0.0028161173686385155,-0.012982883490622044,0.01123654842376709,-0.00047046219697222114,0.01829109527170658
0.022343792021274567,0.0030877310782670975,-0.013565901666879654,0.011461284011602402,-0.0004677017859648913,0.01831240765750408
0.02215571701526642,0.0030773698817938566,-0.013184928335249424,0.011293687857687473,-0.0004913093289360404,0.01851550117135048
0.02208045870065689,0.0030776336789131165,-0.013878531754016876,0.011338314972817898,-0.0005817612982355058,0.018361594527959824
0.022231774404644966,0.0028727692551910877,-0.013504602946341038,0.011737613007426262,-0.0006132622947916389,0.0188188124448061
0.022669890895485878,0.002987135434523225,-0.01385189313441515,0.01157358568161726,-0.0006472461973316967,0.019343528896570206
0.022969301789999008,0.002650267444550991,-0.013322737999260426,0.011525237001478672,-0.0005842259270139039,0.019176291301846504
0.022494934499263763,0.0024031987413764,-0.013862579129636288,0.011631730943918228,-0.0006090959650464356,0.019015606492757797
0.022336993366479874,0.002449947642162442,-0.01358219888061285,0.01133854128420353,-0.0005602382007054985,0.018594713881611824
0.023027174174785614,0.002988349413499236,-0.013886554166674614,0.011784185655415058,-0.0005830750451423228,0.01846734806895256
0.02352588064968586,0.0031140069477260113,-0.013703661039471626,0.011506635695695877,-0.0005435129278339446,0.018953872844576836
0.02352588064968586,0.0031140069477260113,-0.013703661039471626,0.011506635695695877,-0.0005435129278339446,0.018953872844576836
0.022903356701135635,0.0028500836342573166,-0.013927903957664967,0.012006837874650955,-0.0005526009481400251,0.018865589052438736
0.0227969903498888,0.0027426041197031736,-0.013911198824644089,0.01193328108638525,-0.0005484602297656238,0.018572786822915077
0.023204002529382706,0.0026179691776633263,-0.013937671668827534,0.011529861949384212,-0.0005375356413424015,0.018855338916182518
0.023373715579509735,0.002459994051605463,-0.014419849961996078,0.011553962714970112,-0.0005309884436428547,0.01882188394665718
0.023474374786019325,0.0027832319028675556,-0.013856557197868824,0.011394805274903774,-0.0005229059606790543,0.0188105758279562
0.02263139933347702,0.003021129174157977,-0.013953818939626217,0.01239855494350195,-0.0004849878023378551,0.018682220950722694
0.023583747446537018,0.003039522096514702,-0.013560723513364792,0.012379232794046402,-0.0005102659342810512,0.018608374521136284
0.024177581071853638,0.002739986637607217,-0.014152235351502895,0.011473359540104866,-0.0004801322356797755,0.01933913677930832
0.023923901841044426,0.002596444683149457,-0.014119843021035194,0.011657613329589367,-0.0004850862314924598,0.01998482085764408
0.023735973984003067,0.0026732299011200666,-0.014326859265565872,0.010862293653190136,-0.00047067171544767916,0.01934480108320713
0.024254703894257545,0.0026454406324774027,-0.01392563246190548,0.011878353543579578,-0.0004282222653273493,0.01892920769751072
0.023573463782668114,0.002811477519571781,-0.014374176040291786,0.011697969399392605,-0.0004289151111152023,0.01886550709605217
0.02321051061153412,0.00282242801040411,-0.013774991966784,0.01181088574230671,-0.00042914875666610897,0.0193091481924057
0.023558689281344414,0.0027622736524790525,-0.013781385496258736,0.0125594986602664,-0.0003996177692897618,0.019500337541103363
0.02425668202340603,0.002555183367803693,-0.013117929920554161,0.011986549943685532,-0.0004298884596209973,0.020059533417224884
0.023841682821512222,0.0026328321546316147,-0.014177787117660046,0.012400936335325241,-0.0004341620078776032,0.020333224907517433
0.024132566526532173,0.0027390357572585344,-0.014332068152725697,0.012227288447320461,-0.0004341635503806174,0.019733408465981483
0.02495361864566803,0.0027413624338805676,-0.015375211834907532,0.01270526833832264,-0.0004441794299054891,0.02007254771888256
0.02495361864566803,0.0027413624338805676,-0.015375211834907532,0.01270526833832264,-0.0004441794299054891,0.02007254771888256
0.02415502443909645,0.002862890250980854,-0.014309939928352833,0.013073214329779148,-0.000449007551651448,0.020185405388474464
0.024094387888908386,0.0028778656851500273,-0.014559850096702576,0.012848170474171638,-0.00046591326827183366,0.01983923465013504
0.024281775578856468,0.0029097015503793955,-0.014593156985938549,0.012690411880612373,-0.00044854747829958797,0.01980712078511715
0.024358777329325676,0.0028865954373031855,-0.014480752870440483,0.012185957282781601,-0.0004714963724836707,0.020728766918182373
0.02474711276590824,0.002734218491241336,-0.014020994305610657,0.012142688035964966,-0.0004492094449233264,0.01928815245628357
0.024751394987106323,0.0026753756683319807,-0.014562496915459633,0.012056473642587662,-0.0005248734960332513,0.019641553983092308
0.02466527931392193,0.002910152543336153,-0.014604982919991016,0.011793428100645542,-0.0005015390343032777,0.020366113632917404
0.024653490632772446,0.0032016311306506395,-0.014752339571714401,0.012198398821055889,-0.0004969275905750692,0.02091185934841633
0.0248043704777956,0.0031405379995703697,-0.014552108943462372,0.011498994193971157,-0.0004911868018098176,0.02055273950099945
0.02502991445362568,0.003007824532687664,-0.014995907433331013,0.01230581197887659,-0.00045258027967065573,0.020202256739139557
0.02502991445362568,0.003007824532687664,-0.014995907433331013,0.01230581197887659,-0.00045258027967065573,0.020202256739139557
0.024668537080287933,0.002762377494946122,-0.01440760213881731,0.012391687370836735,-0.0004824030038435012,0.02055872604250908
0.025191830471158028,0.0029748938977718353,-0.014792265370488167,0.012705855071544647,-0.00048335574683733284,0.02077973634004593
0.024671630933880806,0.0030273329466581345,-0.014396993443369865,0.012776917777955532,-0.00048009969759732485,0.0210263654589653
0.02442849427461624,0.0030420313123613596,-0.014426800422370434,0.012394076213240623,-0.0005141992587596178,0.020988941192626953
0.024936551228165627,0.003216024488210678,-0.014458841644227505,0.012727553024888039,-0.0005278469761833549,0.021131841465830803
0.02477620355784893,0.0028787318151444197,-0.014805682934820652,0.01224290020763874,-0.0005201327730901539,0.02119661122560501
0.02513216994702816,0.003054918721318245,-0.014745989814400673,0.012771557085216045,-0.0005455132923088968,0.020962823182344437
0.02525744028389454,0.0030530302319675684,-0.014599967747926712,0.01269928552210331,-0.0005643625627271831,0.02076912485063076
0.0233140978962183,0.0026526316069066525,-0.014775851741433144,0.012962288223206997,-0.0005436138017103076,0.021252939477562904
0.025971075519919395,0.00272535951808095,-0.014607460238039494,0.012744653038680553,-0.0006783794378861785,0.02116122655570507
0.025801068171858788,0.0030492511577904224,-0.015032727271318436,0.012571712955832481,-0.0007133734179660678,0.020778680220246315
0.025592539459466934,0.0031072949059307575,-0.014902937225997448,0.012782428413629532,-0.0007147281430661678,0.02103446051478386
0.02500096708536148,0.0031701656989753246,-0.015003041364252567,0.012668224982917309,-0.0006635811878368258,0.021338770166039467
0.025515856221318245,0.00331846228800714,-0.014966499991714954,0.013004792854189873,-0.000664611579850316,0.0211938489228487
0.02528485469520092,0.0029119267128407955,-0.015019640326499939,0.012465079315006733,-0.0006262511014938354,0.02101687714457512
0.026212040334939957,0.0030328435823321342,-0.014684685505926609,0.012920738197863102,-0.0006077777943573892,0.021666157990694046
0.026879599317908287,0.0030816763173788786,-0.015145372599363327,0.013485495001077652,-0.0005959133850410581,0.021668773144483566
0.026264753192663193,0.0029756659641861916,-0.0159910898655653,0.013600021600723267,-0.0005422300891950727,0.021626567468047142
0.025347018614411354,0.003015286521986127,-0.01504538580775261,0.013335407711565495,-0.0005693411221727729,0.021818920969963074
0.026107976213097572,0.0031683410052210093,-0.015465056523680687,0.013208999298512936,-0.0005819241050630808,0.02179911732673645
0.026596181094646454,0.003119661472737789,-0.014823269098997116,0.013407428748905659,-0.0005545096355490386,0.022002479061484337
0.025850730016827583,0.003177384613081813,-0.015638288110494614,0.013691897504031658,-0.0005677329027093947,0.021847767755389214
0.0264753308147192,0.0033446759916841984,-0.014958315528929234,0.013423397205770016,-0.0006023004534654319,0.022378839552402496
0.02757900580763817,0.0030286896508187056,-0.0159145575016737,0.013596436940133572,-0.0005872732726857066,0.022569473832845688
0.02718355692923069,0.003004152560606599,-0.016066038981080055,0.013495845720171928,-0.0006149807595647871,0.022622117772698402
0.02704685553908348,0.0029786766972392797,-0.01659378968179226,0.013939856551587582,-0.0006403635488823056,0.022781793028116226
0.02636333554983139,0.003059383714571595,-0.01647276245057583,0.013884988613426685,-0.0007181352120824158,0.02214646339416504
0.027041947469115257,0.0032343685161322355,-0.015706771984696388,0.01452633272856474,-0.0007220013649202883,0.022092215716838837
0.027041947469115257,0.0032343685161322355,-0.015706771984696388,0.01452633272856474,-0.0007220013649202883,0.022092215716838837
0.027530066668987274,0.0029230639338493347,-0.01646696776151657,0.014130172319710255,-0.0007450972334481776,0.02228311449289322
0.027710145339369774,0.003001399338245392,-0.016215838491916656,0.014320599846541882,-0.0007420902838930488,0.0223834365606308
0.027517439797520638,0.002973903203383088,-0.017301863059401512,0.0139607023447752,-0.0006862122681923211,0.02245336025953293
0.027604535222053528,0.003128990065306425,-0.01631210371851921,0.013804660178720951,-0.0006964687490835786,0.023264488205313683
0.02796074002981186,0.0033414200879633427,-0.016389699652791023,0.012969504110515118,-0.0006445188773795962,0.022481456398963928
0.02761136367917061,0.003154393984004855,-0.016749996691942215,0.013107175007462502,-0.0006207491969689727,0.022045761346817017
0.02756284736096859,0.0031742542050778866,-0.0163246002048254,0.01278372760862112,-0.0006319620879366994,0.02251776121556759
0.027123769745230675,0.003226598259061575,-0.016792183741927147,0.013027094304561615,-0.0005880555254407227,0.02348288521170616
0.028405819088220596,0.0030647083185613155,-0.015698321163654327,0.013371913693845272,-0.0006079921149648726,0.023693570867180824
0.02819196693599224,0.0028556662146002054,-0.016518443822860718,0.01350424811244011,-0.0005639758892357349,0.022588828578591347
0.02827242761850357,0.0027493771631270647,-0.016668861731886864,0.013812674209475517,-0.0005820691003464162,0.02222217433154583
0.028253689408302307,0.0029188578482717276,-0.016583392396569252,0.014393549412488937,-0.0005465872818604112,0.022765886038541794
0.02841554768383503,0.0032056195195764303,-0.016714055091142654,0.014567862264811993,-0.0005638640723191202,0.02379113808274269
0.028748396784067154,0.0030511680524796247,-0.017029820010066032,0.014103223569691181,-0.0005570885259658098,0.02370632067322731
0.0291614830493927,0.0028861011378467083,-0.016726791858673096,0.013793968595564365,-0.0005862364778295159,0.024462057277560234
0.02852644771337509,0.0029024342074990273,-0.01684507541358471,0.014086147770285606,-0.0005785586545243859,0.025176402181386948
0.02876433916389942,0.0029866397380828857,-0.016475576907396317,0.014142878353595734,-0.0005672679981216788,0.02382795326411724
0.02932930923998356,0.0032930581364780664,-0.016162222251296043,0.014305692166090012,-0.0006794531363993883,0.022846858948469162
0.028988106176257133,0.00314292567782104,-0.01699196919798851,0.014431195333600044,-0.0006705293781124055,0.0226074680685997
0.029437394812703133,0.0028379298746585846,-0.01682879589498043,0.01460754033178091,-0.0006438881973735988,0.023364949971437454
0.029584940522909164,0.0030155207496136427,-0.01731221191585064,0.013809199444949627,-0.0006677210330963135,0.024305041879415512
0.02993428334593773,0.0034726096782833338,-0.01668240875005722,0.014108490198850632,-0.000651120557449758,0.024218857288360596
0.030012572184205055,0.0033416880760341883,-0.016861150041222572,0.013951077125966549,-0.0006322034751065075,0.024296391755342484
0.03034070134162903,0.0036154496483504772,-0.0172333512455225,0.013821939006447792,-0.0006292280741035938,0.024409841746091843
0.030667489394545555,0.003346960060298443,-0.016772767528891563,0.013369016349315643,-0.0005914801731705666,0.024456296116113663
0.030413292348384857,0.003589829197153449,-0.017446357756853104,0.013681706972420216,-0.0006226155092008412,0.024608222767710686
0.030413292348384857,0.003589829197153449,-0.017446357756853104,0.013681706972420216,-0.0006226155092008412,0.024608222767710686
0.029958980157971382,0.003242987208068371,-0.016788048669695854,0.013822119683027267,-0.0006449564825743437,0.024435827508568764
0.030562296509742737,0.003387611359357834,-0.01702476479113102,0.01495341770350933,-0.0006576661253347993,0.024806421250104904
0.03166128322482109,0.0034242612309753895,-0.017394209280610085,0.014856858178973198,-0.0006273012841120362,0.024606304243206978
0.03146878629922867,0.0033562975004315376,-0.0173755194991827,0.014919592998921871,-0.0007794479024596512,0.02438375912606716
0.02822599746286869,0.003279251977801323,-0.017353815957903862,0.014728096313774586,-0.0008036166545934975,0.024530259892344475
0.030647950246930122,0.003413719590753317,-0.01681666076183319,0.014919251203536987,-0.0007634590147063136,0.024824131280183792
0.031462810933589935,0.0036865086294710636,-0.01741754822432995,0.014443746767938137,-0.000774812011513859,0.02487035281956196
0.03063911572098732,0.003363191382959485,-0.01753651537001133,0.015194701962172985,-0.0007916907779872417,0.024945314973592758
0.031046781688928604,0.0035953831393271685,-0.017372723668813705,0.014446785673499107,-0.0008179040742106736,0.025000398978590965
0.03249776363372803,0.0038075062911957502,-0.017754901200532913,0.014394036494195461,-0.0007689920021221042,0.025120021775364876
0.032348550856113434,0.003845383645966649,-0.017282580956816673,0.014416229911148548,-0.0007813047850504518,0.02531936764717102
0.03095676563680172,0.003246416337788105,-0.017849938943982124,0.015550065785646439,-0.0007942109368741512,0.02542189508676529
0.032201167196035385,0.0031554140150547028,-0.017499033361673355,0.014715397730469704,-0.0008700391044840217,0.025362154468894005
0.03199956193566322,0.0033652540296316147,-0.018129456788301468,0.014980840496718884,-0.0008497966919094324,0.0249188095331192
0.03157760202884674,0.003189004957675934,-0.01855858787894249,0.01563910022377968,-0.0007737543783150613,0.025376617908477783
0.031469471752643585,0.003391251666471362,-0.0182788148522377,0.015547861345112324,-0.0007754428661428392,0.026450317353010178
0.031272608786821365,0.003191751427948475,-0.018705038353800774,0.015623833984136581,-0.0007445672526955605,0.026355251669883728
0.03164023905992508,0.0032125134021043777,-0.018259774893522263,0.01597137749195099,-0.0007362294709309936,0.025610629469156265
0.03163813427090645,0.0031871884129941463,-0.017981261014938354,0.015238018706440926,-0.0006995873991400003,0.024908408522605896
0.031872376799583435,0.003055349923670292,-0.018398558720946312,0.014982322230935097,-0.0007188183953985572,0.024577928707003593
0.03236297518014908,0.003397200722247362,-0.018068386241793633,0.014379123225808144,-0.0007310180808417499,0.025647584348917007
0.03193668648600578,0.0032532934565097094,-0.018819119781255722,0.01505210343748331,-0.0008154911920428276,0.025742538273334503
0.03186648339033127,0.0030937371775507927,-0.01889158971607685,0.014780079014599323,-0.0008603130117990077,0.02568567916750908
0.032293159514665604,0.0031387885101139545,-0.018148260191082954,0.015230619348585606,-0.00085142080206424,0.02624836005270481
0.032293159514665604,0.0031387885101139545,-0.018148260191082954,0.015230619348585606,-0.00085142080206424,0.02624836005270481
0.03252005577087402,0.0031907791271805763,-0.019308149814605713,0.014657491818070412,-0.0008288173121400177,0.026500234380364418
0.030432553961873055,0.0032881044317036867,-0.018626630306243896,0.01502116397023201,-0.0008194173569791019,0.025446349754929543
0.030432553961873055,0.0032881044317036867,-0.018626630306243896,0.01502116397023201,-0.0008194173569791019,0.025446349754929543
0.033045753836631775,0.0035160700790584087,-0.018650725483894348,0.015534110367298126,-0.0008324655937030911,0.024780908599495888
0.033809561282396317,0.0036959063727408648,-0.01924922689795494,0.015533874742686749,-0.000841524510178715,0.02523224614560604
0.033597808331251144,0.0033057574182748795,-0.019184928387403488,0.015679527074098587,-0.000848405878059566,0.026496345177292824
0.03207581862807274,0.003010301385074854,-0.018502339720726013,0.01544295996427536,-0.0008405221160501242,0.026716619729995728
0.03204952925443649,0.0029666658956557512,-0.018724514171481133,0.015634039416909218,-0.0007715785759501159,0.026281461119651794
0.03355851024389267,0.003291361965239048,-0.01890134997665882,0.015768544748425484,-0.0007850477704778314,0.026169942691922188
0.03304385021328926,0.0032857812475413084,-0.019279584288597107,0.015671977773308754,-0.000776472850702703,0.026355916634202003
0.033404357731342316,0.0035233809612691402,-0.018688950687646866,0.01604468747973442,-0.0007144244154915214,0.02662559039890766
0.0339510552585125,0.003727792529389262,-0.018551019951701164,0.015594573691487312,-0.0007221364066936076,0.02677779085934162
0.03404524549841881,0.00372935994528234,-0.01926393061876297,0.0161345973610878,-0.0006734729395247996,0.026606198400259018
0.03308188170194626,0.0033188126981258392,-0.019242465496063232,0.016003496944904327,-0.0006839258130639791,0.0269588865339756
0.03347426652908325,0.0029732477851212025,-0.019137300550937653,0.016111552715301514,-0.0006828050827607512,0.02706492505967617
0.03372085094451904,0.0032463206443935633,-0.01917019486427307,0.01696832664310932,-0.0007010209956206381,0.026756012812256813
0.03394152596592903,0.003486145753413439,-0.018851395696401596,0.017146756872534752,-0.00064491928787902,0.028133491054177284
0.033829156309366226,0.0034615607000887394,-0.01936660334467888,0.016373058781027794,-0.0007369757513515651,0.027068298310041428
0.03353964537382126,0.003169849282130599,-0.019078847020864487,0.016910342499613762,-0.0007635998772457242,0.027050383388996124
0.03391522169113159,0.0036358237266540527,-0.01921156235039234,0.016340676695108414,-0.0007303825695998967,0.02744763158261776
0.03390984609723091,0.003620354225859046,-0.01964421756565571,0.016378920525312424,-0.0006979129975661635,0.027458615601062775
0.03417981415987015,0.003544073784723878,-0.019248440861701965,0.016355430707335472,-0.0006970264366827905,0.02748563513159752
0.034405939280986786,0.003606639802455902,-0.019009821116924286,0.01677885837852955,-0.0006541419425047934,0.02765817381441593
0.034405939280986786,0.003606639802455902,-0.019009821116924286,0.01677885837852955,-0.0006541419425047934,0.02765817381441593
0.03467068448662758,0.0036943722516298294,-0.019444258883595467,0.017104441300034523,-0.0006515720160678029,0.02774990163743496
0.03415894880890846,0.0038048827555030584,-0.019067132845520973,0.01719091646373272,-0.0006137753371149302,0.027694040909409523
0.03415894880890846,0.0038048827555030584,-0.019067132845520973,0.01719091646373272,-0.0006137753371149302,0.027694040909409523
0.03484669700264931,0.0033638165332376957,-0.019728999584913254,0.016543656587600708,-0.0006380269769579172,0.02738756313920021
0.03490470349788666,0.0033635913860052824,-0.019422106444835663,0.01629369519650936,-0.0005844694096595049,0.027065560221672058
0.03451930731534958,0.003598699113354087,-0.01930720917880535,0.016459863632917404,-0.0006061363965272903,0.027376146987080574
0.034693483263254166,0.0038132586050778627,-0.019721558317542076,0.016211606562137604,-0.0006211193394847214,0.027827003970742226
0.0347607247531414,0.004210104234516621,-0.019229816272854805,0.016659164801239967,-0.0006518876762129366,0.02769332379102707
0.034739602357149124,0.0035593947395682335,-0.01909533143043518,0.01625756174325943,-0.0006807449390180409,0.02733309380710125
0.035416364669799805,0.003304974641650915,-0.019757550209760666,0.01679638773202896,-0.000658377364743501,0.027346352115273476
0.03529370203614235,0.003270187648013234,-0.01951693557202816,0.01633886992931366,-0.0006783483549952507,0.027834080159664154
0.03521407023072243,0.0035525441635400057,-0.019183680415153503,0.016128823161125183,-0.0007306861225515604,0.02833479270339012
0.03532657399773598,0.00373430410400033,-0.019730735570192337,0.016274264082312584,-0.0007836660370230675,0.028065530583262444
0.03592784330248833,0.0038150623440742493,-0.019992394372820854,0.01664690673351288,-0.0008016711799427867,0.026886066421866417
0.03556336089968681,0.0038001767825335264,-0.019528379663825035,0.01695067249238491,-0.00081385497469455,0.02707919478416443
0.03510570898652077,0.003772023366764188,-0.019835619255900383,0.016753623262047768,-0.0007764220354147255,0.028077665716409683
0.037386614829301834,0.0037284602876752615,-0.01962233893573284,0.016614587977528572,-0.0008288093958981335,0.028564052656292915
0.03525017946958542,0.0037887748330831528,-0.019657140597701073,0.01697758585214615,-0.0007470572018064559,0.029828457161784172
0.03506295382976532,0.003867519088089466,-0.020072903484106064,0.016543960198760033,-0.0007595394854433835,0.029239105060696602
0.03673877939581871,0.0038988173473626375,-0.0197355467826128,0.01656222902238369,-0.0007677632384002209,0.026919906958937645
0.03674888238310814,0.003962057642638683,-0.019643986597657204,0.017331445589661598,-0.0007384199416264892,0.027966225519776344
0.037245430052280426,0.003973713144659996,-0.02001403272151947,0.017607824876904488,-0.0007640012190677226,0.028847694396972656
0.036068789660930634,0.003915189299732447,-0.019614599645137787,0.017694145441055298,-0.0007818366284482181,0.029395174235105515
0.036068789660930634,0.003915189299732447,-0.019614599645137787,0.017694145441055298,-0.0007818366284482181,0.029395174235105515
0.03596484661102295,0.003427857765927911,-0.01983398012816906,0.017849233001470566,-0.0007954838802106678,0.02887468785047531
0.03620964661240578,0.0035242086742073298,-0.020395850762724876,0.017458634451031685,-0.0008914536447264254,0.028430283069610596
0.03732702136039734,0.003710651071742177,-0.021747909486293793,0.017839767038822174,-0.0008682337356731296,0.028658701106905937
0.03583356738090515,0.004232510924339294,-0.02092859521508217,0.018210595473647118,-0.0008715110016055405,0.02886592224240303
0.037486981600522995,0.004184935241937637,-0.02024243213236332,0.017938215285539627,-0.000866598857101053,0.028946833685040474
0.037299469113349915,0.004103952553123236,-0.02005738578736782,0.018176989629864693,-0.0008280434994958341,0.028581099584698677
0.03622859716415405,0.0035655510146170855,-0.020128417760133743,0.017880935221910477,-0.0007859429460950196,0.029095984995365143
0.0367276631295681,0.004082002677023411,-0.020527390763163567,0.017717231065034866,-0.0007335165282711387,0.029186638072133064
0.03726111724972725,0.004155314061790705,-0.021063867956399918,0.017727524042129517,-0.0007434668950736523,0.0289015956223011
0.03649863973259926,0.004039007704705,-0.020948898047208786,0.01758972555398941,-0.0007474717567674816,0.029134301468729973
0.0371796078979969,0.003642975352704525,-0.020079536363482475,0.018397187814116478,-0.0006910649826750159,0.029007993638515472
0.037703756242990494,0.003486695233732462,-0.021052593365311623,0.018374532461166382,-0.0007069158018566668,0.029433416202664375
0.03715294972062111,0.0036334844771772623,-0.020979734137654305,0.01817076839506626,-0.0007087041740305722,0.0293436199426651
0.03684592992067337,0.004277649335563183,-0.021413734182715416,0.018258562311530113,-0.0007274282397702336,0.02954091876745224
0.03828587010502815,0.004426258150488138,-0.020727191120386124,0.017492037266492844,-0.0007492693257518113,0.030014436691999435
0.03861783444881439,0.00402269558981061,-0.02102016657590866,0.017377620562911034,-0.0007171667530201375,0.029947848990559578
0.03692059591412544,0.0035052718594670296,-0.020476065576076508,0.017174197360873222,-0.0008065799484029412,0.02921491302549839
0.038357846438884735,0.0034985311795026064,-0.020225699990987778,0.01767873205244541,-0.0007954230532050133,0.029253851622343063
0.037927914410829544,0.0036415443755686283,-0.021797435358166695,0.01787584461271763,-0.0007485915557481349,0.03074267879128456
0.03842911496758461,0.003992928192019463,-0.02140950970351696,0.018426993861794472,-0.0007555087213404477,0.031104978173971176
0.03934086486697197,0.003915759734809399,-0.02071758359670639,0.01898951642215252,-0.0006861568544991314,0.030391206964850426
0.037074439227581024,0.0036476694513112307,-0.02128717303276062,0.018654614686965942,-0.0007015392766334116,0.029191743582487106
0.037739481776952744,0.0035497895441949368,-0.021306375041604042,0.018556023016572,-0.0006823337753303349,0.029406292364001274
0.03924254700541496,0.003663603914901614,-0.020646633580327034,0.018705356866121292,-0.0006962464540265501,0.030406195670366287
0.03924254700541496,0.003663603914901614,-0.020646633580327034,0.018705356866121292,-0.0006962464540265501,0.030406195670366287
0.038475483655929565,0.003726511960849166,-0.020617108792066574,0.018063323572278023,-0.0006928573129698634,0.03033319301903248
0.03848914057016373,0.003722985740751028,-0.021367842331528664,0.01849411427974701,-0.0006671096198260784,0.0310208722949028
0.03849932551383972,0.0035716977436095476,-0.021451184526085854,0.01849006675183773,-0.0006863463204354048,0.03138810023665428
0.03901424631476402,0.0036068777553737164,-0.021337872371077538,0.018114838749170303,-0.0007773945108056068,0.030680816620588303
0.038943421095609665,0.0038342864718288183,-0.021374128758907318,0.018774714320898056,-0.0008284596842713654,0.02996206097304821
0.03929329290986061,0.003849055152386427,-0.021504580974578857,0.018889304250478745,-0.0008403438841924071,0.029857134446501732
0.03887374326586723,0.003734320169314742,-0.021883578971028328,0.018770113587379456,-0.0008476376533508301,0.03137059137225151
0.038914117962121964,0.003922625444829464,-0.021137602627277374,0.019194994121789932,-0.0009298915392719209,0.03151993826031685
0.03937223553657532,0.003932939376682043,-0.021073712036013603,0.018612302839756012,-0.0009612370049580932,0.030643878504633904
0.03926493972539902,0.0037994384765625,-0.021886108443140984,0.018452385440468788,-0.0009359064279124141,0.030969582498073578
0.03974052891135216,0.0037204769905656576,-0.022153977304697037,0.018756384029984474,-0.0008424337720498443,0.03099997714161873
0.039354030042886734,0.003740346757695079,-0.021580075845122337,0.01840541511774063,-0.000843270740006119,0.030759651213884354
0.03952249139547348,0.0038751056417822838,-0.021515406668186188,0.018540797755122185,-0.0007958103669807315,0.031162600964307785
0.040502145886421204,0.003884229576215148,-0.021651556715369225,0.018839754164218903,-0.0007759933359920979,0.031414467841386795
0.03964877501130104,0.0041534509509801865,-0.021253017708659172,0.018866686150431633,-0.0007408437086269259,0.031071096658706665
0.04002826660871506,0.00365634192712605,-0.021477317437529564,0.018963392823934555,-0.0007446611998602748,0.031211046501994133
0.039755821228027344,0.0035177068784832954,-0.02182094193994999,0.019001245498657227,-0.0007706588367000222,0.03122926875948906
0.04001541808247566,0.0035729140508919954,-0.022205548360943794,0.019125118851661682,-0.0008301109191961586,0.03148413076996803
0.04000667482614517,0.004238655790686607,-0.021387582644820213,0.01933596469461918,-0.0008589702192693949,0.031370438635349274
0.03964323177933693,0.004092811141163111,-0.02161017432808876,0.01909368857741356,-0.0008652684045955539,0.03135426342487335
0.03961201012134552,0.003912526648491621,-0.022087758406996727,0.01890677958726883,-0.0009232559823431075,0.03194161877036095
0.04026059806346893,0.0038568638265132904,-0.022410107776522636,0.01888073980808258,-0.0010386871872469783,0.0319281667470932
0.04111112281680107,0.003958653658628464,-0.021489689126610756,0.018572866916656494,-0.0010936908656731248,0.032191503793001175
0.04111112281680107,0.003958653658628464,-0.021489689126610756,0.018572866916656494,-0.0010936908656731248,0.032191503793001175
0.03863779455423355,0.003954002633690834,-0.021655922755599022,0.019683873280882835,-0.001202049432322383,0.032295189797878265
0.03863779455423355,0.003954002633690834,-0.021655922755599022,0.019683873280882835,-0.001202049432322383,0.032295189797878265
0.03990599513053894,0.003841226687654853,-0.02204645797610283,0.018804773688316345,-0.0011582402512431145,0.03163960576057434
0.040376294404268265,0.00432765344157815,-0.022202029824256897,0.019545583054423332,-0.001081353984773159,0.03245111182332039
0.04176507145166397,0.004108141642063856,-0.0224557276815176,0.020188670605421066,-0.0009943475015461445,0.032198335975408554
0.03891413286328316,0.004175389185547829,-0.022346047684550285,0.02004917338490486,-0.0008357404731214046,0.03326931223273277
0.04048343747854233,0.003994468599557877,-0.02307046763598919,0.020512331277132034,-0.0008738463511690497,0.03193499892950058
0.04048343747854233,0.003994468599557877,-0.02307046763598919,0.020512331277132034,-0.0008738463511690497,0.03193499892950058
0.04052864387631416,0.0038885094691067934,-0.022536752745509148,0.0198564063757658,-0.000879152154084295,0.031058382242918015
0.04055798798799515,0.004060185048729181,-0.022174499928951263,0.01945413276553154,-0.0009912842651829123,0.03183046355843544
0.040758393704891205,0.004006079398095608,-0.023081926628947258,0.019634952768683434,-0.0010298558045178652,0.032640665769577026
0.04027102142572403,0.003926883917301893,-0.02260066196322441,0.020050043240189552,-0.0010122187668457627,0.03216937929391861
0.04110105335712433,0.004286675248295069,-0.02234635315835476,0.02043360471725464,-0.0009965661447495222,0.03336774557828903
0.04060748219490051,0.0041347979567945,-0.022078873589634895,0.02008144184947014,-0.0009723445982672274,0.03332999721169472
0.04049137979745865,0.0039452798664569855,-0.02288256771862507,0.019335705786943436,-0.0008244076161645353,0.03177369385957718
0.040478143841028214,0.003881811397150159,-0.02317318506538868,0.01966194435954094,-0.0008175243274308741,0.032867662608623505
0.041865963488817215,0.0038272521924227476,-0.022744812071323395,0.01955551467835903,-0.0008262809133157134,0.03325551748275757
0.04127572849392891,0.003811064874753356,-0.022729117423295975,0.01946030557155609,-0.00079819728853181,0.03312216326594353
0.03943002223968506,0.00419460516422987,-0.022440433502197266,0.019578618928790092,-0.0007107853889465332,0.03312927484512329
0.04039672389626503,0.004217484034597874,-0.022903991863131523,0.019523542374372482,-0.0007296819821931422,0.03331602364778519
0.040074724704027176,0.003958555869758129,-0.02306567132472992,0.019306926056742668,-0.0007496804464608431,0.033045731484889984
0.04120713472366333,0.0034418385475873947,-0.022301169112324715,0.019681178033351898,-0.0007657565292902291,0.033395539969205856
0.04120713472366333,0.0034418385475873947,-0.022301169112324715,0.019681178033351898,-0.0007657565292902291,0.033395539969205856
0.04132039472460747,0.003541849320754409,-0.02277672104537487,0.01991247572004795,-0.0008407611167058349,0.033192746341228485
0.0394383929669857,0.003718458814546466,-0.023364119231700897,0.019626561552286148,-0.0008555414387956262,0.032840754836797714
0.039548736065626144,0.004115075804293156,-0.02331473119556904,0.019694896414875984,-0.0008142782608047128,0.03285713493824005
0.04142607003450394,0.004191114101558924,-0.023327641189098358,0.020186545327305794,-0.0007688854821026325,0.03356863930821419
0.04134856536984444,0.0035618909168988466,-0.02249341830611229,0.020338334143161774,-0.0007728388300165534,0.03397300839424133
0.040350541472435,0.0035505546256899834,-0.022172683849930763,0.019869690760970116,-0.0007752219680696726,0.03365180641412735
0.04102403298020363,0.003717695828527212,-0.022925060242414474,0.020144876092672348,-0.0007860396290197968,0.034659549593925476
0.04091215506196022,0.003856402589008212,-0.023457877337932587,0.02006544917821884,-0.0008162822341546416,0.034025657922029495
0.04147600382566452,0.003467129310593009,-0.023112207651138306,0.019760770723223686,-0.0008377568447031081,0.034332919865846634
0.041119981557130814,0.003357364097610116,-0.022739950567483902,0.020451970398426056,-0.0011793721932917833,0.03401593118906021
0.0410531647503376,0.003463839180767536,-0.022782033309340477,0.020562049001455307,-0.0011711788829416037,0.03444911539554596
0.0414099283516407,0.003690132638439536,-0.023039449006319046,0.019908519461750984,-0.0011116438545286655,0.033732905983924866
0.041803888976573944,0.0038607786409556866,-0.023108365014195442,0.019810307770967484,-0.0010652076452970505,0.034120600670576096
0.042554713785648346,0.004262436646968126,-0.02326800301671028,0.020298639312386513,-0.0009316371870227158,0.035709697753190994
0.04228220507502556,0.0036059580743312836,-0.022769654169678688,0.020131761208176613,-0.000919062236789614,0.03503945842385292
0.042721763253211975,0.0034909925889223814,-0.022703520953655243,0.020022597163915634,-0.0009065094636753201,0.03319789469242096
0.04302950203418732,0.0041312286630272865,-0.023566484451293945,0.02039465121924877,-0.0008101317216642201,0.034582849591970444
