davideferrari95/blind_handover_controller/data/Test 61 - [2024-02-07 -- 15-44-10]/joint_states_data.csv
shoulder_pan_joint,shoulder_lift_joint,elbow_joint,wrist_1_joint,wrist_2_joint,wrist_3_joint
0.006221681367605925,-0.0028868895024061203,-0.00931666698306799,0.010932899080216885,0.00016483278886880726,0.006287786643952131
0.006618559826165438,-0.003330452833324671,-0.00976093765348196,0.011095806956291199,0.0001599495008122176,0.006446853280067444
0.006618559826165438,-0.003330452833324671,-0.00976093765348196,0.011095806956291199,0.0001599495008122176,0.006446853280067444
0.006728744599968195,-0.0036285819951444864,-0.010112457908689976,0.010557780973613262,0.0001778219302650541,0.006493810564279556
0.006829998455941677,-0.003569036489352584,-0.009586025029420853,0.011035880073904991,0.0001759477163432166,0.006432527210563421
0.006125743966549635,-0.003385136602446437,-0.009715310297906399,0.011169801466166973,0.00017136411042883992,0.006138706114143133
0.006521766074001789,-0.0035324557684361935,-0.00952480174601078,0.010965460911393166,0.00016683941066730767,0.006055591162294149
0.00646892748773098,-0.0038201608695089817,-0.009158850647509098,0.011079448275268078,0.0001625353907002136,0.006060522515326738
0.006757935043424368,-0.0034698480740189552,-0.00996883399784565,0.010806623846292496,0.00015844666631892323,0.006289214361459017
0.0062593091279268265,-0.0032001042272895575,-0.009973093867301941,0.010863788425922394,0.000154559820657596,0.006078443955630064
0.006135222967714071,-0.003328780410811305,-0.009304340928792953,0.011222919449210167,0.00015085894847288728,0.006016354076564312
0.006704830098897219,-0.003157334867864847,-0.009946641512215137,0.010890859179198742,0.0001629348989808932,0.006071232259273529
0.006463165394961834,-0.003234842559322715,-0.009504809975624084,0.011274845339357853,0.00016417476581409574,0.006200363859534264
0.006112685427069664,-0.0032021007500588894,-0.009021909907460213,0.01136090513318777,0.00016083111404441297,0.0061223311349749565
0.0062576159834861755,-0.0031387009657919407,-0.009269816800951958,0.011141958646476269,0.00015733693726360798,0.005969510413706303
0.006440100260078907,-0.0027383819688111544,-0.009023723192512989,0.011150348000228405,0.00015075028932187706,0.006222104653716087
0.0061549353413283825,-0.0017654361436143517,-0.00923061277717352,0.011753629893064499,0.00014765856030862778,0.0063715651631355286
0.006536149885505438,-0.0015147378435358405,-0.009552923031151295,0.011395114473998547,0.00015196223102975637,0.0065455129370093346
0.006168403662741184,-0.001356415101327002,-0.00882689282298088,0.011143195442855358,0.00015382452693302184,0.006206257734447718
0.0072772144339978695,-0.0012871396029368043,-0.008850845508277416,0.011082402430474758,0.00014918550732545555,0.006310333032160997
0.006379525642842054,-0.001029975013807416,-0.00972732249647379,0.010694686323404312,0.00014442687097471207,0.0062953149899840355
0.005561605095863342,-0.0011443368857726455,-0.009653899818658829,0.010802228935062885,0.000139937037602067,0.0070015485398471355
0.0058733136393129826,-0.0021032204385846853,-0.009293204173445702,0.011119887232780457,0.0001558169024065137,0.006684625521302223
0.006577188614755869,-0.0019915022421628237,-0.009781070053577423,0.010955213569104671,0.00015763164265081286,0.0064636822789907455
0.006656712386757135,-0.0019498600158840418,-0.009053900837898254,0.011596127413213253,0.00015356445510406047,0.006544844713062048
0.006656712386757135,-0.0019498600158840418,-0.009053900837898254,0.011596127413213253,0.00015356445510406047,0.006544844713062048
0.006162501871585846,-0.0016797748394310474,-0.008753432892262936,0.011343955993652344,0.00014934426872059703,0.0068089901469647884
0.0061223129741847515,-0.0015145408688113093,-0.00945494044572115,0.010821395553648472,0.00014532654313370585,0.006547596305608749
0.005855589639395475,-0.0011191164376214147,-0.009194466285407543,0.011408465914428234,0.00014151763753034174,0.0065246992744505405
0.0058454363606870174,-0.0010013101855292916,-0.008318155072629452,0.010926625691354275,0.00015786064614076167,0.006807835306972265
0.006056869402527809,-0.0010176878422498703,-0.009944049641489983,0.011013323441147804,0.00015668333799112588,0.006870015524327755
0.005909764673560858,-0.0010117862839251757,-0.00930212251842022,0.010862383060157299,0.00015305608394555748,0.0072639561258256435
0.006156443152576685,-0.0011985566234216094,-0.008803244680166245,0.010427970439195633,0.00014943724090699106,0.006303253583610058
0.005750702694058418,-0.0011640001321211457,-0.008863922208547592,0.011468639597296715,0.00014597528206650168,0.005648521706461906
0.005885122809559107,-0.0011227570939809084,-0.010032237507402897,0.011186480522155762,0.00014266940706875175,0.005909288302063942
0.006582904607057571,-0.0011435883352532983,-0.008955879136919975,0.010560732334852219,0.00015810917830094695,0.006454277317970991
0.005800328683108091,-0.0011103253345936537,-0.008307219482958317,0.010973993688821793,0.0001558988296892494,0.007268130779266357
0.006043081171810627,-0.0010616965591907501,-0.008944286964833736,0.01110705267637968,0.0001526721753180027,0.006646986585110426
0.00575147895142436,-0.0010378517908975482,-0.00878999289125204,0.011163577437400818,0.00014950720651540905,0.006275300867855549
0.005895290058106184,-0.0009851920185610652,-0.008577012456953526,0.010378951206803322,0.0001464660745114088,0.006367968861013651
0.006613342557102442,-0.0010807241778820753,-0.009332604706287384,0.00990144070237875,0.0001438114559277892,0.006377054378390312
0.006103415973484516,-0.0010903176153078675,-0.009883190505206585,0.010910013690590858,0.00019023586355615407,0.006540406495332718
0.006100166123360395,-0.0014122405555099249,-0.009551076218485832,0.01054579671472311,0.00017865776317194104,0.0065953489392995834
0.005582707468420267,-0.0013314579846337438,-0.00964408554136753,0.011103176511824131,0.00017184860189445317,0.006270294543355703
0.006615777499973774,-0.0011967342579737306,-0.009156012907624245,0.010870526544749737,0.0001655277010286227,0.006571983452886343
0.005970863625407219,-0.001137512270361185,-0.009395749308168888,0.010691819712519646,0.00015965399506967515,0.0065579283982515335
0.005952402949333191,-0.0012018195120617747,-0.00975222047418356,0.010772887617349625,0.000154182780534029,0.006415469106286764
0.006142876110970974,-0.0011883495608344674,-0.009446816518902779,0.010834640823304653,0.00017687604122329503,0.005874721333384514
0.006020463537424803,-0.0013514774618670344,-0.009803888387978077,0.011297622695565224,0.00017302122432738543,0.005869703833013773
0.006381161045283079,-0.0013090340653434396,-0.010009908117353916,0.011147522367537022,0.00016776412667240947,0.006928446236997843
0.006232140585780144,-0.001606391160748899,-0.009050642140209675,0.010843969881534576,0.00016271634376607835,0.006699529010802507
0.0060668205842375755,-0.0015873523661866784,-0.009382464922964573,0.011391864158213139,0.00015795651415828615,0.006535671651363373
0.0060668205842375755,-0.0015873523661866784,-0.009382464922964573,0.011391864158213139,0.00015795651415828615,0.006535671651363373
0.005848178640007973,-0.0014300071634352207,-0.00915836077183485,0.011068676598370075,0.00015346711734309793,0.006200058851391077
0.005868114996701479,-0.0013364867772907019,-0.009011815302073956,0.010996272787451744,0.0001492257579229772,0.0063129025511443615
0.006320355460047722,-0.0014112998032942414,-0.009147441945970058,0.010957831516861916,0.00014521244156640023,0.006610109005123377
0.006396980490535498,-0.0013675313675776124,-0.009818804450333118,0.010835258290171623,0.0001588755549164489,0.006529280450195074
0.005712526850402355,-0.0012761513935402036,-0.009413676336407661,0.011712099425494671,0.0001603693817742169,0.006767798215150833
0.005938286893069744,-0.0012088242219761014,-0.009309263899922371,0.011782278306782246,0.00015674094902351499,0.006640775594860315
0.00634678453207016,-0.0011778783518821,-0.009294003248214722,0.011718249879777431,0.00015295894991140813,0.007277053315192461
0.0064049288630485535,-0.0012088692747056484,-0.00877371709793806,0.011814500205218792,0.00014933467900846153,0.006693060044199228
0.006254052743315697,-0.0012741673272103071,-0.008755470626056194,0.01133121270686388,0.00014587672194465995,0.006509948521852493
0.006117449142038822,-0.0014305755030363798,-0.009288890287280083,0.011592126451432705,0.0001425752998329699,0.006694630719721317
0.005854925140738487,-0.0015353560447692871,-0.009184202179312706,0.011201955378055573,0.00013941996439825743,0.006720679812133312
0.006280044559389353,-0.0014266008511185646,-0.009031030349433422,0.01106823980808258,0.0001364014606224373,0.006593665108084679
0.0066139353439211845,-0.0014705148059874773,-0.009576236829161644,0.011441892012953758,0.0001335106062470004,0.0065606338903307915
0.006361706648021936,-0.0013493833830580115,-0.009387469850480556,0.011041046120226383,0.00014817164628766477,0.006661806255578995
0.006219521630555391,-0.0013048266991972923,-0.008727910928428173,0.011236093938350677,0.00014629785437136889,0.006553200073540211
0.006238540634512901,-0.0013501908397302032,-0.009011260233819485,0.011100777424871922,0.00014345716044772416,0.006502530537545681
0.006245227064937353,-0.0015352701302617788,-0.009540637023746967,0.011497871950268745,0.00013796445273328573,0.0065945168025791645
0.006653112825006247,-0.0016512245638296008,-0.009156924672424793,0.010623674839735031,0.00013537031190935522,0.006565930787473917
0.0059127784334123135,-0.0015429321210831404,-0.009569164365530014,0.010801305994391441,0.00013287221372593194,0.006450823042541742
0.006047295872122049,-0.0016033435240387917,-0.009245557710528374,0.011263320222496986,0.00013046449748799205,0.006625464651733637
0.006321219727396965,-0.001511748181656003,-0.009271577931940556,0.01076483353972435,0.00012814253568649292,0.006469545420259237
0.0070688193663954735,-0.0015565534122288227,-0.008996443822979927,0.011121437884867191,0.00012590187543537468,0.006493476219475269
0.006540362257510424,-0.0016129110008478165,-0.008544465526938438,0.010983148589730263,0.0001243286533281207,0.006420996971428394
0.0062907179817557335,-0.0015727556310594082,-0.00866081565618515,0.010310620069503784,0.00012179567420389503,0.006585588678717613
0.0062482827343046665,-0.0018644636729732156,-0.009558350779116154,0.010880324058234692,0.00011863889812957495,0.006513463798910379
0.0062482827343046665,-0.0018644636729732156,-0.009558350779116154,0.010880324058234692,0.00011863889812957495,0.006513463798910379
0.006422380451112986,-0.0016969802090898156,-0.00941428355872631,0.010839292779564857,0.00011559466656763107,0.006338333245366812
0.006653174292296171,-0.0014363218797370791,-0.009160116314888,0.010803505778312683,0.00011269971582805738,0.006149243097752333
0.006514568347483873,-0.0014614160172641277,-0.008953713811933994,0.011336291208863258,0.00010994613694492728,0.00647546024993062
0.006137170363217592,-0.0013990688603371382,-0.00903147179633379,0.010567562654614449,0.0001073238963726908,0.006964639760553837
0.00652284175157547,-0.0015955044655129313,-0.008835865184664726,0.010759959928691387,0.00010482370998943225,0.006878418382257223
0.006518213544040918,-0.0016023962525650859,-0.008862624876201153,0.01086820475757122,0.00010243734141113237,0.006693186238408089
0.006642668507993221,-0.0018011495703831315,-0.009366042912006378,0.010656453669071198,0.00010015734005719423,0.006274554878473282
0.006258094217628241,-0.001654807128943503,-0.008846994489431381,0.011022808961570263,9.797652455745265e-05,0.006501607596874237
0.006325436756014824,-0.0015409296611323953,-0.009660986252129078,0.010802184231579304,0.00011254924174863845,0.006862925831228495
0.006208962760865688,-0.0015351942274719477,-0.009665349498391151,0.01082752738147974,0.00011250140960328281,0.006665956694632769
0.006738572847098112,-0.0015296459896489978,-0.009118875488638878,0.011089606210589409,0.00011035230272682384,0.006257915403693914
0.0065264892764389515,-0.0016527734696865082,-0.008597364649176598,0.010691290721297264,0.00010815199493663386,0.00632956949993968
0.006430048029869795,-0.001544658443890512,-0.009508540853857994,0.011121382005512714,0.0001060289578163065,0.006760517135262489
0.00665284926071763,-0.0016585037810727954,-0.009129185229539871,0.01142855640500784,0.00010398721497040242,0.006704449187964201
0.006621025502681732,-0.0017104297876358032,-0.008497326634824276,0.010867206379771233,0.00010202251723967493,0.006542392075061798
0.006802637595683336,-0.0015854776138439775,-0.00880857277661562,0.011174163781106472,0.00010013084101956338,0.006367860361933708
0.006701210979372263,-0.0015633129514753819,-0.009288698434829712,0.010913630947470665,9.830771159613505e-05,0.006635759957134724
0.006728417240083218,-0.0014169178903102875,-0.008924275636672974,0.010827007703483105,9.485407645115629e-05,0.00689885625615716
0.006717851851135492,-0.0016543265664950013,-0.008984857238829136,0.01041638758033514,9.321666584583e-05,0.006730608642101288
0.006826907861977816,-0.001546395942568779,-0.008420138619840145,0.010879190638661385,9.163483628071845e-05,0.006795767694711685
0.006559606175869703,-0.0014304319629445672,-0.00847083143889904,0.010897993110120296,9.010586654767394e-05,0.006816165987402201
0.0071854135021567345,-0.001462789485231042,-0.010294406674802303,0.010189431719481945,8.862688991939649e-05,0.006668092217296362
0.006674597039818764,-0.001354248495772481,-0.009382855147123337,0.01073499582707882,8.719584002392367e-05,0.007044538855552673
0.006889239884912968,-0.0012147618690505624,-0.008760320954024792,0.010813294909894466,8.581019937992096e-05,0.006972463335841894
0.0067130490206182,-0.0011840177467092872,-0.009548783302307129,0.010711855255067348,8.446800347883254e-05,0.006562512833625078
0.00705651706084609,-0.0011325335362926126,-0.009248094633221626,0.011089643463492393,8.316706225741655e-05,0.006538095884025097
0.007096251472830772,-0.0010965594556182623,-0.008841920644044876,0.010440670885145664,8.19055421743542e-05,0.006733691319823265
0.006885991897433996,-0.0010447556851431727,-0.009990503080189228,0.010586101561784744,8.068187889875844e-05,0.006821117829531431
0.006885991897433996,-0.0010447556851431727,-0.009990503080189228,0.010586101561784744,8.068187889875844e-05,0.006821117829531431
0.00741324108093977,-0.0010501821525394917,-0.009097251109778881,0.011055756360292435,7.949415157781914e-05,0.007067003287374973
0.007844042964279652,-0.0011252857511863112,-0.009665182791650295,0.01026275847107172,7.834084681235254e-05,0.006883418187499046
0.007160481996834278,-0.001232585171237588,-0.009897539392113686,0.010814179666340351,7.722058217041194e-05,0.006690082605928183
0.006864794995635748,-0.0012517113937065005,-0.009888109751045704,0.0104951411485672,7.613186608068645e-05,0.0065488191321492195
0.006894836202263832,-0.0011911303736269474,-0.009939631447196007,0.010322117246687412,7.507347618229687e-05,0.0067514763213694096
0.007148104719817638,-0.001144593465141952,-0.009946262463927269,0.010973229072988033,7.404415373457596e-05,0.0073641384951770306
0.007832181639969349,-0.0010392317781224847,-0.00917469896376133,0.01078355684876442,7.304253813344985e-05,0.007008775603026152
0.007202068343758583,-0.0011230402160435915,-0.008558031171560287,0.010312155820429325,7.206774171208963e-05,0.007298113312572241
0.0067148590460419655,-0.0010893516009673476,-0.009655915200710297,0.010943226516246796,7.111865852493793e-05,0.006610236596316099
0.007044505327939987,-0.0010995970806106925,-0.009710838086903095,0.010383027605712414,7.019413897069171e-05,0.006622535176575184
0.007527087815105915,-0.0010963560780510306,-0.00886633712798357,0.010615027509629726,6.929344817763194e-05,0.0071416739374399185
0.007502364460378885,-0.0010757561540231109,-0.009258737787604332,0.011050757952034473,6.841551657998934e-05,0.00705404207110405
0.007475569844245911,-0.0010538422502577305,-0.009741163812577724,0.011034316383302212,6.755958020221442e-05,0.006797640584409237
0.007042496465146542,-0.0011974119115620852,-0.008883213624358177,0.011053783819079399,6.672478775726631e-05,0.006481219548732042
0.007393829990178347,-0.0011411674786359072,-0.010093349032104015,0.010957934893667698,6.511562241939828e-05,0.006773756351321936
0.007283808197826147,-0.0011038972297683358,-0.00928592775017023,0.01117745041847229,6.43397870589979e-05,0.007123734802007675
0.007297227159142494,-0.0011059283278882504,-0.009744687005877495,0.01070684939622879,6.358229438774288e-05,0.007220774423331022
0.008176391944289207,-0.0010711313225328922,-0.010476257652044296,0.011017436161637306,6.28423658781685e-05,0.007093068212270737
0.007808943744748831,-0.0010460459161549807,-0.009729979559779167,0.011280232109129429,6.211939762579277e-05,0.006826336029917002
0.007808943744748831,-0.0010460459161549807,-0.009729979559779167,0.011280232109129429,6.211939762579277e-05,0.006826336029917002
0.0077059585601091385,-0.000994072644971311,-0.009459249675273895,0.010474774055182934,6.141296034911647e-05,0.006708122789859772
0.007139728870242834,-0.0009564461070112884,-0.01016251277178526,0.010723075829446316,6.571247649844736e-05,0.006726949475705624
0.008092784322798252,-0.0009473962709307671,-0.009228955022990704,0.010606409050524235,6.972007395233959e-05,0.006880464032292366
0.007866673171520233,-0.0009410139173269272,-0.009581582620739937,0.010067671537399292,1.777995021257084e-05,0.007126322947442532
0.007558516226708889,-0.0009804252767935395,-0.010167800821363926,0.010489286854863167,1.1609037073867512e-06,0.0070945993065834045
0.007052049972116947,-0.0010055812308564782,-0.009698101319372654,0.010173030197620392,7.579872374208207e-08,0.00654365262016654
0.007496739272028208,-0.001000974327325821,-0.00972764752805233,0.010581351816654205,4.9491148956803954e-09,0.006554422900080681
0.007496836595237255,-0.000990679836831987,-0.010643942281603813,0.011118225753307343,3.2314184661430545e-10,0.006812617182731628
0.007348610553890467,-0.001072388724423945,-0.009189341217279434,0.011015764437615871,2.109885356704755e-11,0.006746519822627306
0.007284583989530802,-0.001158840605057776,-0.009593255817890167,0.011016647331416607,1.3776044107544072e-12,0.006878179032355547
0.008119938895106316,-0.0011185304028913379,-0.009941118769347668,0.011035826988518238,8.994772293527756e-14,0.006889601703733206
0.00770766893401742,-0.0010240357369184494,-0.009806787595152855,0.010728872381150723,5.872943173852686e-15,0.007241673301905394
0.007377369794994593,-0.0010687703033909202,-0.009849924594163895,0.010935568250715733,3.8346121199378037e-16,0.007020676974207163
0.006827104836702347,-0.0010764712933450937,-0.010586567223072052,0.01106490008533001,2.5037276488683678e-17,0.007342895492911339
0.007307745981961489,-0.0010508440900593996,-0.009326138533651829,0.010903495363891125,1.6347550800345938e-18,0.006679749581962824
0.008074240759015083,-0.0010810316307470202,-0.009490457363426685,0.011485339142382145,1.0673782881784562e-19,0.006691811140626669
0.007969065569341183,-0.0010609041200950742,-0.01000076625496149,0.010962818749248981,6.969217188403035e-21,0.007177349179983139
0.007071570493280888,-0.0011345897801220417,-0.009505867958068848,0.010622147470712662,4.550400622191529e-22,0.007226150948554277
0.007867245934903622,-0.001031646621413529,-0.009647955186665058,0.0109128812327981,2.9710861962451726e-23,0.00782938301563263
0.007919379509985447,-0.0011384051758795977,-0.009916778653860092,0.010648727416992188,1.939907179121168e-24,0.006434394512325525
0.007602501194924116,-0.0011346624232828617,-0.009768959134817123,0.011292797513306141,1.2666207074022762e-25,0.006445292849093676
0.0070710559375584126,-0.0010988321155309677,-0.009655115194618702,0.010986337438225746,8.27012884084543e-27,0.006747356615960598
0.007795959245413542,-0.0010173945920541883,-0.009696685709059238,0.010908606462180614,3.5256858980258185e-29,0.007362339645624161
0.00743799889460206,-0.0010330936638638377,-0.00966770201921463,0.01067489292472601,2.302020992413049e-30,0.007444770075380802
0.0073700398206710815,-0.001024935394525528,-0.009711222723126411,0.010767313651740551,1.5030552556337245e-31,0.007054233457893133
0.008022223599255085,-0.0012300710659474134,-0.009339001961052418,0.01058090478181839,9.813876135332925e-33,0.007124397903680801
0.008022223599255085,-0.0012300710659474134,-0.009339001961052418,0.01058090478181839,9.813876135332925e-33,0.007124397903680801
0.008110678754746914,-0.0011749900877475739,-0.009427580051124096,0.010531770065426826,6.407759296286449e-34,0.0073792897164821625
0.008171657100319862,-0.0011300481855869293,-0.009784398600459099,0.011074326001107693,4.1838088175702573e-35,0.007566753774881363
0.00796812865883112,-0.001017858157865703,-0.009830630384385586,0.010950631462037563,2.7317282654758074e-36,0.007458139210939407
0.007735835388302803,-0.0009462033631280065,-0.00952762458473444,0.010843942873179913,1.78362324424122e-37,0.0073187751695513725
0.007869397290050983,-0.0009372629574500024,-0.009448222815990448,0.011162937618792057,1.16457851604489e-38,0.0072250403463840485
0.007404318545013666,-0.0009315866627730429,-0.009740542620420456,0.010524033568799496,7.603865856965755e-40,0.007656717207282782
0.007808669935911894,-0.0009241438820026815,-0.008839957416057587,0.010695762932300568,4.964800459102827e-41,0.007250539027154446
0.008486537262797356,-0.0009050888475030661,-0.009845631197094917,0.010894709266722202,3.241203347983302e-42,0.007168432231992483
0.007946844212710857,-0.0009146705851890147,-0.009616697207093239,0.010110395960509777,2.1159606811304738e-43,0.007393936160951853
0.008256157860159874,-0.000997043214738369,-0.009095842018723488,0.010468603111803532,1.401298464324817e-44,0.007606098428368568
0.008082815445959568,-0.0011256876168772578,-0.009989960119128227,0.010845042765140533,1.401298464324817e-45,0.007456710562109947
0.008947578258812428,-0.0011718787718564272,-0.010027841664850712,0.010196330957114697,0.0,0.0074143558740615845
0.0075777131132781506,-0.001128891482949257,-0.009313792921602726,0.010630342178046703,0.0,0.00696497643366456
0.007273086346685886,-0.0010939310304820538,-0.00953623466193676,0.010766985826194286,0.0,0.007382863666862249
0.008089510723948479,-0.0010325239272788167,-0.00916486606001854,0.010799353942275047,0.0,0.007478184998035431
0.008520389907062054,-0.0010001048212870955,-0.008986836299300194,0.010968619026243687,0.0,0.007318912073969841
0.007716561201959848,-0.0009841161081567407,-0.009481227025389671,0.010860459879040718,0.0,0.007240473758429289
0.008079095743596554,-0.000982537749223411,-0.009419144131243229,0.010986455716192722,0.0,0.007473724894225597
0.008239706978201866,-0.0009854724630713463,-0.008995446376502514,0.011371086351573467,0.0,0.007527297828346491
0.008294251747429371,-0.0010906938696280122,-0.009255390614271164,0.010538565926253796,0.0,0.007654286455363035
0.0075942897237837315,-0.0010948412818834186,-0.009409758262336254,0.010825937613844872,0.0,0.007678268011659384
0.008410419337451458,-0.0011545360321179032,-0.008771580643951893,0.0102118831127882,0.0,0.007076835725456476
0.008327141404151917,-0.0010727203916758299,-0.009553726762533188,0.010502012446522713,0.0,0.007170588709414005
0.008390774950385094,-0.0010460666380822659,-0.009121781215071678,0.01059731375426054,0.0,0.007925345562398434
0.008574655279517174,-0.0009656911715865135,-0.008798319846391678,0.010535366833209991,0.0,0.008448606356978416
0.008556662127375603,-0.0010142824612557888,-0.009744016453623772,0.010822167620062828,0.0,0.008041360415518284
0.008472361601889133,-0.0010085261892527342,-0.009603860788047314,0.01033333595842123,0.0,0.00776304304599762
0.008602677844464779,-0.0009974598651751876,-0.00858562532812357,0.010635226964950562,0.0,0.007891077548265457
0.008602677844464779,-0.0009974598651751876,-0.00858562532812357,0.010635226964950562,0.0,0.007891077548265457
0.008481240831315517,-0.0012465721229091287,-0.009648803621530533,0.010977388359606266,0.0,0.007758500520139933
0.008773877285420895,-0.0010677616810426116,-0.009111523628234863,0.010332773439586163,0.0,0.006886336021125317
0.00864665862172842,-0.001038272283039987,-0.009500928223133087,0.010558812879025936,0.0,0.007103939075022936
0.008602910675108433,-0.0010045928647741675,-0.009324081242084503,0.010536536574363708,0.0,0.007858236320316792
0.008561380207538605,-0.0009085102356038988,-0.009503387846052647,0.010019522160291672,0.0,0.008318017236888409
0.008750560693442822,-0.0009011303191073239,-0.009147761389613152,0.010524953715503216,0.0,0.007825086824595928
0.008772349916398525,-0.0009115106659010053,-0.009426563046872616,0.010853984393179417,0.0,0.008123436942696571
0.008634199388325214,-0.0009101534960791469,-0.008852820843458176,0.010327965021133423,0.0,0.007851341739296913
0.008719108998775482,-0.0010378704173490405,-0.008677778765559196,0.010817610658705235,0.0,0.007576860021799803
0.009178226813673973,-0.0009815992088988423,-0.008985871449112892,0.010425237007439137,0.0,0.00747873168438673
0.009419682435691357,-0.0008740890771150589,-0.009786567650735378,0.010394150391221046,0.0,0.007938887923955917
0.008713759481906891,-0.0008727331296540797,-0.00928326603025198,0.010488866828382015,0.0,0.008289217948913574
0.00843918789178133,-0.0008671603864058852,-0.009297611191868782,0.010456663556396961,0.0,0.008056588470935822
0.00890673603862524,-0.0007845688378438354,-0.009508827701210976,0.010946701280772686,0.0,0.007689622230827808
0.009063681587576866,-0.0006983315688557923,-0.00938655436038971,0.011170253157615662,0.0,0.007568880449980497
0.009025420062243938,-0.0007239513797685504,-0.008382120169699192,0.010796407237648964,0.0,0.008223249576985836
0.009155246429145336,-0.0007635520305484533,-0.009174811653792858,0.010699931532144547,0.0,0.00797662977129221
0.008727525360882282,-0.0010416609002277255,-0.00884777121245861,0.010602589696645737,0.0,0.008191615343093872
0.009510176256299019,-0.0009220449137501419,-0.009722021408379078,0.010906056500971317,0.0,0.008283872157335281
0.00912086945027113,-0.0009136310545727611,-0.009575380012392998,0.010810802690684795,0.0,0.00825114268809557
0.009015202522277832,-0.0008021753747016191,-0.008638136088848114,0.011142155155539513,0.0,0.008012251928448677
0.009015202522277832,-0.0008021753747016191,-0.008638136088848114,0.011142155155539513,0.0,0.008012251928448677
0.00893703754991293,-0.0008116858080029488,-0.009568818844854832,0.01123620755970478,0.0,0.007951091043651104
0.00949378963559866,-0.0007552492897957563,-0.009480291977524757,0.010424644686281681,0.0,0.008410858921706676
0.009031684137880802,-0.0007758284918963909,-0.009336077608168125,0.010523130185902119,2.4063383534667082e-06,0.008295944891870022
0.009433257393538952,-0.0007915063761174679,-0.00903206504881382,0.010647471994161606,1.5711668766016373e-07,0.008328371681272984
0.009136887267231941,-0.000803668110165745,-0.009666684083640575,0.01082451082766056,1.025859752701308e-08,0.00845998153090477
0.009296218864619732,-0.000990125467069447,-0.009392129257321358,0.011146469973027706,6.698130938787017e-10,0.008288523182272911
0.009046041406691074,-0.0009839903796091676,-0.009298557415604591,0.01110630203038454,4.373400599999577e-11,0.00808646809309721
0.010056267492473125,-0.0009669915889389813,-0.009453816339373589,0.01121132168918848,2.8555183391454353e-12,0.007939635775983334
0.0093384375795722,-0.0009207651019096375,-0.009041957557201385,0.010932785458862782,1.8644494856421417e-13,0.008341568522155285
0.009446877986192703,-0.0008489610627293587,-0.00901245977729559,0.010669434443116188,1.217352194255502e-14,0.008143523707985878
0.009218541905283928,-0.0007959671202115715,-0.009707281365990639,0.011209089308977127,7.948439651212923e-16,0.00812950823456049
0.00967070646584034,-0.000808456155937165,-0.010122286155819893,0.010496010072529316,5.1897629268932177e-17,0.008691155351698399
0.009396250359714031,-0.0007840086473152041,-0.009822066873311996,0.010330804623663425,3.3885445521428653e-18,0.009079155512154102
0.009575730189681053,-0.0007293326780200005,-0.01045190542936325,0.01011641975492239,2.2124773034896585e-19,0.00918254442512989
0.010518494993448257,-0.0007460952620021999,-0.0099616264924407,0.010006115771830082,1.4445898373497414e-20,0.008442780934274197
0.009443869814276695,-0.0007805030327290297,-0.010511566884815693,0.010482658632099628,9.432138980447221e-22,0.008508733473718166
0.009809281677007675,-0.0008015834027901292,-0.010327613912522793,0.01112421229481697,6.158512762581776e-23,0.008492058143019676
0.00907228048890829,-0.0008211979293264449,-0.009850087575614452,0.010712459683418274,2.6254703479813684e-25,0.00896148756146431
0.010007907636463642,-0.0008607683703303337,-0.010328682139515877,0.011012539267539978,1.714244359000626e-26,0.008935686200857162
0.009961596690118313,-0.0007737411069683731,-0.010764560662209988,0.010141364298760891,1.1192790316769247e-27,0.008379464969038963
0.009790738113224506,-0.0007908849511295557,-0.010335574857890606,0.010109375230967999,7.308091637254272e-29,0.008589815348386765
0.01002698577940464,-0.0007922794902697206,-0.010709418915212154,0.010082386434078217,4.771662213038664e-30,0.008882402442395687
0.010520430281758308,-0.0008043644484132528,-0.010187753476202488,0.010378063656389713,3.1155542075041476e-31,0.008825750090181828
0.010520430281758308,-0.0008043644484132528,-0.010187753476202488,0.010378063656389713,3.1155542075041476e-31,0.008825750090181828
0.009635359048843384,-0.0008147212211042643,-0.010314025916159153,0.010562499985098839,1.3282096177643266e-33,0.009004934690892696
0.010534084402024746,-0.0007459777989424765,-0.01015365868806839,0.01033773273229599,8.672259508742462e-35,0.00868458766490221
0.00997329130768776,-0.0006558881141245365,-0.010313189588487148,0.010597366839647293,5.6623657584465e-36,0.007894626818597317
0.00997329130768776,-0.0006558881141245365,-0.010313189588487148,0.010597366839647293,5.6623657584465e-36,0.007894626818597317
0.010094230994582176,-0.0006781024858355522,-0.010545586235821247,0.010693029500544071,3.697120399610344e-37,0.00866058748215437
0.01055331900715828,-0.0006727675208821893,-0.009837043471634388,0.010323530063033104,2.413955207359932e-38,0.008376674726605415
0.009783979505300522,-0.0006428910419344902,-0.010523946955800056,0.010530146770179272,1.5761398750170888e-39,0.00846109725534916
0.009919166564941406,-0.0006303717964328825,-0.010162406601011753,0.010517152026295662,1.0291135922001457e-40,0.009023606777191162
0.01039358414709568,-0.0006628548726439476,-0.010713995434343815,0.010743148624897003,6.719226136437498e-42,0.008636166341602802
0.009712807834148407,-0.0005916712107136846,-0.010401085950434208,0.01101373415440321,4.3860641933366774e-43,0.008610881865024567
0.01020282693207264,-0.0005332346190698445,-0.010409243404865265,0.010530121624469757,2.802596928649634e-44,0.008809412829577923
0.010029501281678677,-0.00048529039486311376,-0.010414516553282738,0.01106641348451376,1.401298464324817e-45,0.009358227252960205
0.009991239756345749,-0.00044526075362227857,-0.010693841613829136,0.011038537137210369,0.0,0.00899979192763567
0.010485498234629631,-0.0004113339527975768,-0.010279279202222824,0.010683904401957989,0.0,0.009038743562996387
0.010295460000634193,-0.00038221036083996296,-0.010472261346876621,0.010935071855783463,0.0,0.009263725951313972
0.010070141404867172,-0.0003569407563190907,-0.01046951487660408,0.0108161186799407,0.0,0.008872538805007935
0.009939408861100674,-0.0003898095746990293,-0.009773727506399155,0.011161190457642078,0.0,0.008814981207251549
0.010126590728759766,-0.0003677894710563123,-0.010612298734486103,0.011083015240728855,0.0,0.008911357261240482
0.010003828443586826,-0.0003475089615676552,-0.010026478208601475,0.010599386878311634,0.0,0.009302732534706593
0.010411911644041538,-0.0003293401678092778,-0.009787806309759617,0.01094588078558445,0.0,0.009054252877831459
0.01064025517553091,-0.00031297680106945336,-0.011131410486996174,0.010901867412030697,0.0,0.009361296892166138
0.010206833481788635,-0.00032608446781523526,-0.010192415677011013,0.010779314674437046,0.0,0.009553681127727032
0.010019262321293354,-0.0003112879057880491,-0.010265214368700981,0.010690976865589619,0.0,0.009128186851739883
0.010102987289428711,-0.00029838888440281153,-0.009944275952875614,0.01110065821558237,0.0,0.00946428719907999
0.010427367873489857,-0.00028651405591517687,-0.009556146338582039,0.01123124547302723,0.0,0.00940218660980463
0.010666754096746445,-0.00027554918779060245,-0.01002433244138956,0.010293188504874706,0.0,0.009163165464997292
0.011205814778804779,-0.00026539142709225416,-0.009625076316297054,0.010250657796859741,0.0,0.009486793540418148
0.011477673426270485,-0.00025595692568458617,-0.009098905138671398,0.010477013885974884,0.0,0.009407629258930683
0.010270217433571815,-0.00019826994684990495,-0.010038052685558796,0.010127794928848743,0.0,0.009571924805641174
0.010270217433571815,-0.00019826994684990495,-0.010038052685558796,0.010127794928848743,0.0,0.009571924805641174
0.010316289030015469,-0.0001880526979221031,-0.010060420259833336,0.010652072727680206,0.0,0.009752519428730011
0.010571139864623547,-0.00018048382480628788,-0.009612880647182465,0.010594150982797146,0.0,0.009254755452275276
0.010641336441040039,-0.0001735236292006448,-0.010342428460717201,0.009954074397683144,0.0,0.00928971916437149
0.010464031249284744,-0.00019655261712614447,-0.009945260360836983,0.01078522764146328,0.0,0.009748636744916439
0.01032672543078661,-0.0001932658487930894,-0.00954876746982336,0.010191180743277073,0.0,0.009878965094685555
0.010633787140250206,-0.00018663619994185865,-0.010492007248103619,0.009804563596844673,0.0,0.00915415771305561
0.010806277394294739,-0.0001804016064852476,-0.009844985790550709,0.010442974977195263,0.0,0.00954583752900362
0.010276573710143566,-0.00017456937348470092,-0.009773917496204376,0.009936791844666004,0.0,0.009868430905044079
0.010618906468153,-0.0001876170135801658,-0.01005064882338047,0.01042961049824953,0.0,0.009738689288496971
0.010215054266154766,-0.0001911660365294665,-0.009679482318460941,0.011050726287066936,0.0,0.009600791148841381
0.01012156717479229,-0.00018565659411251545,-0.009911988861858845,0.010294739156961441,0.0,0.00940912775695324
0.010883765295147896,-0.0001803435297915712,-0.010498731397092342,0.010767429135739803,0.0,0.009413305670022964
0.010217199102044106,-0.0001974287733901292,-0.009630593471229076,0.010927748866379261,0.0,0.009913593530654907
0.009537296369671822,-0.0001949061406776309,-0.009586194530129433,0.010316995903849602,0.0,0.0097267534583807
0.010558076202869415,-0.0001898061454994604,-0.009963145479559898,0.010884036310017109,0.0,0.009535856544971466
0.010512550361454487,-0.00018493128300178796,-0.009668526239693165,0.011018597520887852,0.0,0.009904138743877411
0.01029918435961008,-0.00018030025239568204,-0.009853125549852848,0.010708420537412167,0.0,0.009892419911921024
0.010756692849099636,-0.00017589579510968179,-0.010180337354540825,0.010993308387696743,0.0,0.009843598119914532
0.010280176065862179,-0.00017170104547403753,-0.00995918270200491,0.010654494166374207,0.0,0.010004411451518536
0.01104725431650877,-0.00016770200454629958,-0.009349491447210312,0.010994728654623032,0.0,0.009646485559642315
0.010312316007912159,-0.00016023751231841743,-0.0102003775537014,0.01037726178765297,0.0,0.010181368328630924
0.010723563842475414,-0.00015674905444029719,-0.009884742088615894,0.010938393883407116,0.0,0.009960861876606941
0.010793602094054222,-0.00015340937534347177,-0.010142138227820396,0.010672394186258316,0.0,0.010052190162241459
0.010641994886100292,-0.00015020895807538182,-0.00977317150682211,0.010656479746103287,0.0,0.010750696994364262
0.011080375872552395,-0.00014713933342136443,-0.01096710842102766,0.011264250613749027,0.0,0.01072795782238245
0.010417025536298752,-0.00014419271610677242,-0.010320600122213364,0.011002331972122192,0.0,0.010622140020132065
0.010591271333396435,-0.00014136188838165253,-0.009584599174559116,0.01112092100083828,0.0,0.010972646065056324
0.010750950314104557,-0.00013863990898244083,-0.00995942484587431,0.011029819026589394,0.0,0.010247240774333477
0.010750950314104557,-0.00013863990898244083,-0.00995942484587431,0.011029819026589394,0.0,0.010247240774333477
0.010343566536903381,-0.00013602088438346982,-0.008755617775022984,0.010666812770068645,0.0,0.010148409754037857
0.010434952564537525,-0.00013349893561098725,-0.009901972487568855,0.01121832150965929,0.0,0.010723430663347244
0.010672627948224545,-0.00013106876576784998,-0.010579484514892101,0.011022442951798439,0.0,0.01027640514075756
0.010973227210342884,-0.0001287255436182022,-0.009716244414448738,0.010281143710017204,0.0,0.010458721779286861
0.010656381957232952,-0.00011606010957621038,-0.00929121021181345,0.01085900329053402,0.0,0.010750113986432552
0.010775377973914146,-0.00010881889465963468,-0.009806495159864426,0.010738951154053211,0.0,0.01070490200072527
0.01054758857935667,-0.00010690216004149988,-0.010292940773069859,0.010649088770151138,0.0,0.01045131217688322
0.0105524193495512,-0.00010511768778087571,-0.010247558355331421,0.010446415282785892,0.0,0.01047808863222599
0.01058655884116888,-0.0001033925946103409,-0.010939650237560272,0.009964215569198132,0.0,0.01024903729557991
0.010659167543053627,-0.00010172323527513072,-0.010244904085993767,0.010551908053457737,0.0,0.010331572033464909
0.01092610228806734,-0.00010010686673922464,-0.010324633680284023,0.010902886278927326,0.0,0.010437161661684513
0.010434560477733612,-9.854102972894907e-05,-0.010424608364701271,0.010767823085188866,0.0,0.010195937938988209
0.010614518076181412,-9.702354145701975e-05,-0.01016734167933464,0.010604112409055233,0.0,0.010619786567986012
0.011140559799969196,-9.555216820444912e-05,-0.01012961845844984,0.010565151460468769,0.0,0.010588238015770912
0.010845506563782692,-9.412453073309734e-05,-0.011053512804210186,0.01087164506316185,0.0,0.009996449574828148
0.01094576995819807,-9.273904288420454e-05,-0.01026380155235529,0.011714519932866096,0.0,0.01055156346410513
0.010781535878777504,-9.139368921751156e-05,-0.01065027341246605,0.01128219161182642,0.0,0.010391773656010628
0.011464963667094707,-8.881677786121145e-05,-0.010268247686326504,0.011588233523070812,0.0,0.010698990896344185
0.010986353270709515,-8.758222975302488e-05,-0.011056789197027683,0.011618957854807377,-0.00022060435730963945,0.010442289523780346
0.011572390794754028,-8.638136932859197e-05,-0.01046787854284048,0.012234874069690704,-0.00026578287361189723,0.01084941253066063
0.011122968047857285,-8.52130469866097e-05,-0.010102859698235989,0.01152594294399023,-0.00030199429602362216,0.010664989240467548
0.01089249737560749,-8.407584391534328e-05,-0.01107504777610302,0.011784570291638374,-0.00028916122391819954,0.010686197318136692
0.011169975623488426,-8.297321619465947e-05,-0.01075803954154253,0.011761143803596497,-0.0003172974684275687,0.01092914305627346
0.011203204281628132,-8.189021900761873e-05,-0.011002358980476856,0.010953299701213837,-0.00030474146478809416,0.011162021197378635
0.011974242515861988,-8.084337605396286e-05,-0.010605733841657639,0.011499864980578423,-0.00029085169080644846,0.01140439510345459
0.011339180171489716,-7.981965609360486e-05,-0.010590567253530025,0.011193946935236454,-0.0003150292905047536,0.011442679911851883
0.010973694734275341,-7.882100908318534e-05,-0.010990962386131287,0.011822694912552834,-0.00041579839307814837,0.01062521617859602
0.010973694734275341,-7.882100908318534e-05,-0.010990962386131287,0.011822694912552834,-0.00041579839307814837,0.01062521617859602
0.012358025647699833,-7.784711488056928e-05,-0.010948747396469116,0.011478185653686523,-0.00047666564933024347,0.010794181376695633
0.012935038655996323,-7.689691847190261e-05,-0.010559462010860443,0.011008515022695065,-0.0005184345063753426,0.01173250749707222
0.013101527467370033,-7.59697359171696e-05,-0.01092743594199419,0.01158018410205841,-0.0004782389441970736,0.011442821472883224
0.012936129234731197,-7.50645631342195e-05,-0.011009943671524525,0.011268872767686844,-0.0004396414733491838,0.011211087927222252
0.013235938735306263,-7.418076711473987e-05,-0.010754602961242199,0.01155830454081297,-0.0004393858544062823,0.011096692644059658
0.01282448135316372,-7.331746746785939e-05,-0.011867973953485489,0.01128442957997322,-0.00043879009899683297,0.011331173591315746
0.01287644449621439,-7.247409666888416e-05,-0.011346419341862202,0.010887136682868004,-0.00041204222361557186,0.011234077624976635
0.013398121111094952,-7.164982525864616e-05,-0.010603604838252068,0.011619235388934612,-0.0003868573112413287,0.0112751554697752
0.013041387312114239,-7.084418757585809e-05,-0.01178747694939375,0.011281182989478111,-0.0004095106269232929,0.01172284223139286
0.013248732313513756,-3.161757194902748e-05,-0.011518293991684914,0.011098998598754406,-0.0003932956315111369,0.011279880069196224
0.012875167652964592,-2.6233614335069433e-05,-0.011735170148313046,0.011292622424662113,-0.0003732996992766857,0.011197885498404503
0.013260032050311565,-2.579163628979586e-05,-0.011621800251305103,0.010933034121990204,-0.0003549185930751264,0.011547434143722057
0.013322120532393456,-2.5426445063203573e-05,-0.010957736521959305,0.01120890025049448,-0.00034025716013275087,0.011477996595203876
0.01422475092113018,-2.5072271455428563e-05,-0.011282877065241337,0.01103241927921772,-0.0003201216459274292,0.011624293401837349
0.013769108802080154,-2.4727845811867155e-05,-0.011019283905625343,0.010779057629406452,-0.0002991009096149355,0.01199103333055973
0.013412833213806152,-2.4392769773839973e-05,-0.012036161497235298,0.011037604883313179,-0.00028046497027389705,0.011432471685111523
0.01336535345762968,-2.4066637706710026e-05,-0.011442718096077442,0.010954054072499275,-0.00030967139173299074,0.011439427733421326
0.013468851335346699,-2.3439861251972616e-05,-0.011641190387308598,0.011799570173025131,-0.00028349412605166435,0.011817341670393944
0.013283755630254745,-2.313855293323286e-05,-0.011211621575057507,0.011093158274888992,-0.00029128792812116444,0.011902464553713799
0.013743679039180279,-2.284490255988203e-05,-0.011295742355287075,0.011261418461799622,-0.0002978344273287803,0.012024445459246635
0.013075871393084526,-2.2558600903721526e-05,-0.011355350725352764,0.011255609802901745,-0.00028565729735419154,0.011664727702736855
0.013827182352542877,-2.2279386030277237e-05,-0.011674965731799603,0.011471630074083805,-0.000292439479380846,0.011744216084480286
0.013271817937493324,-2.200702510890551e-05,-0.012282279320061207,0.011438022367656231,-0.000298106053378433,0.012335196137428284
0.013665206730365753,-2.174121982534416e-05,-0.011532166041433811,0.01034355629235506,-0.00028736903914250433,0.011983406729996204
0.013665206730365753,-2.174121982534416e-05,-0.011532166041433811,0.01034355629235506,-0.00028736903914250433,0.011983406729996204
0.013327928259968758,-2.1481757357832976e-05,-0.011800707317888737,0.010906691662967205,-0.00027646651142276824,0.01221197284758091
0.013565977104008198,-2.1228417608654127e-05,-0.012082284316420555,0.011093501932919025,-0.00031701658735983074,0.012396477162837982
0.013288554735481739,-2.098098411806859e-05,-0.011638808064162731,0.01079512108117342,-0.00029982023988850415,0.012640764005482197
0.013834896497428417,-2.0739260435220785e-05,-0.012324076145887375,0.011181354522705078,-0.0002813253959175199,0.01233673095703125
0.013973848894238472,-2.050304101430811e-05,-0.011800804175436497,0.01058545708656311,-0.000310580333461985,0.011276817880570889
0.01378681417554617,-1.0273603948007803e-05,-0.01229097694158554,0.011006278917193413,-0.00029960725805722177,0.01176017802208662
0.013628317974507809,-1.0025031770055648e-05,-0.012049349024891853,0.011663596145808697,-0.00028424046467989683,0.012070770375430584
0.013813737779855728,-3.3829912808869267e-06,-0.012044805102050304,0.01106373593211174,-0.0002700489421840757,0.012109373696148396
0.013807456940412521,-4.5387142932895586e-08,-0.012138096615672112,0.010678347200155258,-0.0002571847871877253,0.012414703145623207
0.013821832835674286,-6.089264092956626e-10,-0.011696869507431984,0.011018762364983559,-0.0002757059992291033,0.012104939669370651
0.01398873794823885,-8.169524084999935e-12,-0.012894008308649063,0.011063799262046814,-0.00027324905386194587,0.012593592517077923
0.013681420125067234,-1.0960459292551003e-13,-0.011628678068518639,0.01126079075038433,-0.0002624841872602701,0.012270391918718815
0.013903556391596794,-1.470485512971079e-15,-0.011744659394025803,0.010756237432360649,-0.0002520227280911058,0.012280852533876896
0.013845881447196007,-1.9728439589124472e-17,-0.012146076187491417,0.011617112904787064,-0.0002679273602552712,0.012812908738851547
0.01418400090187788,-2.646821829829069e-19,-0.012049148790538311,0.01147612277418375,-0.00026609873748384416,0.013002768158912659
0.013580163940787315,-3.551049211186068e-21,-0.011662870645523071,0.011057187803089619,-0.00025712340720929205,0.012757426127791405
0.014065473340451717,-4.7641856509298956e-23,-0.01137564517557621,0.011343995109200478,-0.0002490469196345657,0.012635486200451851
0.014107336290180683,-6.391763233923616e-25,-0.012079807929694653,0.011180236004292965,-0.00026630598586052656,0.013097869232296944
0.01560564897954464,-1.150494817179169e-28,-0.011839558370411396,0.011016050353646278,-0.00024001699057407677,0.012975885532796383
0.014161414466798306,-1.5435356135336695e-30,-0.012122669257223606,0.010844985954463482,-0.00025010795798152685,0.01287922915071249
0.01370480377227068,-2.0708500307443923e-32,-0.012154151685535908,0.01109728030860424,-0.00025873573031276464,0.013029641471803188
0.014918269589543343,-2.778309596761026e-34,-0.01190435141324997,0.011265072040259838,-0.00024819019017741084,0.01297647412866354
0.01478629931807518,-3.727457143695675e-36,-0.011362972669303417,0.01111744437366724,-0.00023736665025353432,0.012916192412376404
0.015034652315080166,-5.000859231706219e-38,-0.013063862919807434,0.011727303266525269,-0.00022737479594070464,0.013257291167974472
0.014610384590923786,-6.709290930325435e-40,-0.012216681614518166,0.011801091954112053,-0.00024506720365025103,0.012941027991473675
0.014610384590923786,-6.709290930325435e-40,-0.012216681614518166,0.011801091954112053,-0.00024506720365025103,0.012941027991473675
0.014643142931163311,-1.2051166793193427e-43,-0.012535604648292065,0.011653483845293522,-0.00023547589080408216,0.01339270081371069
0.01507440023124218,-1.401298464324817e-45,-0.011379980482161045,0.011643154546618462,-0.00022702479327563196,0.013489669188857079
0.01507440023124218,-1.401298464324817e-45,-0.011379980482161045,0.011643154546618462,-0.00022702479327563196,0.013489669188857079
0.014282734133303165,-0.0,-0.011845829896628857,0.012147880159318447,-0.00021912959346082062,0.012782944366335869
0.014697891660034657,0.0,-0.01218001451343298,0.011556136421859264,-0.00023800595954526216,0.01324575487524271
0.014521700330078602,0.0,-0.012087779119610786,0.0113553861156106,-0.00023388181580230594,0.013206129893660545
0.014912428334355354,0.0,-0.0126457205042243,0.011457270942628384,-0.0002267516392748803,0.013295580632984638
0.014786803163588047,0.0,-0.011831565760076046,0.010893357917666435,-0.00021984236082062125,0.013194619677960873
0.01488881278783083,0.0,-0.012281644158065319,0.011333930306136608,-0.00023124288418330252,0.013198661617934704
0.014791304245591164,0.0,-0.012318724766373634,0.011131062172353268,-0.0002365688415011391,0.013244505040347576
0.014686535112559795,0.0,-0.012521765194833279,0.01108507253229618,-0.00024788870359770954,0.01301294844597578
0.015120246447622776,0.0,-0.012490388005971909,0.011719068512320518,-0.00025662643020041287,0.01323454175144434
0.01499035581946373,0.0,-0.011824863962829113,0.011205870658159256,-0.00024626264348626137,0.013256199657917023
0.014838558621704578,0.0,-0.012317992746829987,0.011747832410037518,-0.00023560340923722833,0.013349656015634537
0.014978545717895031,0.0,-0.012362318113446236,0.011194009333848953,-0.00025836570421233773,0.013485039584338665
0.015218805521726608,0.0,-0.012463175691664219,0.01083795353770256,-0.00025248504243791103,0.01403274480253458
0.015121842734515667,0.0,-0.012250158004462719,0.011275192722678185,-0.00026003411039710045,0.01389861386269331
0.015106511302292347,0.0,-0.012326782569289207,0.010923567228019238,-0.00026630095089785755,0.014205637387931347
0.014902147464454174,0.0,-0.012286868877708912,0.011245563626289368,-0.00039268299588002264,0.013041037134826183
0.014923921786248684,0.0,-0.012641659006476402,0.011054674163460732,-0.0004403983475640416,0.013561742380261421
0.015336933545768261,0.0,-0.012205509468913078,0.011767236515879631,-0.0004619163810275495,0.013367797248065472
0.014990098774433136,0.0,-0.013023520819842815,0.01144942082464695,-0.0004452248103916645,0.01305148284882307
0.015535334125161171,0.0,-0.012047824449837208,0.011875910684466362,-0.0004721884324681014,0.013109971769154072
0.015006315894424915,0.0,-0.011861685663461685,0.012457342818379402,-0.0004465707461349666,0.013347099535167217
0.015523813664913177,0.0,-0.012430764734745026,0.0119331581518054,-0.0004207057354506105,0.013318645767867565
0.015523813664913177,0.0,-0.012430764734745026,0.0119331581518054,-0.0004207057354506105,0.013318645767867565
0.015494384802877903,0.0,-0.012257231399416924,0.01191054005175829,-0.0005162918823771179,0.01375420019030571
0.015746599063277245,0.0,-0.012901237234473228,0.011384748853743076,-0.0005259273457340896,0.013690781779587269
0.016292525455355644,0.0,-0.012175075709819794,0.011521742679178715,-0.0005181818851269782,0.013776651583611965
0.01636475697159767,0.0,-0.012454478070139885,0.011768234893679619,-0.0004753334214910865,0.013517087325453758
0.016312820836901665,0.0,-0.012109784409403801,0.011727171018719673,-0.000499832327477634,0.01394567359238863
0.015930991619825363,6.470014341175556e-05,-0.012512203305959702,0.012120074592530727,-0.0005204938934184611,0.0139536764472723
0.01570139266550541,0.00021333976474124938,-0.013065972365438938,0.01146888267248869,-0.000500258756801486,0.01435263454914093
0.015478963032364845,0.00020562889403663576,-0.012298059649765491,0.011837562546133995,-0.0005653369007632136,0.014052785001695156
0.016137994825839996,0.00019666865409817547,-0.012714019976556301,0.011785131879150867,-0.0005163144669495523,0.01412486657500267
0.016139553859829903,0.00018843387078959495,-0.012763921171426773,0.011883935891091824,-0.0005501011619344354,0.013851345516741276
0.016410835087299347,0.00021275565086398274,-0.01344402227550745,0.012490205466747284,-0.0005043575074523687,0.01387019082903862
0.01619991473853588,0.00020858833158854395,-0.01251837145537138,0.011872936971485615,-0.0005278871394693851,0.01381649449467659
0.015763480216264725,0.00020088306337129325,-0.012980885803699493,0.012423726730048656,-0.0005297122406773269,0.013670925050973892
0.016089580953121185,0.00021487168851308525,-0.012868836522102356,0.01191694475710392,-0.0005231124814599752,0.014089561067521572
0.01609676517546177,0.00021798598754685372,-0.012928242795169353,0.012244852259755135,-0.0006241548107936978,0.014484654180705547
0.017228852957487106,0.00021083261526655406,-0.013077322393655777,0.01241125725209713,-0.0006161481142044067,0.014511391520500183
0.016547970473766327,0.0002040069957729429,-0.012472708709537983,0.011621302925050259,-0.0006427852204069495,0.014918495900928974
0.016383079811930656,0.0001976079074665904,-0.013438175432384014,0.011606959626078606,-0.0006610248237848282,0.014773942530155182
0.01608579233288765,0.00019159844669047743,-0.012946606613695621,0.011380949057638645,-0.0007729105418547988,0.014637074433267117
0.01650678738951683,0.00021213940635789186,-0.013387102633714676,0.011836200952529907,-0.0008626733906567097,0.014668229967355728
0.016473406925797462,0.0002064095897367224,-0.012880316004157066,0.012042893096804619,-0.0008085582521744072,0.014735949225723743
0.01679503731429577,0.0002642195322550833,-0.013214357197284698,0.011796512641012669,-0.0007015332230366766,0.014711141586303711
0.01679503731429577,0.0002642195322550833,-0.013214357197284698,0.011796512641012669,-0.0007015332230366766,0.014711141586303711
0.017112141475081444,0.0002837055071722716,-0.013394530862569809,0.011623453348875046,-0.0006330612231977284,0.01487380638718605
0.017149874940514565,0.0002696154115255922,-0.01370568573474884,0.011679432354867458,-0.0006158786127343774,0.014767651446163654
0.016594914719462395,0.00029784193611703813,-0.013412331230938435,0.01162605732679367,-0.0005748821422457695,0.016161423176527023
0.017172610387206078,0.0002859675441868603,-0.013150299899280071,0.011824505403637886,-0.0004944956745021045,0.015132507309317589
0.016908874735236168,0.00031210429733619094,-0.013604981824755669,0.01170764584094286,-0.0004444413643795997,0.014239526353776455
0.017280731350183487,0.0003000846190843731,-0.014116151258349419,0.011950374580919743,-0.0004794467822648585,0.014046534895896912
0.017280731350183487,0.0003000846190843731,-0.014116151258349419,0.011950374580919743,-0.0004794467822648585,0.014046534895896912
0.017159558832645416,0.00046463232138194144,-0.014004986733198166,0.011913974769413471,-0.00044481633813120425,0.014812963083386421
0.017428260296583176,0.0004979510558769107,-0.01361938752233982,0.011502434499561787,-0.0004615692305378616,0.014835870824754238
0.017614973708987236,0.0004644041182473302,-0.013824136927723885,0.011540363542735577,-0.00044463391532190144,0.015056896023452282
0.016973674297332764,0.0004904239322058856,-0.013350030407309532,0.011188198812305927,-0.00041626495658420026,0.014924337156116962
0.017853867262601852,0.0004622736305464059,-0.013993639498949051,0.011730789206922054,-0.0004387457447592169,0.015249858610332012
0.017958983778953552,0.0004897447652183473,-0.013335730880498886,0.011392743326723576,-0.0004197533999104053,0.015060017816722393
0.017540547996759415,0.0004621592233888805,-0.01365883182734251,0.010687530972063541,-0.00039702869253233075,0.015272827818989754
0.01791241765022278,0.0005656812572851777,-0.01317265722900629,0.011854962445795536,-0.00039083469891920686,0.015279892832040787
0.01764257811009884,0.0006037938874214888,-0.01424519345164299,0.011463155969977379,-0.000374453462427482,0.015507802367210388
0.017951827496290207,0.0006239263457246125,-0.013841290026903152,0.011831008829176426,-0.00034664649865590036,0.015879996120929718
0.018348554149270058,0.0006303928093984723,-0.014512725174427032,0.012190141715109348,-0.0003531419497448951,0.015572340227663517
0.01786823384463787,0.0006035459227859974,-0.013076059520244598,0.012026330456137657,-0.0003583206271287054,0.016040556132793427
0.017988605424761772,0.000729888619389385,-0.013539988547563553,0.012402786873281002,-0.00036516526597552,0.01562522165477276
0.01807529851794243,0.0007619263487868011,-0.013370169326663017,0.012220538221299648,-0.00036910647759214044,0.015690628439188004
0.018033375963568687,0.0007536359480582178,-0.014147446490824223,0.012087980285286903,-0.0003502382314763963,0.015451652929186821
0.018638810142874718,0.0007697369437664747,-0.014362036250531673,0.01185020711272955,-0.0003550132387317717,0.015076398849487305
0.018074730411171913,0.0007239640690386295,-0.01364982035011053,0.011582531966269016,-0.00035873596789315343,0.014631872996687889
0.01842104271054268,0.0008102883584797382,-0.013593930751085281,0.012231642380356789,-0.0003430413780733943,0.015266929753124714
0.018199268728494644,0.0008293858845718205,-0.013559430837631226,0.011776800267398357,-0.0003849163476843387,0.015773721039295197
0.0187589842826128,0.0008524517761543393,-0.013239841908216476,0.011574223637580872,-0.0003961648035328835,0.016221286728978157
0.0186685249209404,0.0010530090657994151,-0.013676335103809834,0.011448854580521584,-0.0003838344127871096,0.015851035714149475
0.018247541040182114,0.0010650198673829436,-0.013376835733652115,0.011978203430771828,-0.0003593197907321155,0.016107602044939995
0.018734890967607498,0.0010520016076043248,-0.013614576309919357,0.01194603182375431,-0.00038550133467651904,0.0161141287535429
0.018581921234726906,0.001104783732444048,-0.013193485327064991,0.012745975516736507,-0.00036952042137272656,0.016453858464956284
0.018391938880085945,0.0010831428226083517,-0.013974185101687908,0.012521157041192055,-0.00034945071092806756,0.016852783039212227
0.019239695742726326,0.0011544200824573636,-0.013380676507949829,0.012922091409564018,-0.0003751474432647228,0.016716495156288147
0.01910211890935898,0.0012040024157613516,-0.01382465660572052,0.012625224888324738,-0.0003592958382796496,0.01637054979801178
0.01910211890935898,0.0012040024157613516,-0.01382465660572052,0.012625224888324738,-0.0003592958382796496,0.01637054979801178
0.018842702731490135,0.0012682754313573241,-0.014114663004875183,0.01246726792305708,-0.0003844556340482086,0.015459426678717136
0.018842702731490135,0.0012682754313573241,-0.014114663004875183,0.01246726792305708,-0.0003844556340482086,0.015459426678717136
0.019048484042286873,0.0013619721867144108,-0.013614085502922535,0.012390409596264362,-0.000362709688488394,0.016091346740722656
0.01893431507050991,0.0014231271343305707,-0.014208205975592136,0.01278836652636528,-0.0003942445619031787,0.01669495739042759
0.01926051639020443,0.0013646329753100872,-0.013994855806231499,0.012437299825251102,-0.00037481728941202164,0.01632627099752426
0.019199002534151077,0.0012471422087401152,-0.013925869017839432,0.01265795063227415,-0.00040537893073633313,0.016650496050715446
0.01951710693538189,0.001207069493830204,-0.01363143790513277,0.012686066329479218,-0.00038422824582085013,0.016395093873143196
0.02052701637148857,0.0012573107378557324,-0.014139633625745773,0.012274043634533882,-0.0003875683469232172,0.016528569161891937
0.02013360895216465,0.0012851026840507984,-0.0137963080778718,0.012312998063862324,-0.00038986970321275294,0.016389355063438416
0.019227154552936554,0.0014610749203711748,-0.013950083404779434,0.011951304040849209,-0.0005034163477830589,0.016520485281944275
0.019567597657442093,0.0013713603839278221,-0.013736889697611332,0.01262196246534586,-0.0005166676128283143,0.016698958352208138
0.019739413633942604,0.0016072486760094762,-0.013284183107316494,0.012353609316051006,-0.0005100647103972733,0.016629887744784355
0.019563592970371246,0.001605984172783792,-0.013607688248157501,0.012546831741929054,-0.0004685427702497691,0.016816703602671623
0.020377768203616142,0.001485878019593656,-0.013383576646447182,0.012308658100664616,-0.0004660693812184036,0.016637952998280525
0.019979245960712433,0.0015385323204100132,-0.01390912476927042,0.012227962724864483,-0.0004634985525626689,0.016697274520993233
0.019726401194930077,0.0014735906152054667,-0.012947461567819118,0.012299604713916779,-0.0004336565325502306,0.017101554200053215
0.02028215117752552,0.001636901986785233,-0.013724478892982006,0.012310054153203964,-0.0004559495719149709,0.01663557067513466
0.02069033309817314,0.0016823385376483202,-0.013438080437481403,0.01274680532515049,-0.00043522927444428205,0.016615005210042
0.021255653351545334,0.001900385832414031,-0.013530626893043518,0.012488220818340778,-0.00042439764365553856,0.017171984538435936
0.020635977387428284,0.002113012596964836,-0.013489214703440666,0.012618607841432095,-0.0003909225342795253,0.017160559073090553
0.01972148008644581,0.002075385069474578,-0.013104593381285667,0.012538758106529713,-0.0004267223412171006,0.017232544720172882
0.020065393298864365,0.0020528046879917383,-0.01405675895512104,0.01294401939958334,-0.0003995114238932729,0.017464110627770424
0.020783521234989166,0.001942139700986445,-0.013715091161429882,0.01249084621667862,-0.00042993228998966515,0.017299432307481766
0.02155265398323536,0.0018780065001919866,-0.014456341974437237,0.012833627872169018,-0.00043421165901236236,0.017564373090863228
0.02103288285434246,0.0019473941065371037,-0.013788601383566856,0.01236781757324934,-0.00043421165901236236,0.01764030009508133
0.020730948075652122,0.002185798017308116,-0.013762868009507656,0.012831822037696838,-0.0004883632063865662,0.017521100118756294
0.021144425496459007,0.0023717600852251053,-0.0136453527957201,0.012337569147348404,-0.0005082905408926308,0.01775054633617401
0.021144425496459007,0.0023717600852251053,-0.0136453527957201,0.012337569147348404,-0.0005082905408926308,0.01775054633617401
0.02110874466598034,0.0022874721325933933,-0.01442516315728426,0.0123280119150877,-0.0005404792027547956,0.01917053945362568
0.02081497758626938,0.0022319741547107697,-0.013917705975472927,0.012368019670248032,-0.0005626105121336877,0.01722463220357895
0.0211484432220459,0.002109222114086151,-0.0135627631098032,0.01248762384057045,-0.000534487480763346,0.01718289963901043
0.0211974885314703,0.0022580588702112436,-0.014111480675637722,0.012975353747606277,-0.0005547220353037119,0.017353707924485207
0.02106752246618271,0.0026705299969762564,-0.01398899033665657,0.012804555706679821,-0.0005242222105152905,0.018091076985001564
0.021125949919223785,0.0025653208140283823,-0.0144229456782341,0.013220825232565403,-0.0006281807436607778,0.017834898084402084
0.021533384919166565,0.002716618124395609,-0.0140841668471694,0.012820213101804256,-0.0006654851022176445,0.017542609944939613
0.02154933288693428,0.0027068585623055696,-0.014018364250659943,0.013207754120230675,-0.0006720324163325131,0.017374243587255478
0.02143021859228611,0.00271929195150733,-0.01414000615477562,0.012838000431656837,-0.0006278385408222675,0.017588896676898003
0.021125614643096924,0.0025364242028445005,-0.014509456232190132,0.012683282606303692,-0.0006117084412835538,0.017685741186141968
0.021660080179572105,0.0025645906571298838,-0.014494751580059528,0.012719150632619858,-0.0005968239856883883,0.017730647698044777
0.021822504699230194,0.0022898982279002666,-0.015310818329453468,0.012660852633416653,-0.0005532806972041726,0.01770445704460144
0.021205704659223557,0.002478392329066992,-0.014460550621151924,0.01313432864844799,-0.0005407103453762829,0.017485836520791054
0.02127648890018463,0.0027763466350734234,-0.014569820836186409,0.01325417309999466,-0.0005086268647573888,0.01753796450793743
0.021640073508024216,0.0028251586481928825,-0.015025384724140167,0.012459417805075645,-0.0004772172833327204,0.01810932345688343
0.021575313061475754,0.002998106647282839,-0.014394556172192097,0.012835974805057049,-0.0004557385400403291,0.017926525324583054
0.021302180364727974,0.0029159318655729294,-0.014368715696036816,0.012282338924705982,-0.000421384465880692,0.017924027517437935
0.021977266296744347,0.0028384169563651085,-0.014427676796913147,0.01267716009169817,-0.0004515034088399261,0.017798280343413353
0.022212078794836998,0.002672557719051838,-0.014614546671509743,0.013026675209403038,-0.0004249870253261179,0.017936861142516136
0.022212078794836998,0.002672557719051838,-0.014614546671509743,0.013026675209403038,-0.0004249870253261179,0.017936861142516136
0.022076401859521866,0.0028466128278523684,-0.015005752444267273,0.013011500239372253,-0.00044025180977769196,0.018257688730955124
0.0216665156185627,0.003149991389364004,-0.015317559242248535,0.012942761182785034,-0.0004040876228827983,0.018168345093727112
0.0216665156185627,0.003149991389364004,-0.015317559242248535,0.012942761182785034,-0.0004040876228827983,0.018168345093727112
0.02215416170656681,0.0031048718374222517,-0.014792640693485737,0.013673988170921803,-0.0003926980425603688,0.017950478941202164
0.022035058587789536,0.0028392598032951355,-0.014735090546309948,0.013237493112683296,-0.0003721124376170337,0.018010130152106285
0.02174500934779644,0.0029503777623176575,-0.014493921771645546,0.013212719932198524,-0.00034439231967553496,0.018227072432637215
0.022133953869342804,0.0034555629827082157,-0.014818837866187096,0.013001824729144573,-0.00037943277857266366,0.01808692142367363
0.02272717095911503,0.0038852461148053408,-0.014703691937029362,0.013074315153062344,-0.0003871666849590838,0.019004710018634796
0.0224797111004591,0.003661293303593993,-0.01496674120426178,0.012808581814169884,-0.00039010526961646974,0.018116211518645287
0.021581918001174927,0.003480951301753521,-0.014571092091500759,0.012923899106681347,-0.00040785977034829557,0.017954936251044273
0.021397465839982033,0.003178795101121068,-0.015212575905025005,0.013685129582881927,-0.000397599273128435,0.01853802613914013
0.02205263264477253,0.003397416090592742,-0.01457102969288826,0.013118116185069084,-0.0004624202847480774,0.01915070042014122
0.022197015583515167,0.003749548690393567,-0.015192490071058273,0.013094834983348846,-0.000492014572955668,0.019166171550750732
0.022166674956679344,0.0033998636063188314,-0.014562108553946018,0.01313819270581007,-0.0004482311778701842,0.019596640020608902
0.021339157596230507,0.0034912284463644028,-0.015087882056832314,0.013301284052431583,-0.00047817424638196826,0.019391411915421486
0.02222178503870964,0.004160673823207617,-0.014785069972276688,0.012167745269834995,-0.00044804273056797683,0.018889116123318672
0.023032814264297485,0.004151459783315659,-0.01546164508908987,0.013254685327410698,-0.00046497044968418777,0.018434420228004456
0.022506456822156906,0.003972137346863747,-0.014593255706131458,0.012919650413095951,-0.0004477023903746158,0.01846352033317089
0.022108858451247215,0.003931314684450626,-0.01514633372426033,0.01380949653685093,-0.0004189481260254979,0.018804579973220825
0.02199271321296692,0.003937483299523592,-0.0143136503174901,0.013305899687111378,-0.0004341946914792061,0.019645292311906815
0.0222530085593462,0.0039551956579089165,-0.01460034865885973,0.013789990916848183,-0.0004285342001821846,0.019014667719602585
0.02225744165480137,0.0039994860999286175,-0.01541761215776205,0.013259663246572018,-0.00040196729241870344,0.01949634961783886
0.021500488743185997,0.00449353875592351,-0.015161743387579918,0.013238552957773209,-0.0003696850617416203,0.019393546506762505
0.02297830581665039,0.004123280756175518,-0.01532887201756239,0.012927376665174961,-0.0004051470023114234,0.019794566556811333
0.02267574705183506,0.0043562473729252815,-0.014878799207508564,0.013305817730724812,-0.00041153666097670794,0.020109647884964943
0.02206306904554367,0.004146880004554987,-0.015339735895395279,0.01297939382493496,-0.00041306138155050576,0.019810276105999947
0.02206306904554367,0.004146880004554987,-0.015339735895395279,0.01297939382493496,-0.00041306138155050576,0.019810276105999947
0.022139273583889008,0.003923699259757996,-0.015613426454365253,0.013910727575421333,-0.0004374991112854332,0.019052622839808464
0.022472240030765533,0.0040216343477368355,-0.015385613776743412,0.013287918642163277,-0.0004187410813756287,0.018844235688447952
0.02279159054160118,0.003911875654011965,-0.015248101204633713,0.013516925275325775,-0.00039613147964701056,0.019516130909323692
0.022549688816070557,0.003956051077693701,-0.01513654924929142,0.013372779823839664,-0.00037557564792223275,0.020119337365031242
0.022626230493187904,0.004359679762274027,-0.015403404831886292,0.013768373057246208,-0.0004316223494242877,0.02054830826818943
0.02271740511059761,0.004483923781663179,-0.015155789442360401,0.013423201628029346,-0.0003993417776655406,0.02171335183084011
0.02276718057692051,0.004304495174437761,-0.015819186344742775,0.013671302236616611,-0.0003671269805636257,0.0196713674813509
0.023091688752174377,0.004528029356151819,-0.015196290798485279,0.013562641106545925,-0.0003980295732617378,0.019017500802874565
0.0229177325963974,0.0041990093886852264,-0.01541579607874155,0.013872852548956871,-0.0003781286650337279,0.019504811614751816
0.022882064804434776,0.003910222556442022,-0.015106191858649254,0.013897069729864597,-0.0003538607561495155,0.020278915762901306
0.022615885362029076,0.004135058261454105,-0.015972880646586418,0.013976069167256355,-0.000379977427655831,0.020041733980178833
0.022593261674046516,0.004525410011410713,-0.015671974048018456,0.013968330807983875,-0.00036452600033953786,0.01975889876484871
0.022717883810400963,0.0040982747450470924,-0.015761470422148705,0.01387493684887886,-0.000344984931871295,0.02004401758313179
0.023065416142344475,0.004353489726781845,-0.015233724378049374,0.013384436257183552,-0.0003706041316036135,0.019944047555327415
0.022687017917633057,0.0031737214885652065,-0.015565536916255951,0.013207915239036083,-0.0003551589616108686,0.019748544320464134
0.022828446701169014,0.0022591629531234503,-0.015928972512483597,0.014006275683641434,-0.0003593165019992739,0.019984843209385872
0.02319740504026413,0.001593150314874947,-0.015592648647725582,0.0138356639072299,-0.00035159039543941617,0.019939986988902092
0.02302836813032627,0.001424101646989584,-0.0156292375177145,0.013797556050121784,-0.00032733549596741796,0.02018299140036106
0.023541608825325966,0.0011444687843322754,-0.015856696292757988,0.013790635392069817,-0.0003424367168918252,0.02045184001326561
0.023579120635986328,0.0020040483213961124,-0.015210539102554321,0.013338196091353893,-0.00036204044590704143,0.020428083837032318
0.023910630494356155,0.0024141306057572365,-0.015913134440779686,0.013678375631570816,-0.00035409547854214907,0.020303335040807724
0.024092240259051323,0.0028553029987961054,-0.015312781557440758,0.013120864517986774,-0.00035942671820521355,0.02001892775297165
0.02379600889980793,0.002159552415832877,-0.016244929283857346,0.013581824488937855,-0.00036301903310231864,0.020069187507033348
0.023397404700517654,0.001927230623550713,-0.015753328800201416,0.013026109896600246,-0.0003481775347609073,0.0202171690762043
0.023912843316793442,0.0017354616429656744,-0.016178101301193237,0.013083412311971188,-0.0004328134236857295,0.021189646795392036
0.023912843316793442,0.0017354616429656744,-0.016178101301193237,0.013083412311971188,-0.0004328134236857295,0.021189646795392036
0.024111855775117874,0.001594318076968193,-0.016607383266091347,0.01303051970899105,-0.0004018974432256073,0.021163063123822212
0.02448963187634945,0.001683623529970646,-0.016089018434286118,0.013450955040752888,-0.0004235787782818079,0.020789746195077896
0.024652136489748955,0.0021233223378658295,-0.016671886667609215,0.013488702476024628,-0.0004083620442543179,0.020299972966313362
0.02384765073657036,0.00210752640850842,-0.015982629731297493,0.013140419498085976,-0.00038066005799919367,0.020076939836144447
0.02361561730504036,0.002077024197205901,-0.01673043519258499,0.013389447703957558,-0.0004068661655765027,0.020682990550994873
0.024194397032260895,0.001929344842210412,-0.0165029875934124,0.013194987550377846,-0.00038874836172908545,0.020762788131833076
0.024481642991304398,0.0018601809861138463,-0.01674141362309456,0.01345129031687975,-0.0003665761323645711,0.021042583510279655
0.0240721944719553,0.0017496899235993624,-0.01686200127005577,0.012952017597854137,-0.00034644108382053673,0.020550884306430817
0.02470315992832184,0.0019292403012514114,-0.01684826985001564,0.013137760572135448,-0.00037205693661235273,0.02118922397494316
0.025206100195646286,0.0019907252863049507,-0.017589889466762543,0.012952739372849464,-0.00035648103221319616,0.02235008217394352
0.025218695402145386,0.0022140417713671923,-0.01738673448562622,0.013790548779070377,-0.0003720215754583478,0.022078432142734528
0.02450670674443245,0.0023393225856125355,-0.017004376277327538,0.013944998383522034,-0.0003826306201517582,0.021287349984049797
0.024508491158485413,0.002221456728875637,-0.017202995717525482,0.014511831104755402,-0.0003864891186822206,0.021021654829382896
0.024083493277430534,0.002332627773284912,-0.016659995540976524,0.013939689844846725,-0.00036257546162232757,0.020739464089274406
0.024532010778784752,0.002216461580246687,-0.01691948063671589,0.014782433398067951,-0.0003925751952920109,0.021112725138664246
0.025470545515418053,0.00235311989672482,-0.016270224004983902,0.014384059235453606,-0.0003727833682205528,0.02157234586775303
0.025205284357070923,0.0024973030667752028,-0.016756756231188774,0.01393964048475027,-0.0003807308676186949,0.0221517626196146
0.025323424488306046,0.002571590943261981,-0.017198722809553146,0.014407048933207989,-0.000477986759506166,0.02203490398824215
0.025230709463357925,0.0027125689666718245,-0.017099030315876007,0.013824030756950378,-0.00046738170203752816,0.021239200606942177
0.02547403797507286,0.002560340566560626,-0.015962418168783188,0.0139718446880579,-0.00042568944627419114,0.02138323150575161
0.025627627968788147,0.002629621187224984,-0.016899602487683296,0.014167523942887783,-0.00038901480729691684,0.022143647074699402
0.025450102984905243,0.0024274513125419617,-0.017726143822073936,0.01408962719142437,-0.00042457287781871855,0.022283852100372314
0.025415271520614624,0.002500883536413312,-0.01786750741302967,0.014137549325823784,-0.0003976311127189547,0.021969333291053772
0.025734761729836464,0.0026688214857131243,-0.017249057069420815,0.014195695519447327,-0.00042396775097586215,0.021801866590976715
0.026051996275782585,0.002768781268969178,-0.016690216958522797,0.014086452312767506,-0.0004040632920805365,0.022001223638653755
0.026051996275782585,0.002768781268969178,-0.016690216958522797,0.014086452312767506,-0.0004040632920805365,0.022001223638653755
0.026169421151280403,0.0027754970360547304,-0.017775803804397583,0.014132282696664333,-0.00042711131391115487,0.02212066948413849
0.025964470580220222,0.00270790490321815,-0.016753997653722763,0.014189901761710644,-0.00040940268081612885,0.02388814464211464
0.025820521637797356,0.0028192922472953796,-0.016715895384550095,0.013884730637073517,-0.0004309105861466378,0.021652257069945335
0.02600017935037613,0.0028295167721807957,-0.01713380217552185,0.014575433917343616,-0.00045506301103159785,0.021194759756326675
0.025840478017926216,0.0028467969968914986,-0.017129341140389442,0.01446329802274704,-0.00043651697342284024,0.0217302106320858
0.026124142110347748,0.0033037078101187944,-0.017944516614079475,0.014443870633840561,-0.000463221687823534,0.022170118987560272
0.026040686294436455,0.0030423260759562254,-0.017666617408394814,0.014559462666511536,-0.00048511577188037336,0.02217075787484646
0.025966890156269073,0.003104632953181863,-0.017590265721082687,0.014586789533495903,-0.00047055797767825425,0.022059567272663116
0.02640686370432377,0.0033495218958705664,-0.01770731247961521,0.014232066459953785,-0.0006476814742200077,0.022044720128178596
0.02658516727387905,0.003231045324355364,-0.017173854634165764,0.014951677992939949,-0.0006878501153551042,0.021828684955835342
0.027002830058336258,0.0035112600307911634,-0.01736590638756752,0.013867314904928207,-0.0007056343602016568,0.022157112136483192
0.02618502452969551,0.0034394157119095325,-0.016936277970671654,0.014453432522714138,-0.000645725813228637,0.021866681054234505
0.026372218504548073,0.003425310365855694,-0.017299726605415344,0.015150334686040878,-0.0006585088558495045,0.021905941888689995
0.026988109573721886,0.0031659153755754232,-0.017812391743063927,0.015135571360588074,-0.0006789519102312624,0.022404422983527184
0.027086926624178886,0.003197764977812767,-0.017452387139201164,0.014961936511099339,-0.0006495869602076709,0.022192178294062614
0.023820238187909126,0.003454850520938635,-0.017833534628152847,0.01475776731967926,-0.000601191830355674,0.023030998185276985
0.027516797184944153,0.0037074254360049963,-0.017767364159226418,0.014726631343364716,-0.0005464384448714554,0.022981222718954086
0.027931101620197296,0.003430035663768649,-0.0177406407892704,0.01457770261913538,-0.0005571221117861569,0.022952957078814507
0.026837019249796867,0.0034928149543702602,-0.01699058525264263,0.014802765101194382,-0.0005290355766192079,0.022926684468984604
0.027593478560447693,0.003260907018557191,-0.017832394689321518,0.015109882690012455,-0.0005541010177694261,0.023035719990730286
0.02785707451403141,0.0035294541157782078,-0.01810399256646633,0.014198189601302147,-0.000535641040187329,0.0233586598187685
0.027851590886712074,0.0037577066104859114,-0.01739826239645481,0.014595654793083668,-0.0005439731758087873,0.023209383711218834
0.02745860256254673,0.003792781615629792,-0.017574407160282135,0.014661690220236778,-0.0005342537770047784,0.02316913567483425
0.026684988290071487,0.004113039001822472,-0.017325209453701973,0.01542777381837368,-0.0005643951590172946,0.02301318570971489
0.026684988290071487,0.004113039001822472,-0.017325209453701973,0.01542777381837368,-0.0005643951590172946,0.02301318570971489
0.027258271351456642,0.004198033362627029,-0.017724815756082535,0.014857152476906776,-0.0005588039057329297,0.024220017716288567
0.028344983235001564,0.004086814820766449,-0.017666513100266457,0.01489249337464571,-0.0005493725184351206,0.023186324164271355
0.028285164386034012,0.0035189471673220396,-0.01716938614845276,0.014665317721664906,-0.0005124264280311763,0.0224812850356102
0.028201112523674965,0.0035657428670674562,-0.01779763214290142,0.015030830167233944,-0.00060800596838817,0.02292104810476303
0.02788659930229187,0.0037588870618492365,-0.018477512523531914,0.014789719134569168,-0.0006347621674649417,0.023243015632033348
0.028021343052387238,0.00422789016738534,-0.018295401707291603,0.015072645619511604,-0.0006387177854776382,0.02385290525853634
0.028435274958610535,0.0042252857238054276,-0.018924349918961525,0.014399590902030468,-0.0006200927891768515,0.023933755233883858
0.028122540563344955,0.003968836739659309,-0.01789814420044422,0.014581210911273956,-0.0005671249236911535,0.023898426443338394
0.02807009033858776,0.0038311334792524576,-0.017882468178868294,0.013865461573004723,-0.0005894732312299311,0.022956276312470436
0.028559952974319458,0.004289958626031876,-0.01820933073759079,0.014263153076171875,-0.0005493760691024363,0.02278968319296837
0.02856314554810524,0.004112556576728821,-0.01782875694334507,0.014442101120948792,-0.0005777106853201985,0.023061789572238922
0.02881150133907795,0.0039551472291350365,-0.018511677160859108,0.015260736458003521,-0.0005176797276362777,0.023767244070768356
0.028743207454681396,0.004016165621578693,-0.01830066181719303,0.014925844967365265,-0.0005507291643880308,0.023943334817886353
0.028265420347452164,0.003922401461750269,-0.017848646268248558,0.015545019879937172,-0.0005048408638685942,0.024071810767054558
0.028386710211634636,0.004133716691285372,-0.01886763982474804,0.015385464765131474,-0.0005283461650833488,0.024506380781531334
0.028546256944537163,0.004115507937967777,-0.018711768090724945,0.015601025894284248,-0.0004957898636348546,0.024901166558265686
0.028541069477796555,0.003578640054911375,-0.01923629827797413,0.014924176968634129,-0.0004601475375238806,0.024376191198825836
0.029382044449448586,0.004120479803532362,-0.01897379755973816,0.015114647336304188,-0.00048176516429521143,0.02361455373466015
0.02921176142990589,0.0041087353602051735,-0.018084654584527016,0.015089575201272964,-0.000458309194073081,0.023487742990255356
0.02963518351316452,0.00391020392999053,-0.018678300082683563,0.014760185033082962,-0.00041351618710905313,0.024446118623018265
0.02924434281885624,0.0039183213375508785,-0.018187373876571655,0.0147244893014431,-0.00038261740701273084,0.024666016921401024
0.028996502980589867,0.003906605299562216,-0.019150957465171814,0.014419492334127426,-0.00035286875208839774,0.02418389916419983
0.029615260660648346,0.0038227492477744818,-0.019686149433255196,0.01450122706592083,-0.0003752964548766613,0.024089567363262177
0.029744207859039307,0.004071162547916174,-0.018532078713178635,0.01505633257329464,-0.00036488723708316684,0.024051383137702942
0.02848622389137745,0.0040727704763412476,-0.01905950717628002,0.015283140353858471,-0.00039207839290611446,0.025287864729762077
0.02960074506700039,0.0038288359064608812,-0.01918894052505493,0.015077742747962475,-0.00037551080458797514,0.023785430938005447
0.03024999611079693,0.003669454250484705,-0.018808992579579353,0.014482024125754833,-0.0003794968652073294,0.02372625470161438
0.03024999611079693,0.003669454250484705,-0.018808992579579353,0.014482024125754833,-0.0003794968652073294,0.02372625470161438
0.03040083311498165,0.003713086945936084,-0.01930975541472435,0.014990660361945629,-0.0003821933933068067,0.023974642157554626
0.030426036566495895,0.003825488733127713,-0.019435236230492592,0.014653871767222881,-0.00046684741391800344,0.024244606494903564
0.0292409248650074,0.004228726960718632,-0.019064461812376976,0.015139066614210606,-0.0004374234995339066,0.02479211427271366
0.028800567612051964,0.004028201103210449,-0.019604723900556564,0.014890000224113464,-0.00047379458555951715,0.025161219760775566
0.03026978299021721,0.0038599988911300898,-0.019708916544914246,0.015178539790213108,-0.0004755878180731088,0.024893395602703094
0.030050136148929596,0.0037886323407292366,-0.019219420850276947,0.015078582800924778,-0.00047257423284463584,0.02515375427901745
0.02980639599263668,0.0037562705110758543,-0.01930987276136875,0.015602048486471176,-0.0004960732767358422,0.02500721998512745
0.03090810775756836,0.004264127463102341,-0.019091468304395676,0.0152660571038723,-0.000471171282697469,0.02461380511522293
0.030192380771040916,0.003783145220950246,-0.018359970301389694,0.015543291345238686,-0.0005645561031997204,0.02451951615512371
0.029571231454610825,0.0030653567519038916,-0.019200263544917107,0.015411117114126682,-0.0005947021418251097,0.024725744500756264
0.02935461699962616,0.002913529984652996,-0.020047502592206,0.015839172527194023,-0.0005577219417318702,0.024803170934319496
0.02935001812875271,0.0030756271444261074,-0.01889006793498993,0.016386432573199272,-0.0005853267502970994,0.025271207094192505
0.02989903837442398,0.0036275763995945454,-0.018768232315778732,0.01680895686149597,-0.0005969261401332915,0.025950578972697258
0.03021223284304142,0.003806370310485363,-0.019650716334581375,0.017504453659057617,-0.0005676981527358294,0.02594340592622757
0.02999621257185936,0.0037117714527994394,-0.019256969913840294,0.016301164403557777,-0.0005281117628328502,0.02509492076933384
0.0302039235830307,0.0036258455365896225,-0.01929743029177189,0.015305359847843647,-0.000579379266127944,0.024423561990261078
0.03020474500954151,0.003447597613558173,-0.019148509949445724,0.014693406410515308,-0.0006166591192595661,0.024690108373761177
0.03030894510447979,0.0034549592528492212,-0.018738415092229843,0.015506559982895851,-0.0006397755932994187,0.025651399046182632
0.030444253236055374,0.0036255340091884136,-0.01956482231616974,0.015097631141543388,-0.0005910256295464933,0.025528457015752792
0.030434371903538704,0.004187909886240959,-0.018834048882126808,0.015995394438505173,-0.0005680186441168189,0.025727611035108566
0.030728496611118317,0.0036479402333498,-0.019011056050658226,0.014783522114157677,-0.0006403106963261962,0.026891550049185753
0.03049827180802822,0.0035788724198937416,-0.019380798563361168,0.014715008437633514,-0.0006327186711132526,0.026160627603530884
0.030782425776124,0.0037274963688105345,-0.019018879160284996,0.015739085152745247,-0.00061139150056988,0.025255387648940086
0.02904771827161312,0.003758577397093177,-0.01924748905003071,0.01564010977745056,-0.0006374696386046708,0.025078197941184044
0.0316997654736042,0.004235942382365465,-0.019660046324133873,0.016108732670545578,-0.0006615982856601477,0.024434750899672508
0.03126879408955574,0.004107947926968336,-0.019194994121789932,0.01606987789273262,-0.0007521501393057406,0.025186380371451378
0.03061540052294731,0.00350366928614676,-0.019296785816550255,0.015571570955216885,-0.0008060875115916133,0.02586696855723858
0.030612798407673836,0.003632043022662401,-0.019584370777010918,0.01615963503718376,-0.0008050685282796621,0.025799451395869255
0.030612798407673836,0.003632043022662401,-0.019584370777010918,0.01615963503718376,-0.0008050685282796621,0.025799451395869255
0.0305338092148304,0.004329778719693422,-0.01883554644882679,0.015369383618235588,-0.0007890189881436527,0.025669356808066368
0.03130859509110451,0.0035083964467048645,-0.019399818032979965,0.015251433476805687,-0.0008094211807474494,0.025787703692913055
0.03130859509110451,0.0035083964467048645,-0.019399818032979965,0.015251433476805687,-0.0008094211807474494,0.025787703692913055
0.03130514174699783,0.003484557382762432,-0.019044050946831703,0.015839803963899612,-0.0008078727405518293,0.026038022711873055
0.02999047003686428,0.004136667121201754,-0.019829334691166878,0.016059497371315956,-0.0007307212799787521,0.025871243327856064
0.03073875978589058,0.004226660821586847,-0.019543856382369995,0.016470231115818024,-0.0007376537541858852,0.025876369327306747
0.031582437455654144,0.004025234840810299,-0.018878471106290817,0.01655866764485836,-0.0007416738662868738,0.025826411321759224
0.031335681676864624,0.003961910493671894,-0.0196100901812315,0.016289299353957176,-0.0006926198257133365,0.02609185501933098
0.03159349784255028,0.003920577932149172,-0.019908787682652473,0.01667642779648304,-0.0006573616410605609,0.025853542611002922
0.03209439292550087,0.00400963332504034,-0.019084306433796883,0.016220007091760635,-0.0005953880026936531,0.026033038273453712
0.03170217201113701,0.004083765204995871,-0.019507532939314842,0.0163230262696743,-0.0006248099962249398,0.02673114649951458
0.030614366754889488,0.004473582841455936,-0.01961660571396351,0.016114942729473114,-0.0006532426341436803,0.02645633928477764
0.031336165964603424,0.0044056144542992115,-0.020066648721694946,0.016131367534399033,-0.0006766178994439542,0.026638787239789963
0.032083164900541306,0.003793510375544429,-0.019716767594218254,0.01591070182621479,-0.0007290508365258574,0.02677757479250431
0.032091327011585236,0.004180807154625654,-0.020568279549479485,0.015732474625110626,-0.0007170745520852506,0.026935646310448647
0.032232265919446945,0.005052137654274702,-0.020154103636741638,0.016463633626699448,-0.0007312066736631095,0.027114558964967728
0.03201638534665108,0.004595884587615728,-0.019311394542455673,0.01619238592684269,-0.0006569660035893321,0.02711517922580242
0.03227145969867706,0.004069216549396515,-0.02013883925974369,0.01590360887348652,-0.0006162531208246946,0.026585357263684273
0.03213615342974663,0.0043922788463532925,-0.019865836948156357,0.016268983483314514,-0.0006007392657920718,0.02691267989575863
0.03259643167257309,0.004707343876361847,-0.02045462839305401,0.015920523554086685,-0.0005869431188330054,0.027129806578159332
0.03250468894839287,0.004500373266637325,-0.020098412409424782,0.016140693798661232,-0.0005448076990433037,0.02731470577418804
0.03255046159029007,0.004581762943416834,-0.02005603536963463,0.016408443450927734,-0.0005065972218289971,0.027347629889845848
0.03255046159029007,0.004581762943416834,-0.02005603536963463,0.016408443450927734,-0.0005065972218289971,0.027347629889845848
0.033163879066705704,0.0040439823642373085,-0.020497426390647888,0.016864221543073654,-0.00040773602086119354,0.027807697653770447
0.03337866812944412,0.003923815209418535,-0.02056867815554142,0.016572115942835808,-0.00042854936327785254,0.027400115504860878
0.03321488946676254,0.004403652623295784,-0.02047932893037796,0.016557659953832626,-0.00041275154217146337,0.02761136181652546
0.03331568092107773,0.0046551343984901905,-0.02076740935444832,0.016159527003765106,-0.000384460756322369,0.028234217315912247
0.03331568092107773,0.0046551343984901905,-0.02076740935444832,0.016159527003765106,-0.000384460756322369,0.028234217315912247
0.03335915878415108,0.004718881566077471,-0.020265979692339897,0.016077274456620216,-0.0004106532724108547,0.02721017599105835
0.033207111060619354,0.004564697854220867,-0.01986970752477646,0.016203079372644424,-0.0003921431489288807,0.027528975158929825
0.0335889533162117,0.004721112083643675,-0.020006436854600906,0.015928668901324272,-0.0004187311860732734,0.028306853026151657
0.03341744840145111,0.004790432285517454,-0.020774127915501595,0.016127897426486015,-0.0003987676464021206,0.027751145884394646
0.03383452817797661,0.004823342431336641,-0.020487969741225243,0.015997253358364105,-0.0004443298385012895,0.02621280774474144
0.03354046121239662,0.00475500850006938,-0.019840599969029427,0.016869714483618736,-0.0004256081592757255,0.02645220421254635
0.034046098589897156,0.004987405147403479,-0.020346662029623985,0.01659991964697838,-0.0004474064917303622,0.027828099206089973
0.0343429371714592,0.005323187913745642,-0.02040128968656063,0.01645580306649208,-0.0004295946564525366,0.02756456285715103
0.03414588049054146,0.004713720642030239,-0.020201927050948143,0.015778642147779465,-0.00044785969657823443,0.027302956208586693
0.03405092656612396,0.0045256949961185455,-0.020591773092746735,0.016084399074316025,-0.00043238134821876884,0.029147176072001457
0.03549964725971222,0.0044955057092010975,-0.020502034574747086,0.016585538163781166,-0.0004594329802785069,0.028711343184113503
0.03500133007764816,0.004567110911011696,-0.02019360475242138,0.017041927203536034,-0.0004352303803898394,0.027214262634515762
0.03287471830844879,0.004356893710792065,-0.02020655944943428,0.01735110394656658,-0.0005211749230511487,0.026334451511502266
0.035064198076725006,0.004613520577549934,-0.020586978644132614,0.01651754043996334,-0.0005534737720154226,0.027598943561315536
0.03495943546295166,0.00468755466863513,-0.020647907629609108,0.016674142330884933,-0.0005227138753980398,0.0287888552993536
0.03482488915324211,0.0044454666785895824,-0.02021029219031334,0.01700814627110958,-0.000551866483874619,0.028800472617149353
0.035972703248262405,0.004533049650490284,-0.020529339089989662,0.016082407906651497,-0.0005473376950249076,0.02862313762307167
0.036061473190784454,0.004581437446177006,-0.02119642123579979,0.01607183739542961,-0.0005389267462305725,0.02858368307352066
0.03395051881670952,0.0045760516077280045,-0.020502228289842606,0.015881599858403206,-0.0005849263397976756,0.028551824390888214
0.03463948518037796,0.004721724893897772,-0.020533662289381027,0.01689714565873146,-0.0005878366646356881,0.028076285496354103
0.03561922535300255,0.004637188743799925,-0.02086319960653782,0.017003480345010757,-0.0005629566730931401,0.028214842081069946
0.03608032688498497,0.004464174620807171,-0.020504465326666832,0.017161941155791283,-0.0005837467033416033,0.02822563610970974
0.03608032688498497,0.004464174620807171,-0.020504465326666832,0.017161941155791283,-0.0005837467033416033,0.02822563610970974
0.035557821393013,0.004800979048013687,-0.020632026717066765,0.0178548414260149,-0.000553292571566999,0.0285715963691473
0.035557821393013,0.004800979048013687,-0.020632026717066765,0.0178548414260149,-0.000553292571566999,0.0285715963691473
0.035897113382816315,0.004751314874738455,-0.021227579563856125,0.01715630665421486,-0.0005289551918394864,0.028962109237909317
0.03616761788725853,0.0045822421088814735,-0.02115023508667946,0.016839664429426193,-0.0005205104826018214,0.029111498966813087
0.03586827963590622,0.005004028789699078,-0.02143772318959236,0.01654927060008049,-0.0004929488059133291,0.02882806397974491
0.0358513668179512,0.004906610585749149,-0.02169041894376278,0.016210924834012985,-0.0004889407427981496,0.029100144281983376
0.03580401837825775,0.004813551437109709,-0.021124469116330147,0.0165530014783144,-0.0004839757748413831,0.028920184820890427
0.03653522580862045,0.004317599814385176,-0.02070506289601326,0.01652613654732704,-0.0005156280240043998,0.029131298884749413
0.03587906435132027,0.004354038741439581,-0.021081114187836647,0.01683002896606922,-0.0005314053851179779,0.028725208714604378
0.034707020968198776,0.005097459070384502,-0.021806955337524414,0.01689969375729561,-0.000511421007104218,0.029233302921056747
0.03632490709424019,0.005057166330516338,-0.022019317373633385,0.017148379236459732,-0.0006875218823552132,0.029790056869387627
0.037844762206077576,0.004541929345577955,-0.021348053589463234,0.01735856756567955,-0.0007222425192594528,0.029413379728794098
0.03727108985185623,0.004457063507288694,-0.022054795175790787,0.016771230846643448,-0.0006946785724721849,0.028492294251918793
0.03527369722723961,0.005005590617656708,-0.022358782589435577,0.017342550680041313,-0.0007120289956219494,0.028097979724407196
0.03634054958820343,0.005025342106819153,-0.022137261927127838,0.016976576298475266,-0.0007743278401903808,0.02941126935184002
0.036968816071748734,0.00484571885317564,-0.022160395979881287,0.017044585198163986,-0.0007633743807673454,0.029712719842791557
0.03659110143780708,0.005474251229315996,-0.02214665152132511,0.01708013005554676,-0.0007811133982613683,0.029715856537222862
0.03705090284347534,0.005203927401453257,-0.022085435688495636,0.016825145110487938,-0.0007732876692898571,0.02988489717245102
0.037880152463912964,0.004672227427363396,-0.02242494747042656,0.016872327774763107,-0.0007118337671272457,0.02973811887204647
0.036507610231637955,0.004890373442322016,-0.02234289050102234,0.016782257705926895,-0.0007079353090375662,0.029380694031715393
0.03663221374154091,0.0048473794013261795,-0.022567182779312134,0.017005745321512222,-0.0006633516168221831,0.028689511120319366
0.03743566945195198,0.004762551747262478,-0.022733839228749275,0.01699722371995449,-0.0006312059704214334,0.029378298670053482
0.03766028210520744,0.004734182730317116,-0.022688254714012146,0.017273563891649246,-0.0006449935026466846,0.03037647157907486
0.03720661252737045,0.005174919031560421,-0.02238376997411251,0.017444370314478874,-0.0006676951888948679,0.030221499502658844
0.03786327689886093,0.004552814178168774,-0.022892016917467117,0.017370769754052162,-0.0008066947339102626,0.030124671757221222
0.037687819451093674,0.00410887785255909,-0.02305317483842373,0.016973312944173813,-0.0009322356781922281,0.030123215168714523
0.037741295993328094,0.004181494005024433,-0.023207366466522217,0.01706744357943535,-0.0008337512263096869,0.030600573867559433
0.038147859275341034,0.004520339425653219,-0.022610602900385857,0.017684776335954666,-0.0008362744702026248,0.03051617182791233
0.0382220596075058,0.004771668929606676,-0.02255971170961857,0.017546048387885094,-0.0007447332609444857,0.03067677654325962
0.036920975893735886,0.00472327321767807,-0.023018816486001015,0.017775297164916992,-0.0007358207949437201,0.030550314113497734
0.038674090057611465,0.004377938341349363,-0.02335497923195362,0.017701826989650726,-0.000686924671754241,0.03058926947414875
0.038552746176719666,0.004100257996469736,-0.02341596968472004,0.017399072647094727,-0.0006318201776593924,0.031192755326628685
0.037893183529376984,0.004483779892325401,-0.022840240970253944,0.017881060019135475,-0.0005625358899123967,0.030432196334004402
0.038671575486660004,0.004206649959087372,-0.023020323365926743,0.017483016476035118,-0.0005485423025675118,0.029831018298864365
0.03874626383185387,0.004469935782253742,-0.023447582498192787,0.01786249317228794,-0.0005370365688577294,0.030442623421549797
0.0382985919713974,0.00462693627923727,-0.023367149755358696,0.017790954560041428,-0.000561507127713412,0.030471481382846832
0.0382985919713974,0.00462693627923727,-0.023367149755358696,0.017790954560041428,-0.000561507127713412,0.030471481382846832
0.03939126804471016,0.004612707998603582,-0.023584147915244102,0.017307201400399208,-0.000560786051210016,0.030883774161338806
0.03894466906785965,0.00465769087895751,-0.023264596238732338,0.01893523335456848,-0.0005550003261305392,0.030679985880851746
0.03903167322278023,0.004664809908717871,-0.022826753556728363,0.018250981345772743,-0.000704690464772284,0.030686192214488983
0.03939875587821007,0.004750833846628666,-0.02310934104025364,0.017206568270921707,-0.0007363309850916266,0.03071032464504242
0.039197441190481186,0.00516893994063139,-0.023114338517189026,0.01717384345829487,-0.000706628430634737,0.030699677765369415
0.03902458772063255,0.00509105809032917,-0.023803072050213814,0.017364012077450752,-0.0007168968440964818,0.031081026419997215
0.039383504539728165,0.004974451381713152,-0.02371920645236969,0.018039101734757423,-0.0006660479702986777,0.031074518337845802
0.040769558399915695,0.005091256927698851,-0.022896265611052513,0.018456051126122475,-0.0007472020806744695,0.031075458973646164
0.03984074667096138,0.0049681770615279675,-0.023221662268042564,0.01835743524134159,-0.0007631162297911942,0.030871957540512085
0.03832118958234787,0.004839609377086163,-0.02345949411392212,0.018632790073752403,-0.0006823817384429276,0.030697345733642578
0.03992706537246704,0.0047502536326646805,-0.023694870993494987,0.018562376499176025,-0.000700289208907634,0.031034404411911964
0.040269315242767334,0.005222219042479992,-0.023665541782975197,0.018234005197882652,-0.0006794612272642553,0.03177553042769432
0.04130025953054428,0.005236268043518066,-0.02323906309902668,0.018581237643957138,-0.0006572139682248235,0.031902242451906204
0.04034392535686493,0.004988009575754404,-0.02316719852387905,0.018064718693494797,-0.000605630804784596,0.030398136004805565
0.038905877619981766,0.005209213588386774,-0.023346783593297005,0.018311111256480217,-0.0005684192292392254,0.030309053137898445
0.03900434821844101,0.004967874847352505,-0.02359500713646412,0.0187457874417305,-0.0005939806578680873,0.03152424097061157
0.039098501205444336,0.005269646644592285,-0.02347738854587078,0.01852639764547348,-0.0005775238387286663,0.03228786587715149
0.040820349007844925,0.004890037700533867,-0.02315632626414299,0.01901044324040413,-0.0005302606150507927,0.03317849338054657
0.04027023911476135,0.0048951939679682255,-0.023752549663186073,0.01908748596906662,-0.0005494384095072746,0.032026808708906174
0.03964697942137718,0.004868806805461645,-0.02436036802828312,0.019398625940084457,-0.0005180974258109927,0.03075394779443741
0.04027192294597626,0.004893461707979441,-0.024162795394659042,0.01921466737985611,-0.000549409887753427,0.031889382749795914
0.039913613349199295,0.005093759391456842,-0.024267300963401794,0.018510501831769943,-0.0005858743679709733,0.0327005498111248
0.04065568372607231,0.005460921674966812,-0.023646662011742592,0.01859978772699833,-0.0005948948091827333,0.03251601383090019
0.0404885970056057,0.005531216040253639,-0.023669375106692314,0.018207374960184097,-0.0005814583855681121,0.032233498990535736
0.039915502071380615,0.00569525919854641,-0.0245012529194355,0.018228059634566307,-0.0005908101447857916,0.031945083290338516
0.040264248847961426,0.005506786983460188,-0.024119306355714798,0.019254500046372414,-0.0006853697705082595,0.0322243832051754
0.04180476814508438,0.00550640095025301,-0.023667333647608757,0.019151950255036354,-0.000766487792134285,0.032254982739686966
0.04180476814508438,0.00550640095025301,-0.023667333647608757,0.019151950255036354,-0.000766487792134285,0.032254982739686966
0.04105940833687782,0.006417331285774708,-0.024013273417949677,0.018128816038370132,-0.0008185224141925573,0.03230288252234459
0.03938749432563782,0.0056622265838086605,-0.024552838876843452,0.018730226904153824,-0.0008306097588501871,0.03218354657292366
0.04091621935367584,0.005057225003838539,-0.023721246048808098,0.018308965489268303,-0.001162112457677722,0.032088227570056915
0.04099932312965393,0.00566204683855176,-0.023765120655298233,0.019035231322050095,-0.0012237031478434801,0.03264839947223663
0.04199884459376335,0.005302770994603634,-0.023774761706590652,0.018846143037080765,-0.0012023525778204203,0.03256160020828247
0.04192647337913513,0.005456715356558561,-0.02381264418363571,0.017851442098617554,-0.0014281774638220668,0.03256656229496002
0.03964860364794731,0.0052636731415987015,-0.024400999769568443,0.018636729568243027,-0.0013323689345270395,0.032701388001441956
0.041012465953826904,0.005826923996210098,-0.02420252561569214,0.01831895112991333,-0.0011378783965483308,0.032587870955467224
0.04207024350762367,0.005404438823461533,-0.02350596711039543,0.018524767830967903,-0.0010656246449798346,0.03327203169465065
0.04077548906207085,0.0054971217177808285,-0.02374488301575184,0.019336245954036713,-0.0009543616324663162,0.03325946629047394
0.04171666130423546,0.005561535246670246,-0.024309033527970314,0.02002999372780323,-0.0008442161488346756,0.032893106341362
0.0417347326874733,0.0057394555769860744,-0.024317793548107147,0.019943326711654663,-0.0006654005846939981,0.03283027932047844
0.04202357307076454,0.005707818083465099,-0.024538440629839897,0.01960759423673153,-0.0006259302026592195,0.03409399837255478
0.041610535234212875,0.0053776963613927364,-0.024335285648703575,0.019538013264536858,-0.0006037078564986587,0.03460588678717613
0.04188396781682968,0.005457870662212372,-0.02424006350338459,0.019816502928733826,-0.0006301510147750378,0.033480092883110046
0.04200352728366852,0.005748171824961901,-0.02397833950817585,0.01957503706216812,-0.0006960555911064148,0.03305329009890556
