davideferrari95/blind_handover_controller/data/Test 68 - [2024-02-07 -- 15-48-20]/joint_states_data.csv
shoulder_pan_joint,shoulder_lift_joint,elbow_joint,wrist_1_joint,wrist_2_joint,wrist_3_joint
0.0069274865090847015,-0.0001369587262161076,-0.011108257807791233,0.011863932944834232,0.0001633508800296113,0.0072563947178423405
0.006440250668674707,-0.00013440215843729675,-0.010797866620123386,0.01146999653428793,0.00018497134442441165,0.007805005181580782
0.006440250668674707,-0.00013440215843729675,-0.010797866620123386,0.01146999653428793,0.00018497134442441165,0.007805005181580782
0.006213327404111624,-0.00013193927588872612,-0.010290254838764668,0.011355615220963955,0.00018247858679387718,0.007625201717019081
0.006588832009583712,-0.00014820358774159104,-0.01111572701483965,0.011519573628902435,0.00017675038543529809,0.007162897847592831
0.0065572443418204784,-0.00015260431973729283,-0.01102158147841692,0.011083605699241161,0.00017116364324465394,0.007161880377680063
0.006348319351673126,-0.00014772139547858387,-0.010424266569316387,0.011546304449439049,0.0001659053668845445,0.0073122382164001465
0.006119186524301767,-0.00014302763156592846,-0.010905941016972065,0.010812051594257355,0.00018424160953145474,0.007887897081673145
0.006108340807259083,-0.00013862168998457491,-0.010791013948619366,0.011182693764567375,0.00018211911083199084,0.0074957446195185184
0.006775362882763147,-0.00016029008838813752,-0.0110134556889534,0.01154009997844696,0.00017720571486279368,0.007170442491769791
0.006959204562008381,-0.00015667748812120408,-0.010584080591797829,0.01075355801731348,0.00017237025895155966,0.007477080449461937
0.006372692063450813,-0.00015227316180244088,-0.010140175931155682,0.011128010228276253,0.00016778054123278707,0.007747537922114134
0.006254788488149643,-0.0001480973733123392,-0.010933347046375275,0.01141818892210722,0.00016342784510925412,0.006885796319693327
0.00652285385876894,-0.0001599358074599877,-0.010570941492915154,0.011172221042215824,0.0001592954358784482,0.006897421088069677
0.006595266982913017,-0.00016368534124922007,-0.010361520573496819,0.012024791911244392,0.00015536666614934802,0.007063332013785839
0.006497813854366541,-0.00015964357589837164,-0.010856936685740948,0.011517333798110485,0.00017183911404572427,0.007336108013987541
0.0063815913163125515,-0.00015569959941785783,-0.011071442626416683,0.011593176983296871,0.00016912091814447194,0.007364114746451378
0.006558490451425314,-0.0001519442448625341,-0.010203649289906025,0.011256770230829716,0.00016532340669073164,0.007280228193849325
0.0065106116235256195,-0.00016230395704042166,-0.009997934103012085,0.011146970093250275,0.00016161803796421736,0.0073729525320231915
0.006591459736227989,-0.00016193289775401354,-0.0104993786662817,0.010636910796165466,0.0001713019737508148,0.00684684794396162
0.0062844944186508656,-0.00025582528905943036,-0.01077929139137268,0.010951166972517967,0.0001806379295885563,0.006802238989621401
0.0064369612373411655,-0.0002459002425894141,-0.01021031104028225,0.011127514764666557,0.0001746847410686314,0.006743644364178181
0.0065776994451880455,-0.00027793768094852567,-0.010562481358647346,0.010477018542587757,0.00016822281759232283,0.007135539781302214
0.0068427869118750095,-0.00026603665901347995,-0.009972849860787392,0.01124114915728569,0.00016216415679082274,0.007150121033191681
0.006290556397289038,-0.00025356729747727513,-0.009767230600118637,0.011234509758651257,0.00015652351430617273,0.007364274933934212
0.006119521334767342,-0.0002809128782246262,-0.010638264007866383,0.01066993735730648,0.00015126107609830797,0.007161131128668785
0.006119521334767342,-0.0002809128782246262,-0.010638264007866383,0.01066993735730648,0.00015126107609830797,0.007161131128668785
0.0074428534135222435,-0.00027040758868679404,-0.009856311604380608,0.011628045700490475,0.00016069218690972775,0.007446273695677519
0.006632160395383835,-0.0002592983946669847,-0.009548928588628769,0.011364929378032684,0.00016910435806494206,0.007073007524013519
0.0054271589033305645,-0.000249047385295853,-0.01058425847440958,0.011587364599108696,0.0001648211182327941,0.007104213815182447
0.006023523397743702,-0.000273324316367507,-0.009945848025381565,0.011586070992052555,0.00015999471361283213,0.00664494140073657
0.006595856510102749,-0.0002637639408931136,-0.009574435651302338,0.011378978379070759,0.00015539402374997735,0.006956738419830799
0.006646041292697191,-0.0002544483868405223,-0.010434280149638653,0.01127908006310463,0.00015104713384062052,0.0069239456206560135
0.006462597753852606,-0.0003461321466602385,-0.009712024591863155,0.010527574457228184,0.00014693698904011399,0.006942582782357931
0.006283561699092388,-0.00032541932887397707,-0.01037701778113842,0.010630723088979721,0.00014304420619737357,0.007052775006741285
0.006104383617639542,-0.0003035232366528362,-0.01020436268299818,0.0108569897711277,0.000139352647238411,0.007480777334421873
0.006172530818730593,-0.00033440603874623775,-0.009814918972551823,0.0105497557669878,0.00013584672706201673,0.007110577542334795
0.006893048994243145,-0.0003208368143532425,-0.009908357635140419,0.010895849205553532,0.00013251311611384153,0.007201318629086018
0.006906190887093544,-0.00035133020719513297,-0.010889622382819653,0.011020558886229992,0.00012933899415656924,0.00677762646228075
0.006332994904369116,-0.00037672012695111334,-0.009350718930363655,0.01108512096107006,0.00012631353456526995,0.007545277010649443
0.006189967505633831,-0.0003630718856584281,-0.009619852527976036,0.011785783804953098,0.000123426245409064,0.007189733441919088
0.006517502479255199,-0.0005101768183521926,-0.009883129969239235,0.011335589922964573,0.00013943624799139798,0.006648767273873091
0.007175368722528219,-0.0004647135210689157,-0.00941831711679697,0.011185714974999428,0.0001376146828988567,0.006653021555393934
0.006444522179663181,-0.0005042919656261802,-0.009489195421338081,0.011272343806922436,0.0001347508659819141,0.007322549819946289
0.006563805043697357,-0.00042578793363645673,-0.009678289294242859,0.01097097061574459,0.00012922815221827477,0.007523910608142614
0.006499431096017361,-0.00045948594924993813,-0.008976779878139496,0.010907597839832306,0.0001266307372134179,0.006799701601266861
0.006546844262629747,-0.00042905754526145756,-0.00972386822104454,0.010372798889875412,0.00012413544754963368,0.006659347098320723
0.006738333031535149,-0.00045671709813177586,-0.009813296608626842,0.01063378807157278,0.0001217368699144572,0.007057030685245991
0.006467295344918966,-0.0004315681289881468,-0.009200111031532288,0.010115111246705055,0.00013208876771386713,0.007287235464900732
0.006123191211372614,-0.00046567400568164885,-0.009931474924087524,0.010827479884028435,0.00013366348866838962,0.007176233921200037
0.0066748415119946,-0.0004780474992003292,-0.009265666827559471,0.011295287869870663,0.00013148554717190564,0.006944810040295124
0.006993706338107586,-0.0004635400546249002,-0.008584072813391685,0.01032411027699709,0.00012914437684230506,0.006711453665047884
0.006506048142910004,-0.00047368460218422115,-0.009478340856730938,0.010639679618179798,0.0001268697524210438,0.007046003360301256
0.006124019622802734,-0.0004615404177457094,-0.009524974040687084,0.010475989431142807,0.00012467311171349138,0.00692588509991765
0.006608680821955204,-0.000489229743834585,-0.009184380061924458,0.01028389111161232,0.00012255091860424727,0.006840252783149481
0.006870473735034466,-0.0004616967053152621,-0.009264850057661533,0.010298977605998516,0.00012049997167196125,0.007024447433650494
0.006870473735034466,-0.0004616967053152621,-0.009264850057661533,0.010298977605998516,0.00012049997167196125,0.007024447433650494
0.006985148414969444,-0.0005695660365745425,-0.009290456771850586,0.010601445101201534,0.00011851636372739449,0.007044725585728884
0.00628924323245883,-0.0005468446179293096,-0.010396396741271019,0.010132166557013988,0.00011531492054928094,0.007378066424280405
0.00628924323245883,-0.0005468446179293096,-0.010396396741271019,0.010132166557013988,0.00011531492054928094,0.007378066424280405
0.006689221598207951,-0.0004969261353835464,-0.009754424914717674,0.01003262773156166,0.00011246898793615401,0.007578148506581783
0.006867934949696064,-0.0005217058933340013,-0.009046822786331177,0.01056508719921112,0.00010972866584779695,0.007647207006812096
0.006491109263151884,-0.000489486032165587,-0.009488481096923351,0.01125507801771164,0.00010711692448239774,0.007282346021384001
0.006286651827394962,-0.00045429254532791674,-0.010207033716142178,0.010574662126600742,0.00010462615318829194,0.006901882588863373
0.006671464536339045,-0.00048175110714510083,-0.009668207727372646,0.010443047620356083,0.00010224890138488263,0.0068997968919575214
0.006749691441655159,-0.0004537070926744491,-0.01084941253066063,0.010888492688536644,0.00011863715917570516,0.007193709257990122
0.006990435067564249,-0.0004268360498826951,-0.01007752399891615,0.010474703274667263,0.00011727783567039296,0.007359891664236784
0.006483296398073435,-0.0004106181440874934,-0.009373923763632774,0.010750970803201199,0.00011486257426440716,0.007350265514105558
0.0065254392102360725,-0.0003769421309698373,-0.010723669081926346,0.011015013791620731,0.00011247520160395652,0.006913475692272186
0.006873184349387884,-0.000416358292568475,-0.010176361538469791,0.010023919865489006,0.00012613496801350266,0.007108640391379595
0.006747515872120857,-0.0004145020211581141,-0.010468804277479649,0.010016501881182194,0.00012349386815913022,0.006472785957157612
0.006765382830053568,-0.0003951638063881546,-0.010236326605081558,0.009699275717139244,0.00012112877448089421,0.006867572199553251
0.007113812956959009,-0.0003719209344126284,-0.010147546418011189,0.010621859692037106,0.0001188442693091929,0.007018081843852997
0.007620054762810469,-0.000395377806853503,-0.010443628765642643,0.010524497367441654,0.00011664394696708769,0.007167924661189318
0.007136249914765358,-0.0003800810663960874,-0.010217694565653801,0.010668208822607994,0.00012979608436580747,0.0072851902805268764
0.007336740382015705,-0.00036338120116852224,-0.010020445100963116,0.011063111014664173,0.00012847615289501846,0.006946034729480743
0.00781293585896492,-0.0004209507897030562,-0.01029457151889801,0.010904639028012753,0.00012628783588297665,0.006887574214488268
0.007096776273101568,-0.0004364116466604173,-0.01049848273396492,0.010992654599249363,0.00012411503121256828,0.007341442164033651
0.0070064375177025795,-0.0004263169248588383,-0.009921224787831306,0.011112317442893982,0.00012201203207951039,0.007331073749810457
0.007100753951817751,-0.0004533973697107285,-0.010528787970542908,0.010598513297736645,0.00011997894034720957,0.00691635999828577
0.007239053957164288,-0.0004297396808397025,-0.01000271923840046,0.010692988522350788,0.00011801229993579909,0.007042399607598782
0.006968525238335133,-0.0004529879370238632,-0.01077231578528881,0.010721140541136265,0.00011610925866989419,0.00739259785041213
0.006968525238335133,-0.0004529879370238632,-0.01077231578528881,0.010721140541136265,0.00011610925866989419,0.00739259785041213
0.00718153128400445,-0.00043216338963247836,-0.01053997315466404,0.010570913553237915,0.00016116086044348776,0.007127260789275169
0.006963145453482866,-0.0004077704215887934,-0.010309794917702675,0.010601978749036789,0.0001702534791547805,0.0072694262489676476
0.0070434254594147205,-0.000491399725433439,-0.010049319826066494,0.010666104033589363,0.00016500292986165732,0.007649546954780817
0.00755941029638052,-0.0004473828594200313,-0.01053083036094904,0.01052864734083414,0.00015922871534712613,0.007812294643372297
0.0077428678050637245,-0.0004784893535543233,-0.010020733810961246,0.011570356786251068,0.0001537903444841504,0.007160984445363283
0.007087848149240017,-0.00044771452667191625,-0.010279854759573936,0.010614855214953423,0.0001487078843638301,0.0070921252481639385
0.007560973521322012,-0.0004135396156925708,-0.010412612929940224,0.010850866325199604,0.00014395019388757646,0.006666337605565786
0.007111934944987297,-0.00038411698187701404,-0.009815523400902748,0.010781017132103443,0.0001394879218423739,0.007072277367115021
0.006918628700077534,-0.00035860235220752656,-0.010063090361654758,0.010759380646049976,0.00016053080616984516,0.007283709943294525
0.007078985683619976,-0.0002825408591888845,-0.010516882874071598,0.011071983724832535,0.0001574944326421246,0.006906071677803993
0.006868826691061258,-0.00026382511714473367,-0.010064843110740185,0.010280122049152851,0.0001531351445009932,0.006895710248500109
0.007102950010448694,-0.00024918458075262606,-0.010527906939387321,0.01028217189013958,0.00014891895989421755,0.007146457675844431
0.006951941177248955,-0.00023610862263012677,-0.009941660799086094,0.010241945274174213,0.00014492262562271208,0.007012292742729187
0.007226108107715845,-0.0002243364870082587,-0.00974869355559349,0.009820851497352123,0.00014113454381003976,0.007293952628970146
0.0073867905884981155,-0.0002039950923062861,-0.009991808794438839,0.010239357128739357,0.00013412334374152124,0.0070287492126226425
0.00723827350884676,-0.00019514797895681113,-0.009319731965661049,0.009851627051830292,0.0001308726641582325,0.007199668791145086
0.007557104807347059,-0.00018703659588936716,-0.010015496984124184,0.010712753050029278,0.00013824189954902977,0.0071400851011276245
0.007077340502291918,-0.00017957207455765456,-0.009492888115346432,0.011218453757464886,0.00014491862384602427,0.007199868094176054
0.0073670088313519955,-0.00017268121882807463,-0.00921548716723919,0.010101154446601868,0.00014228929649107158,0.007256222423166037
0.007748105563223362,-0.00016629935998935252,-0.010497513227164745,0.009721803478896618,0.0001391877740388736,0.007408152800053358
0.0074885752983391285,-0.000160372510435991,-0.00946212187409401,0.010348280891776085,0.0001361816975986585,0.007349112071096897
0.007324431091547012,-0.0001548535656183958,-0.009430994279682636,0.009821140207350254,0.00013330021465662867,0.007276028860360384
0.007502366788685322,-0.00014970195479691029,-0.010114943608641624,0.01008897926658392,0.00013053823204245418,0.007216428406536579
0.007425791583955288,-0.0001448820112273097,-0.010076734237372875,0.010452496819198132,0.00012788829917553812,0.007402488496154547
0.007647207472473383,-0.00014036279753781855,-0.00918298214673996,0.010037392377853394,0.00012534379493445158,0.00708650890737772
0.007587390951812267,-0.00013611679605673999,-0.00955750048160553,0.01059238612651825,0.00012289857841096818,0.0068068429827690125
0.007587390951812267,-0.00013611679605673999,-0.00955750048160553,0.01059238612651825,0.00012289857841096818,0.0068068429827690125
0.008220594376325607,-0.00013212054909672588,-0.00983636174350977,0.010582893155515194,0.00012054679973516613,0.0068181222304701805
0.007903500460088253,-0.00012835205416195095,-0.00961009319871664,0.010833682492375374,0.00011828372225863859,0.006993252318352461
0.007690774742513895,-0.00012479267024900764,-0.00998516846448183,0.011396339163184166,0.0001161036707344465,0.007324914913624525
0.006938030011951923,-0.0001214252260979265,-0.009563050232827663,0.010728934779763222,0.00012201828940305859,0.0069619109854102135
0.007333723828196526,-0.00011823485692730173,-0.00963570736348629,0.011611546389758587,0.0001274330134037882,0.007287180051207542
0.007191671058535576,-0.00011520773114170879,-0.00988325010985136,0.01149288285523653,0.00012570283433888108,0.007588593754917383
0.0070496536791324615,-0.00011233171244384721,-0.009541744366288185,0.010357119143009186,0.00012357770174276084,0.007630570326000452
0.007244076579809189,-0.00010959603969240561,-0.009809717535972595,0.010055349208414555,0.0001214944786624983,0.00707062054425478
0.007231357507407665,-0.00010699033737182617,-0.010179650969803333,0.009814588353037834,0.00011947849998250604,0.0067300996743142605
0.007036777213215828,-0.00010450566333020106,-0.010377517901360989,0.009871650487184525,0.00011752833233913407,0.00686594657599926
0.007184251677244902,-0.00010213380301138386,-0.009426294825971127,0.010365591384470463,0.00011564063606783748,0.007153217680752277
0.0073058414272964,-9.986710938392207e-05,-0.010261687450110912,0.010035532526671886,0.00011381263175280765,0.007103701587766409
0.0076838331297039986,-9.769894677447155e-05,-0.009870259091258049,0.009746520780026913,0.0001120415108744055,0.0065758368000388145
0.007137468550354242,-9.562286868458614e-05,-0.009638790972530842,0.01084078662097454,0.00011032481415895745,0.007097085006535053
0.006998329423367977,-9.363319259136915e-05,-0.0102302934974432,0.01037331111729145,0.0001086596748791635,0.007808934431523085
0.007974797859787941,-8.989246998680755e-05,-0.008905255235731602,0.010752453468739986,0.00010547618148848414,0.0069811404682695866
0.0077159772627055645,-8.813188469503075e-05,-0.010145753622055054,0.010489926673471928,0.00010395322897238657,0.007070920430123806
0.007288350258022547,-8.643908950034529e-05,-0.00946853682398796,0.010267194360494614,0.00010247379395877942,0.007412296254187822
0.00736034382134676,-8.480993710691109e-05,-0.009011116810142994,0.010258634574711323,0.00010103583917953074,0.007404227275401354
0.008262641727924347,-8.324112422997132e-05,-0.009639119729399681,0.010354014113545418,9.963757474906743e-05,0.007598826661705971
0.008262641727924347,-8.324112422997132e-05,-0.009639119729399681,0.010354014113545418,9.963757474906743e-05,0.007598826661705971
0.008430256508290768,-8.172936213668436e-05,-0.009498327039182186,0.01018261443823576,9.438829874852672e-05,0.007976323366165161
0.007306552026420832,-8.027152216527611e-05,-0.009482495486736298,0.010397439822554588,9.129630052484572e-05,0.008418208919465542
0.007933328859508038,-7.886470848461613e-05,-0.009755875915288925,0.010142520070075989,8.940549014369026e-05,0.007984626106917858
0.008045095019042492,-7.750635268166661e-05,-0.009474685415625572,0.009933878667652607,8.765874372329563e-05,0.007727616000920534
0.008102286607027054,-7.619405369041488e-05,-0.009175636805593967,0.010856442153453827,8.598348358646035e-05,0.007682605646550655
0.008102286607027054,-7.619405369041488e-05,-0.009175636805593967,0.010856442153453827,8.598348358646035e-05,0.007682605646550655
0.007735877763479948,-7.369830564130098e-05,-0.010005700401961803,0.010275209322571754,8.281852205982432e-05,0.007533411029726267
0.00903321523219347,-7.251081842696294e-05,-0.009347819723188877,0.010574699379503727,8.132177754305303e-05,0.007475021295249462
0.008202789351344109,-7.136099884519354e-05,-0.009468236938118935,0.01037320215255022,7.987838762346655e-05,0.007446777541190386
0.00749197555705905,-7.024699880275875e-05,-0.009942164644598961,0.010788899846374989,7.848518725950271e-05,0.007857898250222206
0.008153283968567848,-6.916729762451723e-05,-0.009588991291821003,0.011020445264875889,7.713971717748791e-05,0.007506160531193018
0.008142298087477684,-6.81202654959634e-05,-0.009912827052175999,0.010011689737439156,7.583960541523993e-05,0.007201621308922768
0.008043083362281322,-6.710441812174395e-05,-0.01059065479785204,0.010072284378111362,7.458272739313543e-05,0.00725179398432374
0.008239464834332466,-6.611852586502209e-05,-0.009141823276877403,0.01002565585076809,7.336674025282264e-05,0.007689503021538258
0.008225565776228905,-6.516111170640215e-05,-0.009627215564250946,0.0091776791960001,7.218977407319471e-05,0.007500608451664448
0.008475106209516525,-6.42310333205387e-05,-0.00868050567805767,0.009822733700275421,7.104991527739912e-05,0.007997971028089523
0.008309820666909218,-6.332716293400154e-05,-0.010040639899671078,0.010429219342768192,6.994561408646405e-05,0.007048582658171654
0.008630799129605293,-6.244835822144523e-05,-0.010213656350970268,0.00975029170513153,6.88750296831131e-05,0.007278793025761843
0.008611046709120274,-6.159362965263426e-05,-0.00971364974975586,0.010083463042974472,6.783676508348435e-05,0.007469541858881712
0.008268112316727638,-6.076193312765099e-05,-0.009419512934982777,0.010441407561302185,6.682935782009736e-05,0.007476471364498138
0.007633962668478489,-5.995242827339098e-05,-0.00978183839470148,0.010434565134346485,6.585135997738689e-05,0.007788690738379955
0.00812173169106245,-5.839647201355547e-05,-0.009188164956867695,0.009671533480286598,6.397890683729202e-05,0.007411572150886059
0.007915429770946503,-5.7648398069432005e-05,-0.009816935285925865,0.009686951525509357,6.308200681814924e-05,0.00740037951618433
0.008074203506112099,-5.6919223425211385e-05,-0.01076838281005621,0.010294534265995026,6.220998329808936e-05,0.007956054992973804
0.008466200903058052,-5.6208285968750715e-05,-0.009953230619430542,0.009786023758351803,6.136171577963978e-05,0.007851652801036835
0.008428629487752914,-5.5514861742267385e-05,-0.00986570492386818,0.009829173795878887,6.053619654267095e-05,0.007669785991311073
0.008190302178263664,-4.7614797949790955e-05,-0.009906920604407787,0.010920388624072075,5.973266524961218e-05,0.007618723437190056
0.008411691524088383,-4.3392730731284246e-05,-0.009067359380424023,0.010279743932187557,5.8950186939910054e-05,0.008079377934336662
0.008217375725507736,-4.282758163753897e-05,-0.00955089833587408,0.010430637747049332,5.818792851641774e-05,0.00802576169371605
0.008218174800276756,-4.2323437810409814e-05,-0.009674073196947575,0.010732319205999374,5.74451478314586e-05,0.00762521056458354
0.008218174800276756,-4.2323437810409814e-05,-0.009674073196947575,0.010732319205999374,5.74451478314586e-05,0.00762521056458354
0.00838195439428091,-4.1831634007394314e-05,-0.009114914573729038,0.010075547732412815,5.672104089171626e-05,0.007428388111293316
0.009540366940200329,-4.135116614634171e-05,-0.010396290570497513,0.010730690322816372,5.601501470664516e-05,0.007919607684016228
0.008778208866715431,-4.088157947990112e-05,-0.009535100311040878,0.01088680885732174,5.5326338042505085e-05,0.007490365765988827
0.007096088957041502,-4.042256114189513e-05,-0.009508208371698856,0.010730818845331669,5.4654377890983596e-05,0.007311718072742224
0.008042332716286182,-3.997372550657019e-05,-0.010818053036928177,0.011073583737015724,5.399852670961991e-05,0.007256136275827885
0.008997038938105106,-4.6045361159485765e-06,-0.00993971899151802,0.01042271126061678,5.33583115611691e-05,0.007786862552165985
0.009277342818677425,-6.177573652621504e-08,-0.009275345131754875,0.010430673137307167,5.273302303976379e-05,0.007615707814693451
0.008482428267598152,-8.288002506517955e-10,-0.009950682520866394,0.010821983218193054,5.2122242777841166e-05,0.007371499203145504
0.00873434916138649,-1.1119413549642854e-11,-0.010223442688584328,0.009977600537240505,5.152543599251658e-05,0.007326848339289427
0.008859445340931416,-1.4918112318379473e-13,-0.009256203658878803,0.010665830224752426,5.0942144298460335e-05,0.007650651503354311
0.008419673889875412,-2.0014552098583703e-15,-0.009564070031046867,0.011231408454477787,5.0371920224279165e-05,0.008099781349301338
0.008658096194267273,-2.6852072702316843e-17,-0.009940525516867638,0.010377136059105396,4.981432357453741e-05,0.00827733613550663
0.00900236889719963,-3.6025483775243687e-19,-0.009520533494651318,0.010902480222284794,6.416667929443065e-06,0.007863979786634445
0.008382515050470829,-4.833278923148779e-21,-0.009952178224921227,0.010879963636398315,4.189625713024725e-07,0.007724564988166094
0.008790647611021996,-6.484460622288236e-23,-0.010105615481734276,0.010076019912958145,2.735526116737219e-08,0.007530919276177883
0.008937963284552097,-8.699730626100335e-25,-0.009473863989114761,0.010237249545753002,1.7861030432442249e-09,0.007521010469645262
0.009121070615947247,-1.1671798753259496e-26,-0.009809188544750214,0.010250987485051155,1.1661976939691954e-10,0.007924503646790981
0.00889081135392189,-2.1008822480833953e-30,-0.009758060798048973,0.010677660815417767,4.971683871882182e-13,0.00770697183907032
0.008867969736456871,-2.8186018237696195e-32,-0.010189988650381565,0.009932637214660645,3.246154159277509e-14,0.0075551895424723625
0.008761418052017689,-3.781514128306191e-34,-0.009887187741696835,0.010207846760749817,2.119506615233676e-15,0.007723525632172823
0.009411289356648922,-5.0733841848233266e-36,-0.009679269045591354,0.011178013868629932,1.3838862673421181e-16,0.007574055343866348
0.009376546368002892,-6.806592051013679e-38,-0.01037328690290451,0.010430706664919853,9.03578931210364e-18,0.00803922675549984
0.009005528874695301,-9.131911767388752e-40,-0.010126546956598759,0.010055813007056713,5.89972406435457e-19,0.00776296341791749
0.009005528874695301,-9.131911767388752e-40,-0.010126546956598759,0.010055813007056713,5.89972406435457e-19,0.00776296341791749
0.00917123258113861,-1.2251552473591876e-41,-0.009772906079888344,0.01068509928882122,3.852098363950475e-20,0.008112875744700432
0.009114985354244709,-1.639519203260036e-43,-0.01085127703845501,0.010459824465215206,2.5151448383536994e-21,0.008175650611519814
0.009173604659736156,-2.802596928649634e-45,-0.010797439143061638,0.010998439975082874,1.6422097379397757e-22,0.008204114623367786
0.009429379366338253,-0.0,-0.009454356506466866,0.010792899876832962,1.0722456170140905e-23,0.007836262695491314
0.009575681760907173,0.0,-0.010570567101240158,0.010124907828867435,7.0009975527974085e-25,0.008000772446393967
0.008864794857800007,0.0,-0.010081605054438114,0.010605841875076294,4.571150965874768e-26,0.007609759457409382
0.009044116362929344,0.0,-0.010424453765153885,0.010744420811533928,2.984635012639282e-27,0.0075272382237017155
0.00954152550548315,0.0,-0.011198949068784714,0.009949411265552044,1.9487534179344398e-28,0.008070106618106365
0.009824967943131924,0.0,-0.010056903585791588,0.010248507373034954,1.2723967636577468e-29,0.008199530653655529
0.009250902570784092,0.0,-0.009951893240213394,0.010391166433691978,8.307842059464782e-31,0.00790458358824253
0.009555949829518795,0.0,-0.010660175234079361,0.010744675993919373,5.424426827349721e-32,0.007628548424690962
0.009473452344536781,0.0,-0.010664542205631733,0.011275704950094223,3.5417633770015984e-33,0.00828595831990242
0.009433046914637089,0.0,-0.010123922489583492,0.010800687596201897,2.3125183531265117e-34,0.007928760722279549
0.009266185574233532,0.0,-0.01023613940924406,0.010301313363015652,1.5099092922786556e-35,0.00810172501951456
0.009194109588861465,0.0,-0.010269022546708584,0.010417879559099674,9.858629298831056e-37,0.007799764629453421
0.01009299885481596,0.0,-0.010848408564925194,0.009920477867126465,6.436980523388893e-38,0.008187815546989441
0.009217103011906147,0.0,-0.01086008083075285,0.010338222607970238,4.2028878593786017e-39,0.008113414980471134
0.009767167270183563,0.0,-0.009915349073708057,0.010282053612172604,2.7441908086565758e-40,0.008410229347646236
0.00910629890859127,0.0,-0.010782936587929726,0.009733500890433788,1.791700216485711e-41,0.008477339521050453
0.009471073746681213,0.0,-0.010211145505309105,0.009992568753659725,7.707141553786494e-44,0.008045627735555172
0.009471073746681213,0.0,-0.010211145505309105,0.009992568753659725,7.707141553786494e-44,0.008045627735555172
0.009532155469059944,0.0,-0.010637911036610603,0.01010063011199236,0.0,0.008222482167184353
0.009423870593309402,0.0,-0.010499571450054646,0.010034310631453991,0.0,0.008561570197343826
0.009092533029615879,0.0,-0.010806888341903687,0.009885302744805813,0.0,0.008665939792990685
0.009558489546179771,0.0,-0.01028721034526825,0.010403831489384174,0.0,0.008331713266670704
0.0101080983877182,0.0,-0.010839344002306461,0.01020230632275343,0.0,0.008451857604086399
0.0101080983877182,0.0,-0.010839344002306461,0.01020230632275343,0.0,0.008451857604086399
0.009454920887947083,0.0,-0.010678661987185478,0.009591578505933285,0.0,0.008047753944993019
0.009460697881877422,0.0,-0.010123364627361298,0.01024478767067194,0.0,0.008069598115980625
0.009469368495047092,0.0,-0.010983462445437908,0.009818543680012226,0.0,0.008391456678509712
0.00923669058829546,0.0,-0.010601154528558254,0.009466159157454967,0.0,0.00879873987287283
0.01010856032371521,0.0,-0.010779616422951221,0.010152608156204224,0.0,0.008630738593637943
0.009807261638343334,0.0,-0.01051249261945486,0.009946778416633606,0.0,0.008820627816021442
0.009286646731197834,0.0,-0.01019143033772707,0.009935333393514156,0.0,0.00813022255897522
0.009752619080245495,0.0,-0.009944532997906208,0.010748455300927162,0.0,0.008110721595585346
0.00982812512665987,0.0,-0.010152590461075306,0.01033236924558878,0.0,0.007993842475116253
0.009641935117542744,0.0,-0.00985437911003828,0.009913123212754726,0.0,0.007868739776313305
0.009702470153570175,0.0,-0.010315797291696072,0.009946171194314957,0.0,0.008683079853653908
0.009719067253172398,-1.2036753105348907e-05,-0.010889857076108456,0.010541155934333801,0.0,0.008298027329146862
0.00938822329044342,-1.6148840131791076e-07,-0.009891488589346409,0.010407704859972,0.0,0.008589904755353928
0.010042908601462841,-2.166573143114192e-09,-0.010189454071223736,0.010789185762405396,0.0,0.008565002121031284
0.010206075385212898,-2.906734054841653e-11,-0.010684157721698284,0.010662081651389599,0.0,0.0083509162068367
0.009246534667909145,-3.8997548679892136e-13,-0.009933237917721272,0.010533448308706284,0.0,0.00820744689553976
0.009533116593956947,-5.2320187536537745e-15,-0.010939568281173706,0.010509963147342205,0.0,0.008762404322624207
0.010629706084728241,-7.019420929156001e-17,-0.009505202993750572,0.009912176989018917,0.0,0.009573500603437424
0.009477846324443817,-9.417449205964689e-19,-0.010958031751215458,0.010476271621882915,0.0,0.008255339227616787
0.010154756717383862,-1.695107594800276e-22,-0.009685887955129147,0.010511896573007107,0.0,0.008369618095457554
0.009505098685622215,-2.274203159357129e-24,-0.01021522469818592,0.010667067021131516,0.0,0.008490088395774364
0.009729623794555664,-3.051133406203288e-26,-0.0103358905762434,0.01065639965236187,0.0,0.008588741533458233
0.010242092423141003,-4.093484652184864e-28,-0.010373684577643871,0.009923115372657776,0.0,0.009069351479411125
0.009488614276051521,-5.491932552691455e-30,-0.010434653609991074,0.009910711087286472,0.0,0.008755533024668694
0.009488614276051521,-5.491932552691455e-30,-0.010434653609991074,0.009910711087286472,0.0,0.008755533024668694
0.010533217340707779,-7.368128483079864e-32,-0.011376671493053436,0.009916790761053562,0.0,0.008974986150860786
0.010310910642147064,-9.885284845751487e-34,-0.010933312587440014,0.010234079323709011,0.0,0.009320664219558239
0.00965330470353365,-1.3262371520189712e-35,-0.01110962126404047,0.010134240612387657,0.0,0.009248882532119751
0.00984357949346304,-1.7793164374890255e-37,-0.0104885408654809,0.009915763512253761,0.0,0.009239491075277328
0.009975253604352474,-2.3871805976020778e-39,-0.010497992858290672,0.009708826430141926,0.0,0.008548785001039505
0.00951477698981762,-3.2026676402143694e-41,-0.011255882680416107,0.010397289879620075,0.0,0.009228372015058994
0.009825455024838448,-4.3019862854771884e-43,-0.010669221170246601,0.009762718342244625,0.0,0.008792424574494362
0.01013616006821394,-5.605193857299268e-45,-0.010551068000495434,0.010259274393320084,0.0,0.008851941674947739
0.009450584650039673,-0.0,-0.01065394002944231,0.010285766795277596,0.0,0.009317255578935146
0.009915587492287159,0.0,-0.009960372932255268,0.01052332203835249,0.0,0.008837253786623478
0.009854021482169628,0.0,-0.010663110762834549,0.011087934486567974,0.0,0.008776023983955383
0.009340068325400352,0.0,-0.010792188346385956,0.010616355575621128,0.0,0.00888301245868206
0.010232571512460709,0.0,-0.010859969072043896,0.009752529673278332,0.0,0.009240560233592987
0.009908326901495457,0.0,-0.011323466897010803,0.010206793434917927,0.0,0.008692953735589981
0.009641842916607857,0.0,-0.010481837205588818,0.010014104656875134,0.0,0.008290939964354038
0.010250011458992958,0.0,-0.010398121550679207,0.009802130982279778,0.0,0.008708301931619644
0.010058906860649586,0.0,-0.011210802011191845,0.010227568447589874,0.0,0.008813655935227871
0.009772144258022308,0.0,-0.010859087109565735,0.009878667071461678,0.0,0.008766835555434227
0.010009071789681911,0.0,-0.01057564839720726,0.00992528535425663,0.0,0.008830826729536057
0.010357732884585857,0.0,-0.010913657955825329,0.011452221311628819,0.0,0.009114804677665234
0.009705251082777977,0.0,-0.010847545228898525,0.010634400881826878,0.0,0.00943070463836193
0.010406745597720146,0.0,-0.010589346289634705,0.010874994099140167,0.0,0.009339304640889168
0.009376796893775463,0.0,-0.010160279460251331,0.010075507685542107,0.0,0.009228866547346115
0.01019673515111208,0.0,-0.010521604679524899,0.010535051114857197,0.0,0.009072583168745041
0.010268321260809898,0.0001035558307194151,-0.010502638295292854,0.009903275407850742,0.0,0.009113878943026066
0.010757281444966793,0.00011210760567337275,-0.011174050159752369,0.009500189684331417,0.0,0.009221702814102173
0.010333025828003883,0.00010952828597510234,-0.011492346413433552,0.010652532801032066,0.0,0.009666027501225471
0.00991692766547203,0.00010692785872379318,-0.01050239522010088,0.010393601842224598,0.0,0.009668271988630295
0.009812058880925179,0.00010444613872095942,-0.01067535113543272,0.010116898454725742,0.0,0.009179212152957916
0.010895472019910812,0.00010207684681518003,-0.010821593925356865,0.01061999425292015,0.0,0.00927356444299221
0.010895472019910812,0.00010207684681518003,-0.010821593925356865,0.01061999425292015,0.0,0.00927356444299221
0.00947002973407507,9.981283074012026e-05,-0.010586247779428959,0.01095421239733696,0.0,0.00924883782863617
0.00952308438718319,9.764697460923344e-05,-0.011064874939620495,0.010412773117423058,0.0,0.008913448080420494
0.010347750969231129,9.557329030940309e-05,-0.01078792568296194,0.010755905881524086,0.0,0.009340127930045128
0.010257279500365257,9.358552779303864e-05,-0.01022428646683693,0.010616562329232693,0.0,0.009486892260611057
0.010295514017343521,0.00010928064148174599,-0.01107146218419075,0.010187722742557526,0.0,0.009282677434384823
0.01027117669582367,0.00010780840966617689,-0.010922958143055439,0.010646584443747997,0.0,0.009265463799238205
0.010090801864862442,0.00010570756421657279,-0.010828468948602676,0.009643904864788055,0.0,0.00933624804019928
0.01042439416050911,0.00010367824143031612,-0.011339898221194744,0.010126655921339989,0.0,0.010388101451098919
0.010179873555898666,0.00010172523616347462,-0.010346800088882446,0.01092097070068121,0.0,0.009941580705344677
0.010376257821917534,0.00011625754996202886,-0.011007636785507202,0.01026314590126276,0.0,0.009493054822087288
0.010037359781563282,0.00011436759086791426,-0.01090814545750618,0.01048723142594099,0.0,0.009457436390221119
0.010106435045599937,0.00011233127588639036,-0.010779747739434242,0.010647287592291832,0.0,0.009474682621657848
0.01068238727748394,0.00011036359501304105,-0.011589772999286652,0.010605367831885815,0.0,0.009748002514243126
0.010260393843054771,0.00010846337681869045,-0.010858532041311264,0.011125962249934673,0.0,0.009542685002088547
0.010004295036196709,0.0001200809856527485,-0.010568023659288883,0.010852505452930927,0.0,0.009386040270328522
0.009779509156942368,0.00011980836279690266,-0.011501272208988667,0.010628058575093746,0.0,0.009529510512948036
0.010557182133197784,0.00011787026596721262,-0.010852858424186707,0.010651180520653725,0.0,0.009504513815045357
0.010093457996845245,0.00016560856602154672,-0.011309245601296425,0.00997612252831459,0.0,0.00954525452107191
0.010303518734872341,0.00017692413530312479,-0.011380205862224102,0.011193150654435158,0.0,0.010107212699949741
0.010170659981667995,0.00017023510008584708,-0.011374350637197495,0.010415663942694664,0.0,0.009706704877316952
0.009750002063810825,0.00019550576689653099,-0.010925090871751308,0.01080821268260479,0.0,0.010337232612073421
0.01059775985777378,0.00018989552336279303,-0.011384109035134315,0.010805683210492134,0.0,0.009479936212301254
0.010258312337100506,0.00018346073920838535,-0.0111496951431036,0.009996464475989342,0.0,0.00945617537945509
0.009937131777405739,0.00019685481674969196,-0.01057437900453806,0.010438543744385242,0.0,0.009631376713514328
0.010313906706869602,0.00020028292783536017,-0.011883809231221676,0.01042278204113245,0.0,0.010108628310263157
0.01006542332470417,0.00019423851335886866,-0.011485342867672443,0.01061226800084114,0.0,0.010809515602886677
0.01006542332470417,0.00019423851335886866,-0.011485342867672443,0.01061226800084114,0.0,0.010809515602886677
0.009834584780037403,0.0002142633165931329,-0.012171559035778046,0.01032903604209423,0.0,0.010441020131111145
0.010442649945616722,0.0002090807247441262,-0.011377948336303234,0.010466786101460457,0.0,0.0093387421220541
0.010062441229820251,0.00020319393661338836,-0.011430392041802406,0.010000595822930336,0.0,0.009410912171006203
0.010382656008005142,0.00032422758522443473,-0.012231935746967793,0.010183057747781277,0.0,0.010277134366333485
0.010124924592673779,0.0003177301841787994,-0.011491726152598858,0.009665677323937416,0.0,0.010908471420407295
0.010038597509264946,0.00029696928686462343,-0.011952615343034267,0.009707871824502945,0.0,0.010341922752559185
0.010011771693825722,0.00027858413523063064,-0.011524938978254795,0.010129600763320923,0.0,0.01060823630541563
0.010423235595226288,0.0003086251381319016,-0.011101387441158295,0.00977851077914238,0.0,0.010287832468748093
0.010804676450788975,0.00029745115898549557,-0.011586484499275684,0.00965008046478033,0.0,0.010270930826663971
0.01031157560646534,0.00028199414373375475,-0.011799338273704052,0.01018732413649559,0.0,0.01038509514182806
0.01013371255248785,0.0003073583357036114,-0.011328211985528469,0.009933056309819221,0.0,0.010555606335401535
0.010057279840111732,0.0002978103584609926,-0.01175829116255045,0.009750130586326122,0.0,0.010953797958791256
0.010282325558364391,0.0002844307746272534,-0.01111337449401617,0.010355059057474136,0.0,0.010592963546514511
0.010818705894052982,0.0003104767529293895,-0.01192084513604641,0.010226759128272533,0.0,0.010535530745983124
0.010235433466732502,0.00029813460423611104,-0.011330054141581059,0.010311232879757881,0.0,0.0105276582762599
0.010754519142210484,0.00034962245263159275,-0.012429830618202686,0.010459189303219318,0.0,0.010604718700051308
0.010743062943220139,0.0003323517448734492,-0.011411494575440884,0.009974862448871136,0.0,0.01056351512670517
0.009935864247381687,0.0003706254356075078,-0.010981515981256962,0.010482389479875565,0.0,0.01051398552954197
0.010530411265790462,0.00038022667285986245,-0.011723354458808899,0.009968009777367115,1.9054726863032556e-07,0.010624241083860397
0.01037344615906477,0.00039277636096812785,-0.011386845260858536,0.010390542447566986,1.2441374153127072e-08,0.010192325338721275
0.010744183324277401,0.00038820377085357904,-0.011642377823591232,0.010556834749877453,8.123328121278917e-10,0.010454963892698288
0.010875199921429157,0.0003712331526912749,-0.01102255005389452,0.01063498668372631,5.303952763102693e-11,0.01068730279803276
0.011293386109173298,0.000528502743691206,-0.011319728568196297,0.010931515134871006,3.463102200840229e-12,0.010383270680904388
0.011480259709060192,0.0005663780029863119,-0.011417246423661709,0.010623919777572155,2.2611582474029585e-13,0.010248593986034393
0.010315530002117157,0.0005914281355217099,-0.011750639416277409,0.010174664668738842,1.476374869525867e-14,0.010269161313772202
0.010458464734256268,0.0006004615570418537,-0.011953375302255154,0.010798798874020576,9.639672220512958e-16,0.010772294364869595
0.010458464734256268,0.0006004615570418537,-0.011953375302255154,0.010798798874020576,9.639672220512958e-16,0.010772294364869595
0.011144416406750679,0.0005771660944446921,-0.011011800728738308,0.010373301804065704,6.294017280915988e-17,0.010866629891097546
0.012547259218990803,0.0007295467075891793,-0.01163617055863142,0.01095204520970583,4.109543711775217e-18,0.01042694877833128
0.012699994258582592,0.0007606311119161546,-0.011165562085807323,0.010935868136584759,2.683238197802775e-19,0.010647289454936981
0.011774161830544472,0.0007747919298708439,-0.010609613731503487,0.010469869710505009,1.751962882832344e-20,0.010596320964396
0.012133356183767319,0.0007885312661528587,-0.011330402456223965,0.011088092811405659,1.1439064737072873e-21,0.010428229346871376
0.012326796539127827,0.0007227775640785694,-0.01091409008949995,0.010657698847353458,7.468892136599296e-23,0.0102824242785573
0.012318188324570656,0.0007778977742418647,-0.011609500274062157,0.010091477073729038,4.876652919098531e-24,0.010658062063157558
0.012330390512943268,0.0007961852825246751,-0.012220467440783978,0.010796325281262398,3.1841056492800883e-25,0.011009244248270988
0.01222175918519497,0.0008062295382842422,-0.010572239756584167,0.010861599817872047,2.0789934578290047e-26,0.01093071885406971
0.012603583745658398,0.0008086725720204413,-0.012012844905257225,0.010975373908877373,1.3574342322925032e-27,0.010843660682439804
0.01219025906175375,0.0007403814815916121,-0.011600279249250889,0.010911292396485806,8.863075437290374e-29,0.011074550449848175
0.012734925374388695,0.0008377922931686044,-0.011548228561878204,0.010780003853142262,5.7869545513580065e-30,0.010933161713182926
0.012534323148429394,0.0008477496448904276,-0.011588260531425476,0.010268757119774818,3.778467663882012e-31,0.010965065099298954
0.01261286810040474,0.0008798021590337157,-0.010962968692183495,0.010169677436351776,2.4670693565354513e-32,0.010523236356675625
0.012920252978801727,0.0010925107635557652,-0.0115515710785985,0.010285278782248497,1.6108201328790978e-33,0.01071914192289114
0.012645826674997807,0.0012089237570762634,-0.011001728475093842,0.010465352796018124,-1.071363476512488e-05,0.011123711243271828
0.013164409436285496,0.0011938955867663026,-0.011101238429546356,0.010533805005252361,-0.00016805928316898644,0.011164073832333088
0.012199470773339272,0.0012422183062881231,-0.012323799543082714,0.010780246928334236,-0.00017192841914948076,0.011075003072619438
0.012941488064825535,0.001188838155940175,-0.011548005975782871,0.011261100880801678,-0.00016624857380520552,0.011036594398319721
0.012415675446391106,0.0011230888776481152,-0.01149099413305521,0.011186676099896431,-0.00016036696615628898,0.01102591771632433
0.01291410531848669,0.0010886546224355698,-0.011223245412111282,0.011036556214094162,-0.00015485080075450242,0.011605574749410152
0.012719494290649891,0.0011338829062879086,-0.011180141009390354,0.010760045610368252,-0.00017372230649925768,0.01151515357196331
0.012831132858991623,0.0011155068641528487,-0.010807069949805737,0.01168429758399725,-0.00018920745060313493,0.01122146937996149
0.012530243024230003,0.0015506530180573463,-0.011358636431396008,0.011464755982160568,-0.0001900824427139014,0.011177938431501389
0.013395269401371479,0.0016108258860185742,-0.01130291260778904,0.011069146916270256,-0.00018493251991458237,0.01232801005244255
0.012798026204109192,0.0015109492233023047,-0.010970314033329487,0.011271155439317226,-0.00017968565225601196,0.010916846804320812
0.013159224763512611,0.0015276889316737652,-0.01140693761408329,0.010939477942883968,-0.00019636942306533456,0.010959712788462639
0.013159224763512611,0.0015276889316737652,-0.01140693761408329,0.010939477942883968,-0.00019636942306533456,0.010959712788462639
0.012724624015390873,0.0014594916719943285,-0.011114980094134808,0.011176003143191338,-0.00019405921921133995,0.011558608151972294
0.013316554948687553,0.001512746443040669,-0.01123602781444788,0.011182333342730999,-0.00018915568944066763,0.01161791943013668
0.013163884170353413,0.0015800748951733112,-0.012117923237383366,0.011151377111673355,-0.00018432557408232242,0.011816050857305527
0.013008409179747105,0.0019299110863357782,-0.011600745841860771,0.012014918960630894,-0.0002703843347262591,0.011746047995984554
0.013422132469713688,0.0019471044652163982,-0.011575205251574516,0.011377488262951374,-0.0002673825656529516,0.011974697932600975
0.013006542809307575,0.002186038764193654,-0.011278560385107994,0.011240080930292606,-0.0002531888603698462,0.01234761904925108
0.013189293444156647,0.001931835780851543,-0.011025896295905113,0.011473393999040127,-0.00028124882373958826,0.011779199354350567
0.01329315546900034,0.0018101736204698682,-0.011703770607709885,0.010878494009375572,-0.0002727252140175551,0.011757493950426579
0.013970131985843182,0.00180762296076864,-0.010920043103396893,0.011311677284538746,-0.00025996440672315657,0.011926296167075634
0.013331964612007141,0.0018400248372927308,-0.01188651006668806,0.011119533330202103,-0.00024804400163702667,0.011842035688459873
0.01375268679112196,0.001835793606005609,-0.012014752253890038,0.011281127110123634,-0.00023714972485322505,0.011385874822735786
0.013424565084278584,0.0019807571079581976,-0.011583028361201286,0.011280819773674011,-0.00022717089450452477,0.011486641131341457
0.013801902532577515,0.0019419114105403423,-0.011752602644264698,0.010751405730843544,-0.0002448554150760174,0.012532705441117287
0.013439442962408066,0.002185993595048785,-0.011037465184926987,0.011044634506106377,-0.00024384204880334437,0.012309613637626171
0.014407911337912083,0.001990213757380843,-0.0113798463717103,0.011572706513106823,-0.00023528712335973978,0.011921351775527
0.013019770383834839,0.002102416940033436,-0.011398914270102978,0.011298775672912598,-0.00022684953000862151,0.011963773518800735
0.013655171729624271,0.0019479133188724518,-0.011569598689675331,0.011288135312497616,-0.00021896646649111062,0.011780351400375366
0.013885953463613987,0.0020709235686808825,-0.011933323927223682,0.01076091080904007,-0.00021161105541978031,0.011985181830823421
0.014172394759953022,0.0022791477385908365,-0.01134339440613985,0.010772372595965862,-0.0002263835194753483,0.012096231803297997
0.014352887868881226,0.002260806504637003,-0.01170944795012474,0.011223837733268738,-0.00021966741769574583,0.012298671528697014
0.014353981241583824,0.0021475800313055515,-0.011955253779888153,0.011246008798480034,-0.0002131918736267835,0.012587101198732853
0.014350520446896553,0.002039873506873846,-0.012445732019841671,0.011312507092952728,-0.00021735852351412177,0.012658988125622272
0.014249303378164768,0.001982316840440035,-0.011867353692650795,0.010495524853467941,-0.0002172698441427201,0.012729890644550323
0.014323464594781399,0.0021490685176104307,-0.01211310364305973,0.010952536016702652,-0.00020790983398910612,0.012709502130746841
0.014252327382564545,0.0019747870974242687,-0.01153001468628645,0.01073626521974802,-0.00023321129265241325,0.012790441513061523
0.014233618974685669,0.0021308513823896646,-0.01179051399230957,0.010625062510371208,-0.00022808616631664336,0.013065124861896038
0.014474262483417988,0.002024456625804305,-0.01290840469300747,0.010812802240252495,-0.00021913769887760282,0.012883150950074196
0.014608316123485565,0.002012169687077403,-0.01194038987159729,0.010874098166823387,-0.0002106096362695098,0.01288646087050438
0.014608316123485565,0.002012169687077403,-0.01194038987159729,0.010874098166823387,-0.0002106096362695098,0.01288646087050438
0.014585884287953377,0.0022316770628094673,-0.012049634009599686,0.011496792547404766,-0.00022763699234928936,0.013152913190424442
0.014585884287953377,0.0022316770628094673,-0.012049634009599686,0.011496792547404766,-0.00022763699234928936,0.013152913190424442
0.014185146428644657,0.0024583768099546432,-0.01242019422352314,0.011288425885140896,-0.00021995176211930811,0.012970605865120888
0.01464275922626257,0.0022731279022991657,-0.012649999000132084,0.011213024146854877,-0.00024085982295218855,0.012453310191631317
0.014922681264579296,0.00217832182534039,-0.012246170081198215,0.01073000580072403,-0.00023484982375521213,0.012722197920084
0.014615505002439022,0.0023190579377114773,-0.012721840292215347,0.011002082377672195,-0.00022754777455702424,0.012485128827393055
0.014602167531847954,0.002250579884275794,-0.01158827729523182,0.01202668808400631,-0.0002205836062785238,0.012495692819356918
0.014734705910086632,0.0024701235815882683,-0.012559166178107262,0.010626394301652908,-0.00021402646962087601,0.012868713587522507
0.014647943899035454,0.002640338148921728,-0.012644477188587189,0.009941935539245605,-0.0002510156773496419,0.012740064412355423
0.014972377568483353,0.0025063424836844206,-0.012163720093667507,0.010337654501199722,-0.00027698397752828896,0.01296414714306593
0.014570982195436954,0.002259779255837202,-0.011998778209090233,0.010693559423089027,-0.0002634738921187818,0.013818005099892616
0.014980670064687729,0.0021883815061300993,-0.012583449482917786,0.011172148399055004,-0.000249062868533656,0.013182409107685089
0.014772011898458004,0.002243282273411751,-0.011102847754955292,0.011096345260739326,-0.00027082228916697204,0.012610695324838161
0.015237442217767239,0.002427147701382637,-0.012397202663123608,0.010761185549199581,-0.0002682835911400616,0.012921478599309921
0.014598127454519272,0.0023774479050189257,-0.012656713835895061,0.011236771941184998,-0.0002562629815656692,0.012824964709579945
0.014800685457885265,0.0025142997037619352,-0.012092232704162598,0.010770674794912338,-0.00024469426716677845,0.012907280586659908
0.01482833456248045,0.002339232014492154,-0.012387823313474655,0.010796315968036652,-0.00023408752167597413,0.012955990619957447
0.015228894539177418,0.0024330702144652605,-0.012410030700266361,0.011256810277700424,-0.00025920517509803176,0.013170546852052212
0.015176191926002502,0.0025748279877007008,-0.012166655622422695,0.01081057358533144,-0.0002511428901925683,0.013376301154494286
0.015377835370600224,0.002690921537578106,-0.012128517962992191,0.010966240428388119,-0.00023273722035810351,0.013640849851071835
0.01603611372411251,0.0030017585959285498,-0.012144842185080051,0.010985883884131908,-0.0002481663250364363,0.013306371867656708
0.015395984053611755,0.0027077991981059313,-0.01213981956243515,0.011569967493414879,-0.0002471385523676872,0.01283868309110403
0.01577705331146717,0.0024175632279366255,-0.012321291491389275,0.010895858518779278,-0.0002908135065808892,0.012963993474841118
0.015206501819193363,0.0023299925960600376,-0.01234477199614048,0.011005047708749771,-0.0002804620307870209,0.013353178277611732
0.015328804031014442,0.0020991216879338026,-0.01202384289354086,0.011591262184083462,-0.00026448123389855027,0.013520153239369392
0.015577422454953194,0.0023628955241292715,-0.012449271976947784,0.011492330580949783,-0.00029633569647558033,0.014073754660785198
0.015392091125249863,0.002755390014499426,-0.011987391859292984,0.011761105619370937,-0.000283793022390455,0.013837465085089207
0.015996035188436508,0.002598349703475833,-0.012514271773397923,0.011306554079055786,-0.0002917546662501991,0.01413808111101389
0.015967899933457375,0.0026419092901051044,-0.012254351750016212,0.011429255828261375,-0.0002983032900374383,0.013857324607670307
0.015967899933457375,0.0026419092901051044,-0.012254351750016212,0.011429255828261375,-0.0002983032900374383,0.013857324607670307
0.015859238803386688,0.0026299511082470417,-0.012394276447594166,0.012159867212176323,-0.000286086811684072,0.013644876889884472
0.015519187785685062,0.002760665025562048,-0.012606239877641201,0.011527040973305702,-0.0003026312915608287,0.013656103983521461
0.016113704070448875,0.002584830392152071,-0.01219465583562851,0.011237462982535362,-0.0002991551300510764,0.013747761026024818
0.016022976487874985,0.002948673674836755,-0.012947244569659233,0.010894360952079296,-0.0004008740943390876,0.014067371375858784
0.01665508933365345,0.0027887269388884306,-0.012490064837038517,0.011167504824697971,-0.00038357728044502437,0.0142026636749506
0.01641133800148964,0.002628899645060301,-0.01287910994142294,0.01116170547902584,-0.00040649186121299863,0.013892020098865032
0.015811648219823837,0.0026954920031130314,-0.012769116088747978,0.010695204138755798,-0.00039311073487624526,0.014113059267401695
0.016525965183973312,0.002790061291307211,-0.012589922174811363,0.011108075268566608,-0.0004203204589430243,0.014427272602915764
0.015790367498993874,0.0028998542111366987,-0.012814904563128948,0.010986997745931149,-0.000400856661144644,0.01437586173415184
0.016402622684836388,0.002011468168348074,-0.01268966868519783,0.011145301163196564,-0.00037731468910351396,0.014334935694932938
0.01652759313583374,0.001464881468564272,-0.012965700589120388,0.01161792129278183,-0.0004033538280054927,0.014232379384338856
0.016891971230506897,0.0011514005018398166,-0.012241188436746597,0.0108854491263628,-0.0003848756314255297,0.014360517263412476
0.017094239592552185,0.0010866746306419373,-0.01346071157604456,0.01164827961474657,-0.00043601778452284634,0.014398976229131222
0.016636215150356293,0.0010278000263497233,-0.012382985092699528,0.011659938842058182,-0.0004199885588604957,0.014476101845502853
0.0166050735861063,0.0009521946776658297,-0.013352214358747005,0.011451122350990772,-0.0004572191392071545,0.014582681469619274
0.01613648794591427,0.0007213884382508695,-0.012585029937326908,0.011813515797257423,-0.00047805780195631087,0.014357456006109715
0.016924964264035225,0.0008211860549636185,-0.01313816662877798,0.01118138711899519,-0.0004596551589202136,0.014416009187698364
0.016652964055538177,0.001533397240564227,-0.012900926172733307,0.011693071573972702,-0.0004603172419592738,0.0140236159786582
0.0169578418135643,0.0014395933831110597,-0.013269025832414627,0.011296890676021576,-0.0006046717753633857,0.013691402040421963
0.017108315601944923,0.0012702071107923985,-0.012524524703621864,0.011899979785084724,-0.0006244699470698833,0.014139087870717049
0.017397893592715263,0.0011874967021867633,-0.013480660505592823,0.011373098939657211,-0.0005822484963573515,0.01481279730796814
0.016961373388767242,0.0011304350337013602,-0.013079376891255379,0.01184749323874712,-0.0006084982887841761,0.014849315397441387
0.01735730841755867,0.0010838520247489214,-0.013297135010361671,0.011476719751954079,-0.0005598068819381297,0.014905527234077454
0.01759067177772522,0.0009156068554148078,-0.013289014808833599,0.01103499811142683,-0.0005499653634615242,0.014827731065452099
0.01740712858736515,0.0008816969930194318,-0.013672222383320332,0.011197092942893505,-0.0005410283338278532,0.015138163231313229
0.017661238089203835,0.0008942934800870717,-0.013525244779884815,0.011419248767197132,-0.0005051713087595999,0.015246698632836342
0.017248306423425674,0.0012164100771769881,-0.01363660953938961,0.01177751924842596,-0.0005021164542995393,0.015081334859132767
0.017620906233787537,0.001423200941644609,-0.01355617307126522,0.011622621677815914,-0.0005014938651584089,0.014889329671859741
0.017892636358737946,0.0013312532100826502,-0.013194720260798931,0.011022832244634628,-0.0004955682088620961,0.015002521686255932
0.01749355159699917,0.0012996577424928546,-0.013578088954091072,0.01127493754029274,-0.00045629299711436033,0.015310939401388168
0.0179530531167984,0.0012527343351393938,-0.013227046467363834,0.011530650779604912,-0.00042086964822374284,0.015126317739486694
0.0179530531167984,0.0012527343351393938,-0.013227046467363834,0.011530650779604912,-0.00042086964822374284,0.015126317739486694
0.01772155798971653,0.0011857046047225595,-0.013823611661791801,0.011747492477297783,-0.00044661000720225275,0.015630818903446198
0.01781301386654377,0.0011514975922182202,-0.012975619174540043,0.012238351628184319,-0.0004241873393766582,0.015390130691230297
0.018273774534463882,0.0012210994027554989,-0.013651201501488686,0.012270032428205013,-0.00043972994899377227,0.015522772446274757
0.017821092158555984,0.0012043316382914782,-0.01318059116601944,0.012451022863388062,-0.0004267567419447005,0.015137976035475731
0.01829547993838787,0.0014510933542624116,-0.013445938937366009,0.01213056780397892,-0.0004036783648189157,0.014911758713424206
0.018336277455091476,0.0016515477327629924,-0.01281267125159502,0.012327085249125957,-0.0003822915896307677,0.015002867206931114
0.017906269058585167,0.0015130185056477785,-0.01389397494494915,0.011834537610411644,-0.0003651842998806387,0.015581426210701466
0.018308492377400398,0.001653774525038898,-0.013446291908621788,0.011633094400167465,-0.0003579084004741162,0.015705132856965065
0.018267503008246422,0.0015008228365331888,-0.013941990211606026,0.011747770942747593,-0.0003328458406031132,0.01597045548260212
0.018184810876846313,0.001412513549439609,-0.01391022652387619,0.011685513891279697,-0.0003400983987376094,0.01589561626315117
0.018507223576307297,0.0013877172023057938,-0.013713986612856388,0.01215279195457697,-0.00034592938027344644,0.015342495404183865
0.018250737339258194,0.001455229357816279,-0.013480514287948608,0.012156454846262932,-0.00032679634750820696,0.01581941358745098
0.01854141615331173,0.0019608810544013977,-0.013631299138069153,0.012264874763786793,-0.00030825191061012447,0.01557980664074421
0.018729623407125473,0.0018292038002982736,-0.014312690123915672,0.012041587382555008,-0.000291606382234022,0.016209173947572708
0.01863035000860691,0.0018921170849353075,-0.014306871220469475,0.011906507425010204,-0.00030402521952055395,0.0159979946911335
0.01883084885776043,0.0017904875567182899,-0.014058729633688927,0.01132942084223032,-0.0002925674198195338,0.015765856951475143
0.018787775188684464,0.0017717548180371523,-0.014542976394295692,0.011610140092670918,-0.0002797472116071731,0.016096707433462143
0.019006993621587753,0.0017041993560269475,-0.014277379028499126,0.012011636979877949,-0.00030102161690592766,0.014677557162940502
0.018936878070235252,0.0017323613865301013,-0.014489556662738323,0.011526544578373432,-0.00029330691904760897,0.015229678712785244
0.018712371587753296,0.0019083298975601792,-0.014042623341083527,0.012472990900278091,-0.0002821104717440903,0.016158340498805046
0.01919384114444256,0.0019048387184739113,-0.014614329673349857,0.01142092701047659,-0.00027149060042575,0.016143305227160454
0.020068064332008362,0.001941974856890738,-0.014866002835333347,0.0114271966740489,-0.0002616250712890178,0.01660269871354103
0.019149040803313255,0.001975959399715066,-0.01501983217895031,0.011194141581654549,-0.000253284873906523,0.016632527112960815
0.01921289786696434,0.0019188164733350277,-0.015037326142191887,0.010857091285288334,-0.000249533070018515,0.016904927790164948
0.01921289786696434,0.0019188164733350277,-0.015037326142191887,0.010857091285288334,-0.000249533070018515,0.016904927790164948
0.019050532951951027,0.001897222362458706,-0.014693654142320156,0.011782093904912472,-0.00023705748026259243,0.016550594940781593
0.018466437235474586,0.0019240722758695483,-0.014796018600463867,0.011617355979979038,-0.00022523250663653016,0.016550526022911072
0.01931839808821678,0.0019071780843660235,-0.014483879320323467,0.011809422634541988,-0.00025164795806631446,0.016497232019901276
0.019546253606677055,0.0020120905246585608,-0.014830296859145164,0.011964639648795128,-0.0002453069027978927,0.01639491319656372
0.019653791561722755,0.0020445615518838167,-0.014745070599019527,0.011666920967400074,-0.0002349634305574,0.016868872568011284
0.019234549254179,0.0023273613769561052,-0.015192171558737755,0.01216122880578041,-0.00022518454352393746,0.01640339568257332
0.01973043382167816,0.002111731795594096,-0.015145025216042995,0.011814943514764309,-0.00024740028311498463,0.016216261312365532
0.01978897862136364,0.0021990241948515177,-0.015065875835716724,0.012194614857435226,-0.00024217608734034002,0.01638292334973812
0.020344020798802376,0.002320588333532214,-0.015143592841923237,0.012706100009381771,-0.00023347999376710504,0.016767119988799095
0.020208315923810005,0.00228280876763165,-0.015100360848009586,0.0119770597666502,-0.0002530480269342661,0.01680976338684559
0.021635225042700768,0.002461191499605775,-0.014357110485434532,0.012086343951523304,-0.00024815998040139675,0.016636531800031662
0.01923515275120735,0.002223536605015397,-0.014647637493908405,0.011884949170053005,-0.00024013298389036208,0.016891032457351685
0.0196502897888422,0.002455269917845726,-0.015872417017817497,0.012418380007147789,-0.00023239754955284297,0.01660381443798542
0.020122414454817772,0.0023756767623126507,-0.015842827036976814,0.012719614431262016,-0.00026124075520783663,0.016973333433270454
0.01989717036485672,0.0023068715818226337,-0.014352435246109962,0.012556562200188637,-0.00027991359820589423,0.01680591329932213
0.020813314244151115,0.0024826691951602697,-0.014732480980455875,0.012675629928708076,-0.00026567018358036876,0.016856327652931213
0.020281191915273666,0.0026060817763209343,-0.015385936945676804,0.012551343999803066,-0.000285060319583863,0.016737787052989006
0.020598992705345154,0.0026987746823579073,-0.014312056824564934,0.01171049289405346,-0.0003100512258242816,0.01708291471004486
0.020719068124890327,0.0024915134999901056,-0.014972617849707603,0.011943365447223186,-0.0003006228362210095,0.017250319942831993
0.020455634221434593,0.0024119694717228413,-0.01443571038544178,0.012074694968760014,-0.00032281375024467707,0.017476001754403114
0.020763209089636803,0.0026369821280241013,-0.015285879373550415,0.012642154470086098,-0.0003142415953334421,0.01793418824672699
0.020876532420516014,0.0027977279387414455,-0.014798498712480068,0.012793314643204212,-0.0004829202953260392,0.016558032482862473
0.0209038108587265,0.002542508766055107,-0.014907045289874077,0.012637398205697536,-0.0004481100768316537,0.016870781779289246
0.02101963758468628,0.002670620335265994,-0.014500029385089874,0.012515961192548275,-0.0004082793602719903,0.017240183427929878
0.02104092203080654,0.0027045034803450108,-0.015141839161515236,0.012238757684826851,-0.0004105468688067049,0.017890680581331253
0.02121693454682827,0.0027274840977042913,-0.014921844936907291,0.012487823143601418,-0.0004121580859646201,0.017955804243683815
0.021177776157855988,0.002583160065114498,-0.015222218818962574,0.012674795463681221,-0.00041606317972764373,0.01761234924197197
0.021177776157855988,0.002583160065114498,-0.015222218818962574,0.012674795463681221,-0.00041606317972764373,0.01761234924197197
0.021090274676680565,0.0029200755525380373,-0.015010503120720387,0.012395245023071766,-0.0004171768669039011,0.01804426684975624
0.021376652643084526,0.0029902285896241665,-0.014744704589247704,0.012477993033826351,-0.0003930192324332893,0.01795218326151371
0.021465444937348366,0.002910200273618102,-0.015115034766495228,0.012359137646853924,-0.0003700456873048097,0.017725417390465736
0.02113853581249714,0.002628389047458768,-0.015011530369520187,0.012622934766113758,-0.0003959933528676629,0.01772487722337246
0.02081569842994213,0.0026372778229415417,-0.015536069869995117,0.012075007893145084,-0.0003782175190281123,0.017461087554693222
0.021082967519760132,0.0026792180724442005,-0.015258806757628918,0.012164460495114326,-0.00035952325561083853,0.017584357410669327
0.021265292540192604,0.002568024443462491,-0.015207074582576752,0.01224817056208849,-0.00034544573281891644,0.018302835524082184
0.021216394379734993,0.0028374602552503347,-0.014868015423417091,0.012428316287696362,-0.00032520166132599115,0.01821289025247097
0.021033328026533127,0.002952936803922057,-0.01549406535923481,0.012635892257094383,-0.0003035615081898868,0.018319789320230484
0.02142772637307644,0.0028596273623406887,-0.014707389287650585,0.012045423500239849,-0.00031204591505229473,0.017958374693989754
0.021635932847857475,0.002623250475153327,-0.015316384844481945,0.012241393327713013,-0.0003190621791873127,0.017954625189304352
0.02159063145518303,0.0028799816500395536,-0.015137233771383762,0.011811413802206516,-0.00034004671033471823,0.018085209652781487
0.021291451528668404,0.003023256082087755,-0.015515121631324291,0.012702599167823792,-0.00033378886291757226,0.018192827701568604
0.02147023193538189,0.0030654959846287966,-0.01483287662267685,0.012438302859663963,-0.00031772046349942684,0.018603157252073288
0.02142944373190403,0.0028174107428640127,-0.015461265109479427,0.012401958927512169,-0.00033993457327596843,0.01852632313966751
0.021388396620750427,0.002852051053196192,-0.014592625200748444,0.0122752096503973,-0.000329506496200338,0.01815614476799965
0.021270228549838066,0.002896643476560712,-0.015027981251478195,0.011946216225624084,-0.0004101622907910496,0.01831752434372902
0.021950675174593925,0.0029406570829451084,-0.015081259422004223,0.012662087567150593,-0.0004049878043588251,0.01840914413332939
0.02223026193678379,0.0029967851005494595,-0.014896972104907036,0.011812908574938774,-0.0004090320144314319,0.019674483686685562
0.02207920327782631,0.003127612639218569,-0.015468552708625793,0.012391242198646069,-0.00041520094964653254,0.018823467195034027
0.021719915792346,0.0034909206442534924,-0.015848785638809204,0.012289222329854965,-0.0004165024438407272,0.018244506791234016
0.021943673491477966,0.0033709595445543528,-0.015846434980630875,0.01259008888155222,-0.00043372041545808315,0.018304074183106422
0.02183796651661396,0.00347688770852983,-0.016113122925162315,0.012333724647760391,-0.0004213507054373622,0.018758492544293404
0.0220634862780571,0.003218087600544095,-0.015211903490126133,0.013252009637653828,-0.0003988536191172898,0.01854567974805832
0.02148779295384884,0.0034841198939830065,-0.016172049567103386,0.012982210144400597,-0.00045113664236851037,0.01910126954317093
0.022220535203814507,0.0031467818189412355,-0.015240532346069813,0.013532452285289764,-0.00043322445708326995,0.01923767477273941
0.022220535203814507,0.0031467818189412355,-0.015240532346069813,0.013532452285289764,-0.00043322445708326995,0.01923767477273941
0.022816667333245277,0.0032433054875582457,-0.01559257972985506,0.01315985806286335,-0.00046505668433383107,0.019599629566073418
0.022568702697753906,0.003317994996905327,-0.015258644707500935,0.013047863729298115,-0.00047210935736075044,0.019207263365387917
0.022142495959997177,0.0031172866001725197,-0.01594311185181141,0.012980567291378975,-0.0004696715041063726,0.01873946003615856
0.022479932755231857,0.003104595234617591,-0.015662824735045433,0.013014649040997028,-0.000497411354444921,0.019333776086568832
0.021685849875211716,0.0034345081076025963,-0.01625770702958107,0.013367543928325176,-0.0006416059331968427,0.020173829048871994
0.02179662510752678,0.0036991052329540253,-0.016121963039040565,0.013325395993888378,-0.0007024640217423439,0.02007579803466797
0.022123858332633972,0.003145464463159442,-0.015542920678853989,0.013569791801273823,-0.0006490451632998884,0.01944570429623127
0.021397888660430908,0.003107175463810563,-0.016114739701151848,0.012746118940412998,-0.0006709166918881238,0.019632358103990555
0.023357190191745758,0.0030655995942652225,-0.01581008918583393,0.013160834088921547,-0.0006116981967352331,0.019452601671218872
0.022827021777629852,0.0035700590815395117,-0.016530118882656097,0.013010608963668346,-0.0006162467179819942,0.019865697249770164
0.022376511245965958,0.003393384162336588,-0.016073092818260193,0.01341224741190672,-0.0005842790124006569,0.019920505583286285
0.022245127707719803,0.0034773556981235743,-0.016467956826090813,0.013185487128794193,-0.0005881899269297719,0.019542686641216278
0.022479383274912834,0.0031857145950198174,-0.016076961532235146,0.013241258449852467,-0.0005371328443288803,0.019317256286740303
0.022798998281359673,0.0031869353260844946,-0.016430065035820007,0.012689236551523209,-0.00048090177006088197,0.01912764087319374
0.022757072001695633,0.0032421115320175886,-0.01613495871424675,0.01252550445497036,-0.0005150978686287999,0.019600601866841316
0.022768186405301094,0.0034750786144286394,-0.015748467296361923,0.01292832288891077,-0.0004750129010062665,0.019851231947541237
0.02302122302353382,0.003275429829955101,-0.01676248200237751,0.012415734119713306,-0.0004721290897578001,0.020404187962412834
0.023342253640294075,0.0030968389473855495,-0.01669924147427082,0.01332584023475647,-0.0004690939385909587,0.022035963833332062
0.023319179192185402,0.003083102172240615,-0.017105156555771828,0.012302884832024574,-0.00043853025999851525,0.02005588449537754
0.02369401790201664,0.002532985294237733,-0.017058473080396652,0.01343157235532999,-0.00043621548684313893,0.020010679960250854
0.02366546541452408,0.0026417598128318787,-0.016734976321458817,0.0136617012321949,-0.00041443633381277323,0.02080022729933262
0.023685287684202194,0.0026109186001122,-0.016327397897839546,0.013227827847003937,-0.00039450242184102535,0.020942991599440575
0.023728562518954277,0.0026296961586922407,-0.016966376453638077,0.013140007853507996,-0.00036653492134064436,0.020914757624268532
0.024036463350057602,0.003112359205260873,-0.01667647249996662,0.013235826045274734,-0.0003391608188394457,0.021270837634801865
0.02381741814315319,0.0030633402056992054,-0.017054997384548187,0.012876683846116066,-0.0003698679793160409,0.020817844197154045
0.023427290841937065,0.003159689949825406,-0.016887623816728592,0.01373920775949955,-0.00035310638486407697,0.020367342978715897
0.023427290841937065,0.003159689949825406,-0.016887623816728592,0.01373920775949955,-0.00035310638486407697,0.020367342978715897
0.023890292271971703,0.00284254620783031,-0.01628127507865429,0.01325641293078661,-0.0003318801464047283,0.020523594692349434
0.02402283251285553,0.0027131561655551195,-0.016881946474313736,0.013401860371232033,-0.000361188460374251,0.020492548123002052
0.02441362291574478,0.0025841067545115948,-0.016590921208262444,0.012813820503652096,-0.00034459098242223263,0.020200347527861595
0.024348538368940353,0.002868242794647813,-0.01701689325273037,0.013503140769898891,-0.0003269106091465801,0.020618773996829987
0.024027541279792786,0.0029302407056093216,-0.016469063237309456,0.012669611722230911,-0.0003492342075332999,0.02096431516110897
0.02415822260081768,0.0028784547466784716,-0.0167553573846817,0.012958265841007233,-0.0003380997513886541,0.020784756168723106
0.02393822930753231,0.002681126119568944,-0.016645114868879318,0.013137375935912132,-0.0003250110021326691,0.02050642855465412
0.0242244191467762,0.0028333307709544897,-0.01647895947098732,0.013720575720071793,-0.0003665023250505328,0.02057725563645363
0.024607643485069275,0.002924444619566202,-0.017225289717316628,0.013738838024437428,-0.0003430089564062655,0.02073492854833603
0.02469448558986187,0.0031079957261681557,-0.016411906108260155,0.01372442115098238,-0.00034993127337656915,0.020833034068346024
0.025098934769630432,0.0029107388108968735,-0.016855448484420776,0.014412972144782543,-0.00035529237356968224,0.0216074176132679
0.02521742880344391,0.0029107413720339537,-0.017200114205479622,0.014051728881895542,-0.0003762328124139458,0.02170831896364689
0.024774566292762756,0.0030787501018494368,-0.016784412786364555,0.014013788662850857,-0.00036726531106978655,0.021232010796666145
0.023833228275179863,0.0030707635451108217,-0.016779107972979546,0.013623185455799103,-0.0003478299477137625,0.020429397001862526
0.024769341573119164,0.003045777091756463,-0.01632292941212654,0.013851228170096874,-0.000370440655387938,0.021780885756015778
0.025676323100924492,0.0027946545742452145,-0.017206287011504173,0.013516329228878021,-0.0003576226008590311,0.021051840856671333
0.02509436011314392,0.002981984056532383,-0.016802212223410606,0.014047391712665558,-0.0003424354363232851,0.021337272599339485
0.02508012391626835,0.003062729723751545,-0.016948586329817772,0.013519012369215488,-0.000402853824198246,0.021087637171149254
0.025435447692871094,0.0029552101623266935,-0.017087901011109352,0.01426728442311287,-0.0003752224438358098,0.021753113716840744
0.02587607316672802,0.002903740620240569,-0.016649659723043442,0.014102593064308167,-0.00034668282023631036,0.02211056649684906
0.025412531569600105,0.002914773765951395,-0.016910649836063385,0.014148404821753502,-0.0003774806682486087,0.02272181399166584
0.02494720369577408,0.0031399617437273264,-0.017190665006637573,0.014179052785038948,-0.0003793219802901149,0.021787231788039207
0.025330478325486183,0.003043927252292633,-0.017109179869294167,0.013860565610229969,-0.00037001780583523214,0.02132405899465084
0.02651452086865902,0.0028020075988024473,-0.016614871099591255,0.014532729983329773,-0.00039359027869068086,0.02109435945749283
0.026204798370599747,0.0029921189416199923,-0.017023446038365364,0.013746467418968678,-0.00037885524216108024,0.021787062287330627
0.026425881311297417,0.0034049965906888247,-0.016732456162571907,0.014074796810746193,-0.00042680613114498556,0.022749343886971474
0.02612953446805477,0.003840256715193391,-0.017290867865085602,0.013745284639298916,-0.0004711947403848171,0.02292657643556595
0.026208976283669472,0.0034736646339297295,-0.01696072146296501,0.01394387986510992,-0.00045190617674961686,0.02267962135374546
0.026208976283669472,0.0034736646339297295,-0.01696072146296501,0.01394387986510992,-0.00045190617674961686,0.02267962135374546
0.026249216869473457,0.003109813667833805,-0.01711203344166279,0.013735713437199593,-0.00048298804904334247,0.021969767287373543
0.02628282830119133,0.0029987520538270473,-0.017092738300561905,0.014146726578474045,-0.0004839719331357628,0.022144924849271774
0.025929423049092293,0.0031069405376911163,-0.016473805531859398,0.013786917552351952,-0.00048067967873066664,0.02272040769457817
0.02624460496008396,0.0033915441017597914,-0.01688215509057045,0.014173886738717556,-0.00045581330778077245,0.02293430268764496
0.026421036571264267,0.0033662477508187294,-0.017200393602252007,0.013879290781915188,-0.0005930010229349136,0.022679943591356277
0.026493672281503677,0.0034252528566867113,-0.01751255989074707,0.013555840589106083,-0.0006135200965218246,0.02239963412284851
0.02681109309196472,0.003210750874131918,-0.017281953245401382,0.013786308467388153,-0.0005730794509872794,0.022391701117157936
0.026936780661344528,0.0035169359762221575,-0.016900092363357544,0.013861589133739471,-0.000599848513957113,0.022564444690942764
0.02707342430949211,0.0037142285145819187,-0.017500927671790123,0.014031091704964638,-0.0005906963488087058,0.02410522848367691
0.02691054530441761,0.003695012303069234,-0.017483146861195564,0.014318067580461502,-0.0005782194202765822,0.022214658558368683
0.026888228952884674,0.0036648442037403584,-0.017448285594582558,0.014308681711554527,-0.0005373329040594399,0.02203259989619255
0.02706379070878029,0.0037327928002923727,-0.017566440626978874,0.013803626410663128,-0.0005437092622742057,0.022546129301190376
0.026962747797369957,0.003354374784976244,-0.01630418933928013,0.014161300845444202,-0.0004999726661480963,0.022863809019327164
0.02717561274766922,0.003049410879611969,-0.01839769445359707,0.013979926705360413,-0.0005284970975480974,0.022779757156968117
0.027056129649281502,0.0030297269113361835,-0.017835764214396477,0.014126027002930641,-0.0005305582890287042,0.0224529467523098
0.027321532368659973,0.0032671962399035692,-0.017443405464291573,0.013727396726608276,-0.0005230309325270355,0.022614937275648117
0.027012119069695473,0.003573610447347164,-0.018439507111907005,0.013981916010379791,-0.0005360259092412889,0.022901028394699097
0.026951350271701813,0.003688069526106119,-0.01776099018752575,0.013780449517071247,-0.0005137246917001903,0.023061338812112808
0.028327498584985733,0.0036168163642287254,-0.01762501336634159,0.01380562037229538,-0.0006112889968790114,0.02289879135787487
0.028151750564575195,0.0036652754060924053,-0.017566587775945663,0.01402995828539133,-0.000617418612819165,0.02300473302602768
0.02583453617990017,0.003783692140132189,-0.01804295927286148,0.013689066283404827,-0.0006013636593706906,0.02343856543302536
0.027661167085170746,0.003433536970987916,-0.018050212413072586,0.014330019243061543,-0.0006194059387780726,0.02369304932653904
0.028673822060227394,0.003454001620411873,-0.017956482246518135,0.0140626709908247,-0.0005792966694571078,0.023332905024290085
0.028033114969730377,0.003767977934330702,-0.018193384632468224,0.014478268101811409,-0.0006626180256716907,0.023349011316895485
0.02853459119796753,0.00401373440399766,-0.01805437169969082,0.01431962288916111,-0.000687943072989583,0.023780057206749916
0.028868481516838074,0.0035017793998122215,-0.01850038766860962,0.014820735901594162,-0.0006726623396389186,0.02369740419089794
0.028868481516838074,0.0035017793998122215,-0.01850038766860962,0.014820735901594162,-0.0006726623396389186,0.02369740419089794
0.028882965445518494,0.0035943540278822184,-0.018554937094449997,0.014446277171373367,-0.0006488333456218243,0.02389362081885338
0.02744440920650959,0.003933711908757687,-0.01858949474990368,0.014030045829713345,-0.000691592984367162,0.023775121197104454
0.02744440920650959,0.003933711908757687,-0.01858949474990368,0.014030045829713345,-0.000691592984367162,0.023775121197104454
0.027955956757068634,0.003516975324600935,-0.01844116486608982,0.014614811167120934,-0.0007254556403495371,0.023682376369833946
0.029054764658212662,0.003362672170624137,-0.01747356541454792,0.013861043378710747,-0.000692841422278434,0.024829955771565437
0.02891724370419979,0.003429734380915761,-0.018118971958756447,0.014270642772316933,-0.0006668347050435841,0.02400917559862137
0.028792135417461395,0.003772909287363291,-0.018031196668744087,0.014250164851546288,-0.0006431257934309542,0.023470403626561165
0.028485674411058426,0.0038351004477590322,-0.018534423783421516,0.015086137689650059,-0.0006474568508565426,0.023838059976696968
0.028769662603735924,0.003610453335568309,-0.019075270742177963,0.014671774581074715,-0.0006115378346294165,0.02408876083791256
0.029191885143518448,0.003423867514356971,-0.01837616041302681,0.01474777515977621,-0.000589985225815326,0.024511229246854782
0.028981156647205353,0.0034610244911164045,-0.01858222298324108,0.01456905622035265,-0.0005450110766105354,0.024911683052778244
0.029126068577170372,0.0034742632415145636,-0.01872866414487362,0.015299314633011818,-0.0005780078936368227,0.024932969361543655
0.02925470471382141,0.00360771338455379,-0.017928417772054672,0.015273593366146088,-0.0005275005823932588,0.02391197718679905
0.029283327981829643,0.003631951753050089,-0.018435627222061157,0.016075126826763153,-0.0005499172257259488,0.023439479991793633
0.029719527810811996,0.003647235920652747,-0.018777387216687202,0.016029899939894676,-0.0005500009283423424,0.02403009682893753
0.029556000605225563,0.0036287035327404737,-0.018255876377224922,0.015469205565750599,-0.0005416522035375237,0.025008846074342728
0.029419582337141037,0.003647648962214589,-0.01871640607714653,0.015122205950319767,-0.0006067941430956125,0.024602418765425682
0.02964136376976967,0.0036749008577317,-0.018619399517774582,0.015163281001150608,-0.0006302933907136321,0.02457643300294876
0.029634293168783188,0.003713498590514064,-0.01844963990151882,0.016483506187796593,-0.0006589955883100629,0.02530568279325962
0.030103622004389763,0.0037038405425846577,-0.01875988580286503,0.015000803396105766,-0.0006827214965596795,0.025641271844506264
0.029748333618044853,0.0038188316393643618,-0.018756024539470673,0.01467293780297041,-0.0007985041011124849,0.023881807923316956
0.030184023082256317,0.003859780728816986,-0.01903996430337429,0.015880469232797623,-0.0008212396060116589,0.02414081059396267
0.030254939571022987,0.0035843264777213335,-0.018282009288668633,0.015816302970051765,-0.0007209277828224003,0.024150405079126358
0.030123477801680565,0.0035471224691718817,-0.018991343677043915,0.016087643802165985,-0.0006363954162225127,0.02493339776992798
0.030316490679979324,0.003741640830412507,-0.019219238311052322,0.015033295378088951,-0.0006571679259650409,0.02534341625869274
0.030551450327038765,0.003918374888598919,-0.018820812925696373,0.015347510576248169,-0.0006415917887352407,0.025335658341646194
0.030278455466032028,0.003963461145758629,-0.018797706812620163,0.015218552201986313,-0.0006237410707399249,0.025396078824996948
0.02989579178392887,0.0035401158966124058,-0.019243543967604637,0.015826638787984848,-0.0005741366767324507,0.025418823584914207
0.02989579178392887,0.0035401158966124058,-0.019243543967604637,0.015826638787984848,-0.0005741366767324507,0.025418823584914207
0.03158297762274742,0.003704287111759186,-0.01901169866323471,0.01581176370382309,-0.0005256446893326938,0.024886490777134895
0.03134641423821449,0.003754222998395562,-0.018923506140708923,0.015451747924089432,-0.0004977740463800728,0.02475055307149887
0.03134641423821449,0.003754222998395562,-0.018923506140708923,0.015451747924089432,-0.0004977740463800728,0.02475055307149887
0.03049197606742382,0.003711314406245947,-0.018682783469557762,0.01499843318015337,-0.0005277081509120762,0.024928588420152664
0.029836345463991165,0.003673033555969596,-0.01949126645922661,0.015498153865337372,-0.0005518256803043187,0.025382651016116142
0.03103739209473133,0.004151810891926289,-0.020255403593182564,0.015011907555162907,-0.0006163514335639775,0.025634396821260452
0.030915208160877228,0.004208077676594257,-0.019102847203612328,0.015247945673763752,-0.0006243816460482776,0.025597041472792625
0.030881866812705994,0.004022624343633652,-0.019436409696936607,0.014913061633706093,-0.0006342525593936443,0.025762803852558136
0.032197918742895126,0.0038714983966201544,-0.019407667219638824,0.01574833132326603,-0.0005899018724448979,0.025661921128630638
0.031299371272325516,0.003931990824639797,-0.0189320407807827,0.015587756410241127,-0.0006097023142501712,0.02553553134202957
0.03063768893480301,0.003917051944881678,-0.019363457337021828,0.015814458951354027,-0.0006351040210574865,0.02549166791141033
0.03042278252542019,0.0038621355779469013,-0.01970457285642624,0.015569006092846394,-0.0006944805500097573,0.025821736082434654
0.030736664310097694,0.0037730159237980843,-0.019348222762346268,0.015977896749973297,-0.0006952144321985543,0.025652088224887848
0.03171933814883232,0.003928495571017265,-0.019434848800301552,0.01604970544576645,-0.0006654874887317419,0.025812527164816856
0.03177298605442047,0.003974417224526405,-0.020066766068339348,0.01602306216955185,-0.0005956509849056602,0.026898596435785294
0.031389638781547546,0.003856143681332469,-0.019472314044833183,0.016383923590183258,-0.0006195602472871542,0.026562321931123734
0.03156507760286331,0.003701453795656562,-0.020077431574463844,0.015668097883462906,-0.0006082425825297832,0.025658875703811646
0.031429145485162735,0.0037235652562230825,-0.020667172968387604,0.01580124720931053,-0.0005939793772995472,0.02526979334652424
0.03107859380543232,0.0038136697839945555,-0.020450258627533913,0.015444482676684856,-0.0005779782077297568,0.02528788521885872
0.0313156433403492,0.004219896625727415,-0.01961573213338852,0.01609150320291519,-0.0005378188216127455,0.026290038600564003
0.03111759014427662,0.003933403175324202,-0.02008180506527424,0.01563022844493389,-0.0006028581410646439,0.0258516613394022
0.031073004007339478,0.004411991219967604,-0.01985388994216919,0.01540372148156166,-0.0006290466408245265,0.026251107454299927
0.03134787082672119,0.004164497833698988,-0.020564068108797073,0.015597449615597725,-0.0007870597182773054,0.026468409225344658
0.03026003949344158,0.004341120831668377,-0.020826619118452072,0.015751952305436134,-0.00079918879782781,0.026135379448533058
0.03178445249795914,0.004370161332190037,-0.020254036411643028,0.015854964032769203,-0.0007529378053732216,0.02564249001443386
0.03230094537138939,0.004056455567479134,-0.020359374582767487,0.01570490375161171,-0.0007669562473893166,0.02573816291987896
0.03230094537138939,0.004056455567479134,-0.020359374582767487,0.01570490375161171,-0.0007669562473893166,0.02573816291987896
0.03180503472685814,0.00391143374145031,-0.020632585510611534,0.016040844842791557,-0.0008089538896456361,0.026452206075191498
0.03133765235543251,0.004093670751899481,-0.020278779789805412,0.015512712299823761,-0.0008041936671361327,0.026674237102270126
0.03212278336286545,0.004162196535617113,-0.02088729850947857,0.015658169984817505,-0.0007856485317461193,0.026319488883018494
0.03212278336286545,0.004162196535617113,-0.02088729850947857,0.015658169984817505,-0.0007856485317461193,0.026319488883018494
0.032708171755075455,0.003989010117948055,-0.02119017392396927,0.01533498615026474,-0.0007459542830474675,0.02626119740307331
0.032327648252248764,0.004268105141818523,-0.02089652419090271,0.0158893633633852,-0.0007160273380577564,0.02656230516731739
0.03070806711912155,0.004418130964040756,-0.02031015232205391,0.015741998329758644,-0.0006890197983011603,0.02659023180603981
0.03164951130747795,0.004248041659593582,-0.020958805456757545,0.015881743282079697,-0.0006314085912890732,0.026520658284425735
0.032605838030576706,0.0040158168412745,-0.021269483491778374,0.01610046997666359,-0.0005942752468399704,0.026852838695049286
0.03209007531404495,0.004327321425080299,-0.020585795864462852,0.01632559858262539,-0.0005781016079708934,0.026870468631386757
0.03277057781815529,0.004238654859364033,-0.02065875194966793,0.016382282599806786,-0.0005631380481645465,0.02738410234451294
0.03337809443473816,0.004392310045659542,-0.02102106623351574,0.01604165881872177,-0.0005861843237653375,0.027347203344106674
0.032152120023965836,0.004959973972290754,-0.021415438503026962,0.016286343336105347,-0.0005832798196934164,0.027002032846212387
0.03168955817818642,0.004467369522899389,-0.02069137804210186,0.01607881486415863,-0.0005740819033235312,0.02747824229300022
0.032601248472929,0.004484815057367086,-0.02112080715596676,0.016780385747551918,-0.000718707509804517,0.027224654331803322
0.03352537751197815,0.0042230598628520966,-0.02123086526989937,0.01744888722896576,-0.0007487470284104347,0.027295229956507683
0.03356759622693062,0.004342920612543821,-0.02097477950155735,0.017223220318555832,-0.0007666064775548875,0.02751166746020317
0.03311881050467491,0.004607636947184801,-0.020682336762547493,0.0172909926623106,-0.000735944602638483,0.02742667682468891
0.03272602707147598,0.005192609038203955,-0.021247098222374916,0.01632266491651535,-0.0008488347521051764,0.027772147208452225
0.03263292834162712,0.005053222645074129,-0.021354416385293007,0.01617150940001011,-0.0008791442960500717,0.027870064601302147
0.03125603124499321,0.004448659252375364,-0.020626088604331017,0.015821315348148346,-0.0008508897153660655,0.027928361669182777
0.033839862793684006,0.004281413275748491,-0.020827684551477432,0.015792516991496086,-0.0008002589456737041,0.0273776575922966
0.033886317163705826,0.0048312232829630375,-0.020832184702157974,0.017024097964167595,-0.0008175204857252538,0.027935396879911423
0.03336329385638237,0.004778130445629358,-0.020671695470809937,0.01665966585278511,-0.0008281056070700288,0.028029173612594604
0.0334307998418808,0.004836458712816238,-0.021039577201008797,0.01537436991930008,-0.0008377236663363874,0.028164047747850418
0.03378080204129219,0.004663651343435049,-0.02108829654753208,0.015972072258591652,-0.0008451646426692605,0.028137031942605972
0.03417728468775749,0.004587741103023291,-0.02090805396437645,0.01578414812684059,-0.0009198726038448513,0.028376290574669838
0.03394581004977226,0.0042355782352387905,-0.02081393264234066,0.0170089453458786,-0.0008884677081368864,0.028198350220918655
0.034223172813653946,0.004358253907412291,-0.021324720233678818,0.016870401799678802,-0.0008230212260968983,0.028997978195548058
0.0341106541454792,0.004538684617727995,-0.021524200215935707,0.016988646239042282,-0.0007750561344437301,0.028056278824806213
0.0341106541454792,0.004538684617727995,-0.021524200215935707,0.016988646239042282,-0.0007750561344437301,0.028056278824806213
0.03437729552388191,0.004662598017603159,-0.02101942151784897,0.017195895314216614,-0.000735345995053649,0.02760970965027809
0.03422947973012924,0.004735338035970926,-0.020668067038059235,0.016450222581624985,-0.000730404513888061,0.028688212856650352
0.034607309848070145,0.004502850119024515,-0.021058322861790657,0.016493039205670357,-0.0006826429744251072,0.029266206547617912
0.034776438027620316,0.004138155374675989,-0.021579736843705177,0.016089878976345062,-0.0006118770106695592,0.02801469713449478
0.03516354411840439,0.0043585472740232944,-0.020831508561968803,0.016510697081685066,-0.0006324240239337087,0.02714562602341175
0.035005632787942886,0.00453027943149209,-0.02126462571322918,0.01720968261361122,-0.0006477035349234939,0.028360266238451004
0.0349598303437233,0.004318485502153635,-0.02195066027343273,0.017498884350061417,-0.0006495529669336975,0.02894475869834423
0.03579035773873329,0.004509353544563055,-0.021796155720949173,0.017693743109703064,-0.0006318758241832256,0.028863435611128807
0.03684388846158981,0.0044391765259206295,-0.021750139072537422,0.017164910212159157,-0.0007502804510295391,0.030224790796637535
0.036261387169361115,0.004294564947485924,-0.021635418757796288,0.01724926009774208,-0.0007903387304395437,0.030450070276856422
0.033687666058540344,0.00433944258838892,-0.021548228338360786,0.016971904784440994,-0.00079771300079301,0.028843307867646217
0.03647994622588158,0.0045201824977993965,-0.022022787481546402,0.01661740615963936,-0.0007956053013913333,0.02767788991332054
0.03635164350271225,0.004694946110248566,-0.022033879533410072,0.01695578172802925,-0.0007379094022326171,0.02848132699728012
0.0361504964530468,0.004611594136804342,-0.021376222372055054,0.01657721772789955,-0.0007703279261477292,0.029679080471396446
0.037206050008535385,0.005189633462578058,-0.021828239783644676,0.01721378043293953,-0.0007889359258115292,0.02974829077720642
0.03750871494412422,0.0051214625127613544,-0.022374195978045464,0.017516257241368294,-0.0007588333101011813,0.029711013659834862
0.03553986921906471,0.0047713653184473515,-0.02237941510975361,0.0173416119068861,-0.0007225015433505177,0.029668394476175308
0.036356184631586075,0.004725999664515257,-0.0220723245292902,0.017474079504609108,-0.0007373410044237971,0.02969222515821457
0.036941930651664734,0.004771555308252573,-0.022092225030064583,0.016908938065171242,-0.0007551690214313567,0.029319508001208305
0.037133242934942245,0.004737716168165207,-0.02213696390390396,0.017645634710788727,-0.000738435541279614,0.02947457879781723
0.03644252195954323,0.004953503608703613,-0.021799689158797264,0.017152056097984314,-0.0007130381418392062,0.029431389644742012
0.03725511580705643,0.004786537494510412,-0.022418446838855743,0.017554333433508873,-0.0006515342392958701,0.02968037687242031
0.03725511580705643,0.004786537494510412,-0.022418446838855743,0.017554333433508873,-0.0006515342392958701,0.02968037687242031
0.037150971591472626,0.004290452226996422,-0.022299794480204582,0.017319662496447563,-0.0006565600633621216,0.02962838113307953
0.03706270083785057,0.004142085090279579,-0.021766668185591698,0.017169566825032234,-0.0006677547935396433,0.02975858561694622
0.03754512965679169,0.0042150430381298065,-0.022245220839977264,0.017544394358992577,-0.0007211577612906694,0.030109643936157227
0.037046730518341064,0.004247637465596199,-0.02253921702504158,0.017683017998933792,-0.0007545263506472111,0.030407508835196495
0.037776172161102295,0.004359174054116011,-0.022651592269539833,0.01676410250365734,-0.001124633476138115,0.03052354045212269
0.037776172161102295,0.004359174054116011,-0.022651592269539833,0.01676410250365734,-0.001124633476138115,0.03052354045212269
0.037863194942474365,0.004546033684164286,-0.022163264453411102,0.01728816144168377,-0.0011297547025606036,0.030087394639849663
0.037205860018730164,0.004620961844921112,-0.022003881633281708,0.017178576439619064,-0.0010954440804198384,0.029911771416664124
0.03868325427174568,0.004222683142870665,-0.02223219908773899,0.017092052847146988,-0.0010079140774905682,0.030861085280776024
0.03972339630126953,0.00419584522023797,-0.02287888713181019,0.017567597329616547,-0.0009475864353589714,0.03151368722319603
0.03686174750328064,0.004089119378477335,-0.023113057017326355,0.016851454973220825,-0.0008817589259706438,0.030521996319293976
0.03685067966580391,0.0048135556280612946,-0.022289980202913284,0.017095262184739113,-0.0008158816490322351,0.02914653904736042
0.0387205071747303,0.004486613906919956,-0.021846720948815346,0.01713438145816326,-0.0008141997386701405,0.029649537056684494
0.038480911403894424,0.004528141114860773,-0.02242463268339634,0.01748216524720192,-0.0008097306708805263,0.030362261459231377
0.038479071110486984,0.004226129036396742,-0.022620221599936485,0.0176449753344059,-0.0007496353937312961,0.030551452189683914
0.03920003026723862,0.004262090660631657,-0.021843325346708298,0.017385678365826607,-0.0006920246523804963,0.031136147677898407
0.03807096183300018,0.004175588488578796,-0.02222498506307602,0.01819135621190071,-0.0006950099486857653,0.03130914270877838
0.038236040621995926,0.004431620240211487,-0.02260063961148262,0.01765274442732334,-0.0007178190280683339,0.030716199427843094
0.03871534764766693,0.004696797579526901,-0.022665830329060555,0.01708427257835865,-0.000749522412661463,0.02973683550953865
0.03868769481778145,0.004681795369833708,-0.0223951805382967,0.017649071291089058,-0.0008313269354403019,0.03014868125319481
0.038561444729566574,0.004427710082381964,-0.02215263620018959,0.017068378627300262,-0.0008960446575656533,0.031289324164390564
0.038565248250961304,0.004280739929527044,-0.02222117781639099,0.01781599037349224,-0.0008339830092154443,0.03168141096830368
0.03907854110002518,0.004839628469198942,-0.023744652047753334,0.018349410966038704,-0.000845491245854646,0.030825171619653702
0.03921579569578171,0.004602525383234024,-0.023008128628134727,0.01874840073287487,-0.0008472963818348944,0.03115190379321575
0.039246320724487305,0.00464805169031024,-0.022917766124010086,0.018161403015255928,-0.0008686341461725533,0.03140659257769585
0.039927780628204346,0.00488667655736208,-0.022283785045146942,0.018056420609354973,-0.0008739134063944221,0.031147221103310585
0.03808729723095894,0.004476999863982201,-0.023118581622838974,0.018685314804315567,-0.0008626527851447463,0.031223056837916374
0.03979821130633354,0.004554735030978918,-0.0241862665861845,0.018025383353233337,-0.0007990116137079895,0.031407397240400314
0.03995129093527794,0.004535043612122536,-0.02432967908680439,0.017794709652662277,-0.0008176559931598604,0.03151397034525871
0.039503589272499084,0.0046204254031181335,-0.02263735793530941,0.017863398417830467,-0.0008206538041122258,0.03262784332036972
0.039724625647068024,0.00429003918543458,-0.02333785779774189,0.017840100452303886,-0.0007846342050470412,0.031046273186802864
0.040136341005563736,0.004531181883066893,-0.024609582498669624,0.017852820456027985,-0.0007441362249664962,0.03114049695432186
0.040136341005563736,0.004531181883066893,-0.024609582498669624,0.017852820456027985,-0.0007441362249664962,0.03114049695432186
0.039973147213459015,0.004181915428489447,-0.023537160828709602,0.017805198207497597,-0.0007506216643378139,0.031313396990299225
0.04041258990764618,0.0044304425828158855,-0.02401849813759327,0.017865968868136406,-0.0006918864091858268,0.031283773481845856
0.04043155536055565,0.00441640242934227,-0.0238715298473835,0.018421130254864693,-0.0006511589162983,0.031789232045412064
0.04037335515022278,0.0041479431092739105,-0.022419825196266174,0.017880484461784363,-0.0006702481769025326,0.03182526305317879
0.04061422869563103,0.0038557827938348055,-0.023034190759062767,0.01791325956583023,-0.0006821994902566075,0.031748317182064056
0.0400012731552124,0.004356942139565945,-0.02431534230709076,0.017992639914155006,-0.0007152225589379668,0.03181565925478935
0.04038781300187111,0.004173446446657181,-0.024302616715431213,0.017845088616013527,-0.0007850943366065621,0.03185832500457764
0.04168406501412392,0.004327032249420881,-0.023438604548573494,0.01853185147047043,-0.0009011341608129442,0.03170441463589668
0.04088818281888962,0.004233789164572954,-0.023045478388667107,0.01839294284582138,-0.0009074128465726972,0.03164587914943695
0.03937565162777901,0.004498003516346216,-0.023350577801465988,0.018506482243537903,-0.0009181979112327099,0.031610406935214996
0.04101594537496567,0.0047181411646306515,-0.02354584075510502,0.018510552123188972,-0.0011956511298194528,0.03181745857000351
0.04126335680484772,0.0049427286721765995,-0.023651309311389923,0.018289715051651,-0.0011580866994336247,0.03236718848347664
0.0418316014111042,0.00449064327403903,-0.023726915940642357,0.018212594091892242,-0.0010128680150955915,0.03299514949321747
0.041416361927986145,0.0046122414059937,-0.023680392652750015,0.018174096941947937,-0.0009814855875447392,0.03310808911919594
0.04023509472608566,0.005116533488035202,-0.023341145366430283,0.017788399010896683,-0.0008763743098825216,0.03172598406672478
0.04050632193684578,0.004884437657892704,-0.02325359359383583,0.018580017611384392,-0.0007735930266790092,0.031091351062059402
0.04198731482028961,0.004915956407785416,-0.023876890540122986,0.01876278966665268,-0.0007855056901462376,0.03186231851577759
0.041065115481615067,0.004662829451262951,-0.02429097890853882,0.01830650307238102,-0.0007996829226613045,0.032020848244428635
0.04233786463737488,0.004911963827908039,-0.024245481938123703,0.018810804933309555,-0.000811010308098048,0.03241606056690216
0.04204979166388512,0.004632896278053522,-0.0235041081905365,0.018529783934354782,-0.0009365054429508746,0.03339484706521034
0.0420011468231678,0.0045988974161446095,-0.023871751502156258,0.019167479127645493,-0.0008815501350909472,0.03217122703790665
0.04199645668268204,0.005020358599722385,-0.02383073978126049,0.01846912130713463,-0.0008242640760727227,0.033128347247838974
0.04202358424663544,0.005029488354921341,-0.023855632171034813,0.018511775881052017,-0.0008083730936050415,0.033789947628974915
0.0415191613137722,0.0053057377226650715,-0.023898733779788017,0.018978329375386238,-0.0007478812476620078,0.033307045698165894
0.04127274453639984,0.0048507158644497395,-0.023572945967316628,0.01871180534362793,-0.0006818340625613928,0.033150698989629745
0.04127274453639984,0.0048507158644497395,-0.023572945967316628,0.01871180534362793,-0.0006818340625613928,0.033150698989629745
0.04190409183502197,0.004694947972893715,-0.023288391530513763,0.019060267135500908,-0.000602198124397546,0.032964207231998444
0.04063330590724945,0.005124518647789955,-0.023720433935523033,0.018887029960751534,-0.0006517518777400255,0.032703861594200134
0.04063330590724945,0.005124518647789955,-0.023720433935523033,0.018887029960751534,-0.0006517518777400255,0.032703861594200134
0.041790079325437546,0.0050416914746165276,-0.023743746802210808,0.0201534703373909,-0.0006639245548285544,0.03303583711385727
0.04212531819939613,0.004955330863595009,-0.02361508645117283,0.018903598189353943,-0.0007464454974979162,0.03324555978178978
0.043589238077402115,0.005076593719422817,-0.023668883368372917,0.018318908289074898,-0.0008133627125062048,0.033262621611356735
0.04341501742601395,0.004979131277650595,-0.023809224367141724,0.01908477395772934,-0.000828716263640672,0.033629316836595535
0.04167880490422249,0.005208514630794525,-0.024056226015090942,0.019540682435035706,-0.0008379422943107784,0.03363289311528206
0.04143446683883667,0.005017518997192383,-0.023820994421839714,0.0194199588149786,-0.0008057254017330706,0.03353913128376007
0.043585531413555145,0.004792742431163788,-0.023939477279782295,0.019568737596273422,-0.0010067521361634135,0.03364673629403114
0.04246864095330238,0.005288688465952873,-0.023674776777625084,0.01966063492000103,-0.0009642014047130942,0.033530887216329575
0.04275309666991234,0.004993341397494078,-0.023599527776241302,0.019252143800258636,-0.0008924765861593187,0.03380860760807991
0.04280540719628334,0.004679023753851652,-0.024398045614361763,0.019101709127426147,-0.000866913644131273,0.03374732658267021
0.04296424984931946,0.004654994700103998,-0.025493605062365532,0.019430091604590416,-0.0007961016381159425,0.03334158658981323
0.04278580844402313,0.005217868369072676,-0.024855269119143486,0.01918518915772438,-0.0007474105805158615,0.033733874559402466
0.04306529462337494,0.005389827769249678,-0.02383974939584732,0.019740844145417213,-0.0007426943629980087,0.0352407731115818
0.04314890131354332,0.0056519885547459126,-0.023974929004907608,0.019966937601566315,-0.0007325571496039629,0.03507738932967186
0.043471481651067734,0.005161262582987547,-0.024487357586622238,0.019144605845212936,-0.0007494015153497458,0.03331461921334267
0.043388523161411285,0.0047714137472212315,-0.024950135499238968,0.019488884136080742,-0.0007250519120134413,0.03358905017375946
0.04400039464235306,0.00474144984036684,-0.024232324212789536,0.02024723030626774,-0.0009162271162495017,0.03431817144155502
0.0435200072824955,0.00508884759619832,-0.024794146418571472,0.020655253902077675,-0.000942693033721298,0.03431583568453789
0.04395957663655281,0.0050025577656924725,-0.02492246963083744,0.020489806309342384,-0.0009474559337832034,0.035867076367139816
0.044354815036058426,0.005345450714230537,-0.024615313857793808,0.019734231755137444,-0.001099849003367126,0.03458324819803238
