davideferrari95/blind_handover_controller/data/Test 240 - [2024-02-08 -- 12-33-49]/joint_states_data.csv
shoulder_pan_joint,shoulder_lift_joint,elbow_joint,wrist_1_joint,wrist_2_joint,wrist_3_joint
0.01285548135638237,0.010463334619998932,-0.013888288289308548,0.005212843883782625,-5.047055524916541e-31,0.010644086636602879
0.01285548135638237,0.010463334619998932,-0.013888288289308548,0.005212843883782625,-5.047055524916541e-31,0.010644086636602879
0.010835734196007252,0.009394430555403233,-0.013723841868340969,0.0053025768138468266,-3.2953661694158155e-32,0.010287386365234852
0.01128634624183178,0.009399031288921833,-0.014348059892654419,0.005246016662567854,-2.1516386350695388e-33,0.009444288909435272
0.011677583679556847,0.009852279908955097,-0.013514595106244087,0.005205364432185888,-1.4048661298575923e-34,0.00926064420491457
0.011677583679556847,0.009852279908955097,-0.013514595106244087,0.005205364432185888,-1.4048661298575923e-34,0.00926064420491457
0.011568914167582989,0.009466158226132393,-0.01430961862206459,0.005014827940613031,-9.172771141902391e-36,0.00952807255089283
0.011989903636276722,0.009388070553541183,-0.013622177764773369,0.004853738471865654,-5.989163985820543e-37,0.009816575795412064
0.011281886138021946,0.00973227433860302,-0.013950956054031849,0.005087500903755426,-3.9104962849288997e-38,0.01054052822291851
0.011629104614257812,0.009444467723369598,-0.014129728078842163,0.00507435342296958,-1.6671107700225916e-40,0.009638353250920773
0.011629104614257812,0.009444467723369598,-0.014129728078842163,0.00507435342296958,-1.6671107700225916e-40,0.009638353250920773
0.011662029661238194,0.009392708539962769,-0.013892309740185738,0.005156331695616245,-1.0885286470875179e-41,0.009995047003030777
0.012220192700624466,0.00920936930924654,-0.014122115448117256,0.005168693605810404,-7.1045832141268225e-43,0.009978419169783592
0.011345293372869492,0.009067588485777378,-0.013437907211482525,0.005088804755359888,-4.624284932271896e-44,0.00956654828041792
0.011524809524416924,0.009449150413274765,-0.01384012307971716,0.005205697380006313,-2.802596928649634e-45,0.009425467811524868
0.011252757161855698,0.0093564223498106,-0.013632741756737232,0.005271273199468851,-0.0,0.009559627622365952
0.011384649202227592,0.00989080872386694,-0.013905631378293037,0.005276770796626806,-0.0,0.009492575190961361
0.011610740795731544,0.009475091472268105,-0.013787884265184402,0.0050940499641001225,-0.0,0.009480510838329792
0.01077624037861824,0.00948756281286478,-0.013746141456067562,0.005206975620239973,-0.0,0.009854104369878769
0.011215045116841793,0.009255120530724525,-0.0134348776191473,0.0055091241374611855,-0.0,0.009589632041752338
0.011199203319847584,0.009170755743980408,-0.013274412602186203,0.005169929936528206,-0.0,0.009409090504050255
0.01094859465956688,0.008796284906566143,-0.013673128560185432,0.005549557041376829,-0.0,0.009817569516599178
0.011747904121875763,0.008669562637805939,-0.01357969455420971,0.0056137461215257645,-0.0,0.009607266634702682
0.011800514534115791,0.009457609616219997,-0.013022609055042267,0.005442822352051735,-0.0,0.009319732896983624
0.011691694147884846,0.008594478480517864,-0.013801291584968567,0.005464490037411451,-0.0,0.009428372606635094
0.011631753295660019,0.008117900229990482,-0.01308446191251278,0.005178555846214294,-0.0,0.009444358758628368
0.011676337569952011,0.009359458461403847,-0.013673008419573307,0.005292938556522131,-0.0,0.010086153633892536
0.011350923217833042,0.00884039793163538,-0.013296698220074177,0.005547593347728252,-0.0,0.009779468178749084
0.011153441853821278,0.00827169418334961,-0.013698393478989601,0.005221081431955099,-0.0,0.009269864298403263
0.011280400678515434,0.008416189812123775,-0.01333402656018734,0.005199006292968988,-0.0,0.01042911410331726
0.010512021370232105,0.008665969595313072,-0.013981696218252182,0.005054543726146221,-0.0,0.010063480585813522
0.01076771505177021,0.008419016376137733,-0.013511165976524353,0.005570709239691496,-0.0,0.009361449629068375
0.01076771505177021,0.008419016376137733,-0.013511165976524353,0.005570709239691496,-0.0,0.009361449629068375
0.010877307504415512,0.008551133796572685,-0.013692113570868969,0.00535664102062583,-0.0,0.009512308984994888
0.010805008001625538,0.008685335516929626,-0.013359020464122295,0.005304747261106968,-0.0,0.009537302888929844
0.011062674224376678,0.008342898450791836,-0.01364429946988821,0.005477285012602806,-0.0,0.009762327186763287
0.011265612207353115,0.008099567145109177,-0.013750397600233555,0.005313734989613295,-0.0,0.01062166690826416
0.010275174863636494,0.008246391080319881,-0.013482075184583664,0.005310813430696726,-0.0,0.010280977003276348
0.01061333529651165,0.008607138879597187,-0.013939626514911652,0.005124974995851517,-0.0,0.009840783663094044
0.010222963988780975,0.008514846675097942,-0.013460222631692886,0.0049526444636285305,-0.0,0.009958060458302498
0.01036678347736597,0.007829188369214535,-0.013705468736588955,0.005067986901849508,-0.0,0.010680046863853931
0.010786297731101513,0.00877262931317091,-0.0132216215133667,0.005072621628642082,-0.0,0.009522722102701664
0.010443669743835926,0.008800158277153969,-0.013902443461120129,0.005784815642982721,-0.0,0.00954265147447586
0.010860045440495014,0.00867561623454094,-0.013198653236031532,0.005531032104045153,-0.0,0.009388957172632217
0.010905918665230274,0.008714416064321995,-0.013596502132713795,0.005385043565183878,-0.0,0.009244459681212902
0.010496268980205059,0.008810724131762981,-0.013268272392451763,0.005101512651890516,-0.0,0.009371941909193993
0.010788846760988235,0.008878817781805992,-0.014116325415670872,0.004961836617439985,-0.0,0.009298925288021564
0.01095184963196516,0.008391385897994041,-0.013385647907853127,0.0051142070442438126,-0.0,0.008067488670349121
0.01105973869562149,0.008652012795209885,-0.013880726881325245,0.005462609697133303,-0.0,0.009724104776978493
0.010501354932785034,0.008799495175480843,-0.013660972937941551,0.00603021215647459,-0.0,0.010303202085196972
0.010707997716963291,0.008857138454914093,-0.01386297307908535,0.005021002143621445,-0.0,0.009648948907852173
0.010540488176047802,0.008628175593912601,-0.014392314478754997,0.005037249531596899,-0.0,0.009216895326972008
0.010211966000497341,0.008661231026053429,-0.013737672939896584,0.0050526950508356094,-0.0,0.009403613395988941
0.010222576558589935,0.009135657921433449,-0.01368614099919796,0.0052268290892243385,-0.0,0.009758737869560719
0.010438468307256699,0.00864479411393404,-0.013784699141979218,0.005229842383414507,-0.0,0.009811177849769592
0.009790505282580853,0.008126086555421352,-0.013888662680983543,0.005063168704509735,-0.0,0.009125727228820324
0.009790505282580853,0.008126086555421352,-0.013888662680983543,0.005063168704509735,-0.0,0.009125727228820324
0.010226903483271599,0.008679132908582687,-0.013426153920590878,0.005168142728507519,-0.0,0.009369824081659317
0.010226903483271599,0.008679132908582687,-0.013426153920590878,0.005168142728507519,-0.0,0.009369824081659317
0.01066472940146923,0.008508517406880856,-0.013780093751847744,0.005342706572264433,-0.0,0.009692886844277382
0.010932689532637596,0.008589107543230057,-0.012584197334945202,0.00533195398747921,-0.0,0.009523176588118076
0.010106964968144894,0.008845372125506401,-0.013920197263360023,0.005751567892730236,-0.0,0.009440558031201363
0.010555429384112358,0.008405659347772598,-0.013580950908362865,0.005338691174983978,-0.0,0.00947929173707962
0.010555429384112358,0.008405659347772598,-0.013580950908362865,0.005338691174983978,-0.0,0.00947929173707962
0.010694772936403751,0.008208997547626495,-0.01301646325737238,0.005275764036923647,-0.0,0.009662085212767124
0.010022250935435295,0.008923571556806564,-0.013839492574334145,0.00556690338999033,-0.0,0.009529647417366505
0.010683456435799599,0.00845403503626585,-0.013352010399103165,0.005588494706898928,-0.0,0.009420014917850494
0.009992292150855064,0.008274108171463013,-0.014155770651996136,0.0057612014934420586,-0.0,0.009830794297158718
0.01096322014927864,0.008964724838733673,-0.01356729306280613,0.00560594629496336,-0.0,0.009587079286575317
0.011128610000014305,0.009048639796674252,-0.013623657636344433,0.005542250350117683,-0.0,0.00926398765295744
0.009947255253791809,0.00817632395774126,-0.013558260165154934,0.0052670747973024845,-0.0,0.009365007281303406
0.010037536732852459,0.00837679672986269,-0.01385827362537384,0.0053291297517716885,-0.0,0.009459512308239937
0.010192791000008583,0.008527913130819798,-0.012927265837788582,0.00556956185027957,-0.0,0.009120308794081211
0.010256019420921803,0.008276750333607197,-0.013257759623229504,0.005463357083499432,-0.0,0.00950983352959156
0.010797801427543163,0.008173097856342793,-0.013189952820539474,0.005032718647271395,-0.0,0.009622905403375626
0.010279100388288498,0.009127798490226269,-0.01288931630551815,0.0052180541679263115,-0.0,0.00944224838167429
0.010315299034118652,0.008690917864441872,-0.012932118028402328,0.00562043022364378,-0.0,0.009563123807311058
0.010278706438839436,0.008237184956669807,-0.012919656932353973,0.005672134924679995,-0.0,0.009462679736316204
0.010160203091800213,0.008267861790955067,-0.013594911433756351,0.005922505632042885,-0.0,0.009092149324715137
0.01032513752579689,0.009283835999667645,-0.012575596570968628,0.005967082921415567,-0.0,0.009778885170817375
0.010785580612719059,0.008339033462107182,-0.01274039875715971,0.005779110360890627,-0.0,0.0091933012008667
0.010818959213793278,0.009315294213593006,-0.013070771470665932,0.005204097367823124,-0.0,0.009604073129594326
0.010993887670338154,0.00850598979741335,-0.012861424125730991,0.005642566364258528,-0.0,0.009393637999892235
0.010050221346318722,0.008340188302099705,-0.012622803449630737,0.005458686500787735,-0.0,0.009349537082016468
0.01033736765384674,0.008552885614335537,-0.012767360545694828,0.005447120871394873,-0.0,0.009362523443996906
0.01046756748110056,0.008548598736524582,-0.012713629752397537,0.005103923846036196,-0.0,0.009785170666873455
0.010182134807109833,0.00811595469713211,-0.013278228230774403,0.004894372075796127,-0.0,0.009641038253903389
0.01021209079772234,0.007817496545612812,-0.012399462051689625,0.005683073773980141,-0.0,0.009348224848508835
0.010988248512148857,0.008806846104562283,-0.012878920882940292,0.005579705350100994,-0.0,0.009165294468402863
0.010194247588515282,0.00854079332202673,-0.01237815897911787,0.005322935525327921,-0.0,0.009153398685157299
0.010748593136668205,0.007903126068413258,-0.012652909383177757,0.005363162141293287,-0.0,0.009004775434732437
0.010284111835062504,0.008156714029610157,-0.012599016539752483,0.005025167483836412,-0.0,0.009453711099922657
0.010231968015432358,0.008784106001257896,-0.01215982437133789,0.005053308792412281,-0.0,0.008632904849946499
0.01060097198933363,0.008394298143684864,-0.012501958757638931,0.005457593593746424,-0.0,0.008771128952503204
0.01060097198933363,0.008394298143684864,-0.012501958757638931,0.005457593593746424,-0.0,0.008771128952503204
0.011218477040529251,0.008454655297100544,-0.01269911415874958,0.005164036527276039,-0.0,0.009173301048576832
0.011218477040529251,0.008454655297100544,-0.01269911415874958,0.005164036527276039,-0.0,0.009173301048576832
0.010574264451861382,0.008901880122721195,-0.012032274156808853,0.004594577010720968,-0.0,0.009162034839391708
0.0104027995839715,0.008034433238208294,-0.01252392865717411,0.004540645983070135,-0.0,0.009340268559753895
0.01047554425895214,0.008479450829327106,-0.012436814606189728,0.0051166522316634655,-0.0,0.00881333276629448
0.010346250608563423,0.008367300033569336,-0.012532313354313374,0.005270213354378939,-0.0,0.009175369516015053
0.010568283498287201,0.00825839675962925,-0.011664233170449734,0.005008806474506855,-0.0,0.008988610468804836
0.010364465415477753,0.008762603625655174,-0.012376678176224232,0.005006568040698767,-0.0,0.009088171645998955
0.01076914556324482,0.00867465790361166,-0.01233336329460144,0.004921528045088053,-0.0,0.00898044090718031
0.01106620579957962,0.00843240600079298,-0.0123896524310112,0.005226077511906624,-0.0,0.009423058480024338
0.011006566695868969,0.008440237492322922,-0.012226679362356663,0.005278578028082848,-0.0,0.00894788559526205
0.010373970493674278,0.00842156633734703,-0.01221021544188261,0.005098599474877119,-0.0,0.009030899964272976
0.010669502429664135,0.008056805469095707,-0.012374327518045902,0.005173784680664539,-0.0,0.008945455774664879
0.010268671438097954,0.008057653903961182,-0.011768183670938015,0.00501225097104907,-0.0,0.008816808462142944
0.010268671438097954,0.008057653903961182,-0.011768183670938015,0.00501225097104907,-0.0,0.008816808462142944
0.010814905166625977,0.009195376187562943,-0.01277225837111473,0.005235807504504919,-0.0,0.008956216275691986
0.010932916775345802,0.008746281266212463,-0.012551303952932358,0.005651672370731831,-0.0,0.009326023049652576
0.010329957120120525,0.00833881739526987,-0.012462408281862736,0.005346260499209166,-0.0,0.009043975733220577
0.01105295680463314,0.00890110619366169,-0.01213450450450182,0.0051643215119838715,-0.0,0.00878769438713789
0.01092582382261753,0.008613375015556812,-0.011764558032155037,0.005117751657962799,-0.0,0.00912503246217966
0.010640281252563,0.008121036924421787,-0.012525667436420918,0.005115739069879055,-0.0,0.008711609989404678
0.010773579590022564,0.007702937349677086,-0.012262141332030296,0.005395983811467886,-0.0,0.0088206697255373
0.01031588762998581,0.008798403665423393,-0.01261975523084402,0.0051733748987317085,-0.0,0.008891800418496132
0.01082528941333294,0.008422570303082466,-0.012528594583272934,0.005251459777355194,-0.0,0.008976639248430729
0.010961154475808144,0.0077552287839353085,-0.01292360294610262,0.005015064962208271,-0.0,0.009097682312130928
0.010359649546444416,0.007985175587236881,-0.01265663281083107,0.0052175987511873245,-0.0,0.008591552264988422
0.010724392719566822,0.008888132870197296,-0.012425476685166359,0.005414918065071106,-0.0,0.009184607304632664
0.011072502471506596,0.00797212217003107,-0.012922895140945911,0.005233035422861576,-0.0,0.008653284050524235
0.011397338472306728,0.007923460565507412,-0.012440100312232971,0.0055035315454006195,-0.0,0.00821905117481947
0.010528569109737873,0.008132031187415123,-0.013428203761577606,0.0054965247400105,-0.0,0.008325421251356602
0.010517146438360214,0.008524022065103054,-0.012617121450603008,0.005023570731282234,-0.0,0.008979986421763897
0.010915666818618774,0.008036872372031212,-0.012696018442511559,0.004732153844088316,-0.0,0.008602796122431755
0.011055429466068745,0.008457370102405548,-0.01327196042984724,0.0051362961530685425,-0.0,0.008772710338234901
0.011093448847532272,0.008384058251976967,-0.013195148669183254,0.005587426945567131,-0.0,0.008349106647074223
0.011110145598649979,0.008646337315440178,-0.0125043336302042,0.005512333940714598,-0.0,0.008317237719893456
0.010250414721667767,0.008193315006792545,-0.013033385388553143,0.005329631268978119,-0.0,0.008891919627785683
0.010767084546387196,0.008331971243023872,-0.0120393643155694,0.005076986737549305,-0.0,0.008538862690329552
0.010912344790995121,0.007771353702992201,-0.01286308839917183,0.0054051498882472515,-0.0,0.008706316351890564
0.01092302706092596,0.007417603395879269,-0.01247688289731741,0.00537667702883482,-0.0,0.009031918831169605
0.01092302706092596,0.007417603395879269,-0.01247688289731741,0.00537667702883482,-0.0,0.009031918831169605
0.010880148969590664,0.008344480767846107,-0.01256975531578064,0.005469752009958029,-0.0,0.009169117547571659
0.011553238146007061,0.007628107909113169,-0.013171892613172531,0.0050980146043002605,-0.0,0.008235885761678219
0.011553238146007061,0.007628107909113169,-0.013171892613172531,0.0050980146043002605,-0.0,0.008235885761678219
0.011083864606916904,0.0078069185838103294,-0.01296477485448122,0.005321764852851629,-0.0,0.00830681249499321
0.010838085785508156,0.008142799139022827,-0.012804023921489716,0.005364538636058569,-0.0,0.008136381395161152
0.01122370082885027,0.007663285359740257,-0.013000639155507088,0.0059183682315051556,-0.0,0.008130215108394623
0.01112489402294159,0.007505936082452536,-0.01243197824805975,0.00553068658336997,-0.0,0.008499041199684143
0.012158563360571861,0.008800662122666836,-0.0129606444388628,0.0049260021187365055,-0.0,0.00897114910185337
0.01160459779202938,0.008117401041090488,-0.012132341042160988,0.0051010046154260635,-0.0,0.008692992851138115
0.011281512677669525,0.007465886417776346,-0.012625434435904026,0.005277383606880903,-0.0,0.008518727496266365
0.011630258522927761,0.007653163280338049,-0.012662679888308048,0.005347007419914007,-0.0,0.008939721621572971
0.011060520075261593,0.007898326963186264,-0.012554565444588661,0.005285076797008514,-0.0,0.008600827306509018
0.010712239891290665,0.008004643023014069,-0.012694251723587513,0.00560758588835597,-0.0,0.008214481174945831
0.011341648176312447,0.007228347938507795,-0.012137103825807571,0.005394372623413801,-0.0,0.00851639173924923
0.010923296213150024,0.006928757764399052,-0.012955710291862488,0.0051029520109295845,-0.0,0.00877753458917141
0.011651386506855488,0.007408785168081522,-0.012048841454088688,0.005322019569575787,-0.0,0.008092612028121948
0.010850620456039906,0.006989339832216501,-0.012274428270757198,0.006028476171195507,-0.0,0.008972001262009144
0.011421012692153454,0.006848535500466824,-0.012303349561989307,0.005489969160407782,-0.0,0.008711430244147778
0.011572596617043018,0.007256309036165476,-0.012476659379899502,0.00507967546582222,-0.0,0.008169209584593773
0.0113087622448802,0.007017659023404121,-0.011797765269875526,0.004972434137016535,-0.0,0.008031993173062801
0.011382734403014183,0.0071381330490112305,-0.012858698144555092,0.005371641367673874,-0.0,0.008487233892083168
0.010958263650536537,0.00691432598978281,-0.012184633873403072,0.0057854545302689075,-0.0,0.008610324934124947
0.011281141079962254,0.00689997524023056,-0.012709097936749458,0.005541015416383743,-0.0,0.007831957191228867
0.010974756442010403,0.007312626577913761,-0.012841418385505676,0.0056116580963134766,-0.0,0.008021393790841103
0.010939724743366241,0.0071158455684781075,-0.012476504780352116,0.005230896640568972,-0.0,0.007908987812697887
0.011452913284301758,0.0068591805174946785,-0.01284926850348711,0.005242357030510902,-0.0,0.007897843606770039
0.011452913284301758,0.0068591805174946785,-0.01284926850348711,0.005242357030510902,-0.0,0.007897843606770039
0.011408312246203423,0.006834710948169231,-0.012585998512804508,0.005287866573780775,-0.0,0.008743643760681152
0.011936831288039684,0.007289682514965534,-0.013045440427958965,0.005849244073033333,-0.0,0.008718087337911129
0.011628767475485802,0.007044070865958929,-0.012693524360656738,0.005392380990087986,-0.0,0.008400199003517628
0.011315662413835526,0.007287466432899237,-0.013097458519041538,0.005192848853766918,-0.0,0.008346177637577057
0.011757908388972282,0.007628891617059708,-0.012527396902441978,0.005025636870414019,-0.0,0.008567200042307377
0.011397265829145908,0.007621068973094225,-0.012815769761800766,0.005209927447140217,-0.0,0.008249022997915745
0.012324892915785313,0.007676725275814533,-0.012373772449791431,0.0055867768824100494,-0.0,0.00810470525175333
0.011408249847590923,0.007477469742298126,-0.012188908644020557,0.005584603641182184,-0.0,0.007821879349648952
0.011242666281759739,0.007039253134280443,-0.012772228568792343,0.005566529929637909,-0.0,0.008194424211978912
0.011707735247910023,0.007630758918821812,-0.012250417843461037,0.005365660879760981,-0.0,0.008333091624081135
0.011525771580636501,0.007563491817563772,-0.01308193989098072,0.0048729246482253075,-0.0,0.007958565838634968
0.011529131792485714,0.0070851994678378105,-0.012230736203491688,0.005314964335411787,-0.0,0.008062606677412987
0.011499695479869843,0.0072256894782185555,-0.01261261198669672,0.005709592252969742,-0.0,0.007988611236214638
0.011947790160775185,0.007554756943136454,-0.012226466089487076,0.005525107495486736,-0.0,0.007442588452249765
0.011375817470252514,0.00709477998316288,-0.012778539210557938,0.005169958341866732,-0.0,0.007749523036181927
0.011859810911118984,0.007355413865298033,-0.012499368749558926,0.005369323305785656,-0.0,0.008156940340995789
0.01204722747206688,0.0076607088558375835,-0.012821143493056297,0.006057899910956621,-0.0,0.007781081832945347
0.011373515240848064,0.007587256375700235,-0.012593074701726437,0.006228254642337561,-0.0,0.00769701087847352
0.012061839923262596,0.00752212991937995,-0.012969713658094406,0.0062031191773712635,-0.0,0.007794806268066168
0.011524521745741367,0.007060655392706394,-0.012704471126198769,0.0057808286510407925,-0.0,0.007668555248528719
0.012357125990092754,0.008134851232171059,-0.012774994596838951,0.005529818125069141,-0.0,0.00761220371350646
0.012357125990092754,0.008134851232171059,-0.012774994596838951,0.005529818125069141,-0.0,0.00761220371350646
0.011693990789353848,0.00782150961458683,-0.012819820083677769,0.005500588100403547,-0.0,0.007509051356464624
0.011616574600338936,0.007055460941046476,-0.012717901729047298,0.0057306354865431786,-0.0,0.008145717903971672
0.012196059338748455,0.007333547342568636,-0.012942800298333168,0.005521068349480629,-0.0,0.00796668604016304
0.01178289670497179,0.007496606092900038,-0.012407747097313404,0.005754480138421059,-0.0,0.007863042876124382
0.01161967683583498,0.00801515206694603,-0.013131000101566315,0.005246104672551155,-0.0,0.00734277768060565
0.011653229594230652,0.0071369344368577,-0.012713256292045116,0.005480497144162655,-0.0,0.007522690575569868
0.011503157205879688,0.007297468837350607,-0.01318529061973095,0.006105757784098387,-0.0,0.007138742133975029
0.012346985749900341,0.008080842904746532,-0.012836380861699581,0.006118635181337595,-0.0,0.007611813955008984
0.011517702601850033,0.007615113165229559,-0.013293289579451084,0.005363574251532555,-0.0,0.007757048588246107
0.011732450686395168,0.006851533893495798,-0.012968294322490692,0.005074865184724331,-0.0,0.007682164199650288
0.011743202805519104,0.007197060156613588,-0.012639367952942848,0.004983860533684492,-0.0,0.007400874979794025
0.011338092386722565,0.007572478614747524,-0.012945222668349743,0.0057724337093532085,-0.0,0.007389591541141272
0.011844470165669918,0.007334106136113405,-0.01244805846363306,0.006054458674043417,-0.0,0.007270366884768009
0.011614486575126648,0.007248342502862215,-0.013365620747208595,0.005954700987786055,-0.0,0.0076256319880485535
0.011749258264899254,0.007585184182971716,-0.013106725178658962,0.005470111966133118,-0.0,0.007501004729419947
0.01253390684723854,0.007791691925376654,-0.013660469092428684,0.005194607190787792,-0.0,0.007062435615807772
0.01200957503169775,0.0076532186940312386,-0.01298545766621828,0.005165929906070232,-0.0,0.007026797626167536
0.01203668862581253,0.007003237027674913,-0.01328276377171278,0.0058778817765414715,-0.0,0.007194060366600752
0.011857528239488602,0.007464820984750986,-0.013541615568101406,0.00556463235989213,-0.0,0.007326964754611254
0.011555385775864124,0.008010638877749443,-0.013807609677314758,0.005025149788707495,-0.0,0.007411530707031488
0.012088931165635586,0.007668117061257362,-0.013908700086176395,0.005566163454204798,-0.0,0.007129750680178404
0.012356841936707497,0.0067636542953550816,-0.013518608175218105,0.005497585516422987,-0.0,0.0071565378457307816
0.011677738279104233,0.007298652082681656,-0.012931526638567448,0.00545479403808713,-0.0,0.006888877134770155
0.01199353113770485,0.007506977766752243,-0.013246285729110241,0.005591270979493856,-0.0,0.006891299970448017
0.011644773185253143,0.00713554210960865,-0.013186556287109852,0.0053809573873877525,-0.0,0.007351710461080074
0.01173174474388361,0.006956610828638077,-0.013533215969800949,0.005293713882565498,-0.0,0.006933166179805994
0.01173174474388361,0.006956610828638077,-0.013533215969800949,0.005293713882565498,-0.0,0.006933166179805994
0.01175528485327959,0.00715614901855588,-0.013745865784585476,0.005966157652437687,-0.0,0.007337361108511686
0.012378403916954994,0.006862794514745474,-0.012983965687453747,0.005879660602658987,-0.0,0.0078012882731854916
0.012378403916954994,0.006862794514745474,-0.012983965687453747,0.005879660602658987,-0.0,0.0078012882731854916
0.01165088452398777,0.006696149706840515,-0.01398186944425106,0.005848482251167297,-0.0,0.007444686722010374
0.01172772515565157,0.007359394803643227,-0.013646700419485569,0.005192517768591642,-0.0,0.006919694598764181
0.012018767185509205,0.0077735199593007565,-0.013892358168959618,0.005214213859289885,-0.0,0.0068550072610378265
0.01180278230458498,0.006856598891317844,-0.013110531494021416,0.005489044822752476,-0.0,0.006970507092773914
0.01210046373307705,0.006975200027227402,-0.013471073471009731,0.005600376520305872,-0.0,0.006811861880123615
0.011733339168131351,0.006931656505912542,-0.013367163948714733,0.005630841478705406,-0.0,0.006384862586855888
0.01201869547367096,0.007706226781010628,-0.013409576378762722,0.005608341656625271,-0.0,0.006452848203480244
0.011666828766465187,0.007335259113460779,-0.013719460926949978,0.005338885821402073,-0.0,0.006606461945921183
0.012009643949568272,0.006811447441577911,-0.013649375177919865,0.005170841701328754,-0.0,0.006707905326038599
0.01237619761377573,0.006839998997747898,-0.013516658917069435,0.005622333846986294,-0.0,0.006995801348239183
0.012097512371838093,0.00724075036123395,-0.011712317354977131,0.005312972702085972,-0.0,0.006510195787996054
0.011748763732612133,0.0072758081369102,-0.013524847105145454,0.005446280352771282,-1.3735797210756573e-06,0.006485144142061472
0.011777857318520546,0.0072435918264091015,-0.013142132200300694,0.005220120307058096,-8.968494569217e-08,0.0064306920394301414
0.012097625061869621,0.006900756619870663,-0.013446935452520847,0.005836213938891888,-5.855786078257097e-09,0.0064423722214996815
0.01198191661387682,0.006929335650056601,-0.013801008462905884,0.006397551856935024,-2.4964136660643454e-11,0.00660345796495676
0.012741746380925179,0.0067699970677495,-0.013424022123217583,0.006564725656062365,-1.629979788295155e-12,0.006693350151181221
0.012286871671676636,0.006975330878049135,-0.013671363703906536,0.006162075791507959,-1.064260306401707e-13,0.006407225038856268
0.012693007476627827,0.00730134779587388,-0.013103115372359753,0.006030246615409851,-6.948859246531675e-15,0.006341192871332169
0.012336459942162037,0.007294855080544949,-0.013136140070855618,0.006566508673131466,-4.53710868856161e-16,0.005802472122013569
0.012869414873421192,0.007114741951227188,-0.012935466133058071,0.00666389474645257,-2.9624077357712697e-17,0.005959646310657263
0.012669960968196392,0.007075211964547634,-0.012816215865314007,0.00631311722099781,-1.934240473700363e-18,0.006165122147649527
0.012484483420848846,0.007297149859368801,-0.013272065669298172,0.006228895857930183,-1.262920876929151e-19,0.006181375589221716
0.012482735328376293,0.007698496803641319,-0.013250443153083324,0.006568733602762222,-8.2459712716722e-21,0.006280764006078243
0.012102263048291206,0.007074795197695494,-0.013602405786514282,0.006532143801450729,-5.384029951763685e-22,0.006244841031730175
0.012634075246751308,0.007292614318430424,-0.012712270952761173,0.006353219039738178,-3.515387283528825e-23,0.00614077877253294
0.012381074018776417,0.006754998117685318,-0.013263825327157974,0.0065594264306128025,-2.2952965111018335e-24,0.006135198287665844
0.012381074018776417,0.006754998117685318,-0.013263825327157974,0.0065594264306128025,-2.2952965111018335e-24,0.006135198287665844
0.012871145270764828,0.007180739194154739,-0.012947809882462025,0.006623459979891777,-0.00020233781833667308,0.0061881328001618385
0.012580245733261108,0.007158347871154547,-0.013673464767634869,0.006518663838505745,-0.0002508683246560395,0.0058886026963591576
0.013266175054013729,0.00708771450445056,-0.013259375467896461,0.0061968108639121056,-0.00024132501857820898,0.005752025172114372
0.012557610869407654,0.006840081885457039,-0.013711364008486271,0.006360489409416914,-0.00022928143152967095,0.005851822439581156
0.012252366170287132,0.007273891009390354,-0.013408467173576355,0.005897676572203636,-0.00021817781089339405,0.005906984210014343
0.012825370766222477,0.007239923812448978,-0.013435319997370243,0.0060867308638989925,-0.00020808768749702722,0.0056358627043664455
0.012326241470873356,0.007010064087808132,-0.013082247227430344,0.006196280010044575,-0.00019888849055860192,0.005928974132984877
0.012656763195991516,0.007038104813545942,-0.013126987963914871,0.006332298740744591,-0.00019046808301936835,0.005609291139990091
0.012839804403483868,0.0070169526152312756,-0.01378636434674263,0.006196914240717888,-0.00021440921409521252,0.005753846373409033
0.012677467428147793,0.007153509184718132,-0.013464327901601791,0.006341561209410429,-0.00021040232968516648,0.005219040438532829
0.012657830491662025,0.006928320042788982,-0.013397344388067722,0.006595971528440714,-0.00020278389274608344,0.005281384568661451
0.012559410184621811,0.00668873218819499,-0.01286202110350132,0.007301135919988155,-0.0001954615581780672,0.005269012413918972
0.013250498101115227,0.006934982258826494,-0.013662893325090408,0.00686632888391614,-0.00018863368313759565,0.005823859944939613
0.012519726529717445,0.0071325660683214664,-0.01291636098176241,0.00694713369011879,-0.00018226604152005166,0.005570876877754927
0.012418336234986782,0.007044656667858362,-0.01323598064482212,0.006702932994812727,-0.00019727647304534912,0.005300138145685196
0.012736520729959011,0.007520649582147598,-0.013793454505503178,0.006240784656256437,-0.00019296417303849012,0.005021745804697275
0.012623189948499203,0.007284575141966343,-0.013114354573190212,0.006123336032032967,-0.00018733872275333852,0.005511019378900528
0.013138433918356895,0.007064912002533674,-0.013398348353803158,0.005930371582508087,-0.00018193572759628296,0.006251348648220301
0.01205744594335556,0.007112080696970224,-0.01333288662135601,0.0061310152523219585,-0.00017682892212178558,0.005811099894344807
0.012947660870850086,0.0073039294220507145,-0.013132395222783089,0.006581784691661596,-0.00017200088768731803,0.005215554032474756
0.013188758864998817,0.007265040185302496,-0.013286521658301353,0.006662807893007994,-0.00018819558317773044,0.004967855755239725
0.012623362243175507,0.007041911594569683,-0.013119790703058243,0.006465098820626736,-0.0001861883356468752,0.005282878410071135
0.013177236542105675,0.0069827185943722725,-0.0134147172793746,0.006085575092583895,-0.00018167661619372666,0.005495930556207895
0.01290985383093357,0.007186989299952984,-0.0129871666431427,0.006559731438755989,-0.00017721683252602816,0.005464595276862383
0.012873264029622078,0.007299687713384628,-0.013446866534650326,0.006924623157829046,-0.00017296054284088314,0.005406651645898819
0.013159805908799171,0.007243820931762457,-0.012816447764635086,0.00710789579898119,-0.0001705664035398513,0.004952591378241777
0.013211581856012344,0.006688314955681562,-0.01358834933489561,0.006278523243963718,-0.0001650825870456174,0.0051130675710737705
0.013290905393660069,0.006878992076963186,-0.013509511947631836,0.006340709514915943,-0.0001592887711012736,0.005081782117486
0.01350951287895441,0.0070790983736515045,-0.014206969179213047,0.006640024483203888,-0.00015384551079478115,0.004953858908265829
0.013483943417668343,0.006968309171497822,-0.013135070912539959,0.006901920307427645,-0.00016334495740011334,0.00484411371871829
0.013483943417668343,0.006968309171497822,-0.013135070912539959,0.006901920307427645,-0.00016334495740011334,0.00484411371871829
0.013290192000567913,0.007013521622866392,-0.01392902247607708,0.006401642691344023,-0.00017180790018755943,0.004895378369837999
0.01358945295214653,0.0070969415828585625,-0.013027844950556755,0.00646353280171752,-0.00016737499390728772,0.004962415900081396
0.01323165837675333,0.007025690283626318,-0.013010767288506031,0.006754349917173386,-0.00016239919932559133,0.004872223362326622
0.013738425448536873,0.007173112127929926,-0.013340362347662449,0.006689672823995352,-0.00015766103751957417,0.004802708979696035
0.013312142342329025,0.007410095538944006,-0.013523278757929802,0.006556943990290165,-0.00017535015649627894,0.004700114950537682
0.013579919002950191,0.006688538007438183,-0.013973623514175415,0.006333484314382076,-0.00017356935131829232,0.004786859732121229
0.013223031535744667,0.007025154307484627,-0.013564295135438442,0.0067058405838906765,-0.00016910926206037402,0.005139094777405262
0.01384743582457304,0.006969898007810116,-0.013949628919363022,0.007169281132519245,-0.0001762567990226671,0.005263147410005331
0.01336610410362482,0.006697537377476692,-0.0129648232832551,0.007259260397404432,-0.00018265312246512622,0.004734677728265524
0.013678180985152721,0.006946756038814783,-0.01297016628086567,0.007170920260250568,-0.0001745375629980117,0.004011030308902264
0.013720385730266571,0.0067799813114106655,-0.01386686135083437,0.0075167277827858925,-0.00021980049496050924,0.003603924997150898
0.013700278475880623,0.006713191047310829,-0.013529318384826183,0.0070416792295873165,-0.0002540942805353552,0.0038572726771235466
0.013759643770754337,0.006611607503145933,-0.014108375646173954,0.006742609199136496,-0.00024340386153198779,0.004153871443122625
0.013852950185537338,0.006655960809439421,-0.013908417895436287,0.007250112481415272,-0.00023109983885660768,0.00473413709551096
0.013893121853470802,0.007453471887856722,-0.013990990817546844,0.008084924891591072,-0.00026076604262925684,0.00480292085558176
0.014212739653885365,0.007075380999594927,-0.013523497618734837,0.007228462025523186,-0.0002512994105927646,0.004508516751229763
0.013959166593849659,0.0071922470815479755,-0.014382950961589813,0.006440690252929926,-0.00024028918414842337,0.00407129293307662
0.01398064848035574,0.006519271060824394,-0.013740857131779194,0.006465093698352575,-0.0002300609485246241,0.003879668191075325
0.013796824961900711,0.006642374210059643,-0.013914426788687706,0.007101538125425577,-0.0002549313649069518,0.0038950685411691666
0.014145159162580967,0.006692058406770229,-0.013804475776851177,0.00749060558155179,-0.0002471631160005927,0.004367319867014885
0.013704760000109673,0.00632023811340332,-0.01383225992321968,0.006986368913203478,-0.00023797147150617093,0.005041947588324547
0.014127221889793873,0.006329583469778299,-0.01381409727036953,0.006500320974737406,-0.0002577264385763556,0.004933698568493128
0.014127221889793873,0.006329583469778299,-0.01381409727036953,0.006500320974737406,-0.0002577264385763556,0.004933698568493128
0.013688841834664345,0.006810919847339392,-0.013852370902895927,0.00697146262973547,-0.00025258806999772787,0.00449180556461215
0.01391608640551567,0.007129512261599302,-0.013942272402346134,0.007473710924386978,-0.0002442727272864431,0.0037078880704939365
0.013689729385077953,0.00676269456744194,-0.013742451556026936,0.006897829007357359,-0.0002953000948764384,0.003524163505062461
0.014235815033316612,0.006787323858588934,-0.014355076476931572,0.006773896515369415,-0.0002954248629976064,0.004052228294312954
0.013807829469442368,0.007157493382692337,-0.013842691667377949,0.006693016737699509,-0.000305514462525025,0.004166632890701294
0.014149140566587448,0.007036131806671619,-0.013615600764751434,0.00720945606008172,-0.00031285363365896046,0.004329342860728502
0.013845548033714294,0.00725371902808547,-0.01345155481249094,0.00692331325262785,-0.0002972648071590811,0.004080911632627249
0.014202902093529701,0.006642624735832214,-0.013872967101633549,0.006414575036615133,-0.00031650037271901965,0.004266474395990372
0.014019262976944447,0.0065480852499604225,-0.01344573125243187,0.006434738170355558,-0.0003117127052973956,0.00363653595559299
0.014562406577169895,0.00693770544603467,-0.014385703951120377,0.006675940938293934,-0.0002976911491714418,0.00326083367690444
0.014002860523760319,0.00703052245080471,-0.014059974811971188,0.007250897586345673,-0.00031948398100212216,0.0030475035309791565
0.014329724945127964,0.006704963278025389,-0.014478589408099651,0.0076143778860569,-0.00031053065322339535,0.003179337829351425
0.014302775263786316,0.006377074867486954,-0.013600848615169525,0.007560364902019501,-0.00029799164622090757,0.003370935097336769
0.014358000829815865,0.006698065437376499,-0.013590565882623196,0.007082398049533367,-0.00036244586226530373,0.003397420747205615
0.014603465795516968,0.006921269930899143,-0.013927105814218521,0.0077644456177949905,-0.0003339525137562305,0.0031608634162694216
0.014520066790282726,0.006837840657681227,-0.013472773134708405,0.006618232931941748,-0.00036468953476287425,0.0032574294600635767
0.014909442514181137,0.0066799805499613285,-0.013923995196819305,0.00665274728089571,-0.00034848341601900756,0.003477340331301093
0.014582916162908077,0.007250412367284298,-0.013365295715630054,0.007225469220429659,-0.0003543879429344088,0.0032149511389434338
0.015431061387062073,0.007271413691341877,-0.014076550491154194,0.007674284279346466,-0.0003587405080907047,0.002926951041445136
0.014602873474359512,0.007255405653268099,-0.013659880496561527,0.007014982867985964,-0.0003409269265830517,0.0031664776615798473
0.01471859123557806,0.007444457150995731,-0.013762672431766987,0.006936071440577507,-0.00035761407343670726,0.003038967028260231
0.01425445917993784,0.006820435635745525,-0.013628724962472916,0.007602591533213854,-0.0003508870431687683,0.003324587130919099
0.015089884400367737,0.00690127070993185,-0.01385976281017065,0.007403162308037281,-0.0003352446365170181,0.0033173495903611183
0.014821264892816544,0.006756816059350967,-0.013904968276619911,0.0068774838000535965,-0.0003544393111951649,0.003109296318143606
0.014821264892816544,0.006756816059350967,-0.013904968276619911,0.0068774838000535965,-0.0003544393111951649,0.003109296318143606
0.015223512426018715,0.007050606422126293,-0.013942467048764229,0.008043032139539719,-0.00033498017000965774,0.0026327543891966343
0.014968161471188068,0.007471992168575525,-0.0136264618486166,0.008064847439527512,-0.00034217536449432373,0.0025321668945252895
0.014832336455583572,0.0070039681158959866,-0.013908288441598415,0.007246185094118118,-0.0003479116421658546,0.0023085176944732666
0.015329946763813496,0.006686726585030556,-0.01360070426017046,0.0071464055217802525,-0.0003285546263214201,0.0023951446637511253
0.015329946763813496,0.006686726585030556,-0.01360070426017046,0.0071464055217802525,-0.0003285546263214201,0.0023951446637511253
0.015274479985237122,0.006765763740986586,-0.014006379060447216,0.0077785006724298,-0.00030981533927842975,0.002597395097836852
0.015391654334962368,0.0072939456440508366,-0.01351032592356205,0.007590397726744413,-0.0002930054033640772,0.0027669891715049744
0.0156738068908453,0.006890858057886362,-0.014317058958113194,0.007461703848093748,-0.00031209056032821536,0.0026835277676582336
0.015229812823235989,0.007001916877925396,-0.013606099411845207,0.007595195434987545,-0.0003075716376770288,0.0026930617168545723
0.01568843424320221,0.006964655127376318,-0.014138922095298767,0.00809874851256609,-0.0002939201076515019,0.0026024302933365107
0.014956314116716385,0.007427352014929056,-0.013023111037909985,0.007751076016575098,-0.000280859530903399,0.00252170255407691
0.015089442022144794,0.007541111670434475,-0.013710281811654568,0.007478480227291584,-0.0002688723907340318,0.002691245637834072
0.01498724427074194,0.007002657745033503,-0.013358253985643387,0.008133169263601303,-0.00025786555488593876,0.0025065611116588116
0.015432387590408325,0.006460247095674276,-0.014114507474005222,0.007827221415936947,-0.0002477237721905112,0.002455611014738679
0.015655947849154472,0.006937287747859955,-0.013775041326880455,0.007596013136208057,-0.00027008881443180144,0.0026948251761496067
0.015967322513461113,0.0067618414759635925,-0.013774162158370018,0.007143969647586346,-0.00026231721858493984,0.0024978972505778074
0.015847323462367058,0.006773659959435463,-0.013643544167280197,0.007805513218045235,-0.00024705196847207844,0.0020535506773740053
0.016009729355573654,0.006481032352894545,-0.012966243550181389,0.007525335066020489,-0.00023557120584882796,0.0019576929043978453
0.015991058200597763,0.0068242596462368965,-0.013334302231669426,0.007353984285145998,-0.00022393940889742225,0.0018680591601878405
0.015862226486206055,0.006813058163970709,-0.013223624788224697,0.007467273622751236,-0.0002341632207389921,0.001920923707075417
0.01579493097960949,0.006965508684515953,-0.013245499692857265,0.007731832098215818,-0.0002429778251098469,0.002341879066079855
0.01625216379761696,0.0069423275999724865,-0.013610666617751122,0.007591807749122381,-0.00023372482974082232,0.002560659311711788
0.01575995609164238,0.0069252559915184975,-0.013152889907360077,0.007482294458895922,-0.00022410597011912614,0.0024553905241191387
0.016386717557907104,0.006581122986972332,-0.013501142151653767,0.007774032186716795,-0.0002462667762301862,0.0021836303640156984
0.016177944839000702,0.00659989845007658,-0.013148816302418709,0.008107447065412998,-0.0002411090536043048,0.0018992529949173331
0.016086002811789513,0.006613933946937323,-0.013728702440857887,0.008711026050150394,-0.0002324890228919685,0.0017767671961337328
0.016278060153126717,0.006851368583738804,-0.013484404422342777,0.008299349807202816,-0.00022423120390158147,0.0019447915256023407
0.016294997185468674,0.0072292909026145935,-0.014406324364244938,0.008632765151560307,-0.00023941435210872442,0.002452657325193286
0.016283724457025528,0.006758728995919228,-0.013966996222734451,0.008437810465693474,-0.00023870878794696182,0.0022650796454399824
0.01635683700442314,0.007096923887729645,-0.013984277844429016,0.008336045779287815,-0.00023150515335146338,0.0020539606921374798
0.01635683700442314,0.007096923887729645,-0.013984277844429016,0.008336045779287815,-0.00023150515335146338,0.0020539606921374798
0.016753794625401497,0.006641261279582977,-0.01333114318549633,0.007663212716579437,-0.00022432234254665673,0.0018786516739055514
0.016389314085245132,0.007138832937926054,-0.014079089276492596,0.007805931847542524,-0.00021807292068842798,0.001583909965120256
0.01672561652958393,0.00708202226087451,-0.01392193790525198,0.007872777990996838,-0.00027050572680309415,0.0012883101589977741
0.016269754618406296,0.006739051081240177,-0.014162824489176273,0.007580713834613562,-0.0002592100645415485,0.0012455295072868466
0.016277367249131203,0.006839348003268242,-0.013717558234930038,0.008099162019789219,-0.0002692732377909124,0.0013711630599573255
0.016556404531002045,0.007361952215433121,-0.013823050074279308,0.00828923936933279,-0.00027757385396398604,0.0015008661430329084
0.016390744596719742,0.006958158686757088,-0.014176729135215282,0.007867738604545593,-0.00026537798112258315,0.0015092462999746203
0.016929680481553078,0.006387536413967609,-0.01436965074390173,0.008052381686866283,-0.00028417177964001894,0.0019651902839541435
0.016595155000686646,0.006194655317813158,-0.014836774207651615,0.00821690820157528,-0.0002812759776134044,0.0017716336296871305
0.016780095174908638,0.0066648018546402454,-0.014369704760611057,0.007942985743284225,-0.0002698657917790115,0.0016417113365605474
0.01673920825123787,0.006728637497872114,-0.014153876341879368,0.008069170638918877,-0.00025881890906021,0.0013645302969962358
0.01662679761648178,0.00639361422508955,-0.015259799547493458,0.008449685759842396,-0.000274862686637789,0.0012627672404050827
0.016740748658776283,0.00661355210468173,-0.014882453717291355,0.008710612542927265,-0.00027272896841168404,0.0012004957534372807
0.01697392202913761,0.007015617098659277,-0.014462141320109367,0.008024865761399269,-0.000254039594437927,0.0010165863204747438
0.016714632511138916,0.006888286676257849,-0.014584747143089771,0.0083429254591465,-0.00028229906456544995,0.001054544118233025
0.017029637470841408,0.006414884235709906,-0.014517121016979218,0.00829985924065113,-0.00029935617931187153,0.001319808536209166
0.017320822924375534,0.006307488773018122,-0.014637325890362263,0.008033149875700474,-0.0002828793949447572,0.0013208820018917322
0.016759779304265976,0.006708581931889057,-0.014613602310419083,0.00831472035497427,-0.0002662857295945287,0.0012105106143280864
0.01695316471159458,0.007220075931400061,-0.014995397999882698,0.008558564819395542,-0.00029491481836885214,0.0010953866876661777
0.01686198078095913,0.006824930664151907,-0.01455526053905487,0.008293445222079754,-0.0002852830511983484,0.0009718614164739847
0.016873881220817566,0.005798646714538336,-0.014930344186723232,0.008221464231610298,-0.0003104886272922158,0.0008906949078664184
0.017717968672513962,0.005670709069818258,-0.014245639555156231,0.00903058797121048,-0.0003010381478816271,0.000887667469214648
0.01692725345492363,0.0053588165901601315,-0.014863269403576851,0.00853766780346632,-0.0002876424987334758,0.0008891078759916127
0.017415927723050117,0.006150401663035154,-0.013984003104269505,0.008331377990543842,-0.0002751023566816002,0.0009351985063403845
0.017372211441397667,0.005714572500437498,-0.014608772471547127,0.008360221982002258,-0.00026359097682870924,0.001092925202101469
0.017084738239645958,0.0058209835551679134,-0.014533276669681072,0.00857671070843935,-0.00025300338165834546,0.001073129242286086
0.01651916466653347,0.00591680034995079,-0.014800259843468666,0.00866757147014141,-0.0002756208705250174,0.0009906790219247341
0.01651916466653347,0.00591680034995079,-0.014800259843468666,0.00866757147014141,-0.0002756208705250174,0.0009906790219247341
0.017734412103891373,0.00600165082141757,-0.01438407227396965,0.0090819476172328,-0.00026749170501716435,0.0010295648826286197
0.01769498735666275,0.006221052259206772,-0.014811237342655659,0.008600844070315361,-0.0002580417785793543,0.000986646511591971
0.017276350408792496,0.005539372563362122,-0.013902850449085236,0.008485035039484501,-0.0002491315535735339,0.0008668194059282541
0.017053527757525444,0.005999598652124405,-0.014845057390630245,0.009023075923323631,-0.0002775428583845496,0.0008393592434003949
0.01734582521021366,0.0056799123995006084,-0.014270293526351452,0.008623483590781689,-0.00026411525323055685,0.000764906988479197
0.01729479245841503,0.005919547285884619,-0.0147367212921381,0.008707227185368538,-0.0002496445376891643,0.000683588208630681
0.017619090154767036,0.00582258403301239,-0.014351915568113327,0.00876581110060215,-0.0002596009289845824,0.0006924964254721999
0.017578590661287308,0.005454575177282095,-0.015077343210577965,0.008840053342282772,-0.000268076139036566,0.0006410772912204266
0.017749221995472908,0.00532803637906909,-0.014325695112347603,0.00939210969954729,-0.00025672579067759216,0.0005892404005862772
0.017464255914092064,0.005624331068247557,-0.014928494580090046,0.00963179673999548,-0.0002451591135468334,0.00047628607717342675
0.01671513170003891,0.0054604713805019855,-0.014337918721139431,0.009392619132995605,-0.0002633914118632674,0.0004236720269545913
0.017499715089797974,0.0057827988639473915,-0.014866861514747143,0.0094569381326437,-0.00026154497754760087,0.0003867134219035506
0.017753081396222115,0.005972885061055422,-0.014790244400501251,0.008758527226746082,-0.00024205537920352072,0.00039350803126581013
0.01806008443236351,0.005669079255312681,-0.014532613568007946,0.009368766099214554,-0.00025773036759346724,0.00036869096220470965
0.01750245876610279,0.005943800322711468,-0.015114553272724152,0.009550206363201141,-0.0002563279995229095,0.00034524008515290916
0.017886975780129433,0.006288609933108091,-0.014578224159777164,0.00876980647444725,-0.0002854631165973842,0.00032449254649691284
0.017848869785666466,0.005542716011404991,-0.015235645696520805,0.008944702334702015,-0.0003026246267836541,0.0003060915623791516
0.017929470166563988,0.005690370686352253,-0.014468960464000702,0.009289856068789959,-0.0003352140192873776,0.0002896662044804543
0.017769325524568558,0.005432603415101767,-0.01470325980335474,0.008728601969778538,-0.00032212003134191036,0.00027491329819895327
0.017804818227887154,0.005893360357731581,-0.014435329474508762,0.008944635279476643,-0.0003291272441856563,0.00026159186381846666
0.018277257680892944,0.006093270611017942,-0.014859333634376526,0.009012107737362385,-0.0003345172735862434,0.0002495025109965354
0.018423043191432953,0.006155923008918762,-0.01433176826685667,0.00972797628492117,-0.00031906712683849037,0.00023848091950640082
0.017974507063627243,0.006155100185424089,-0.014871055260300636,0.009482440538704395,-0.00034419610165059566,0.00022839204757474363
0.018410947173833847,0.005719914101064205,-0.014888003468513489,0.01008531916886568,-0.0003316648071631789,0.00021912227384746075
0.018492907285690308,0.005944530945271254,-0.014615219086408615,0.010079292580485344,-0.0004836081061512232,0.00021057663252577186
0.018444525077939034,0.006366063840687275,-0.014500544406473637,0.009394558146595955,-0.00044778932351619005,0.00020267143554519862
0.018720634281635284,0.0059656319208443165,-0.014963497407734394,0.009542681276798248,-0.0004782469477504492,0.00019533938029780984
0.018525704741477966,0.005977503955364227,-0.014565018005669117,0.009192045778036118,-0.000448135455371812,0.00018851898494176567
0.018525704741477966,0.005977503955364227,-0.014565018005669117,0.009192045778036118,-0.000448135455371812,0.00018851898494176567
0.018634745851159096,0.005619221366941929,-0.01491632778197527,0.009278157725930214,-0.0004650626506190747,0.0001821589539758861
0.01885194145143032,0.0058182175271213055,-0.01488829031586647,0.009298085235059261,-0.00044778306619264185,0.00015447361511178315
0.018527192994952202,0.006333534140139818,-0.015023231506347656,0.009396141394972801,-0.0004190186155028641,0.00014270217798184603
0.01865425892174244,0.0060639651492238045,-0.01468241773545742,0.008877011016011238,-0.00044516249909065664,0.00013788013893645257
0.01847965642809868,0.005956381093710661,-0.01498602144420147,0.009507845155894756,-0.00042244355427101254,0.00013375231355894357
0.01869574561715126,0.005925284698605537,-0.01516086794435978,0.00983834732323885,-0.0004401186015456915,0.00012988939124625176
0.018900318071246147,0.006278814747929573,-0.014891470782458782,0.009408722631633282,-0.0004147639265283942,0.00012624496594071388
0.019006047397851944,0.0069465190172195435,-0.014736669138073921,0.009639180265367031,-0.00041745795169845223,9.988828969653696e-05
0.018586406484246254,0.006242734380066395,-0.014749432913959026,0.009402119554579258,-0.0004186263249721378,9.57376541919075e-05
0.019126374274492264,0.005924041382968426,-0.015407565981149673,0.009201000444591045,-0.00042211846448481083,7.143444963730872e-05
0.019722532480955124,0.006552834529429674,-0.015300566330552101,0.009759942069649696,-0.0004228430916555226,6.82065001456067e-05
0.01920400559902191,0.006491279229521751,-0.0144982123747468,0.009052466601133347,-0.0004260643618181348,-6.785360164940357e-05
0.019457517191767693,0.006482874043285847,-0.015607859939336777,0.008887316100299358,-0.00040446154889650643,-7.954980537761003e-05
0.01919645629823208,0.006426570471376181,-0.015256497077643871,0.009343608282506466,-0.0004742706078104675,-0.00010076886974275112
0.019546661525964737,0.006078256759792566,-0.015251152217388153,0.008685114793479443,-0.00047774711856618524,-0.00011354778689565137
0.01927192136645317,0.006686580833047628,-0.014744867570698261,0.008920598775148392,-0.0004742312303278595,-0.00012234959285706282
0.019332142546772957,0.007109571248292923,-0.015507611446082592,0.009701447561383247,-0.0004382390179671347,-0.0005964146694168448
0.019874881953001022,0.006461562588810921,-0.015115504153072834,0.009538316167891026,-0.000468280486529693,-0.0007503270753659308
0.019687986001372337,0.006120311561971903,-0.01572694256901741,0.01025162823498249,-0.00043968879617750645,-0.0007253760122694075
0.01942812278866768,0.006421084515750408,-0.01565304584801197,0.010347574949264526,-0.0004658863472286612,-0.000734396860934794
0.01965087652206421,0.007077652029693127,-0.015540379099547863,0.009636087343096733,-0.0004409250686876476,-0.0008047032752074301
0.01885337196290493,0.006876816041767597,-0.015919119119644165,0.009802141226828098,-0.00048300527851097286,-0.0009037626441568136
0.01957109570503235,0.006113138515502214,-0.01577811874449253,0.010346587747335434,-0.0004579361411742866,-0.000908841728232801
0.02014153078198433,0.005945576820522547,-0.01602320186793804,0.00978873297572136,-0.000478104455396533,-0.0009234665776602924
0.02020033448934555,0.006640293635427952,-0.01611313223838806,0.010062101297080517,-0.0004566074348986149,-0.0012061621528118849
0.02008243091404438,0.007429842837154865,-0.016683684661984444,0.009859074838459492,-0.0004221279814373702,-0.0012896743137389421
0.02008243091404438,0.007429842837154865,-0.016683684661984444,0.009859074838459492,-0.0004221279814373702,-0.0012896743137389421
0.01992967538535595,0.006113432813435793,-0.016282301396131516,0.009890086017549038,-0.000425637059379369,-0.001433097175322473
0.01992967538535595,0.006113432813435793,-0.016282301396131516,0.009890086017549038,-0.000425637059379369,-0.001433097175322473
0.019558699801564217,0.0064431289210915565,-0.015406942926347256,0.00980010349303484,-0.00044088021968491375,-0.001420136191882193
0.018946317955851555,0.006768929306417704,-0.015971165150403976,0.009551199153065681,-0.0004277922853361815,-0.001316350419074297
0.019854659214615822,0.006553682964295149,-0.016191735863685608,0.009688448160886765,-0.0004046020330861211,-0.0012681009247899055
0.020176293328404427,0.006481585092842579,-0.015787413343787193,0.009886839427053928,-0.0003831206704489887,-0.0013374340487644076
0.0199895016849041,0.0065787420608103275,-0.016510862857103348,0.009664028882980347,-0.0003641550138127059,-0.0015886102337390184
0.019645078107714653,0.006464055739343166,-0.016037633642554283,0.010034997016191483,-0.0003640216600615531,-0.0017066790023818612
0.020262783393263817,0.006337038241326809,-0.016229718923568726,0.010339144617319107,-0.0003385425661690533,-0.0018359251553192735
0.02022911235690117,0.00585818151012063,-0.015162449330091476,0.01054797787219286,-0.0003149566182401031,-0.0018812199123203754
0.020219281315803528,0.005870655179023743,-0.015944672748446465,0.010120410472154617,-0.00033100193832069635,-0.0019598703365772963
0.01991194486618042,0.005996489431709051,-0.01620751991868019,0.009695480577647686,-0.0003123054630123079,-0.0023462255485355854
0.019938763231039047,0.0060151107609272,-0.016023840755224228,0.01049745175987482,-0.00033153212280012667,-0.0025837209541350603
0.020028501749038696,0.0057814898900687695,-0.015844060108065605,0.010617075487971306,-0.00032575501245446503,-0.0032087736763060093
0.020124120637774467,0.005860011093318462,-0.01620645634829998,0.009342251345515251,-0.00031044252682477236,-0.0031346548348665237
0.020237501710653305,0.005811423994600773,-0.015545259229838848,0.009759405627846718,-0.00032711552921682596,-0.003139764303341508
0.020385798066854477,0.006097507197409868,-0.01589564047753811,0.010320167988538742,-0.00032228356576524675,-0.0026818392798304558
0.02053619548678398,0.005766513757407665,-0.015113158151507378,0.009586827829480171,-0.0003090875397901982,-0.002498773392289877
0.0203913114964962,0.005782888736575842,-0.0161787960678339,0.009694197215139866,-0.00033601897303014994,-0.0025536837056279182
0.020406704396009445,0.005556872114539146,-0.016159188002347946,0.009524614550173283,-0.0003255704650655389,-0.0032017140183597803
0.020649254322052002,0.005629211198538542,-0.016270862892270088,0.00936171691864729,-0.0003044409095309675,-0.003276146948337555
0.02053128555417061,0.005227911751717329,-0.016033299267292023,0.010278665460646152,-0.00033825827995315194,-0.003546023741364479
0.020074237138032913,0.005861489102244377,-0.015967123210430145,0.01061465498059988,-0.0003215722681488842,-0.003256124211475253
0.020074237138032913,0.005861489102244377,-0.015967123210430145,0.01061465498059988,-0.0003215722681488842,-0.003256124211475253
0.020736606791615486,0.0057602617889642715,-0.016424348577857018,0.010390817187726498,-0.0003283679252490401,-0.002982179168611765
0.020530981943011284,0.005263399798423052,-0.01611746847629547,0.010937536135315895,-0.0003183907538186759,-0.003291319590061903
0.020530981943011284,0.005263399798423052,-0.01611746847629547,0.010937536135315895,-0.0003183907538186759,-0.003291319590061903
0.020301610231399536,0.005779705010354519,-0.01584029011428356,0.010557149536907673,-0.000303162494674325,-0.0035752784460783005
0.020467262715101242,0.006065234541893005,-0.016031993553042412,0.010915071703493595,-0.0003277389332652092,-0.0035068627912551165
0.020301993936300278,0.00589906657114625,-0.01570545881986618,0.010824592784047127,-0.00031586847035214305,-0.0036219472531229258
0.020370932295918465,0.005369806196540594,-0.016509028151631355,0.011041403748095036,-0.00037021670141257346,-0.0037895122077316046
0.020513372495770454,0.005369389895349741,-0.01659260131418705,0.010909450240433216,-0.00036336827906779945,-0.0034529974218457937
0.02044423297047615,0.005592449102550745,-0.016022279858589172,0.010210108011960983,-0.0003376023378223181,-0.0038470879662781954
0.020508043467998505,0.006252789869904518,-0.016290612518787384,0.010703104548156261,-0.0003141180204693228,-0.004175414331257343
0.02042468450963497,0.005752894561737776,-0.01594214327633381,0.010797439143061638,-0.0002936159144155681,-0.004329748451709747
0.020676059648394585,0.00546632893383503,-0.016333097591996193,0.010640839114785194,-0.00027562296600081027,-0.004288397263735533
0.02104915678501129,0.005466986447572708,-0.015960535034537315,0.010724380612373352,-0.00029124709544703364,-0.004082252271473408
0.020891712978482246,0.005209025926887989,-0.01590135134756565,0.011100884526968002,-0.0002791675797197968,-0.004126974381506443
0.02077961154282093,0.0053929975256323814,-0.016324620693922043,0.011213111691176891,-0.00026562591665424407,-0.004355765413492918
0.020761968567967415,0.0056305332109332085,-0.016538504511117935,0.01096110139042139,-0.00028972807922400534,-0.004658831283450127
0.020903518423438072,0.0051320018246769905,-0.01582225225865841,0.011684694327414036,-0.0002817776403389871,-0.004540520254522562
0.020975472405552864,0.005191204138100147,-0.01626398228108883,0.011083747260272503,-0.00027002592105418444,-0.004288242664188147
0.021296042948961258,0.005104270298033953,-0.015482522547245026,0.010208736173808575,-0.0002934194344561547,-0.004278050735592842
0.021857529878616333,0.005907769314944744,-0.016252361238002777,0.010249617509543896,-0.00028408924117684364,-0.004427924752235413
0.02094327285885811,0.00547344796359539,-0.01596623659133911,0.010027538053691387,-0.0002742277574725449,-0.004537628963589668
0.021663619205355644,0.005327207501977682,-0.016187401488423347,0.009936989285051823,-0.0002755598980002105,-0.004545862786471844
0.021304206922650337,0.005579634569585323,-0.016062771901488304,0.010231687687337399,-0.00026077241636812687,-0.004605201072990894
0.02042742818593979,0.005265200510621071,-0.01604514755308628,0.01010776124894619,-0.0002924624423030764,-0.004683052189648151
0.02042742818593979,0.005265200510621071,-0.01604514755308628,0.01010776124894619,-0.0002924624423030764,-0.004683052189648151
0.021938135847449303,0.005489155650138855,-0.015917068347334862,0.010527044534683228,-0.0003080182650592178,-0.00464203767478466
0.02195495367050171,0.005376406013965607,-0.016558485105633736,0.010654452256858349,-0.0003169266856275499,-0.005063982680439949
0.02170136198401451,0.005350192077457905,-0.016090180724859238,0.010518241673707962,-0.0003221350780222565,-0.0050812456756830215
0.02181391976773739,0.005589911248534918,-0.016804251819849014,0.010607530362904072,-0.0004961349186487496,-0.005448327399790287
0.02181391976773739,0.005589911248534918,-0.016804251819849014,0.010607530362904072,-0.0004961349186487496,-0.005448327399790287
0.0222325399518013,0.005288728978484869,-0.01594674028456211,0.010758895426988602,-0.0005756751052103937,-0.005249601788818836
0.022450489923357964,0.0054547591134905815,-0.01632503792643547,0.011314074508845806,-0.0006108271772973239,-0.004518762230873108
0.02226664312183857,0.005655653774738312,-0.016626112163066864,0.011536076664924622,-0.000577069295104593,-0.004415749106556177
0.02182580716907978,0.0053931777365505695,-0.016337716951966286,0.011558560654520988,-0.000600262894295156,-0.004911091178655624
0.02194875106215477,0.005421780049800873,-0.01713295467197895,0.011271238327026367,-0.0008027236326597631,-0.005134162493050098
0.022140832617878914,0.005303573329001665,-0.01639421284198761,0.01099066250026226,-0.0008465846185572445,-0.005772516131401062
0.022861452773213387,0.005914079491049051,-0.016426464542746544,0.01161396037787199,-0.0007456071907654405,-0.005139829125255346
0.02238420955836773,0.005790724419057369,-0.01659945771098137,0.011241468600928783,-0.0006779180257581174,-0.0052069686353206635
0.022847473621368408,0.005532342474907637,-0.016876276582479477,0.011566603556275368,-0.0006548920646309853,-0.005126830190420151
0.02304162085056305,0.005676977336406708,-0.016104837879538536,0.011096863076090813,-0.0006352097261697054,-0.006009080447256565
0.022691842168569565,0.0052607981488108635,-0.016777416691184044,0.011684653349220753,-0.000589654257055372,-0.0060549224726855755
0.02244015969336033,0.005843727849423885,-0.016622444614768028,0.011359484866261482,-0.0005167847848497331,-0.005775250494480133
0.02259591594338417,0.006349675823003054,-0.017382126301527023,0.011115973815321922,-0.0005428225849755108,-0.005410512909293175
0.02304321713745594,0.0056326924823224545,-0.017135778442025185,0.011667135171592236,-0.0005029921885579824,-0.005352165549993515
0.022832700982689857,0.0058101993054151535,-0.01635565422475338,0.011153864674270153,-0.0005320525378920138,-0.005400393158197403
0.02353031374514103,0.005398827139288187,-0.017188329249620438,0.011202989146113396,-0.0004949255380779505,-0.006003370974212885
0.023029794916510582,0.005610606633126736,-0.016785871237516403,0.011428686790168285,-0.0005157645791769028,-0.006261671893298626
0.023111864924430847,0.005865313112735748,-0.017860788851976395,0.010508895851671696,-0.000488495861645788,-0.006038586609065533
0.023462023586034775,0.005462357774376869,-0.01723656989634037,0.01146168913692236,-0.0005364316748455167,-0.005985713098198175
0.02305717207491398,0.005535828415304422,-0.016789434477686882,0.01125437580049038,-0.0005040847463533282,-0.005610822234302759
0.023169776424765587,0.006106193643063307,-0.017217261716723442,0.01133081503212452,-0.0005213923868723214,-0.00596638722345233
0.022921541705727577,0.005517636425793171,-0.0166765246540308,0.01147527527064085,-0.000494220235850662,-0.005717277992516756
0.023234844207763672,0.005845203064382076,-0.017074299976229668,0.010931998491287231,-0.0004905753885395825,-0.006168742198497057
0.023234844207763672,0.005845203064382076,-0.017074299976229668,0.010931998491287231,-0.0004905753885395825,-0.006168742198497057
0.02398289367556572,0.005787131376564503,-0.016363561153411865,0.011220582760870457,-0.00048608198994770646,-0.006381787825375795
0.023886514827609062,0.005572731141000986,-0.016787273809313774,0.011312522925436497,-0.0004532759776338935,-0.00653490936383605
0.02364891581237316,0.005490585695952177,-0.017281660810112953,0.01100610475987196,-0.00047517154598608613,-0.006200052797794342
0.02363860234618187,0.005560370162129402,-0.016805851832032204,0.01142596174031496,-0.00045243592467159033,-0.006087778601795435
0.023725759238004684,0.005870853550732136,-0.017020411789417267,0.010813916102051735,-0.00042611401295289397,-0.006509026512503624
0.023791030049324036,0.00603940524160862,-0.01657588593661785,0.011349981650710106,-0.0004225379088893533,-0.006326223257929087
0.02427865006029606,0.006165445316582918,-0.01685378886759281,0.012176095508038998,-0.00039402180118486285,-0.006303861737251282
0.024214301258325577,0.005589644890278578,-0.017216265201568604,0.011465986259281635,-0.00036278460174798965,-0.005742086097598076
0.023840906098484993,0.005795864388346672,-0.017143821343779564,0.011208987794816494,-0.00039369051228277385,-0.007068539038300514
0.024165445938706398,0.00594354746863246,-0.017650743946433067,0.01097232848405838,-0.00037429126678034663,-0.0071498192846775055
0.024432677775621414,0.005420912988483906,-0.017021983861923218,0.011266211047768593,-0.0003835006500594318,-0.00654767919331789
0.024606745690107346,0.005674101412296295,-0.017347658053040504,0.010851593688130379,-0.00041003909427672625,-0.006543916650116444
0.024866199120879173,0.005594891496002674,-0.017206083983182907,0.01149219460785389,-0.0003925444616470486,-0.006423460319638252
0.024820178747177124,0.005886884406208992,-0.01743442192673683,0.011388358660042286,-0.00047345407074317336,-0.006691648159176111
0.024830913171172142,0.006179570686072111,-0.016459859907627106,0.010993452742695808,-0.0004356259305495769,-0.006981905084103346
0.025114040821790695,0.00546626839786768,-0.0172489695250988,0.012279817834496498,-0.0004714509123004973,-0.0070267957635223866
0.025503994897007942,0.005987908691167831,-0.017452171072363853,0.012135264463722706,-0.000438033981481567,-0.006900167092680931
0.0260549895465374,0.005553154740482569,-0.01728231832385063,0.012247536331415176,-0.00046824183664284647,-0.006948128808289766
0.025835569947957993,0.005968945566564798,-0.01730373129248619,0.011986940167844296,-0.0004858733154833317,-0.006825192365795374
0.02353588677942753,0.0064144679345190525,-0.016596252098679543,0.012450664304196835,-0.00046888148062862456,-0.006804794538766146
0.02353588677942753,0.0064144679345190525,-0.016596252098679543,0.012450664304196835,-0.00046888148062862456,-0.006804794538766146
0.025955600664019585,0.0055283294059336185,-0.017249690368771553,0.0113447867333889,-0.0005019499221816659,-0.007028499618172646
0.02596856653690338,0.00567444134503603,-0.01693970337510109,0.011680632829666138,-0.0005332650034688413,-0.007221370469778776
0.02521788328886032,0.006073409225791693,-0.01744197867810726,0.011514282785356045,-0.0004951946320943534,-0.007345790974795818
0.025884365662932396,0.005913952365517616,-0.01686333678662777,0.012279666028916836,-0.0004542139358818531,-0.007695319596678019
0.026412656530737877,0.005619494244456291,-0.017061833292245865,0.012419944629073143,-0.00041898537892848253,-0.00759953074157238
0.026412656530737877,0.005619494244456291,-0.017061833292245865,0.012419944629073143,-0.00041898537892848253,-0.00759953074157238
0.02568233758211136,0.005589526612311602,-0.017539843916893005,0.012155337259173393,-0.0004209341132082045,-0.007889140397310257
0.02568233758211136,0.005589526612311602,-0.017539843916893005,0.012155337259173393,-0.0004209341132082045,-0.007889140397310257
0.02526106685400009,0.005287636537104845,-0.017505550757050514,0.012446642853319645,-0.0003963280178140849,-0.00762398773804307
0.025944726541638374,0.005579034797847271,-0.016913672909140587,0.012780916877090931,-0.00037297638482414186,-0.007489095441997051
0.02680470421910286,0.005252373870462179,-0.01744045875966549,0.012359526008367538,-0.00035212861257605255,-0.007556957192718983
0.02612159214913845,0.004939604084938765,-0.017425909638404846,0.012302553281188011,-0.0003334826906211674,-0.008087114430963993
0.026155736297369003,0.0051398989744484425,-0.017792951315641403,0.012496034614741802,-0.00035884519456885755,-0.00839623250067234
0.025687573477625847,0.005403922870755196,-0.018502332270145416,0.01272786594927311,-0.0003444226458668709,-0.008350561372935772
0.025856221094727516,0.005608889274299145,-0.017159845679998398,0.013022245839238167,-0.0003288665320724249,-0.008430514484643936
0.025632433593273163,0.005576937459409237,-0.01784399151802063,0.012533827684819698,-0.00029982003616169095,-0.00834847241640091
0.025822946801781654,0.005061458796262741,-0.017191626131534576,0.012214559130370617,-0.0003088358498644084,-0.007978162728250027
0.025752833113074303,0.005008460953831673,-0.018069926649332047,0.012953493744134903,-0.0002980093122459948,-0.008119141682982445
0.025919374078512192,0.005535016767680645,-0.017966696992516518,0.012667051516473293,-0.0003175722958985716,-0.0082105603069067
0.026522241532802582,0.005662640556693077,-0.01827544905245304,0.013140625320374966,-0.0003127358213532716,-0.008529563434422016
0.02643916942179203,0.005646192003041506,-0.018109478056430817,0.013421852141618729,-0.00033012221683748066,-0.00800237525254488
0.026466654613614082,0.00508590554818511,-0.017194809392094612,0.013221025466918945,-0.0003251571033615619,-0.00817785318940878
0.026200411841273308,0.0048128594644367695,-0.01839316263794899,0.01311483047902584,-0.00046096075675450265,-0.007856202311813831
0.026300380006432533,0.005110093858093023,-0.018608486279845238,0.01234675757586956,-0.000507249147631228,-0.008555920794606209
0.02615908905863762,0.005130220670253038,-0.018141822889447212,0.012437979690730572,-0.0005035148351453245,-0.008521231822669506
0.026132002472877502,0.005913635715842247,-0.01783137023448944,0.012322522699832916,-0.0005297164898365736,-0.008616229519248009
0.026132002472877502,0.005913635715842247,-0.01783137023448944,0.012322522699832916,-0.0005297164898365736,-0.008616229519248009
0.02469470724463463,0.0053876591846346855,-0.018161851912736893,0.012672431766986847,-0.0004971330636180937,-0.008983136154711246
0.02657216228544712,0.004432810004800558,-0.01870240457355976,0.01273447647690773,-0.000522573129273951,-0.00917103886604309
0.027152573689818382,0.0044336821883916855,-0.017936376854777336,0.01264813169836998,-0.0005830266163684428,-0.008803090080618858
0.02760155126452446,0.005034243687987328,-0.017247362062335014,0.012848290614783764,-0.0006534220301546156,-0.009046165272593498
0.026021253317594528,0.005755314603447914,-0.018924660980701447,0.013039415702223778,-0.0006585099035874009,-0.008905190043151379
0.026594700291752815,0.005136252846568823,-0.01823277212679386,0.012952258810400963,-0.000664483814034611,-0.008770735003054142
0.027379224076867104,0.0047600483521819115,-0.01840580441057682,0.013643542304635048,-0.0006264229887165129,-0.009340534918010235
0.027329038828611374,0.005048476159572601,-0.01798871159553528,0.013208006508648396,-0.0007183298585005105,-0.009302529506385326
0.027065247297286987,0.005060696974396706,-0.018016595393419266,0.01367366686463356,-0.0007013073191046715,-0.009666034020483494
0.027065247297286987,0.005060696974396706,-0.018016595393419266,0.01367366686463356,-0.0007013073191046715,-0.009666034020483494
0.027276745066046715,0.005308588035404682,-0.01866777054965496,0.013300429098308086,-0.0006696811760775745,-0.009341971017420292
0.027547666803002357,0.005547627806663513,-0.018118375912308693,0.013413183391094208,-0.000598938437178731,-0.009445205330848694
0.02741236425936222,0.00542947044596076,-0.018211591988801956,0.013178916648030281,-0.0006165942759253085,-0.00926359836012125
0.02669472061097622,0.0056256758980453014,-0.018345355987548828,0.01314771268516779,-0.0005711486446671188,-0.00930571835488081
0.026840290054678917,0.00521307997405529,-0.017545001581311226,0.013427495956420898,-0.0005888404557481408,-0.009365005418658257
0.027162764221429825,0.005172917619347572,-0.018297530710697174,0.013591941446065903,-0.0005524625303223729,-0.009325401857495308
0.027208197861909866,0.00551559729501605,-0.018264861777424812,0.013433937914669514,-0.0005136035615578294,-0.010026870295405388
0.027483975514769554,0.005144126247614622,-0.018545841798186302,0.01335921511054039,-0.0004278475244063884,-0.009415480308234692
0.027378134429454803,0.005093104671686888,-0.01841370388865471,0.013173693791031837,-0.00039070675848051906,-0.00954163447022438
0.02710171416401863,0.005518071819096804,-0.017944784834980965,0.01357165165245533,-0.0004214815271552652,-0.009763522073626518
0.027089470997452736,0.00561215914785862,-0.018163949251174927,0.013456066139042377,-0.0003987831005360931,-0.010037471540272236
0.027663400396704674,0.005708831828087568,-0.017633428797125816,0.01415611244738102,-0.0004253969818819314,-0.010337619110941887
0.027743130922317505,0.005321922712028027,-0.018258702009916306,0.013458022847771645,-0.00040535657899454236,-0.010068539530038834
0.027766065672039986,0.005404644645750523,-0.01829233206808567,0.013853157870471478,-0.0004319817526265979,-0.009609275497496128
0.02784540131688118,0.005107128992676735,-0.018012752756476402,0.013103020377457142,-0.0004115298797842115,-0.010176884941756725
0.027971176430583,0.005432359874248505,-0.018479913473129272,0.013192335143685341,-0.0004630538751371205,-0.010156190022826195
0.028258785605430603,0.005578693933784962,-0.01796771213412285,0.013002944178879261,-0.0004877439932897687,-0.01000319141894579
0.028445394709706306,0.00565542746335268,-0.01778406836092472,0.012748696841299534,-0.0004653217038139701,-0.010278759524226189
0.028445394709706306,0.00565542746335268,-0.01778406836092472,0.012748696841299534,-0.0004653217038139701,-0.010278759524226189
0.025897661224007607,0.005062558688223362,-0.018397394567728043,0.01281879935413599,-0.0004960910882800817,-0.010530605912208557
0.028782038018107414,0.005237062461674213,-0.017872314900159836,0.012248257175087929,-0.0005256118602119386,-0.010480210185050964
0.028321141377091408,0.005465657450258732,-0.01816156506538391,0.012716786935925484,-0.0006205009995028377,-0.010615319013595581
0.02805762179195881,0.005098934751003981,-0.018159668892621994,0.012581665068864822,-0.0006518353475257754,-0.01074991561472416
0.02801799587905407,0.005552338436245918,-0.017800550907850266,0.013667694292962551,-0.0006829689955338836,-0.010798126459121704
0.02824275754392147,0.005187502596527338,-0.018305016681551933,0.013156833127140999,-0.0007006417727097869,-0.011217894032597542
0.028129685670137405,0.0048929378390312195,-0.01814449578523636,0.013416863977909088,-0.0007086581899784505,-0.010668407194316387
0.028323117643594742,0.005141774192452431,-0.018042342737317085,0.013359508477151394,-0.0006646279944106936,-0.0106873894110322
0.02813849411904812,0.005024814512580633,-0.018614476546645164,0.013733488507568836,-0.0006108127417974174,-0.011138307861983776
0.028849370777606964,0.005273692775517702,-0.017939984798431396,0.01450214721262455,-0.0006319736130535603,-0.011076043359935284
0.028667045757174492,0.005703058559447527,-0.01810908131301403,0.014021476730704308,-0.0005602322635240853,-0.011158476583659649
0.02867116779088974,0.0051735821180045605,-0.018557582050561905,0.013629515655338764,-0.0005712371203117073,-0.011155628599226475
0.028740553185343742,0.005211818963289261,-0.017984312027692795,0.013618015684187412,-0.0005799379432573915,-0.01091322023421526
0.028628669679164886,0.005094849970191717,-0.018262842670083046,0.013617537915706635,-0.0005680527538061142,-0.01085333526134491
0.02858913689851761,0.00544630317017436,-0.018308358266949654,0.013183464296162128,-0.0005929499748162925,-0.010201909579336643
0.02870749495923519,0.005811640527099371,-0.01822047121822834,0.01424411404877901,-0.0005521543207578361,-0.010441341437399387
0.028931783512234688,0.0051351855508983135,-0.017911292612552643,0.014355869963765144,-0.0005088784964755177,-0.01118902675807476
0.029389934614300728,0.005036834627389908,-0.017975011840462685,0.014508122578263283,-0.0005274240975268185,-0.010787571780383587
0.029879624024033546,0.005110780708491802,-0.0185697004199028,0.014689252711832523,-0.0005397983477450907,-0.01078953966498375
0.02897730842232704,0.005204193294048309,-0.01856027916073799,0.014413947239518166,-0.00053203827701509,-0.010585865937173367
0.02808399498462677,0.005109729245305061,-0.018865328282117844,0.01466005016118288,-0.0005536368116736412,-0.011001551523804665
0.029129737988114357,0.005310824140906334,-0.018995320424437523,0.014535621739923954,-0.0005219223676249385,-0.010976588353514671
0.0296875461935997,0.004978373646736145,-0.01788407191634178,0.014835107140243053,-0.000490576378069818,-0.010575334541499615
0.028963973745703697,0.00528892083093524,-0.01821194402873516,0.014411147683858871,-0.0005592150846496224,-0.011073950678110123
0.0297421645373106,0.005551019683480263,-0.01865990273654461,0.014048253186047077,-0.0005786790861748159,-0.011252236552536488
0.030074845999479294,0.005082912743091583,-0.018035493791103363,0.013822118751704693,-0.0005435371422208846,-0.011052776128053665
0.030074845999479294,0.005082912743091583,-0.018035493791103363,0.013822118751704693,-0.0005435371422208846,-0.011052776128053665
0.02913166768848896,0.005095800384879112,-0.018814582377672195,0.014012792147696018,-0.000528477132320404,-0.010765226557850838
0.029030516743659973,0.0050453427247703075,-0.018236903473734856,0.014088760130107403,-0.0005483074928633869,-0.010944369249045849
0.029030516743659973,0.0050453427247703075,-0.018236903473734856,0.014088760130107403,-0.0005483074928633869,-0.010944369249045849
0.029987962916493416,0.005353409331291914,-0.01876654662191868,0.01416501309722662,-0.0005179126164875925,-0.010866011492908001
0.029443632811307907,0.004751577973365784,-0.018915539607405663,0.01410655491054058,-0.0005509617039933801,-0.011174359358847141
0.029443632811307907,0.004751577973365784,-0.018915539607405663,0.01410655491054058,-0.0005509617039933801,-0.011174359358847141
0.030294569209218025,0.004991781432181597,-0.01911228708922863,0.014063913375139236,-0.0005395890329964459,-0.010804420337080956
0.02984001114964485,0.00518416054546833,-0.01857120171189308,0.013733021914958954,-0.0004931362927891314,-0.010554074309766293
0.029749983921647072,0.004880385473370552,-0.01878870651125908,0.014274870976805687,-0.0005219695158302784,-0.010858583264052868
0.029826520010828972,0.004958145786076784,-0.01867077685892582,0.01374700479209423,-0.0005372660234570503,-0.010424710810184479
0.030068974941968918,0.00483203399926424,-0.018141446635127068,0.014138915576040745,-0.0005150696379132569,-0.010694017633795738
0.029968272894620895,0.00469810888171196,-0.018161343410611153,0.013665257953107357,-0.000569526688195765,-0.010999404825270176
0.029358599334955215,0.005167237017303705,-0.019443510100245476,0.014415535144507885,-0.0005124805611558259,-0.010058719664812088
0.029358599334955215,0.005167237017303705,-0.019443510100245476,0.014415535144507885,-0.0005124805611558259,-0.010058719664812088
0.030157683417201042,0.005035742186009884,-0.01880180835723877,0.014571945182979107,-0.0005008085863664746,-0.009659569710493088
0.029747329652309418,0.005382849834859371,-0.01865820400416851,0.01434607245028019,-0.0005244885105639696,-0.010331850498914719
0.029774954542517662,0.004735500551760197,-0.018534045666456223,0.01465893816202879,-0.0005052767810411751,-0.010606899857521057
0.03107355162501335,0.005379454232752323,-0.01850099116563797,0.014737198129296303,-0.0005044830031692982,-0.010379534214735031
0.03107355162501335,0.005379454232752323,-0.01850099116563797,0.014737198129296303,-0.0005044830031692982,-0.010379534214735031
0.03002764843404293,0.004775965120643377,-0.019373849034309387,0.01474037952721119,-0.0004615850921254605,-0.010386087000370026
0.029462549835443497,0.004411622416228056,-0.01914338394999504,0.014759844169020653,-0.000496918335556984,-0.010506868362426758
0.030629072338342667,0.004894144367426634,-0.018697651103138924,0.015272114425897598,-0.0004967635031789541,-0.010781565681099892
0.03116741217672825,0.005033060442656279,-0.019045310094952583,0.015320513397455215,-0.0004919826169498265,-0.01093671377748251
0.0302701648324728,0.004843540024012327,-0.018399491906166077,0.015400676056742668,-0.0005065299919806421,-0.010426679626107216
0.031689658761024475,0.00475712213665247,-0.018562469631433487,0.015139726921916008,-0.0004892685101367533,-0.010751619935035706
0.031125418841838837,0.0047483909875154495,-0.019223492592573166,0.01496557705104351,-0.0005818927311338484,-0.010253398679196835
0.031272128224372864,0.004881219007074833,-0.018846169114112854,0.014566784724593163,-0.0006215638131834567,-0.010148492641746998
0.030024129897356033,0.004775820765644312,-0.019106024876236916,0.014524010941386223,-0.0006323133711703122,-0.01040231715887785
0.030533606186509132,0.004803888499736786,-0.01895369589328766,0.014872880652546883,-0.0005941923009231687,-0.010666961781680584
0.031525541096925735,0.004839783068746328,-0.018083425238728523,0.015253310091793537,-0.0006164291989989579,-0.010903825983405113
0.031071767210960388,0.004818008281290531,-0.018396181985735893,0.015284824185073376,-0.0005722056375816464,-0.011097244918346405
0.031071767210960388,0.004818008281290531,-0.018396181985735893,0.015284824185073376,-0.0005722056375816464,-0.011097244918346405
0.030282411724328995,0.0046533807180821896,-0.01925349049270153,0.014605030417442322,-0.0006348512833938003,-0.011111793108284473
0.031205445528030396,0.004579837433993816,-0.018849356099963188,0.014729209244251251,-0.0005721311317756772,-0.011333960108458996
0.030903182923793793,0.0045796227641403675,-0.01899293065071106,0.01445690356194973,-0.0005827083368785679,-0.01145933847874403
0.03129572048783302,0.004608804825693369,-0.018973518162965775,0.014909567311406136,-0.0005464755231514573,-0.01143133919686079
0.03112984634935856,0.00461233127862215,-0.018345141783356667,0.014628670178353786,-0.0005745418020524085,-0.01135328970849514
0.03132181987166405,0.005129565019160509,-0.018715834245085716,0.015038966201245785,-0.0005311825661920011,-0.0112207205966115
0.031153645366430283,0.005046551581472158,-0.018846586346626282,0.014621980488300323,-0.0005552187794819474,-0.01054094173014164
0.031431131064891815,0.004515058360993862,-0.01874406635761261,0.01504342257976532,-0.0005528529873117805,-0.010768971405923367
0.031077682971954346,0.004383152816444635,-0.018919415771961212,0.014582933858036995,-0.0005250870599411428,-0.0115849943831563
0.03181009367108345,0.004949710797518492,-0.018536310642957687,0.015249602496623993,-0.0005413287435658276,-0.010828058235347271
0.03122655488550663,0.0045610275119543076,-0.019105657935142517,0.01538093388080597,-0.0005256073200143874,-0.010309688746929169
0.0314469113945961,0.004496657755225897,-0.01943112537264824,0.015287160873413086,-0.0005542508442886174,-0.010633313097059727
0.03130769357085228,0.004304477013647556,-0.018902018666267395,0.015692422166466713,-0.0005352122825570405,-0.011010133661329746
0.030212173238396645,0.004308498930186033,-0.01930621825158596,0.016130538657307625,-0.0006907923379912972,-0.011058812960982323
0.032169848680496216,0.0044109998270869255,-0.01880447193980217,0.015990139916539192,-0.0006701990496367216,-0.010847730562090874
0.03217672184109688,0.004327733535319567,-0.018525956198573112,0.015528997406363487,-0.0006858645938336849,-0.010883006267249584
0.031948622316122055,0.004536817315965891,-0.01879163272678852,0.015242165885865688,-0.0006292061880230904,-0.01139326486736536
0.03181181848049164,0.004606364760547876,-0.01863078400492668,0.015089866705238819,-0.000632633687928319,-0.010994349606335163
0.03209175541996956,0.004391327500343323,-0.019226284697651863,0.014509947039186954,-0.000598559679929167,-0.010664287023246288
0.03193451091647148,0.0043350099585950375,-0.0194439347833395,0.014843740500509739,-0.000594991841353476,-0.010892900638282299
0.03150971606373787,0.004540345631539822,-0.018830109387636185,0.015293595381081104,-0.0005624527111649513,-0.011329327709972858
0.03184359148144722,0.004602755419909954,-0.01908152736723423,0.016180967912077904,-0.0005886578001081944,-0.011214781552553177
0.03183308616280556,0.004378241952508688,-0.020027074962854385,0.01611529104411602,-0.0005849507870152593,-0.011098966933786869
0.03191692382097244,0.004324343986809254,-0.019837837666273117,0.01627946086227894,-0.0005718268221244216,-0.011673741042613983
0.03166302293539047,0.0042055342346429825,-0.01931554079055786,0.015570693649351597,-0.0005914982175454497,-0.011595398187637329
0.03166302293539047,0.0042055342346429825,-0.01931554079055786,0.015570693649351597,-0.0005914982175454497,-0.011595398187637329
0.031666167080402374,0.004324797540903091,-0.020815083757042885,0.01563630998134613,-0.000633160350844264,-0.01125540491193533
0.03207903727889061,0.004437194671481848,-0.020356087014079094,0.01536821573972702,-0.0006240305956453085,-0.0110829658806324
0.03324715793132782,0.0042958022095263,-0.01944795995950699,0.016234444454312325,-0.0006053639808669686,-0.011210910975933075
0.03255060687661171,0.0045351325534284115,-0.01969793066382408,0.016304245218634605,-0.0005869554006494582,-0.010972529649734497
0.030885186046361923,0.004298239480704069,-0.020438633859157562,0.01591760292649269,-0.0005970396450720727,-0.010847475379705429
0.03108649142086506,0.004014189355075359,-0.01976632885634899,0.01617763377726078,-0.0005637583672069013,-0.01092569436877966
0.03231564909219742,0.00424220273271203,-0.020188171416521072,0.015513919293880463,-0.0005544762243516743,-0.010715276934206486
0.03193292021751404,0.004481857642531395,-0.02026326023042202,0.015542594715952873,-0.000545194314327091,-0.011162304319441319
0.03294891491532326,0.004597260616719723,-0.019798025488853455,0.014852192252874374,-0.0005087894387543201,-0.010983627289533615
0.03360622748732567,0.004594732541590929,-0.020159883424639702,0.015496807172894478,-0.0004933358286507428,-0.011011849157512188
0.032764460891485214,0.004445832222700119,-0.020114950835704803,0.01558966189622879,-0.0005140070570632815,-0.011455477215349674
0.031567398458719254,0.004593400284647942,-0.01971649006009102,0.016151338815689087,-0.0005208120564930141,-0.011128583922982216
0.03273197263479233,0.004776068031787872,-0.020258747041225433,0.01591198332607746,-0.0005339720519259572,-0.011313446797430515
0.03206489607691765,0.004735293332487345,-0.020179707556962967,0.0157792828977108,-0.0005118971457704902,-0.011224200949072838
0.031840503215789795,0.004436515737324953,-0.019768813624978065,0.015369372442364693,-0.0005672562401741743,-0.01110061351209879
0.032524432986974716,0.0042808158323168755,-0.020270003005862236,0.016002409160137177,-0.0005784854874946177,-0.01183328777551651
0.032558124512434006,0.0044803195632994175,-0.0198522862046957,0.015828654170036316,-0.0006133546121418476,-0.011025582440197468
0.03241504356265068,0.004616295453161001,-0.01964549534022808,0.016279369592666626,-0.0006427849875763059,-0.011980947107076645
0.03255987539887428,0.004696532618254423,-0.020288288593292236,0.01605498045682907,-0.0006503128097392619,-0.01186838373541832
0.03208868205547333,0.004504299256950617,-0.020254535600543022,0.01618543080985546,-0.0006142071215435863,-0.012030287645757198
0.03181309625506401,0.0042618270963430405,-0.019748779013752937,0.015918711200356483,-0.0006786203593946993,-0.011496982537209988
0.03211439773440361,0.0044623143039643764,-0.01984979584813118,0.016137201339006424,-0.0006845410680398345,-0.011165871284902096
0.031842347234487534,0.004574348218739033,-0.020036088302731514,0.016064638271927834,-0.0006566912052221596,-0.010952594690024853
0.03228400647640228,0.0048483251594007015,-0.01961899735033512,0.015920035541057587,-0.0006602715002372861,-0.010972738265991211
0.03326630964875221,0.00479577062651515,-0.01943352073431015,0.016357025131583214,-0.0006176823517307639,-0.011236827820539474
0.03326630964875221,0.00479577062651515,-0.01943352073431015,0.016357025131583214,-0.0006176823517307639,-0.011236827820539474
0.03308895230293274,0.00480840727686882,-0.019926397129893303,0.01596224494278431,-0.0006385792512446642,-0.011137004010379314
0.03207565099000931,0.004643572028726339,-0.020105337724089622,0.016218632459640503,-0.0006717584910802543,-0.011630202643573284
0.031648166477680206,0.004644700791686773,-0.019287878647446632,0.01570318639278412,-0.0006119358586147428,-0.012280914932489395
0.03251377493143082,0.00451204227283597,-0.019905857741832733,0.016043370589613914,-0.0006404637824743986,-0.011906888335943222
0.032056089490652084,0.004864617250859737,-0.01989656873047352,0.015900427475571632,-0.0006488737417384982,-0.011989685706794262
0.03195358067750931,0.004785224795341492,-0.019068798050284386,0.0160510390996933,-0.0006082318141125143,-0.011667296290397644
0.03350197151303291,0.004863093141466379,-0.019505217671394348,0.015925494953989983,-0.0006296948995441198,-0.012002031318843365
0.03289152681827545,0.004705723375082016,-0.01985602267086506,0.015628812834620476,-0.0006457662093453109,-0.011954396963119507
0.03167033568024635,0.004708997905254364,-0.01958608813583851,0.01622666046023369,-0.0006175460875965655,-0.012106905691325665
0.032229214906692505,0.004775213077664375,-0.019635772332549095,0.015973221510648727,-0.0006476245471276343,-0.012287824414670467
0.03341927006840706,0.004829062148928642,-0.01996872015297413,0.016239410266280174,-0.0006311373435892165,-0.012129643931984901
0.03268471360206604,0.00469595193862915,-0.019589422270655632,0.015979185700416565,-0.0006122320191934705,-0.011831209994852543
0.032916758209466934,0.005136249121278524,-0.019694548100233078,0.01618213765323162,-0.0005869826418347657,-0.011689292266964912
0.0332978256046772,0.004845890216529369,-0.019716564565896988,0.016157718375325203,-0.000668944965582341,-0.011965985409915447
0.03310304135084152,0.004829047713428736,-0.019938187673687935,0.016013694927096367,-0.0006526234792545438,-0.011609351262450218
0.0333782322704792,0.004869605414569378,-0.020665353164076805,0.015936430543661118,-0.0006765148718841374,-0.012167749926447868
0.03336675092577934,0.004860014654695988,-0.019919663667678833,0.016146771609783173,-0.0006808853358961642,-0.011751948855817318
0.03280602768063545,0.005184886511415243,-0.019689468666911125,0.01563781499862671,-0.0006405215244740248,-0.01186315156519413
0.03300292417407036,0.005009984131902456,-0.019896594807505608,0.01605350710451603,-0.0006791496416553855,-0.012531232088804245
0.03347321227192879,0.004794566426426172,-0.019600363448262215,0.016105499118566513,-0.0006642632069997489,-0.012213817797601223
0.03365558385848999,0.005041740834712982,-0.019526313990354538,0.016573242843151093,-0.0006836699903942645,-0.012289268895983696
0.03366785869002342,0.004952244460582733,-0.020350614562630653,0.017277806997299194,-0.0006190615240484476,-0.012152636423707008
0.033406876027584076,0.00509673124179244,-0.02013447694480419,0.016800403594970703,-0.00062383251497522,-0.012100418098270893
0.033709943294525146,0.005560056772083044,-0.01921352557837963,0.01706342212855816,-0.0005865796119906008,-0.012185594998300076
0.033941447734832764,0.005398348439484835,-0.01992987096309662,0.016363348811864853,-0.0005378249334171414,-0.01226230151951313
0.033941447734832764,0.005398348439484835,-0.01992987096309662,0.016363348811864853,-0.0005378249334171414,-0.01226230151951313
0.03405887633562088,0.004860566463321447,-0.019673187285661697,0.015758665278553963,-0.0005247088265605271,-0.012032950296998024
0.03405887633562088,0.004860566463321447,-0.019673187285661697,0.015758665278553963,-0.0005247088265605271,-0.012032950296998024
0.03432484343647957,0.005193307995796204,-0.019443688914179802,0.016667451709508896,-0.0004863809735979885,-0.01224612258374691
0.034077323973178864,0.004917321261018515,-0.02021249197423458,0.016884146258234978,-0.0005159299471415579,-0.012484078295528889
0.03436398133635521,0.004878835286945105,-0.01949382945895195,0.016764478757977486,-0.0005190941737964749,-0.012481111101806164
0.03383220359683037,0.005195352248847485,-0.01939571462571621,0.016960686072707176,-0.0005482636042870581,-0.012097776867449284
0.03469415009021759,0.004838238470256329,-0.01957152783870697,0.01625010557472706,-0.0005417903885245323,-0.012022330425679684
0.0349053218960762,0.0044532776810228825,-0.02001301571726799,0.01705848053097725,-0.000710901920683682,-0.01236075721681118
0.03465798869729042,0.004853729624301195,-0.019730621948838234,0.017257986590266228,-0.0007893579313531518,-0.012453061528503895
0.0347273126244545,0.005066100973635912,-0.020046226680278778,0.017835700884461403,-0.0007918524788692594,-0.012424161657691002
0.035121940076351166,0.004762956406921148,-0.019763292744755745,0.01765357330441475,-0.0007276764954440296,-0.012428924441337585
0.034841082990169525,0.004928190726786852,-0.01925984025001526,0.016155892983078957,-0.0007404560456052423,-0.012510936707258224
0.034427009522914886,0.005212147254496813,-0.019833778962492943,0.0162487905472517,-0.0007955831824801862,-0.012421790510416031
0.03542475029826164,0.004644455853849649,-0.019816789776086807,0.016036489978432655,-0.0007957802154123783,-0.0126411821693182
0.03583205118775368,0.004622980952262878,-0.019161371514201164,0.016499195247888565,-0.000721208518370986,-0.01256415992975235
0.03394249826669693,0.0049057407304644585,-0.01996011473238468,0.016808371990919113,-0.0006651162984780967,-0.012718623504042625
0.03520321473479271,0.005320992320775986,-0.019494447857141495,0.017563458532094955,-0.0006759316311217844,-0.012390034273266792
0.03530978783965111,0.0049848719500005245,-0.019988948479294777,0.017224745824933052,-0.0006270856247283518,-0.01276654563844204
0.035351864993572235,0.004734288435429335,-0.020099323242902756,0.01722676120698452,-0.0005836881464347243,-0.012959232553839684
0.03632469102740288,0.004687098786234856,-0.019622430205345154,0.016732051968574524,-0.0005260998150333762,-0.01282049436122179
0.03634623810648918,0.005006942432373762,-0.019804012030363083,0.01634426787495613,-0.0005590232321992517,-0.012750946916639805
0.0340900681912899,0.004897075705230236,-0.019844012334942818,0.01687270775437355,-0.0005852390313521028,-0.012511702254414558
0.03495176136493683,0.0052739535458385944,-0.020085293799638748,0.016303814947605133,-0.0006020692526362836,-0.01246810331940651
0.03495176136493683,0.0052739535458385944,-0.020085293799638748,0.016303814947605133,-0.0006020692526362836,-0.01246810331940651
0.03541301563382149,0.004733053036034107,-0.019993087276816368,0.01657944731414318,-0.0008627654169686139,-0.013403288088738918
0.03541301563382149,0.004733053036034107,-0.019993087276816368,0.01657944731414318,-0.0008627654169686139,-0.013403288088738918
0.03528100252151489,0.005098535213619471,-0.01939907670021057,0.0167560912668705,-0.0008598457789048553,-0.01211288757622242
0.03528100252151489,0.005098535213619471,-0.01939907670021057,0.0167560912668705,-0.0008598457789048553,-0.01211288757622242
0.035460613667964935,0.0049500493332743645,-0.019462130963802338,0.016310138627886772,-0.0007918683695606887,-0.012321232818067074
0.0358557365834713,0.005003367550671101,-0.019503355026245117,0.01665814034640789,-0.0008189132204279304,-0.012716701254248619
0.03566061332821846,0.005304872523993254,-0.019145116209983826,0.01579042710363865,-0.0008312282152473927,-0.012958938255906105
0.03534460440278053,0.004973565228283405,-0.01967981457710266,0.01589471660554409,-0.0007939533679746091,-0.013427214697003365
0.03541748225688934,0.0047821891494095325,-0.019918151199817657,0.015560927800834179,-0.0007519688224419951,-0.01280142180621624
0.03679732233285904,0.005002428777515888,-0.019809585064649582,0.01651717722415924,-0.0007451772107742727,-0.012952352873980999
0.036517005413770676,0.005221458151936531,-0.019649364054203033,0.01708437129855156,-0.0006954660639166832,-0.012804178521037102
0.034252237528562546,0.005197538062930107,-0.02004445344209671,0.01750386506319046,-0.0006758908275514841,-0.012835653498768806
0.035071175545454025,0.005213233642280102,-0.019943928346037865,0.018097354099154472,-0.0007019876502454281,-0.01292437594383955
0.03642115741968155,0.004948731046169996,-0.02049444429576397,0.017862476408481598,-0.0007176819490268826,-0.013027086853981018
0.036162663251161575,0.00479778740555048,-0.020425992086529732,0.017860157415270805,-0.000724072044249624,-0.013363952748477459
0.03664429113268852,0.005178977735340595,-0.02053537778556347,0.01816858910024166,-0.0006777375820092857,-0.013230928219854832
0.036506202071905136,0.005083599127829075,-0.020853370428085327,0.017631947994232178,-0.0007326763588935137,-0.013251498341560364
0.035296931862831116,0.005535884294658899,-0.02096494287252426,0.01746702939271927,-0.0008038872620090842,-0.013381113298237324
0.03671868517994881,0.00477500120177865,-0.020579947158694267,0.017497319728136063,-0.0008160598808899522,-0.013669019564986229
0.036381274461746216,0.005053450353443623,-0.020345041528344154,0.01776812970638275,-0.0010738137643784285,-0.013520976528525352
0.03627884015440941,0.005051858257502317,-0.021086983382701874,0.016844693571329117,-0.0009809526382014155,-0.013556159101426601
0.03588024154305458,0.004828331060707569,-0.021510733291506767,0.016988417133688927,-0.0009640247444622219,-0.013309046626091003
0.03600725159049034,0.005356186535209417,-0.021043334156274796,0.01715458184480667,-0.0009009799687191844,-0.013400660827755928
0.0363457165658474,0.00553102046251297,-0.020505839958786964,0.017292240634560585,-0.0008463921258226037,-0.013483441434800625
0.03677956759929657,0.004690592177212238,-0.02141677774488926,0.017692282795906067,-0.0007750591030344367,-0.0136179868131876
0.036497265100479126,0.0043547931127250195,-0.021884309127926826,0.017141995951533318,-0.0006675118347629905,-0.013382156379520893
0.03620126098394394,0.0038543043192476034,-0.021358443424105644,0.017122164368629456,-0.0006890912191011012,-0.013499819673597813
0.036250028759241104,0.0034632873721420765,-0.02045629546046257,0.017333736643195152,-0.00061725580599159,-0.013619312085211277
0.036845870316028595,0.003662906587123871,-0.021116383373737335,0.017476821318268776,-0.000639916630461812,-0.013487251475453377
0.0368056446313858,0.0040608556009829044,-0.021129244938492775,0.01757875271141529,-0.0005859571974724531,-0.013664868660271168
0.03639080002903938,0.00446102861315012,-0.02040984109044075,0.017094384878873825,-0.0006075422279536724,-0.013742963783442974
0.03639080002903938,0.00446102861315012,-0.02040984109044075,0.017094384878873825,-0.0006075422279536724,-0.013742963783442974
0.03717292472720146,0.003883505705744028,-0.021264396607875824,0.017967108637094498,-0.0005784695968031883,-0.014207561500370502
0.03717292472720146,0.003883505705744028,-0.021264396607875824,0.017967108637094498,-0.0005784695968031883,-0.014207561500370502
0.03685537725687027,0.003895023139193654,-0.021138783544301987,0.017933528870344162,-0.0006098516169004142,-0.013942494057118893
0.0365191288292408,0.003920917399227619,-0.021302122622728348,0.018341930583119392,-0.0006373768555931747,-0.013603233732283115
0.03733374923467636,0.00421889265999198,-0.02182311750948429,0.019010387361049652,-0.0006288336007855833,-0.01401596050709486
0.03727748617529869,0.00421491451561451,-0.021392250433564186,0.019309934228658676,-0.0009677486959844828,-0.013492543250322342
0.037258781492710114,0.003990314435213804,-0.021117502823472023,0.019227396696805954,-0.0009954439010471106,-0.013454481028020382
0.03753335028886795,0.0038913434837013483,-0.021520670503377914,0.0185170229524374,-0.0009682716918177903,-0.013510267250239849
0.03758687525987625,0.0034448415972292423,-0.021824507042765617,0.01793486811220646,-0.0008855455671437085,-0.013563578948378563
0.03780481964349747,0.003995409235358238,-0.021673008799552917,0.01796833798289299,-0.0008916316437534988,-0.013688449747860432
0.03772034868597984,0.0042198700830340385,-0.021211497485637665,0.01740337535738945,-0.0008825125405564904,-0.014007505029439926
0.03781961649656296,0.004212027881294489,-0.02214782126247883,0.018698232248425484,-0.0007861505728214979,-0.013803225941956043
0.03768296167254448,0.004023244604468346,-0.02188469097018242,0.018137069419026375,-0.0007752099190838635,-0.013527900911867619
0.037761323153972626,0.004222976043820381,-0.021903418004512787,0.018276942893862724,-0.0007202430278994143,-0.013757453300058842
0.03853675723075867,0.0044253068044781685,-0.02218351699411869,0.017928143963217735,-0.0006549939862452447,-0.01418997161090374
0.0393802635371685,0.00418468564748764,-0.02230827324092388,0.018709497526288033,-0.0005726878880523145,-0.014414154924452305
0.0377674363553524,0.00395961944013834,-0.02231166884303093,0.018841486424207687,-0.0006020944565534592,-0.014281519688665867
0.03726143762469292,0.0037980445194989443,-0.02221415936946869,0.017924372106790543,-0.0006318012601695955,-0.013931631110608578
0.038574665784835815,0.0042666541412472725,-0.021811721846461296,0.01762649230659008,-0.0006582880741916597,-0.013883007690310478
0.03803557530045509,0.004135428462177515,-0.022048119455575943,0.017175734043121338,-0.0009186030947603285,-0.013526569120585918
0.03926386684179306,0.0044001685455441475,-0.022182082757353783,0.01740482822060585,-0.000930305162910372,-0.013641666620969772
