davideferrari95/blind_handover_controller/data/Test 278 - [2024-02-08 -- 13-52-12]/joint_states_data.csv
shoulder_pan_joint,shoulder_lift_joint,elbow_joint,wrist_1_joint,wrist_2_joint,wrist_3_joint
0.004431679844856262,0.009728771634399891,-0.011615585535764694,0.003063663374632597,-5.903595592826605e-05,0.005439881235361099
0.004602654837071896,0.00949875172227621,-0.011421535164117813,0.0034338710829615593,-5.827147833770141e-05,0.005536114796996117
0.004602654837071896,0.00949875172227621,-0.011421535164117813,0.0034338710829615593,-5.827147833770141e-05,0.005536114796996117
0.004234215244650841,0.00911079440265894,-0.011082509532570839,0.0032164976000785828,-5.75265585212037e-05,0.005712483078241348
0.004234215244650841,0.00911079440265894,-0.011082509532570839,0.0032164976000785828,-5.75265585212037e-05,0.005712483078241348
0.004451912362128496,0.009966881945729256,-0.011258985847234726,0.0032727287616580725,-5.680044705513865e-05,0.0054173520766198635
0.004564623348414898,0.00894312746822834,-0.010631008073687553,0.003283429890871048,-5.6092416343744844e-05,0.005260496865957975
0.004683784209191799,0.00968407653272152,-0.011086005717515945,0.0031345048919320107,-5.5401891586370766e-05,0.004987175110727549
0.0047217258252203465,0.009394675493240356,-0.011387667618691921,0.0030598617158830166,-5.472808697959408e-05,0.005156406667083502
0.00440317764878273,0.009405198507010937,-0.010475952178239822,0.002991496818140149,-5.407051503425464e-05,0.005561296362429857
0.004199516028165817,0.009130189195275307,-0.011286154389381409,0.0030838986858725548,-5.2801657147938386e-05,0.005734906531870365
0.004311713855713606,0.009326181374490261,-0.010916666127741337,0.003027542494237423,-5.218925070948899e-05,0.004712071735411882
0.004785777535289526,0.00911736860871315,-0.01093538012355566,0.0027146078646183014,-5.159093052498065e-05,0.00431096600368619
0.0046914988197386265,0.008748846128582954,-0.01027530524879694,0.0026794399600476027,-5.100618727738038e-05,0.004681938327848911
0.004697553813457489,0.009772231802344322,-0.011098911985754967,0.002620815532281995,-5.043451892561279e-05,0.005469955503940582
0.004416243173182011,0.008694780990481377,-0.011474107392132282,0.0024659913033246994,-4.9875536205945536e-05,0.005283296573907137
0.00435106223449111,0.00861078780144453,-0.01058883871883154,0.0025498373433947563,-6.424547336791875e-06,0.005702850874513388
0.0046790484338998795,0.008924330584704876,-0.01143869198858738,0.002707251813262701,-4.194770042431628e-07,0.005256629083305597
0.004791544284671545,0.00849952083081007,-0.010919878259301186,0.002953646006062627,-2.738885029884841e-08,0.00497956620529294
0.0048795901238918304,0.00879895780235529,-0.010876868851482868,0.0028525933157652617,-1.7882961778070694e-09,0.004794018808752298
0.004435374867171049,0.008649028837680817,-0.011069487780332565,0.0028779134154319763,-1.1676296041152057e-10,0.0046769059263169765
0.004410828463733196,0.008789833635091782,-0.01035535428673029,0.002678113989531994,-7.623787018351535e-12,0.004731023218482733
0.004646932240575552,0.008743233978748322,-0.011237125843763351,0.002408565953373909,-4.977788472214362e-13,0.005055255256593227
0.004670580383390188,0.008466869592666626,-0.011494350619614124,0.0022772119846194983,-3.250139957514109e-14,0.005166798364371061
0.004790176171809435,0.008820826187729836,-0.010824469849467278,0.0023206486366689205,-2.1221091239641146e-15,0.005128626246005297
0.0045804306864738464,0.008704610168933868,-0.011141454800963402,0.002300927182659507,-1.385585759541445e-16,0.00540481973439455
0.004959470126777887,0.00846276804804802,-0.011713013984262943,0.002426360733807087,-9.046885112840427e-18,0.0051630111411213875
0.004808248486369848,0.00898967869579792,-0.01189440581947565,0.002518008928745985,-5.906969649532652e-19,0.005611405707895756
0.004858960397541523,0.008979765698313713,-0.011417779140174389,0.002472809050232172,-3.8568291261959393e-20,0.005679318215698004
0.004375313874334097,0.008801896125078201,-0.011099479161202908,0.0025791646912693977,-2.518233840953702e-21,0.005371359176933765
0.004399542231112719,0.009214767254889011,-0.01120805460959673,0.0026746061630547047,-1.6442266975022448e-22,0.005008499138057232
0.00514037162065506,0.008787482976913452,-0.010860015638172626,0.002652272814884782,-1.0735625414092665e-23,0.0048886691220104694
0.004957291297614574,0.009214994497597218,-0.010996677912771702,0.0028812524396926165,-7.0095961366643175e-25,0.0051344456151127815
0.004430599510669708,0.008650019764900208,-0.011274543590843678,0.0026869303546845913,-4.5767651286998544e-26,0.0053366245701909065
0.005095344968140125,0.00908640306442976,-0.010587290860712528,0.0026498516090214252,-2.9883006351024343e-27,0.00546475313603878
0.005095344968140125,0.00908640306442976,-0.010587290860712528,0.0026498516090214252,-2.9883006351024343e-27,0.00546475313603878
0.00478479964658618,0.008767455816268921,-0.01089872233569622,0.0027693475130945444,-1.2739593247884078e-29,0.0051453267224133015
0.0046422542072832584,0.009846673347055912,-0.010503847151994705,0.0027521010488271713,-8.318044410034439e-31,0.005201432853937149
0.0052573662251234055,0.008966498076915741,-0.011320550926029682,0.0026082396507263184,-5.431088941583007e-32,0.005127337761223316
0.0051233721897006035,0.008576170541346073,-0.011045141145586967,0.002606362337246537,-3.5461130734416255e-33,0.005368089769035578
0.004880471155047417,0.008811067789793015,-0.011193455196917057,0.0027160157915204763,-2.3153583658451976e-34,0.005161048844456673
0.004788315389305353,0.008733991533517838,-0.011120373383164406,0.0028250159230083227,-1.5117635083432705e-35,0.00495095644146204
0.004616208840161562,0.008964267559349537,-0.010596426203846931,0.0029133830685168505,-9.870734723900788e-37,0.005490690935403109
0.004629397299140692,0.008656475692987442,-0.011140411719679832,0.003102423856034875,-6.444884967766457e-38,0.005440254230052233
0.005369548685848713,0.008703786879777908,-0.010988627560436726,0.003097115783020854,-4.20804884162271e-39,0.005313035100698471
0.005093778483569622,0.008803600445389748,-0.010678303427994251,0.0027128965593874454,-2.7475539249709553e-40,0.005190007854253054
0.005107336211949587,0.008526727557182312,-0.0117087597027421,0.002691209316253662,-1.7939422940286308e-41,0.005142198409885168
0.005021739285439253,0.008570294827222824,-0.01111188717186451,0.002632889896631241,-1.171485516175547e-42,0.005372525658458471
0.004862621892243624,0.008733054623007774,-0.01084168441593647,0.0026945783756673336,-7.707141553786494e-44,0.00520000234246254
0.004848503973335028,0.00860860850661993,-0.011687288992106915,0.0027561706956475973,-5.605193857299268e-45,0.005172283388674259
0.005176296457648277,0.008829206228256226,-0.011532237753272057,0.002903005573898554,-0.0,0.005395748186856508
0.005454638972878456,0.009105810895562172,-0.011466972529888153,0.0027830887120217085,-0.0,0.005571868270635605
0.005134838633239269,0.008674327284097672,-0.011015175841748714,0.00278663937933743,-0.0,0.005286671221256256
0.00515661621466279,0.00845638569444418,-0.010772977955639362,0.0026592642534524202,-0.0,0.005311088170856237
0.0050778635777533054,0.008784676901996136,-0.01110865082591772,0.0028526883106678724,-0.0,0.0054626623168587685
0.004979581106454134,0.008629634976387024,-0.010992376133799553,0.00290397135540843,-0.0,0.005398777313530445
0.005323996767401695,0.008317711763083935,-0.011508459225296974,0.00263509270735085,-0.0,0.005406334064900875
0.005136004649102688,0.00837070494890213,-0.011340053752064705,0.002628219546750188,-0.0,0.005074139218777418
0.005153084173798561,0.008839336223900318,-0.011563382111489773,0.0024341722019016743,-0.0,0.004791838116943836
0.005251668859273195,0.008429897017776966,-0.011926650069653988,0.002364004496484995,-0.0,0.005211839452385902
0.004943445324897766,0.008479083888232708,-0.01111255306750536,0.002514769323170185,-0.0,0.004686431027948856
0.005394187290221453,0.008981834165751934,-0.011563017964363098,0.0025443003978580236,-0.0,0.004618585109710693
0.005394187290221453,0.008981834165751934,-0.011563017964363098,0.0025443003978580236,-0.0,0.004618585109710693
0.005321689881384373,0.008789781481027603,-0.01161324605345726,0.0024371107574552298,-0.0,0.0050893509760499
0.005256579257547855,0.008658351376652718,-0.011112654581665993,0.002370458794757724,-0.0,0.004844293929636478
0.005217754747718573,0.008770674467086792,-0.01091277040541172,0.0022739556152373552,-0.0,0.005123017821460962
0.005050759296864271,0.0083323884755373,-0.010962986387312412,0.002291219076141715,-0.0,0.0053732916712760925
0.005808225832879543,0.008230217732489109,-0.01140240952372551,0.0022324961610138416,-0.0,0.005375026259571314
0.005363135132938623,0.00896336417645216,-0.010884164832532406,0.0022415174171328545,-0.0,0.005919319577515125
0.005467339418828487,0.008524450473487377,-0.012100647203624249,0.002145708305761218,-0.0,0.00533519359305501
0.005182978697121143,0.008275732398033142,-0.010938415303826332,0.002311479998752475,-0.0,0.004715422634035349
0.005011743400245905,0.00895678997039795,-0.011312942951917648,0.0026141582056879997,-0.0,0.00473471125587821
0.005639321636408567,0.008565064519643784,-0.01131325401365757,0.002503505442291498,-0.0,0.0048892502672970295
0.005965888034552336,0.008333303034305573,-0.010271199978888035,0.00252657663077116,-0.0,0.005143754184246063
0.005859775934368372,0.008673598058521748,-0.01085309311747551,0.002328435191884637,-0.0,0.005535425618290901
0.005253078415989876,0.009176715277135372,-0.010947184637188911,0.0022742582950741053,-0.0,0.005154917947947979
0.005210754927247763,0.009187876246869564,-0.010683488100767136,0.00262639787979424,-0.0,0.0051164343021810055
0.005104017909616232,0.008209161460399628,-0.011266243644058704,0.002462645061314106,-0.0,0.005186973139643669
0.005863790865987539,0.008868670091032982,-0.01128617487847805,0.002399976598098874,-0.0,0.005140414461493492
0.005531552247703075,0.009217309765517712,-0.010453368537127972,0.002457441994920373,-0.0,0.005688776262104511
0.005131994374096394,0.00817012321203947,-0.010948085226118565,0.0026669749058783054,-0.0,0.005683775991201401
0.005301272496581078,0.008458944037556648,-0.010609897784888744,0.002993267960846424,-0.0,0.005254467949271202
0.0050152624025940895,0.008636786602437496,-0.011050162836909294,0.0028465669602155685,-0.0,0.004931486211717129
0.005509831942617893,0.008476602844893932,-0.010913413017988205,0.0026837752666324377,-0.0,0.00497200945392251
0.005730644799768925,0.008655183017253876,-0.010489840060472488,0.0023747130762785673,-0.0,0.004989154636859894
0.0055787041783332825,0.00917854718863964,-0.011293049901723862,0.002417916664853692,-0.0,0.0052702296525239944
0.004973154049366713,0.008435253985226154,-0.010447094216942787,0.0026057129725813866,-0.0,0.005582991987466812
0.004830236546695232,0.008708392269909382,-0.010385483503341675,0.002722047036513686,-0.0,0.005164563190191984
0.0048322053626179695,0.009038594551384449,-0.011147711426019669,0.0026465686969459057,-0.0,0.00485965795814991
0.005180506967008114,0.008699026890099049,-0.010274752974510193,0.002745614154264331,-0.0,0.005274258553981781
0.005180506967008114,0.008699026890099049,-0.010274752974510193,0.002745614154264331,-0.0,0.005274258553981781
0.00490217562764883,0.008467004634439945,-0.01079495158046484,0.002667368156835437,-0.0,0.006194989196956158
0.005153541918843985,0.009223016910254955,-0.010198301635682583,0.002890986856073141,-0.0,0.0058355932123959064
0.005036894232034683,0.008670301176607609,-0.010656975209712982,0.0028336248360574245,-0.0,0.005303016863763332
0.004835927858948708,0.00858176127076149,-0.010788596235215664,0.0027480763383209705,-0.0,0.005016312003135681
0.005131767131388187,0.009458476677536964,-0.010777825489640236,0.0025702365674078465,-0.0,0.004816223401576281
0.005033789202570915,0.008894271217286587,-0.01098612230271101,0.0024380527902394533,-0.0,0.005195430014282465
0.005330650135874748,0.008634094148874283,-0.010927816852927208,0.0023149463813751936,-0.0,0.005300763063132763
0.005641312338411808,0.008974006399512291,-0.010141031816601753,0.002434472320601344,-0.0,0.0058463397435843945
0.0052309175953269005,0.009028206579387188,-0.011091480031609535,0.0026358284521847963,-0.0,0.005419720429927111
0.005065863486379385,0.008508117869496346,-0.010772916488349438,0.0027445531450212,-0.0,0.004961190279573202
0.005103353410959244,0.00855282973498106,-0.010635711252689362,0.0025375676341354847,-0.0,0.005125782452523708
0.005696125328540802,0.008836574852466583,-0.01069854386150837,0.002523113042116165,-0.0,0.005285127554088831
0.005344836041331291,0.0084148570895195,-0.010210506618022919,0.0024145597126334906,-0.0,0.005429071839898825
0.00572972372174263,0.008132890798151493,-0.010635916143655777,0.0024888187181204557,-0.0,0.0055491444654762745
0.005313838366419077,0.008701802231371403,-0.010152846574783325,0.0024549122899770737,-0.0,0.005180428735911846
0.00494844326749444,0.008685835637152195,-0.010516264475882053,0.0023039421066641808,-0.0,0.005027036648243666
0.005610458552837372,0.008399705402553082,-0.010320520959794521,0.002324086846783757,-0.0,0.005019201897084713
0.00558846490457654,0.009660119190812111,-0.01039754319936037,0.002240734873339534,-0.0,0.00574485631659627
0.006005416624248028,0.008494744077324867,-0.009870896115899086,0.0023667318746447563,-0.0,0.005793362390249968
0.006005416624248028,0.008494744077324867,-0.009870896115899086,0.0023667318746447563,-0.0,0.005793362390249968
0.006005416624248028,0.008494744077324867,-0.009870896115899086,0.0023667318746447563,-0.0,0.005793362390249968
0.005623814649879932,0.007764790207147598,-0.009712091647088528,0.0024392111226916313,-0.0,0.005470143631100655
0.0054962774738669395,0.008093063719570637,-0.009318050928413868,0.002619159407913685,-0.0,0.005013450048863888
0.005211214534938335,0.00825940165668726,-0.009860540740191936,0.002574593061581254,-0.0,0.00537809357047081
0.005780267994850874,0.007847453467547894,-0.010210474021732807,0.0025164035614579916,-0.0,0.005189846269786358
0.005780267994850874,0.007847453467547894,-0.010210474021732807,0.0025164035614579916,-0.0,0.005189846269786358
0.005554991774260998,0.007879072800278664,-0.00968998484313488,0.002739705378189683,-0.0,0.005258690100163221
0.005897440481930971,0.008042735978960991,-0.01038699597120285,0.002749755745753646,-0.0,0.005033745430409908
0.005510442424565554,0.007582809776067734,-0.009754626080393791,0.002345205983147025,-0.0,0.005584556143730879
0.005510442424565554,0.007582809776067734,-0.009754626080393791,0.002345205983147025,-0.0,0.005584556143730879
0.00543205626308918,0.00766390934586525,-0.010335993021726608,0.0023671439848840237,-0.0,0.005595871713012457
0.005741519387811422,0.00746106868609786,-0.010207605548202991,0.002310005947947502,-0.0,0.005758767016232014
0.005315147805958986,0.008071365766227245,-0.009969765320420265,0.00245640124194324,-0.0,0.0054511455819010735
0.005345596000552177,0.008040045388042927,-0.011050321161746979,0.002349449321627617,-0.0,0.005402578040957451
0.005679409485310316,0.007680421229451895,-0.010192814283072948,0.0024468302726745605,-0.0,0.005205957684665918
0.005716424901038408,0.007360869087278843,-0.009656781330704689,0.00236704433336854,-0.0,0.005402951966971159
0.005743857007473707,0.007384782191365957,-0.010571490041911602,0.002346459776163101,-0.0,0.005599409807473421
0.005623897537589073,0.008119705133140087,-0.010506054386496544,0.002619153121486306,-0.0,0.005544053390622139
0.005802525207400322,0.007910529151558876,-0.010430052876472473,0.002759262453764677,-0.0,0.005512589123100042
0.005682732909917831,0.007411928381770849,-0.010405712760984898,0.0027121040038764477,-0.0,0.005604869686067104
0.00578960869461298,0.007635825779289007,-0.01022951677441597,0.00254314043559134,-0.0,0.005769398994743824
0.006221974268555641,0.007269652560353279,-0.010341375134885311,0.00240130303427577,-0.0,0.0057392967864871025
0.0056295874528586864,0.0074656447395682335,-0.011040933430194855,0.0025067352689802647,-0.0,0.005386142525821924
0.006005038507282734,0.007748179603368044,-0.010638052597641945,0.0026062256656587124,-0.0,0.005698584020137787
0.005949775222688913,0.007611182052642107,-0.010134932585060596,0.002541964640840888,-0.0,0.005721843335777521
0.005949775222688913,0.007611182052642107,-0.010134932585060596,0.002541964640840888,-0.0,0.005721843335777521
0.0056583764962852,0.0076302229426801205,-0.010963069275021553,0.0029729597736150026,-0.0,0.005538078956305981
0.0056583764962852,0.0076302229426801205,-0.010963069275021553,0.0029729597736150026,-0.0,0.005538078956305981
0.00591196259483695,0.00822541955858469,-0.01058020256459713,0.0030653425492346287,-0.0,0.005408836994320154
0.006543691735714674,0.008482270874083042,-0.010943065397441387,0.00283982465043664,-0.0,0.0051382165402174
0.0061836750246584415,0.007743577007204294,-0.01036817580461502,0.0026068829465657473,-0.0,0.005761690437793732
0.005723664537072182,0.008088113740086555,-0.011156822554767132,0.002490423619747162,-0.0,0.0057221828028559685
0.005967793054878712,0.007686034310609102,-0.01025433000177145,0.00262622837908566,-0.0,0.00560597563162446
0.006052997428923845,0.007601461838930845,-0.011082067154347897,0.0027008806355297565,-0.0,0.0059758638963103294
0.0061399429105222225,0.007603215053677559,-0.010882774367928505,0.0026259629521518946,-0.0,0.005527500994503498
0.0064366706646978855,0.00834699161350727,-0.010832054540514946,0.0027481140568852425,-0.0,0.005592840723693371
0.006118644494563341,0.008438711985945702,-0.011104520410299301,0.0028401289600878954,-0.0,0.005714180879294872
0.005887006875127554,0.007874289527535439,-0.010364020243287086,0.002930020447820425,-0.0,0.005803248845040798
0.006268783006817102,0.008167929947376251,-0.010667606256902218,0.002839665627107024,-0.0,0.005485009402036667
0.006313073914498091,0.008201553486287594,-0.009642371907830238,0.002992713125422597,-0.0,0.005323204677551985
0.006336704362183809,0.007460528053343296,-0.011057354509830475,0.0029505763668566942,-0.0,0.005386069882661104
0.005765486042946577,0.007413923274725676,-0.011840717867016792,0.0029193712398409843,-0.0,0.006108833011239767
0.00575981056317687,0.008206145837903023,-0.011396536603569984,0.002798780333250761,-0.0,0.005975011736154556
0.006688636261969805,0.008295220322906971,-0.010258444584906101,0.003035660134628415,-0.0,0.005767867900431156
0.006304390728473663,0.007618175819516182,-0.011112536303699017,0.003125993302091956,-0.0,0.00574546679854393
0.006059706676751375,0.00792414229363203,-0.010815486311912537,0.002973661059513688,-0.0,0.005821764934808016
0.005974391475319862,0.008246932178735733,-0.01039279904216528,0.0027405540458858013,-0.0,0.0060879746451973915
0.00580128887668252,0.00816185213625431,-0.010477324947714806,0.0026888097636401653,-0.0,0.005706463009119034
0.006168568041175604,0.007861125282943249,-0.010345079936087132,0.002791123930364847,-0.0,0.005954738240689039
0.006358809303492308,0.008312493562698364,-0.010652662254869938,0.0033646102529019117,-0.0,0.005879518575966358
0.006028912495821714,0.007806010078638792,-0.010560345835983753,0.003242969512939453,-0.0,0.006026109680533409
0.006305435672402382,0.007485206704586744,-0.010316260159015656,0.0030069027561694384,-0.0,0.005722640547901392
0.005782551132142544,0.007118341512978077,-0.011051800101995468,0.002930818125605583,-0.0,0.006065364461392164
0.005782551132142544,0.007118341512978077,-0.011051800101995468,0.002930818125605583,-0.0,0.006065364461392164
0.006701289210468531,0.008242788724601269,-0.010260118171572685,0.0032556948717683554,-0.0,0.005744874011725187
0.006701289210468531,0.008242788724601269,-0.010260118171572685,0.0032556948717683554,-0.0,0.005744874011725187
0.006008741445839405,0.007628843188285828,-0.011028178036212921,0.003186512505635619,-0.0,0.005975762382149696
0.005956263747066259,0.007193003781139851,-0.010009068064391613,0.0030850013718008995,-0.0,0.006083137821406126
0.006588533520698547,0.007716875057667494,-0.010713381692767143,0.0032590243499726057,-0.0,0.006549849174916744
0.0061958893202245235,0.007428022101521492,-0.0100918710231781,0.0034684520214796066,-0.0,0.006014327984303236
0.006458161398768425,0.007193407043814659,-0.010541515424847603,0.0032805604860186577,-0.0,0.005737455561757088
0.006506317760795355,0.007555088028311729,-0.01084750983864069,0.0031330205965787172,-0.0,0.006449384149163961
0.00609198771417141,0.008160604164004326,-0.010010586120188236,0.0028728675097227097,-0.0,0.006418235134333372
0.0067062899470329285,0.007499286439269781,-0.010625643655657768,0.0028603901155292988,-0.0,0.006504721939563751
0.006869753822684288,0.007916038855910301,-0.010625476948916912,0.003118183696642518,-0.0,0.0063509526662528515
0.006608451716601849,0.007974304258823395,-0.01005100179463625,0.0031076495070010424,-0.0,0.0059495833702385426
0.006264171563088894,0.007799350190907717,-0.010753859765827656,0.002986840670928359,-0.0,0.006239226553589106
0.0066149234771728516,0.007409232202917337,-0.010861868970096111,0.0027761622332036495,-0.0,0.006501812022179365
0.006787829101085663,0.007129298988729715,-0.010066415183246136,0.002938111312687397,-0.0,0.006359259597957134
0.0069053941406309605,0.007658901158720255,-0.010849622078239918,0.0029794650617986917,-0.0,0.006304638925939798
0.006599900778383017,0.00766068696975708,-0.010695982724428177,0.002953605493530631,-0.0,0.0063245887868106365
0.006237877532839775,0.007492027711123228,-0.010357572697103024,0.0027611455880105495,-0.0,0.006398029625415802
0.006750698201358318,0.007432486861944199,-0.01080771442502737,0.002919611055403948,-0.0,0.0062460023909807205
0.0069085597060620785,0.007988257333636284,-0.010315262712538242,0.0030186085496097803,-0.0,0.00648819375783205
0.006496882066130638,0.007518424186855555,-0.010456161573529243,0.0030615360010415316,-0.0,0.006617796141654253
0.0064249285496771336,0.00715850293636322,-0.010574848391115665,0.0034089749678969383,-0.0,0.006307569332420826
0.006692489609122276,0.007158339489251375,-0.010338660329580307,0.0031677985098212957,-0.0,0.0063949269242584705
0.007018935400992632,0.007574586663395166,-0.011076959781348705,0.0031763208098709583,-0.0,0.006546164397150278
0.0068304045125842094,0.007344218902289867,-0.010919426567852497,0.00333491712808609,-0.0,0.006499406881630421
0.006776818074285984,0.007162229157984257,-0.010968229733407497,0.003281784476712346,-0.0,0.006155166309326887
0.006776818074285984,0.007162229157984257,-0.010968229733407497,0.003281784476712346,-0.0,0.006155166309326887
0.006806711200624704,0.007224365137517452,-0.01131454948335886,0.0031297903042286634,-0.0,0.006150567904114723
0.007549997419118881,0.007196035701781511,-0.011280364356935024,0.0031763575971126556,-0.0,0.006739762146025896
0.0067588165402412415,0.007249162998050451,-0.010497043840587139,0.0030610905960202217,-0.0,0.006401573307812214
0.006579695735126734,0.007386581506580114,-0.010697655379772186,0.0033230953849852085,-0.0,0.006173654459416866
0.0069173891097307205,0.007402520161122084,-0.010149545036256313,0.003314938861876726,-0.0,0.0061524538323283195
0.007301495876163244,0.007212821859866381,-0.0107651362195611,0.002865304471924901,-0.0,0.006832215003669262
0.007093958556652069,0.007239880971610546,-0.01007412001490593,0.002802882809191942,-0.0,0.0071046007797122
0.007506232243031263,0.0070745451375842094,-0.010646135546267033,0.0030557094141840935,-0.0,0.006427387241274118
0.0071770623326301575,0.007338881958276033,-0.010597622022032738,0.0033093991223722696,-0.0,0.006544961594045162
0.007095469161868095,0.007231241557747126,-0.010129294358193874,0.003397907130420208,-0.0,0.006719925440847874
0.008053717203438282,0.007195766549557447,-0.011775287799537182,0.0032033754978328943,-0.0,0.006609819829463959
0.007065588142722845,0.007316245697438717,-0.010590141639113426,0.0030574791599065065,-0.0,0.006036729086190462
0.008135750889778137,0.007773412391543388,-0.010635985992848873,0.003464542096480727,-0.0,0.006125297863036394
0.007699084002524614,0.007137571461498737,-0.010891509242355824,0.0033980298321694136,-0.0,0.006708973553031683
0.007520874030888081,0.007160035893321037,-0.010194269940257072,0.003235891927033663,-0.0,0.006786627229303122
0.0074472310952842236,0.007365263998508453,-0.010719621554017067,0.0031455419957637787,-0.0,0.006687877234071493
0.007530753966420889,0.008117987774312496,-0.010561598464846611,0.0034883387852460146,-0.0,0.006719306111335754
0.007597556337714195,0.007689342834055424,-0.010929478332400322,0.003472777782008052,-0.0,0.006710100919008255
0.007597556337714195,0.007689342834055424,-0.010929478332400322,0.003472777782008052,-0.0,0.006710100919008255
0.0070104883052408695,0.007131515070796013,-0.010989067144691944,0.00313370767980814,-0.0,0.006568980868905783
0.008174228481948376,0.007308764848858118,-0.010974284261465073,0.0032702996395528316,-0.0,0.0069573926739394665
0.007938142865896225,0.007389677222818136,-0.01108001358807087,0.0032022164668887854,-0.0,0.006660468876361847
0.007560184691101313,0.007345165126025677,-0.010461356490850449,0.003450722899287939,-0.0,0.007067123427987099
0.007411179132759571,0.007298988755792379,-0.011256218887865543,0.003567227628082037,-0.0,0.006882823538035154
0.007925295270979404,0.008062558248639107,-0.011326057836413383,0.0035646858159452677,-0.0,0.007022119592875242
0.007471466902643442,0.007234263699501753,-0.010192027315497398,0.0035456956829875708,-0.0,0.006976401433348656
0.0072335596196353436,0.007191069424152374,-0.011123331263661385,0.0033800401724874973,-0.0,0.007397239562124014
0.007292859721928835,0.008078919723629951,-0.010473215952515602,0.0034447889775037766,-0.0,0.007560654543340206
0.007842546328902245,0.00801762193441391,-0.010319151915609837,0.003694361774250865,-0.0,0.007161164656281471
0.007635190151631832,0.007723759859800339,-0.011011512018740177,0.0033836117945611477,-0.0,0.007126311305910349
0.007635190151631832,0.007723759859800339,-0.011011512018740177,0.0033836117945611477,-0.0,0.007126311305910349
0.007386441342532635,0.007451700512319803,-0.010477793402969837,0.003469460876658559,-0.0,0.006793015170842409
0.007459938060492277,0.007322942838072777,-0.01039374154061079,0.0032404714729636908,-0.0,0.007048789877444506
0.007667919155210257,0.00771612673997879,-0.010925781913101673,0.0034846391063183546,-0.0,0.007288935128599405
0.008024515584111214,0.007629948202520609,-0.010534764267504215,0.0038190565537661314,-0.0,0.0073911952786147594
0.007671094033867121,0.007546587847173214,-0.011175457388162613,0.0037929231766611338,-0.0,0.007242913357913494
0.008156671188771725,0.0077745346352458,-0.010512116365134716,0.0033522744197398424,-0.0,0.006783023942261934
0.007917223498225212,0.007234183140099049,-0.011012496426701546,0.003329033264890313,-0.0,0.007066509686410427
0.007541215047240257,0.007107125595211983,-0.010725118219852448,0.0035194824449718,-0.0,0.0069539775140583515
0.00759120611473918,0.006908297538757324,-0.010870471596717834,0.0034811014775186777,-0.0,0.007334202993661165
0.007952726446092129,0.0074522001668810844,-0.011184068396687508,0.0031593511812388897,-0.0,0.007440986577421427
0.007906499318778515,0.007576887495815754,-0.010993586853146553,0.0033030102495104074,-0.0,0.007493712939321995
0.00748457433655858,0.00687769427895546,-0.011643294245004654,0.0032463562674820423,-0.0,0.007043372839689255
0.008462638594210148,0.006884777452796698,-0.011759758926928043,0.004084608517587185,-0.0,0.007361477706581354
0.008615302853286266,0.007133820094168186,-0.010867105796933174,0.0041154227219522,-0.0,0.006822455208748579
0.007803856860846281,0.00720995431765914,-0.011023315601050854,0.003940805792808533,-0.0,0.0070062121376395226
0.007941434159874916,0.007277080789208412,-0.011961578391492367,0.003837033174932003,-0.0,0.006957671605050564
0.008370374329388142,0.0074029406532645226,-0.011915842071175575,0.0038152493070811033,-0.0,0.007737515028566122
0.00873146764934063,0.0076612671837210655,-0.011791597120463848,0.0038034517783671618,-0.0,0.007683726958930492
0.007961295545101166,0.007058512885123491,-0.011433102190494537,0.0038686287589371204,-0.0,0.007573909126222134
0.008263538591563702,0.007361089810729027,-0.012433655560016632,0.003974373918026686,-0.0,0.008019870147109032
0.008811362087726593,0.006809817161411047,-0.011210252530872822,0.004005171358585358,-0.0,0.008292188867926598
0.008518962189555168,0.00719965435564518,-0.011725005693733692,0.003886211896315217,-0.0,0.007961318828165531
0.008266200311481953,0.007183399982750416,-0.011785474605858326,0.003716749371960759,-0.0,0.0076414793729782104
0.008902974426746368,0.006734846625477076,-0.01135411486029625,0.0036215712316334248,-0.0,0.0075161391869187355
0.008618935942649841,0.006720231380313635,-0.011483184061944485,0.003630253253504634,-2.732979055508622e-06,0.0076088812202215195
0.008127747103571892,0.007032245863229036,-0.01161034032702446,0.003670739009976387,-1.7844399735622574e-07,0.007856619544327259
0.008127747103571892,0.007032245863229036,-0.01161034032702446,0.003670739009976387,-1.7844399735622574e-07,0.007856619544327259
0.008488192223012447,0.00775254936888814,-0.012009921483695507,0.003987054340541363,-1.1651116516020465e-08,0.007623129989951849
0.00900065153837204,0.007402210030704737,-0.011711478233337402,0.004216356668621302,-7.607346974580764e-10,0.00788048841059208
0.00843768659979105,0.006905518006533384,-0.010623550973832607,0.004397711716592312,-4.967053851556713e-11,0.007766944356262684
0.008330685086548328,0.00732636172324419,-0.011864274740219116,0.004227952565997839,-3.2431312409902935e-12,0.00742913456633687
0.008577480912208557,0.007033780682832003,-0.011789212934672832,0.0041822344064712524,-1.3825979037595647e-14,0.008038707077503204
0.008577480912208557,0.007033780682832003,-0.011789212934672832,0.0041822344064712524,-1.3825979037595647e-14,0.008038707077503204
0.009064248763024807,0.007622161880135536,-0.010784070938825607,0.003980354871600866,-5.894231626446249e-17,0.007584046572446823
0.009107437916100025,0.007599602919071913,-0.011423194780945778,0.004237489774823189,-3.84851239382339e-18,0.007352326065301895
0.008494663052260876,0.006879052147269249,-0.012376873753964901,0.004374309442937374,-2.512803577946876e-19,0.007969959639012814
0.008527589030563831,0.006436605472117662,-0.011472554877400398,0.004091477487236261,-1.640681079491106e-20,0.008101941086351871
0.00882238894701004,0.006940234452486038,-0.010906602256000042,0.004324815701693296,-1.0712475628185794e-21,0.008213224820792675
0.0088990218937397,0.007420279085636139,-0.010510293766856194,0.004403339698910713,-6.994480023441518e-23,0.007795574609190226
0.008472448214888573,0.0070612444542348385,-0.011548275128006935,0.004263585899025202,-4.566895246180375e-24,0.009065212681889534
0.009484407491981983,0.0069059040397405624,-0.011508375406265259,0.0038413633592426777,-2.9818565043233937e-25,0.008111966773867607
0.009127125144004822,0.006773162167519331,-0.011255013756453991,0.003671263810247183,-1.946938912666985e-26,0.007794632576406002
0.009537349455058575,0.00743945362046361,-0.011689584702253342,0.003835103241726756,-1.2712119857227394e-27,0.007798822596669197
0.009191840887069702,0.007288592867553234,-0.010584584437310696,0.00438388017937541,-8.300105651540325e-29,0.008301062509417534
0.00960020162165165,0.00736176036298275,-0.01125141978263855,0.004554033745080233,-5.419376151302204e-30,0.008093157783150673
0.008424476720392704,0.006915504578500986,-0.011112963780760765,0.0043139769695699215,-3.5384653365825344e-31,0.008424140512943268
0.008712065406143665,0.007053474895656109,-0.010814559645950794,0.00445765582844615,-2.3103649393113014e-32,0.00912978034466505
0.009388105943799019,0.007228611037135124,-0.011412558145821095,0.004235188942402601,-1.5085030842026104e-33,0.008314643986523151
0.009334116242825985,0.006926576606929302,-0.011115485802292824,0.003977639134973288,-9.849447650497013e-35,0.008149531669914722
0.008733265101909637,0.0067091952078044415,-0.01187377143651247,0.004274701699614525,-6.430985095935249e-36,0.008085622452199459
0.009067260660231113,0.0073419432155787945,-0.011109218001365662,0.004976746626198292,-4.198973584352234e-37,0.008741221390664577
0.009208053350448608,0.007382404524832964,-0.010753440670669079,0.004862606059759855,-2.741629515323483e-38,0.008188103325664997
0.009208053350448608,0.007382404524832964,-0.010753440670669079,0.004862606059759855,-2.741629515323483e-38,0.008188103325664997
0.00890640914440155,0.007182352244853973,-0.011455696076154709,0.00447865528985858,-1.7900887232517376e-39,0.008054539561271667
0.009440867230296135,0.007291965652257204,-0.011584878899157047,0.00410608621314168,-1.1687950231240434e-40,0.00822039321064949
0.00917989294975996,0.007407084573060274,-0.011303513310849667,0.003830480156466365,-0.0001129236479755491,0.008681090548634529
0.008881754241883755,0.007322845049202442,-0.011684171855449677,0.0040443530306220055,-0.00014134743832983077,0.008167318999767303
0.009656974114477634,0.006979075260460377,-0.011036444455385208,0.004638676065951586,-0.00013906748790759593,0.008145676925778389
0.009700854308903217,0.00761184049770236,-0.011712423525750637,0.004230759106576443,-0.000131105407490395,0.008499959483742714
0.009278659708797932,0.0076891761273145676,-0.011452081613242626,0.004206449259072542,-0.0001273939706152305,0.00838098768144846
0.009537373669445515,0.007037723902612925,-0.011717545799911022,0.004164315760135651,-0.00012388656614348292,0.008445104584097862
0.009250009432435036,0.007509099785238504,-0.010886174626648426,0.004380172584205866,-0.00012056706327712163,0.00904372800141573
0.009264838881790638,0.007801578845828772,-0.011511560529470444,0.004631644580513239,-0.00011742083734134212,0.008537032641470432
0.009502900764346123,0.00768305454403162,-0.011244102381169796,0.004750641994178295,-0.00011443457333371043,0.00851274561136961
0.009509795345366001,0.007514459080994129,-0.011146994307637215,0.004629343282431364,-0.00011159676796523854,0.008910276927053928
0.009893324226140976,0.007674829568713903,-0.011603442952036858,0.004256266634911299,-0.00010889609984587878,0.008687173947691917
0.01059584692120552,0.006826456636190414,-0.01148155890405178,0.004282139241695404,-0.00010632293560774997,0.009422377683222294
0.009313005954027176,0.007266411557793617,-0.011943476274609566,0.004493801388889551,-0.00010386889334768057,0.009258395060896873
0.009591811336576939,0.007231604773551226,-0.012139509432017803,0.0043040174059569836,-0.00010152525646844879,0.008905630558729172
0.01066320389509201,0.0067301527597010136,-0.011211900040507317,0.0042801424860954285,-0.00011401143274269998,0.008621065877377987
0.009961600415408611,0.006867662072181702,-0.0119812386110425,0.005043073557317257,-0.00011623523460002616,0.008986862376332283
0.010222798213362694,0.00712404353544116,-0.01154348161071539,0.005164375528693199,-0.00011408497084630653,0.009096212685108185
0.010505283251404762,0.007245851214975119,-0.01167665421962738,0.004764166660606861,-0.00011174414976267144,0.009235735051333904
0.00986646767705679,0.006732242647558451,-0.011984890326857567,0.004152653273195028,-0.000109479995444417,0.009015042334794998
0.010847240686416626,0.007112493738532066,-0.011404854245483875,0.004127143882215023,-0.00010730444046203047,0.009077243506908417
0.010519671253859997,0.00781959481537342,-0.01253048237413168,0.004599857609719038,-0.00010521360673010349,0.009140217676758766
0.010256647132337093,0.00698855658993125,-0.011411279439926147,0.004939281847327948,-0.00010320280853193253,0.008430146612226963
0.010142948478460312,0.006917489692568779,-0.011364581994712353,0.004852666053920984,-0.00010126732377102599,0.008805802091956139
0.010138030163943768,0.006851241923868656,-0.011358598247170448,0.005135467741638422,-9.940319432644174e-05,0.008844411000609398
0.010410225950181484,0.00723333889618516,-0.011163433082401752,0.005073335953056812,-9.76064256974496e-05,0.008798772469162941
0.010857777670025826,0.0073874820955097675,-0.011968830600380898,0.004860700573772192,-0.00010976047633448616,0.008668099530041218
0.010857777670025826,0.0073874820955097675,-0.011968830600380898,0.004860700573772192,-0.00010976047633448616,0.008668099530041218
0.010328040458261967,0.00713418610394001,-0.011585941538214684,0.004706457257270813,-0.00010976471821777523,0.008831221610307693
0.01064663752913475,0.007008241955190897,-0.011754680424928665,0.005291624926030636,-0.00010619556269375607,0.009104754775762558
0.01064663752913475,0.007008241955190897,-0.011754680424928665,0.005291624926030636,-0.00010619556269375607,0.009104754775762558
0.011184684932231903,0.00737085472792387,-0.011742322705686092,0.005182773806154728,-0.00010273256339132786,0.00923231989145279
0.011184684932231903,0.00737085472792387,-0.011742322705686092,0.005182773806154728,-0.00010273256339132786,0.00923231989145279
0.010047047398984432,0.006404448766261339,-0.012089668773114681,0.004850733559578657,-9.948798106051981e-05,0.009132590144872665
0.010529451072216034,0.006836010608822107,-0.011757864616811275,0.005414928309619427,-9.794133075047284e-05,0.009078719653189182
0.010653901845216751,0.007027745246887207,-0.011538853868842125,0.00531728332862258,-9.644197416491807e-05,0.008931281976401806
0.009908436797559261,0.0069364868104457855,-0.012217752635478973,0.005009770859032869,-9.498786675976589e-05,0.009541928768157959
0.010752047412097454,0.006713990122079849,-0.01128015574067831,0.005043671932071447,-0.00010519885836401954,0.009475952945649624
0.010529404506087303,0.007299847435206175,-0.011759622022509575,0.005017865914851427,-0.00010526586993364617,0.009605670347809792
0.010174154303967953,0.00758404703810811,-0.011768346652388573,0.005135664716362953,-0.00010385231871623546,0.009803961962461472
0.010580244474112988,0.006806993391364813,-0.011668871156871319,0.0056288219057023525,-0.0001023824661388062,0.009823834523558617
0.01016321312636137,0.006836815271526575,-0.012064584530889988,0.005350986495614052,-0.00010094743629451841,0.011130147613584995
0.010534710250794888,0.006976997014135122,-0.011532790958881378,0.005189950577914715,-9.955174755305052e-05,0.010341591201722622
0.010785826481878757,0.0070912037044763565,-0.01263786107301712,0.005094793625175953,-9.81940611382015e-05,0.009192406199872494
0.011175436899065971,0.006931971292942762,-0.011985620483756065,0.005587014835327864,-9.687289275461808e-05,0.009566177614033222
0.011492542922496796,0.007318887859582901,-0.011615651659667492,0.005943872034549713,-9.825886809267104e-05,0.010065383277833462
0.011294445022940636,0.006977555807679892,-0.012180637568235397,0.0061068288050591946,-9.711062739370391e-05,0.010303571820259094
0.011345920152962208,0.007326640188694,-0.011739831417798996,0.005564380437135696,-9.512153337709606e-05,0.009839719161391258
0.01146352756768465,0.006708656903356314,-0.012512166984379292,0.005290300585329533,-9.315636270912364e-05,0.010195894166827202
0.011005153879523277,0.00630562799051404,-0.012160454876720905,0.005051784683018923,-9.126737859332934e-05,0.010678881779313087
0.011151790618896484,0.006553627550601959,-0.01243647001683712,0.005755502264946699,-0.00010272597137372941,0.010206446051597595
0.011130320839583874,0.00685347942635417,-0.012792162597179413,0.005809960886836052,-0.00010494995512999594,0.010173501446843147
0.01161899883300066,0.007237027399241924,-0.011904213577508926,0.005830305628478527,-0.00010321934678358957,0.009968205355107784
0.010982008650898933,0.006697594653815031,-0.012625468894839287,0.00559026375412941,-0.0001013010332826525,0.010303480550646782
0.01073139812797308,0.006892262026667595,-0.012175203301012516,0.005514827091246843,-9.943664917955175e-05,0.010770726948976517
0.011475956998765469,0.006872963160276413,-0.012440498918294907,0.005098768509924412,-0.00010776785347843543,0.010979581624269485
0.01107022538781166,0.0070428382605314255,-0.012716569937765598,0.006000081542879343,-0.00010966720583382994,0.010976575314998627
0.01107022538781166,0.0070428382605314255,-0.012716569937765598,0.006000081542879343,-0.00010966720583382994,0.010976575314998627
0.01107022538781166,0.0070428382605314255,-0.012716569937765598,0.006000081542879343,-0.00010966720583382994,0.010976575314998627
0.011266002431511879,0.007384405471384525,-0.011823328211903572,0.005617830436676741,-0.0001062277951859869,0.010647955350577831
0.010905402712523937,0.006970004644244909,-0.012643267400562763,0.005414815153926611,-0.00011840040679089725,0.010405169799923897
0.011540060862898827,0.006652229465544224,-0.012535725720226765,0.005810783244669437,-0.00011737903696484864,0.009739045053720474
0.011392924934625626,0.006718321703374386,-0.01312169898301363,0.00616792868822813,-0.00024025668972171843,0.010095899924635887
0.011758626438677311,0.006869645323604345,-0.012403767555952072,0.006063189823180437,-0.0002447513397783041,0.009967113845050335
0.011695440858602524,0.007247761823236942,-0.013148351572453976,0.005938661750406027,-0.00023321308253798634,0.009706446900963783
0.011332353577017784,0.00732383644208312,-0.012690704315900803,0.0055594672448933125,-0.0002631031384225935,0.00986531376838684
0.012114258483052254,0.0070275552570819855,-0.012289006263017654,0.005821462720632553,-0.0002534494560677558,0.010608942247927189
0.011765026487410069,0.006559280678629875,-0.012302503921091557,0.006276772823184729,-0.0002798713103402406,0.010169189423322678
0.011496396735310555,0.007124212570488453,-0.012208342552185059,0.005826354492455721,-0.0002703244681470096,0.01008180808275938
0.011842194944620132,0.006771498825401068,-0.01288537122309208,0.005831691902130842,-0.0002593555545900017,0.009863498620688915
0.011528301052749157,0.006738429423421621,-0.012472557835280895,0.00539171090349555,-0.00028227592702023685,0.010649841278791428
0.01241411454975605,0.005953554064035416,-0.012893341481685638,0.00588963832706213,-0.0002737072354648262,0.010429822839796543
0.011819926090538502,0.005545728374272585,-0.01273268274962902,0.005974108818918467,-0.0002638181031215936,0.010612621903419495
0.011942221783101559,0.005825991276651621,-0.012739119119942188,0.006297188811004162,-0.00025519117480143905,0.010445648804306984
0.012525001540780067,0.005898681003600359,-0.012574982829391956,0.006444875616580248,-0.00035062816459685564,0.01052688155323267
0.012561898678541183,0.005906657315790653,-0.011975117027759552,0.005875562783330679,-0.00033228760003112257,0.010323096066713333
0.013941909186542034,0.005886614788323641,-0.01249898411333561,0.006337648723274469,-0.0003098847810178995,0.01073079276829958
0.013941909186542034,0.005886614788323641,-0.01249898411333561,0.006337648723274469,-0.0003098847810178995,0.01073079276829958
0.013741387985646725,0.006388540379703045,-0.012975785881280899,0.006329962518066168,-0.0002723822253756225,0.01060493290424347
0.013741387985646725,0.006388540379703045,-0.012975785881280899,0.006329962518066168,-0.0002723822253756225,0.01060493290424347
0.013147045858204365,0.006029780954122543,-0.01243641134351492,0.006264240946620703,-0.0002946813474409282,0.010896878316998482
0.013707797974348068,0.005954102613031864,-0.012670261785387993,0.005870298482477665,-0.0002906672016251832,0.011194750666618347
0.013233351521193981,0.005634943023324013,-0.012514857575297356,0.006096936762332916,-0.0002765514946077019,0.0112482700496912
0.01331339217722416,0.006590036675333977,-0.012750038877129555,0.0067390394397079945,-0.00029124811408109963,0.010502774268388748
0.013822661712765694,0.006120902486145496,-0.012353658676147461,0.0063085095025599,-0.00027961863088421524,0.010858585126698017
0.013778227381408215,0.005546030588448048,-0.013131349347531796,0.0060691991820931435,-0.0002678140299394727,0.010636476799845695
0.013852597214281559,0.005470911040902138,-0.012474623508751392,0.006395697593688965,-0.0002568970958236605,0.010603108443319798
0.013905508443713188,0.006045008543878794,-0.012735211290419102,0.006092327646911144,-0.0002468308084644377,0.011215027421712875
0.014162777923047543,0.005990089848637581,-0.012665408663451672,0.005745884031057358,-0.00023752266133669764,0.012753114104270935
0.014100763946771622,0.0058767241425812244,-0.012963684275746346,0.005587977822870016,-0.0002572481462266296,0.010924707166850567
0.013737158849835396,0.0058579216711223125,-0.012796632945537567,0.00559732923284173,-0.00025213437038473785,0.010826698504388332
0.013699297793209553,0.005702673923224211,-0.012438000179827213,0.005929457023739815,-0.00024384922289755195,0.011135511100292206
0.013578497804701328,0.005660033319145441,-0.012804202735424042,0.006324384361505508,-0.00023587627219967544,0.011816676706075668
0.013924907892942429,0.0059416829608380795,-0.012170329689979553,0.006258042529225349,-0.00022839425946585834,0.011904247105121613
0.013811110518872738,0.006132919806987047,-0.013139814138412476,0.006148976273834705,-0.00022137153428047895,0.011667206883430481
0.0139874666929245,0.006067492999136448,-0.012671548873186111,0.00620842631906271,-0.00020652559760492295,0.011626149527728558
0.0135189825668931,0.005839155986905098,-0.013068893924355507,0.006610651966184378,-0.00019662622071336955,0.011318591423332691
0.014166811481118202,0.006211556028574705,-0.012813171371817589,0.0067841168493032455,-0.00018833795911632478,0.01199283730238676
0.013760868459939957,0.006702381651848555,-0.012409242801368237,0.006578186992555857,-0.00018076729611493647,0.01175251230597496
0.014114588499069214,0.006247819866985083,-0.012576228007674217,0.006287391763180494,-0.00017378453048877418,0.011716636829078197
0.01367468386888504,0.006158994510769844,-0.012062299065291882,0.006928732618689537,-0.00019207275181543082,0.012096172198653221
0.014106274582445621,0.00557967321947217,-0.012638538144528866,0.007296915166079998,-0.00019301865540910512,0.01170781347900629
0.013552757911384106,0.005910510662943125,-0.012128244154155254,0.006972467992454767,-0.00018684919632505625,0.011687686666846275
0.014155116863548756,0.006510706152766943,-0.012965166009962559,0.006138802971690893,-0.00018063168681692332,0.011585941538214684
0.013749313540756702,0.0064232442528009415,-0.012818390503525734,0.006394738797098398,-0.00020195197430439293,0.011814656667411327
0.01424202136695385,0.005973963998258114,-0.01260458119213581,0.006796194706112146,-0.0001973950129467994,0.012069222517311573
0.01424202136695385,0.005973963998258114,-0.01260458119213581,0.006796194706112146,-0.0001973950129467994,0.012069222517311573
0.013819588348269463,0.005955985747277737,-0.012444982305169106,0.006949953734874725,-0.0001915099855978042,0.012235852889716625
0.014097989536821842,0.006352714262902737,-0.012818310409784317,0.00636188592761755,-0.00018054053361993283,0.01268814131617546
0.014097989536821842,0.006352714262902737,-0.012818310409784317,0.00636188592761755,-0.00018054053361993283,0.01268814131617546
0.013760254718363285,0.006538638845086098,-0.012914188206195831,0.006812854669988155,-0.00019193021580576897,0.012138798832893372
0.013760254718363285,0.006538638845086098,-0.012914188206195831,0.006812854669988155,-0.00019193021580576897,0.012138798832893372
0.01420289184898138,0.006215136032551527,-0.012233675457537174,0.006996204145252705,-0.0001897868642117828,0.012103364802896976
0.014445476233959198,0.00686835078522563,-0.012540855444967747,0.007079891860485077,-0.00018100548186339438,0.01207495667040348
0.013978235423564911,0.006708119064569473,-0.012426894158124924,0.007629871368408203,-0.0002242839109385386,0.012377876788377762
0.013867759145796299,0.006321853958070278,-0.012792454101145267,0.0076171960681676865,-0.00023809648700989783,0.012409942224621773
0.013660615310072899,0.006431511603295803,-0.012258370406925678,0.0073762512765824795,-0.00024710866273380816,0.012173674069344997
0.014074891805648804,0.006946135312318802,-0.012954252772033215,0.007606268394738436,-0.0002375389012740925,0.012309039011597633
0.014047556556761265,0.006751291453838348,-0.012248488143086433,0.007798164617270231,-0.000262959161773324,0.01224814634770155
0.0139687554910779,0.006279157940298319,-0.013321355916559696,0.0076664225198328495,-0.00025463977362960577,0.012735768221318722
0.014198558405041695,0.006217417772859335,-0.012716853059828281,0.007070664782077074,-0.00027075898833572865,0.012102268636226654
0.014257390052080154,0.006293924525380135,-0.013000858947634697,0.007152788806706667,-0.00026881738449446857,0.012180287390947342
0.013983052223920822,0.006290084216743708,-0.012957105413079262,0.007980995811522007,-0.0004337033024057746,0.012467027641832829
0.014143719337880611,0.006103170569986105,-0.012565406039357185,0.007859587669372559,-0.0004469432169571519,0.012852819636464119
0.014288574457168579,0.006123692728579044,-0.013301328755915165,0.0075815892778337,-0.0004098975332453847,0.013247959315776825
0.0143843749538064,0.006317329127341509,-0.012805688194930553,0.0075398776680231094,-0.0004456888709682971,0.013328436762094498
0.014651769772171974,0.006516574416309595,-0.013463981449604034,0.007826982997357845,-0.0004159094823990017,0.013272381387650967
0.014375749975442886,0.006378083024173975,-0.012649954296648502,0.007765923626720905,-0.0003864253230858594,0.01263170875608921
0.014359567314386368,0.005898205563426018,-0.013311305083334446,0.0076822866685688496,-0.00040483608609065413,0.014392005279660225
0.014394066296517849,0.005912753753364086,-0.013299751095473766,0.007616561837494373,-0.0003933383268304169,0.011996583081781864
0.014254654757678509,0.006032791454344988,-0.013074725866317749,0.007685089949518442,-0.00039687793469056487,0.011956281028687954
0.014157221652567387,0.006098285783082247,-0.013587497174739838,0.007682338822633028,-0.0003987633972428739,0.012792318128049374
0.01428313460201025,0.00607963465154171,-0.013196352869272232,0.007626374252140522,-0.0003793112118728459,0.012868241406977177
0.014258540235459805,0.006205348297953606,-0.012970569543540478,0.007506991736590862,-0.00036041924613527954,0.01284708734601736
0.014187552966177464,0.006027096416801214,-0.013464043848216534,0.007589973043650389,-0.0003432392259128392,0.012652600184082985
0.014187552966177464,0.006027096416801214,-0.013464043848216534,0.007589973043650389,-0.0003432392259128392,0.012652600184082985
0.014599964953958988,0.006117860786616802,-0.013588585890829563,0.007487503811717033,-0.0003282449906691909,0.012942517176270485
0.01267384085804224,0.006565837189555168,-0.012908326461911201,0.0074575962498784065,-0.0003126015653833747,0.012859934940934181
0.014934547245502472,0.006129295565187931,-0.013643879443407059,0.007872459478676319,-0.00029272446408867836,0.013331887312233448
0.01478524412959814,0.006275417748838663,-0.01326343696564436,0.007708907127380371,-0.00032239672145806253,0.013246810995042324
0.014364340342581272,0.005942510906606913,-0.01312359981238842,0.007788154296576977,-0.00033000472467392683,0.013392321765422821
0.014691732823848724,0.006394695024937391,-0.01357700489461422,0.008318569511175156,-0.00032435718458145857,0.01354331336915493
0.014706619083881378,0.0059142219834029675,-0.013313286006450653,0.008617846295237541,-0.0003091768885497004,0.013504263013601303
0.014851296320557594,0.005685662385076284,-0.013374309986829758,0.007849208079278469,-0.00033397949300706387,0.013684031553566456
0.014904668554663658,0.005664277356117964,-0.013096692971885204,0.008020061068236828,-0.0003216186596546322,0.013895665295422077
0.014965994283556938,0.005492512136697769,-0.013105153106153011,0.008351413533091545,-0.0003080233291257173,0.013576106168329716
0.01494573149830103,0.0057308366522192955,-0.013103896751999855,0.00822081882506609,-0.0002953948569484055,0.013418792746961117
0.01502908580005169,0.00611392455175519,-0.013301532715559006,0.0076867057941854,-0.0002837520441971719,0.01303410530090332
0.015041979029774666,0.005586202256381512,-0.013733611442148685,0.008084452711045742,-0.0003290918830316514,0.013423402793705463
0.015313158743083477,0.005668668542057276,-0.012860219925642014,0.008364771492779255,-0.00032419722992926836,0.013574061915278435
0.015035806223750114,0.005314924754202366,-0.013633539900183678,0.008380451239645481,-0.0003035505360458046,0.013874155469238758
0.015647077932953835,0.005718029569834471,-0.012872901745140553,0.007877975702285767,-0.0002844338014256209,0.013665742240846157
0.015695720911026,0.005782671272754669,-0.013204636983573437,0.008614207617938519,-0.000306932779494673,0.01372773852199316
0.01622113026678562,0.005725244525820017,-0.013158340007066727,0.008205557242035866,-0.0003020839940290898,0.013392677530646324
0.015759814530611038,0.005984081886708736,-0.013906235806643963,0.007732988800853491,-0.00028683870914392173,0.01352518517524004
0.016029011458158493,0.005425621755421162,-0.013379104435443878,0.007421709597110748,-0.0002945727319456637,0.013480158522725105
0.015797430649399757,0.0054617212153971195,-0.013305706903338432,0.007638965733349323,-0.0003010376531165093,0.013905767351388931
0.015661997720599174,0.005784749984741211,-0.013172314502298832,0.007685375865548849,-0.0002885886933654547,0.01373211108148098
0.015798907727003098,0.0059908488765358925,-0.013296885415911674,0.007857070304453373,-0.000276029430096969,0.014551091939210892
0.015985503792762756,0.005508288275450468,-0.013600203208625317,0.007840042002499104,-0.0002923630236182362,0.014406957663595676
0.015886276960372925,0.005707776173949242,-0.013512011617422104,0.008684404194355011,-0.00028940310585312545,0.014343634247779846
0.015662936493754387,0.005752902012318373,-0.013512182049453259,0.008280766196548939,-0.0002787706325761974,0.014115664176642895
0.016381720080971718,0.006225535646080971,-0.012924437411129475,0.008093330077826977,-0.00026841447106562555,0.01404089480638504
0.016381720080971718,0.006225535646080971,-0.012924437411129475,0.008093330077826977,-0.00026841447106562555,0.01404089480638504
0.016335994005203247,0.005937914364039898,-0.013553177006542683,0.00828109122812748,-0.000282019202131778,0.013636896386742592
0.01672305166721344,0.005750627722591162,-0.013177377171814442,0.0087425010278821,-0.00027307559503242373,0.013939371332526207
0.016177060082554817,0.006143735256046057,-0.013637823984026909,0.008087740279734135,-0.0002579512365628034,0.014242422766983509
0.01632118597626686,0.005604045931249857,-0.013088269159197807,0.007149154786020517,-0.000289423915091902,0.01367931067943573
0.01624324917793274,0.006414945237338543,-0.013839124701917171,0.007569821551442146,-0.000277511979220435,0.014088084921240807
0.015865139663219452,0.005794941913336515,-0.01355102937668562,0.00854483712464571,-0.00026412736042402685,0.014235548675060272
0.01610478386282921,0.0054895817302167416,-0.013371696695685387,0.008282582275569439,-0.00028051011031493545,0.013836023397743702
0.016480285674333572,0.005969591438770294,-0.01361764408648014,0.008379537612199783,-0.0003044804325327277,0.014618122950196266
0.01637876220047474,0.006011310964822769,-0.013787033967673779,0.008423849008977413,-0.00029437258490361273,0.014617559500038624
0.01647314988076687,0.005829235073179007,-0.013799897395074368,0.008269852958619595,-0.0003898645518347621,0.015099992975592613
0.016514839604496956,0.005994944367557764,-0.01371768582612276,0.008523902855813503,-0.0003914379340130836,0.014786898158490658
0.01622544787824154,0.005481808912009001,-0.013958020135760307,0.008641323074698448,-0.0003622362273745239,0.01424955390393734
0.017006630077958107,0.005823142360895872,-0.01357317715883255,0.008390507660806179,-0.0003678893845062703,0.01423341128975153
0.016600051894783974,0.005925388541072607,-0.013337316922843456,0.008732138201594353,-0.00037226793938316405,0.014577816240489483
0.016897127032279968,0.006086207926273346,-0.013940534554421902,0.008833643049001694,-0.0003500733873806894,0.014017758890986443
0.01714446023106575,0.006422608159482479,-0.013720774091780186,0.008489983156323433,-0.00037987020914442837,0.013978235423564911
0.017175428569316864,0.006103500258177519,-0.013699871487915516,0.008679240942001343,-0.00036140650627203286,0.01418738067150116
0.017361238598823547,0.006178460083901882,-0.013326026499271393,0.008818537928164005,-0.00034199803485535085,0.014733350835740566
0.017129188403487206,0.006758504081517458,-0.014291157945990562,0.008636259473860264,-0.0003470031078904867,0.015156100504100323
0.017726678401231766,0.006213943939656019,-0.01367773488163948,0.008595642633736134,-0.00035102784750051796,0.015631867572665215
0.016987552866339684,0.005741185508668423,-0.01400231383740902,0.008646363392472267,-0.00033601387985982,0.015380514785647392
0.01676204614341259,0.005843474064022303,-0.013503828085958958,0.009011843241751194,-0.00032111426116898656,0.01523482333868742
0.01757708005607128,0.006058326922357082,-0.01399421226233244,0.008617095649242401,-0.0003084595373366028,0.015174674801528454
0.017157461494207382,0.006198298651725054,-0.013428174890577793,0.008314736187458038,-0.0003138593165203929,0.015027862973511219
0.018145542591810226,0.005573139525949955,-0.014428505674004555,0.008466079831123352,-0.00029503507539629936,0.015214954502880573
0.017842378467321396,0.005773776676505804,-0.013965965248644352,0.008864999748766422,-0.0002769816783256829,0.01513341348618269
0.01702507585287094,0.005844752304255962,-0.014446147717535496,0.008550751022994518,-0.0003094883868470788,0.015530812554061413
0.018149586394429207,0.006011111196130514,-0.013850696384906769,0.008607245050370693,-0.00029570379410870373,0.015679270029067993
0.017893604934215546,0.006507681682705879,-0.014244908466935158,0.009079585783183575,-0.00031503368518315256,0.015750039368867874
0.017893604934215546,0.006507681682705879,-0.014244908466935158,0.009079585783183575,-0.00031503368518315256,0.015750039368867874
0.017898505553603172,0.00584001187235117,-0.013910098001360893,0.00889468565583229,-0.00031034566927701235,0.015512079000473022
0.018082106485962868,0.0058687711134552956,-0.014591884799301624,0.008643285371363163,-0.0002964473096653819,0.015610510483384132
0.017758239060640335,0.0057721794582903385,-0.014257533475756645,0.008831111714243889,-0.00028316499083302915,0.01545601338148117
0.01825246773660183,0.00605268869549036,-0.015108776278793812,0.008783615194261074,-0.0003070570237468928,0.015590389259159565
0.017433607950806618,0.006194707937538624,-0.014893240295350552,0.009093803353607655,-0.00028514969744719565,0.015905417501926422
0.018169816583395004,0.005933298263698816,-0.01433809008449316,0.009365381672978401,-0.00027429492911323905,0.017105858772993088
0.018832610920071602,0.006501451134681702,-0.014470328576862812,0.008787118829786777,-0.0003148209652863443,0.014952911995351315
0.018535800278186798,0.006219928618520498,-0.014014825224876404,0.008380626328289509,-0.0003014672838617116,0.01512155681848526
0.01823655515909195,0.006405900232493877,-0.014694086275994778,0.008511766791343689,-0.0002830065495800227,0.015384048223495483
0.01802438125014305,0.005963049363344908,-0.014461982063949108,0.009885377250611782,-0.0002662840415723622,0.015853989869356155
0.018634427338838577,0.005865452811121941,-0.015023451298475266,0.008995248936116695,-0.00028846555505879223,0.015563080087304115
0.018828123807907104,0.006020356435328722,-0.01465278584510088,0.00909458752721548,-0.00028485263464972377,0.015778344124555588
0.01863401010632515,0.0058072032406926155,-0.014956923201680183,0.008710814639925957,-0.0002712974091991782,0.015690531581640244
0.018933946266770363,0.0055558038875460625,-0.01448335312306881,0.008917408064007759,-0.0002583623572718352,0.015830492600798607
0.018887262791395187,0.0053215245716273785,-0.015194871462881565,0.009446385316550732,-0.0002821634116116911,0.01584114134311676
0.018735427409410477,0.005503727123141289,-0.014579834416508675,0.009471331723034382,-0.00027473739464767277,0.015959221869707108
0.01887073554098606,0.005253028590232134,-0.015542225912213326,0.009082782082259655,-0.0002635607379488647,0.016031574457883835
0.018999222666025162,0.0059534781612455845,-0.01489914208650589,0.010087181814014912,-0.00028432419640012085,0.016084473580121994
0.018742157146334648,0.005708172917366028,-0.015555563382804394,0.009286691434681416,-0.0002776603796519339,0.01614733226597309
0.01904662698507309,0.005875817500054836,-0.015214620158076286,0.009496097452938557,-0.00029599876143038273,0.0156878475099802
0.019020361825823784,0.005388352088630199,-0.01558536384254694,0.00945309828966856,-0.0003039957373403013,0.016213782131671906
0.018872074782848358,0.0057097733952105045,-0.015372906811535358,0.009474661201238632,-0.0002864687121473253,0.016194891184568405
0.019665973260998726,0.005404558032751083,-0.015413095243275166,0.008905529044568539,-0.00026942911790683866,0.016260482370853424
0.019432172179222107,0.005109855905175209,-0.015569174662232399,0.009602298960089684,-0.000254209095146507,0.016126291826367378
0.01896687038242817,0.005670289508998394,-0.015275969170033932,0.010350946336984634,-0.00027609901735559106,0.01622149348258972
0.01896687038242817,0.005670289508998394,-0.015275969170033932,0.010350946336984634,-0.00027609901735559106,0.01622149348258972
0.01991310715675354,0.005293946247547865,-0.015965044498443604,0.009540274739265442,-0.00027324960683472455,0.016263112425804138
0.019593149423599243,0.0052833580411970615,-0.015589402057230473,0.009684768505394459,-0.0002607796050142497,0.01596815697848797
0.01925600692629814,0.00517691345885396,-0.01594117097556591,0.010389601811766624,-0.0002488073077984154,0.016196945682168007
0.019876137375831604,0.004969357047230005,-0.014849759638309479,0.009860710240900517,-0.00026713209808804095,0.01607443019747734
0.01986945979297161,0.005369012244045734,-0.015795739367604256,0.009537412784993649,-0.00026510475436225533,0.016445497050881386
0.019508590921759605,0.005210845731198788,-0.015233462676405907,0.010331078432500362,-0.0002549764758441597,0.016573889181017876
0.01999572664499283,0.005214138887822628,-0.015526922419667244,0.009824112989008427,-0.0002690240798983723,0.017054805532097816
0.01952509768307209,0.005227344576269388,-0.01554552186280489,0.010061081498861313,-0.0002886074362322688,0.016843348741531372
0.02003365196287632,0.005040341056883335,-0.015695326030254364,0.009794567711651325,-0.00029714309494011104,0.016807937994599342
0.02040076069533825,0.005301446188241243,-0.016118798404932022,0.01002565212547779,-0.00032893510069698095,0.016703881323337555
0.02040076069533825,0.005301446188241243,-0.016118798404932022,0.01002565212547779,-0.00032893510069698095,0.016703881323337555
0.019750302657485008,0.005530377384275198,-0.015508916229009628,0.010357988998293877,-0.00037173100281506777,0.016948094591498375
0.02025780826807022,0.005117169581353664,-0.01597464829683304,0.010662277229130268,-0.0003763538843486458,0.017868882045149803
0.02081526815891266,0.00485009141266346,-0.015485872514545918,0.010754242539405823,-0.0006683060200884938,0.01748766005039215
0.019920192658901215,0.005196091718971729,-0.016420746222138405,0.011049442924559116,-0.0007373994449153543,0.01642647571861744
0.02062743343412876,0.0052656265906989574,-0.015307094901800156,0.01064547710120678,-0.0007521993829868734,0.017045898362994194
0.02008938044309616,0.005822002422064543,-0.01522793434560299,0.01000125240534544,-0.000755265646148473,0.017270373180508614
0.018068622797727585,0.005279622506350279,-0.015652678906917572,0.009726503863930702,-0.0007041229982860386,0.017291275784373283
0.02145230397582054,0.005203796084970236,-0.015987204387784004,0.010339935310184956,-0.0007555413758382201,0.01787671260535717
0.02149934507906437,0.0049593462608754635,-0.015703234821558,0.01067582331597805,-0.0006831334321759641,0.01783173717558384
0.020732088014483452,0.0051456019282341,-0.015514255501329899,0.010280638933181763,-0.000595325487665832,0.017869982868433
0.019840413704514503,0.005534045863896608,-0.015789402648806572,0.010202293284237385,-0.0005257846205495298,0.01792171411216259
0.021175475791096687,0.0053723473101854324,-0.015261407941579819,0.010190030559897423,-0.0005394478794187307,0.01731003448367119
0.02109113149344921,0.00500158267095685,-0.015879934653639793,0.010246559977531433,-0.0005096200620755553,0.016993463039398193
0.020961029455065727,0.005196342244744301,-0.015504604205489159,0.010617869906127453,-0.0005239414749667048,0.016977744176983833
0.020858217030763626,0.005051274783909321,-0.01556263118982315,0.010238590650260448,-0.0005000697565265,0.017474018037319183
0.020858217030763626,0.005051274783909321,-0.01556263118982315,0.010238590650260448,-0.0005000697565265,0.017474018037319183
0.021269667893648148,0.005435763392597437,-0.015350643545389175,0.010788161307573318,-0.0004643467837013304,0.01773207262158394
0.02060610242187977,0.005247409455478191,-0.01592046581208706,0.010728825815021992,-0.00048589540529064834,0.017790017649531364
0.020160552114248276,0.005167648196220398,-0.015294140204787254,0.010627452284097672,-0.0004619928658939898,0.01756858080625534
0.021093491464853287,0.005282775964587927,-0.015541622415184975,0.010904037393629551,-0.0004345731867942959,0.01759212277829647
0.021739961579442024,0.004958061501383781,-0.015504139475524426,0.010237756185233593,-0.000388703920179978,0.017780115827918053
0.021121826022863388,0.00543139548972249,-0.01590791717171669,0.010773763991892338,-0.0003453429671935737,0.017898565158247948
0.02159777656197548,0.005976417101919651,-0.015648553147912025,0.010363392531871796,-0.00035082740942016244,0.018118470907211304
0.021094223484396935,0.005407518707215786,-0.015869606286287308,0.010625111870467663,-0.0003311361069791019,0.017725694924592972
0.021080680191516876,0.0049129328690469265,-0.015012413263320923,0.010989254340529442,-0.00035710097290575504,0.01714036799967289
0.021507343277335167,0.0048575690016150475,-0.015774866566061974,0.010720260441303253,-0.0003437716222833842,0.01749926432967186
0.02168438956141472,0.005091231781989336,-0.01526124868541956,0.011128099635243416,-0.0003607558610383421,0.017829136922955513
0.02154609002172947,0.005247487220913172,-0.01614093966782093,0.01054566353559494,-0.0003538381715770811,0.017864814028143883
0.021696629002690315,0.005823488347232342,-0.01569586992263794,0.010543107986450195,-0.0004449234693311155,0.01843600533902645
0.021862177178263664,0.0051626344211399555,-0.01584971509873867,0.012034454382956028,-0.0005016128998249769,0.018302636221051216
0.021767716854810715,0.005518842488527298,-0.015561691485345364,0.010668742470443249,-0.000479239271953702,0.01832563988864422
0.021923836320638657,0.005413011182099581,-0.015552382916212082,0.010558822192251682,-0.0005098475376144052,0.018140656873583794
0.022137604653835297,0.005115685518831015,-0.016058944165706635,0.011044580489397049,-0.0005088349571451545,0.01818615198135376
0.021487237885594368,0.005949856247752905,-0.01617114618420601,0.009954316541552544,-0.0005036589573137462,0.018295859917998314
0.022059036418795586,0.005634239409118891,-0.016289321705698967,0.010116157121956348,-0.0006581302150152624,0.018313873559236526
0.022380784153938293,0.005575118586421013,-0.015615234151482582,0.010757014155387878,-0.0005998355336487293,0.01888204738497734
0.022121675312519073,0.005523198284208775,-0.016015810891985893,0.01069166511297226,-0.0005308750551193953,0.018163174390792847
0.021783582866191864,0.005713181104511023,-0.015700533986091614,0.01112957764416933,-0.0005629165680147707,0.017888246104121208
0.02203400805592537,0.005670933984220028,-0.016509398818016052,0.011202707886695862,-0.000514934363309294,0.0182185061275959
0.02203400805592537,0.005670933984220028,-0.016509398818016052,0.011202707886695862,-0.000514934363309294,0.0182185061275959
0.022515395656228065,0.005711943842470646,-0.016284622251987457,0.010583631694316864,-0.0005278615863062441,0.018678681924939156
0.02273295633494854,0.006090914830565453,-0.016190022230148315,0.010888725519180298,-0.0005034455680288374,0.018500812351703644
0.022158188745379448,0.0054734740406274796,-0.01653381623327732,0.011055325157940388,-0.0004672490758821368,0.01885291375219822
0.022120319306850433,0.005455056671053171,-0.016313979402184486,0.01124509610235691,-0.0004928252310492098,0.018845517188310623
0.02249663695693016,0.005780652165412903,-0.01679816097021103,0.011371143162250519,-0.0004647740861400962,0.018699105829000473
0.022796383127570152,0.0062417625449597836,-0.015701202675700188,0.01073838584125042,-0.00043681031093001366,0.019013062119483948
0.022570794448256493,0.004964146763086319,-0.016500772908329964,0.011247435584664345,-0.00035974712227471173,0.019071580842137337
0.022570794448256493,0.004964146763086319,-0.016500772908329964,0.011247435584664345,-0.00035974712227471173,0.019071580842137337
0.02300553023815155,0.005137468222528696,-0.016554243862628937,0.011728285811841488,-0.00031004284392111003,0.01894433982670307
0.022981518879532814,0.005743847694247961,-0.016515173017978668,0.011651565320789814,-0.0002900458057411015,0.018935400992631912
0.023227451369166374,0.005308687221258879,-0.016993841156363487,0.011751560494303703,-0.00027247573598288,0.019017290323972702
0.022720560431480408,0.004995193798094988,-0.01626315712928772,0.01156400702893734,-0.0003013581153936684,0.018990421667695045
0.023436058312654495,0.005736351013183594,-0.016473840922117233,0.01170523464679718,-0.00029118440579622984,0.019065937027335167
0.023532329127192497,0.00519026443362236,-0.01661432906985283,0.012189697474241257,-0.0002766594407148659,0.019304757937788963
0.023704523220658302,0.005438516847789288,-0.016793143004179,0.011285397224128246,-0.00030405184952542186,0.019846236333251
0.023950373753905296,0.005368912126868963,-0.016981132328510284,0.011188359931111336,-0.0002925929438788444,0.019549956545233727
0.023052500560879707,0.004912561271339655,-0.01677912473678589,0.011294633150100708,-0.0003143993380945176,0.019473161548376083
0.022027961909770966,0.004764356650412083,-0.017004285007715225,0.011129810474812984,-0.0003303161938674748,0.01875782199203968
0.023058753460645676,0.004777352791279554,-0.01641484722495079,0.011357061564922333,-0.00033039323170669377,0.018903814256191254
0.023747479543089867,0.004756332840770483,-0.016875380650162697,0.011157114058732986,-0.0003547706874087453,0.019184069707989693
0.0236931461840868,0.005103092174977064,-0.016983065754175186,0.011158055625855923,-0.0003462946624495089,0.019466010853648186
0.02294185757637024,0.004959998652338982,-0.016499215736985207,0.011339952237904072,-0.00037690886529162526,0.019901620224118233
0.023031897842884064,0.004808841738849878,-0.016829419881105423,0.011004016734659672,-0.0003837838303297758,0.0195902269333601
0.024355674162507057,0.005048304330557585,-0.01648596301674843,0.011271997354924679,-0.0003864758473355323,0.0196381788700819
0.023975618183612823,0.004892295226454735,-0.017083583399653435,0.011341437697410583,-0.0005886486615054309,0.019822176545858383
0.023648656904697418,0.004756838548928499,-0.016890613362193108,0.012034635990858078,-0.0006446805782616138,0.020314116030931473
0.023544611409306526,0.004690652247518301,-0.01710519753396511,0.012035501189529896,-0.0005892561748623848,0.020505402237176895
0.02335788682103157,0.005150931421667337,-0.016982609406113625,0.011874444782733917,-0.0006143660866655409,0.019650135189294815
0.02335788682103157,0.005150931421667337,-0.016982609406113625,0.011874444782733917,-0.0006143660866655409,0.019650135189294815
0.023197967559099197,0.004900923930108547,-0.01670420914888382,0.01242043450474739,-0.0006036495324224234,0.01950928010046482
0.023908501490950584,0.004671533592045307,-0.017168253660202026,0.012202223762869835,-0.0005898690433241427,0.019492123275995255
0.024347560480237007,0.005047817714512348,-0.01663181558251381,0.012484243139624596,-0.0006088506779633462,0.0197204127907753
0.024108704179525375,0.005047904793173075,-0.01691519469022751,0.012488849461078644,-0.0005912719061598182,0.019061116501688957
0.023723531514406204,0.004945071879774332,-0.01717803254723549,0.012252436019480228,-0.0006028484785929322,0.01992587372660637
0.02391667105257511,0.00479113357141614,-0.01746421679854393,0.012184161692857742,-0.0005116904503665864,0.020568540319800377
0.024109523743391037,0.004656520672142506,-0.01662171259522438,0.012499620206654072,-0.0005397838540375233,0.020635506138205528
0.024227991700172424,0.005091215018182993,-0.016940031200647354,0.012454375624656677,-0.0005015089991502464,0.020703015848994255
0.02462678588926792,0.0051382011733949184,-0.01685420051217079,0.013077055104076862,-0.0005221086321398616,0.02039809711277485
0.024146556854248047,0.005727542098611593,-0.016710707917809486,0.012596376240253448,-0.0004940985818393528,0.020387474447488785
0.023726586252450943,0.005407591816037893,-0.017373276874423027,0.012372455559670925,-0.0004768303770106286,0.020370855927467346
0.02399299480021,0.0048127849586308,-0.016384592279791832,0.01259686704725027,-0.00044665890163742006,0.020242610946297646
0.024084506556391716,0.004881282337009907,-0.016972936689853668,0.012578258290886879,-0.0004669809131883085,0.020353538915514946
0.024483902379870415,0.005313285626471043,-0.016844090074300766,0.012857666239142418,-0.0004829552781302482,0.020629724487662315
0.02455630898475647,0.005032877903431654,-0.01717195473611355,0.012390205636620522,-0.00048023322597146034,0.020879914984107018
0.0227708388119936,0.004971293732523918,-0.01727104000747204,0.012641817331314087,-0.0005035999929532409,0.020435994490981102
0.024813808500766754,0.004884871654212475,-0.016495291143655777,0.012745154090225697,-0.0006674401229247451,0.021011801436543465
0.02484418824315071,0.004710924345999956,-0.017165306955575943,0.012968760915100574,-0.0007475536549463868,0.021073559299111366
0.024527380242943764,0.004593213088810444,-0.016740279272198677,0.01293728407472372,-0.0007697664550505579,0.020708614960312843
0.02448190562427044,0.00509666558355093,-0.01712913066148758,0.012652347795665264,-0.0007844496285542846,0.021103663370013237
0.02503003180027008,0.005051752086728811,-0.0173475481569767,0.012660913169384003,-0.0009446570766158402,0.021512938663363457
0.024747611954808235,0.004639705643057823,-0.01680011861026287,0.01259842049330473,-0.0009919272270053625,0.0213546734303236
0.024977892637252808,0.004891988355666399,-0.017529314383864403,0.01329925749450922,-0.0008585608447901905,0.021211106330156326
0.025810755789279938,0.004819743800908327,-0.016774727031588554,0.0127496886998415,-0.000831582467071712,0.02136935293674469
0.02503565512597561,0.004813128616660833,-0.016889480873942375,0.012817502953112125,-0.0007586180581711233,0.021119073033332825
0.025358138605952263,0.0050571635365486145,-0.017547138035297394,0.012942585162818432,-0.0006785608711652458,0.021343691274523735
0.025358138605952263,0.0050571635365486145,-0.017547138035297394,0.012942585162818432,-0.0006785608711652458,0.021343691274523735
0.024511586874723434,0.004821487702429295,-0.01729881390929222,0.013014228083193302,-0.0006937803700566292,0.021582895889878273
0.02497444488108158,0.004860306158661842,-0.018142908811569214,0.013281591236591339,-0.0006375873927026987,0.02135513350367546
0.02545083872973919,0.0048871817998588085,-0.017333099618554115,0.013201425783336163,-0.0005455430946312845,0.021341361105442047
0.025840362533926964,0.004744671750813723,-0.0177466981112957,0.013358701951801777,-0.00047797526349313557,0.02133684977889061
0.025692583993077278,0.004558357410132885,-0.017583433538675308,0.013067731633782387,-0.0005057142116129398,0.020861858502030373
0.0265169907361269,0.004557457752525806,-0.018007606267929077,0.012645346112549305,-0.00046929437667131424,0.022030485793948174
0.026125406846404076,0.004851539619266987,-0.01784300059080124,0.012852204032242298,-0.00046650751028209925,0.02190656214952469
0.025728518143296242,0.004900776315480471,-0.018281426280736923,0.012544584460556507,-0.00048212139518000185,0.022257758304476738
0.02533460408449173,0.004825834650546312,-0.01801018975675106,0.01296146772801876,-0.0005317155737429857,0.022352291271090508
0.026058662682771683,0.004465141799300909,-0.016926055774092674,0.013117472641170025,-0.0005873816553503275,0.02211194857954979
0.02694317325949669,0.004189221188426018,-0.018227972090244293,0.013206517323851585,-0.000575401762034744,0.022308330982923508
0.027196241542696953,0.003915037959814072,-0.01880268007516861,0.01308045256882906,-0.0005229499656707048,0.0219788309186697
0.026906028389930725,0.004334784112870693,-0.018102262169122696,0.013163422234356403,-0.00047692377120256424,0.022295668721199036
0.027003232389688492,0.0041624633595347404,-0.017778536304831505,0.013573500327765942,-0.0004381985927466303,0.02227386087179184
0.0269986093044281,0.0044838255271315575,-0.01795908622443676,0.012505787424743176,-0.0004635812365449965,0.02235790342092514
0.027048174291849136,0.004609048832207918,-0.018491650000214577,0.013385970145463943,-0.00043919243034906685,0.021674297749996185
0.027053896337747574,0.004118432756513357,-0.01802731305360794,0.013232147321105003,-0.00041104291449300945,0.021762892603874207
0.02526235394179821,0.004094536881893873,-0.0169993806630373,0.013459330424666405,-0.00042648016824387014,0.022492339834570885
0.02802266925573349,0.004100928083062172,-0.017812469974160194,0.012450389564037323,-0.00041460132342763245,0.023099739104509354
0.027613725513219833,0.004429136402904987,-0.018820583820343018,0.01289411075413227,-0.00039280395139940083,0.022232532501220703
0.02761593833565712,0.004070770461112261,-0.018360262736678123,0.01316355261951685,-0.0003733709454536438,0.021428637206554413
0.027602974325418472,0.004392305854707956,-0.018478497862815857,0.013296108692884445,-0.00034637711360119283,0.022189786657691002
0.027586335316300392,0.0041579012759029865,-0.01800575666129589,0.013448833487927914,-0.0003690011508297175,0.023385703563690186
0.027906417846679688,0.004382365383207798,-0.01786550134420395,0.013048224151134491,-0.0003883476310875267,0.023378264158964157
0.027873558923602104,0.0041836826130747795,-0.01830800622701645,0.013010767288506031,-0.00039194454438984394,0.02279956266283989
0.027873558923602104,0.0041836826130747795,-0.01830800622701645,0.013010767288506031,-0.00039194454438984394,0.02279956266283989
0.028490524739027023,0.003996693063527346,-0.017970865592360497,0.012798184528946877,-0.00041650611092336476,0.022901101037859917
0.027979442849755287,0.0042366026900708675,-0.018255192786455154,0.013519917614758015,-0.0005409590667113662,0.02394668199121952
0.028188733384013176,0.004503573291003704,-0.018416164442896843,0.012893745675683022,-0.0006900200969539583,0.023768151178956032
0.02826870232820511,0.004213584586977959,-0.017682576552033424,0.013353710994124413,-0.0006950665847398341,0.023007337003946304
0.028183074668049812,0.004383914638310671,-0.018453165888786316,0.01325024850666523,-0.0006695162737742066,0.02220471017062664
0.028500467538833618,0.004301479086279869,-0.01814384013414383,0.013530085794627666,-0.0006498696748167276,0.022320501506328583
0.028674373403191566,0.004343961365520954,-0.01839720457792282,0.014033029787242413,-0.0005823421524837613,0.023975178599357605
0.029015829786658287,0.004092416726052761,-0.01815391331911087,0.014290778897702694,-0.0006048903451301157,0.02401025779545307
0.02888374961912632,0.0042153713293373585,-0.018222859129309654,0.013409910723567009,-0.0005553195369429886,0.023923026397824287
0.02941904030740261,0.004518209025263786,-0.018506476655602455,0.013783290050923824,-0.0005680379108525813,0.0234744343906641
0.02940833754837513,0.004663928411900997,-0.017750125378370285,0.014096682891249657,-0.0005340972566045821,0.023311173543334007
0.029157985001802444,0.004678426776081324,-0.018177060410380363,0.014359338209033012,-0.0005627135979011655,0.023509828373789787
0.029558667913079262,0.004401125479489565,-0.018538331612944603,0.014595570042729378,-0.0005853847833350301,0.02361275441944599
0.030056046321988106,0.00421941839158535,-0.018194299191236496,0.01412922516465187,-0.000549734802916646,0.024117296561598778
0.030766978859901428,0.004246278200298548,-0.018536772578954697,0.014987194910645485,-0.000558313971851021,0.024020859971642494
0.030161559581756592,0.004413173533976078,-0.018259519711136818,0.01491339597851038,-0.000537722953595221,0.023651059716939926
0.028490737080574036,0.004605439491569996,-0.018206100910902023,0.014736993238329887,-0.0005725351511500776,0.023861048743128777
0.030287398025393486,0.00475383922457695,-0.018565045669674873,0.014685539528727531,-0.0005981673020869493,0.023891495540738106
0.03074593096971512,0.00452825240790844,-0.018182773143053055,0.01476653479039669,-0.0006244609830901027,0.023767495527863503
0.02984488382935524,0.004147789441049099,-0.01830323226749897,0.01465537678450346,-0.000780691800173372,0.024077827110886574
0.03071567788720131,0.004414445720613003,-0.018358297646045685,0.014400309883058071,-0.000847732531838119,0.024029750376939774
0.03183915466070175,0.004662394057959318,-0.017772240564227104,0.014227338135242462,-0.0008105894085019827,0.024018891155719757
0.031228791922330856,0.004658060614019632,-0.0184924453496933,0.014119372703135014,-0.0007660214905627072,0.023890316486358643
0.02952338382601738,0.004617633298039436,-0.01848617196083069,0.01447292324155569,-0.0007768937502987683,0.023962989449501038
0.030263641849160194,0.004469241946935654,-0.018079625442624092,0.01465230155736208,-0.0007067154510878026,0.02400089055299759
0.03130197525024414,0.004562873858958483,-0.018341990187764168,0.014666048809885979,-0.0006895858095958829,0.02407187782227993
0.030824866145849228,0.0046758814714848995,-0.017999298870563507,0.014575788751244545,-0.0007103991229087114,0.023734960705041885
0.03082291968166828,0.004695909563452005,-0.01844438724219799,0.014850129373371601,-0.0006406662869267166,0.023763062432408333
0.03081713803112507,0.00470643350854516,-0.01895182766020298,0.015085366554558277,-0.0006620786734856665,0.024224579334259033
0.029790813103318214,0.00484919548034668,-0.01816738210618496,0.014373010955750942,-0.0006459804135374725,0.024519357830286026
0.03014799952507019,0.004815570078790188,-0.018598100170493126,0.01482232753187418,-0.0006276401691138744,0.024624144658446312
0.03014799952507019,0.004815570078790188,-0.018598100170493126,0.01482232753187418,-0.0006276401691138744,0.024624144658446312
0.03014703467488289,0.004311667755246162,-0.018613301217556,0.014601492322981358,-0.0006183048826642334,0.02423395961523056
0.030156798660755157,0.00436873733997345,-0.01792358234524727,0.01504036970436573,-0.0005807242705486715,0.023640042170882225
0.030084198340773582,0.005112276878207922,-0.018578797578811646,0.014690191484987736,-0.0005167113849893212,0.02343028597533703
0.030599234625697136,0.005105257034301758,-0.018596641719341278,0.01508395653218031,-0.0005081652197986841,0.02425508201122284
0.030890775844454765,0.004846209194511175,-0.018224647268652916,0.014849131926894188,-0.0005011340836063027,0.024350203573703766
0.030683735385537148,0.00474865036085248,-0.019032184034585953,0.015293058939278126,-0.00046095505240373313,0.02430841699242592
0.03093903139233589,0.004700453486293554,-0.018995346501469612,0.015619417652487755,-0.0004591430479194969,0.025455616414546967
0.03064717911183834,0.004618332255631685,-0.019016211852431297,0.014817634597420692,-0.0004850862897001207,0.025185031816363335
0.030465980991721153,0.004844160284847021,-0.018900537863373756,0.015285182744264603,-0.0004758957657031715,0.024583816528320312
0.031175173819065094,0.004768696613609791,-0.01841110736131668,0.014903351664543152,-0.0005129565834067762,0.024003982543945312
0.031872063875198364,0.004838817287236452,-0.018987877294421196,0.01522143092006445,-0.0004880074702668935,0.024408482015132904
0.03116101585328579,0.004777191672474146,-0.019262222573161125,0.014745252206921577,-0.0005183109897188842,0.02545476146042347
0.02989288419485092,0.004543800372630358,-0.019432032480835915,0.01501418650150299,-0.000547346833627671,0.025529054924845695
0.03028392605483532,0.004565585870295763,-0.019047575071454048,0.014915809035301208,-0.0007610753527842462,0.025141078978776932
0.0317118763923645,0.004663409665226936,-0.018947087228298187,0.0158532802015543,-0.0007224581786431372,0.025078926235437393
0.03130263835191727,0.004649721551686525,-0.018898852169513702,0.015910575166344643,-0.0006270657759159803,0.025103958323597908
0.03166921064257622,0.00475979782640934,-0.01950397901237011,0.015770284458994865,-0.000652426271699369,0.024865934625267982
0.032021988183259964,0.0047930823639035225,-0.019736463204026222,0.016059506684541702,-0.0005879671662114561,0.0250606257468462
0.031956590712070465,0.004689056891947985,-0.019344588741660118,0.01554430928081274,-0.0005731365527026355,0.02498316578567028
0.031051773577928543,0.004620993975549936,-0.01974829100072384,0.015590750612318516,-0.0005605749320238829,0.02513263188302517
0.0311310812830925,0.004490572959184647,-0.01922251097857952,0.014917599968612194,-0.000552798097487539,0.0255469661206007
0.031403981149196625,0.004593790974467993,-0.01882455311715603,0.015538476407527924,-0.0005437490181066096,0.02547152154147625
0.03164023160934448,0.004637615289539099,-0.018708838149905205,0.014641956426203251,-0.0005075409426353872,0.025728920474648476
0.03178340569138527,0.004832567181438208,-0.019466925412416458,0.015354189090430737,-0.00047423041542060673,0.025510285049676895
0.03170369565486908,0.005160490982234478,-0.01928875781595707,0.015254448167979717,-0.00042109243804588914,0.026370694860816002
0.03141111135482788,0.004836353473365307,-0.01935860887169838,0.015686601400375366,-0.0003666621050797403,0.025787750259041786
0.03182997554540634,0.004312962759286165,-0.019639335572719574,0.01529699470847845,-0.00033779305522330105,0.025324448943138123
0.03191184252500534,0.004943417850881815,-0.019400356337428093,0.015206459909677505,-0.00036836674553342164,0.02571749873459339
0.032303277403116226,0.004882435314357281,-0.019900407642126083,0.015313822776079178,-0.00038029643474146724,0.026084598153829575
0.032303277403116226,0.004882435314357281,-0.019900407642126083,0.015313822776079178,-0.00038029643474146724,0.026084598153829575
0.032092176377773285,0.005104491021484137,-0.0196541640907526,0.01567225344479084,-0.0004106603155378252,0.026408370584249496
0.03199924901127815,0.005113780964165926,-0.018942683935165405,0.015514994971454144,-0.0004135297203902155,0.02622395008802414
0.032436758279800415,0.005154064390808344,-0.019585199654102325,0.015437480062246323,-0.0005967832985334098,0.025987941771745682
0.03262439742684364,0.004622667096555233,-0.01993745006620884,0.015447302721440792,-0.0006575029110535979,0.025847287848591805
0.032119497656822205,0.005084433127194643,-0.01922462321817875,0.015269977040588856,-0.0006790417828597128,0.025826001539826393
0.032799217849969864,0.005175745580345392,-0.020141009241342545,0.0148139214143157,-0.0006493731052614748,0.02613665722310543
0.03262163698673248,0.004896883387118578,-0.01913268305361271,0.015479776076972485,-0.0007961076917126775,0.02622414194047451
0.03279154375195503,0.004610220901668072,-0.01951189525425434,0.015271817333996296,-0.0008092558127827942,0.02611469104886055
0.03300310671329498,0.004585570655763149,-0.019683601334691048,0.016245471313595772,-0.0007184286369010806,0.026053519919514656
0.032454364001750946,0.0046506901271641254,-0.01944713108241558,0.016373177990317345,-0.0007328889914788306,0.026021450757980347
0.033145058900117874,0.004993217997252941,-0.019917922094464302,0.016413424164056778,-0.0007077218033373356,0.026021748781204224
0.0333297997713089,0.005097422283142805,-0.019787151366472244,0.016503406688570976,-0.0006819767295382917,0.02644510008394718
0.033558692783117294,0.00507669523358345,-0.01975589618086815,0.016434993594884872,-0.0006303677801042795,0.026996612548828125
0.034116778522729874,0.005044517107307911,-0.01988060586154461,0.01684006303548813,-0.000576451129745692,0.027373526245355606
0.03388218954205513,0.004888049326837063,-0.019879253581166267,0.016789834946393967,-0.0006004899041727185,0.026849128305912018
0.03338288143277168,0.004768216051161289,-0.01968337967991829,0.01717665232717991,-0.00061839260160923,0.025896210223436356
0.033584244549274445,0.005206666421145201,-0.019283438101410866,0.017006399109959602,-0.0005826265551149845,0.026171991601586342
0.034000277519226074,0.005198050756007433,-0.01969308964908123,0.016819465905427933,-0.0006054792320355773,0.026886429637670517
0.034873396158218384,0.004914960823953152,-0.01952800713479519,0.017017319798469543,-0.0007262415601871908,0.02667788788676262
0.03542512655258179,0.004727636929601431,-0.019734594970941544,0.016403445973992348,-0.0008308711694553494,0.026679648086428642
0.033382922410964966,0.004735550843179226,-0.02008642815053463,0.01693824492394924,-0.0008450191235169768,0.027906471863389015
0.0337386317551136,0.004749083425849676,-0.019594812765717506,0.01693318411707878,-0.0008032040204852819,0.02750099077820778
0.034760814160108566,0.00473011564463377,-0.01928378827869892,0.01716003753244877,-0.0008947200258262455,0.026458626613020897
0.034716468304395676,0.005172262899577618,-0.019927507266402245,0.017293835058808327,-0.0007975376793183386,0.026776917278766632
0.03573944792151451,0.0051330821588635445,-0.020745446905493736,0.017002195119857788,-0.0007791029056534171,0.02758239582180977
0.03461600840091705,0.0047589135356247425,-0.019811473786830902,0.017319953069090843,-0.0007633441709913313,0.028403466567397118
0.03403406962752342,0.004353073425590992,-0.02006089873611927,0.016749167814850807,-0.0007271421491168439,0.02801758609712124
0.033921293914318085,0.004834419582039118,-0.020040374249219894,0.017305921763181686,-0.0007353433757089078,0.02735801227390766
0.03537283465266228,0.004912032745778561,-0.019565843045711517,0.01678229123353958,-0.0006074788980185986,0.027445737272500992
0.03469742834568024,0.005165912210941315,-0.019898461177945137,0.01696077734231949,-0.000614201941061765,0.027625055983662605
0.03560125082731247,0.0049524917267262936,-0.02045377902686596,0.016707921400666237,-0.0005729069234803319,0.027509981766343117
0.03560125082731247,0.0049524917267262936,-0.02045377902686596,0.016707921400666237,-0.0005729069234803319,0.027509981766343117
0.03554139658808708,0.004668096080422401,-0.019913770258426666,0.017116103321313858,-0.0005938277463428676,0.027474092319607735
0.034956496208906174,0.0047594355419278145,-0.02036619745194912,0.017261533066630363,-0.0006098350859247148,0.027492867782711983
0.03567906469106674,0.0047798920422792435,-0.020887605845928192,0.017313595861196518,-0.0006767748855054379,0.027631564065814018
0.03510168194770813,0.004844531416893005,-0.020419640466570854,0.017426278442144394,-0.0007863811915740371,0.027645092457532883
0.03505956381559372,0.004820914473384619,-0.02006828971207142,0.016927633434534073,-0.000814391823951155,0.02784428745508194
0.03604000806808472,0.0045583536848425865,-0.021084105595946312,0.017390577122569084,-0.0008251174003817141,0.027682075276970863
0.03558612987399101,0.003521667793393135,-0.020200708881020546,0.017265496775507927,-0.000746340025216341,0.027794385328888893
0.03548461198806763,0.003162294626235962,-0.019900796934962273,0.016699109226465225,-0.0006825173040851951,0.028012700378894806
0.03551211208105087,0.0034565520472824574,-0.020525958389043808,0.01685616932809353,-0.0007186155999079347,0.02812991663813591
0.03712021932005882,0.0039268662221729755,-0.021108832210302353,0.016495712101459503,-0.000627772300504148,0.028334448114037514
0.036708634346723557,0.004070481285452843,-0.02059204690158367,0.017337612807750702,-0.0006315511418506503,0.028523912653326988
0.034793030470609665,0.003811514237895608,-0.020362980663776398,0.01734122633934021,-0.000587309303227812,0.02837354876101017
0.03580037131905556,0.00364379002712667,-0.020705629140138626,0.017176467925310135,-0.0005310824490152299,0.02825297974050045
0.03658745810389519,0.0036236655432730913,-0.020436590537428856,0.017536312341690063,-0.0005224788910709321,0.028116632252931595
0.03563571721315384,0.003487961832433939,-0.020367905497550964,0.016752637922763824,-0.0005150355282239616,0.02851005084812641
0.03691869229078293,0.003551201429218054,-0.020614130422472954,0.017188502475619316,-0.00047822805936448276,0.029243551194667816
0.036935750395059586,0.0038698611315339804,-0.02083141729235649,0.01697256788611412,-0.0004912983858957887,0.028820816427469254
0.03556610643863678,0.0039025291334837675,-0.0207069031894207,0.017337864264845848,-0.0004742377786897123,0.027931710705161095
0.03559708967804909,0.003596779191866517,-0.020469127222895622,0.01791742444038391,-0.00041324427002109587,0.027627117931842804
0.036742888391017914,0.0035056527704000473,-0.02062663622200489,0.017249200493097305,-0.000442457472672686,0.02849200740456581
0.03661336377263069,0.0038802996277809143,-0.020872531458735466,0.017785631120204926,-0.0004681558348238468,0.028437066823244095
0.03621398285031319,0.004043848719447851,-0.0205547995865345,0.017283396795392036,-0.0004510692961048335,0.028633635491132736
0.03621398285031319,0.004043848719447851,-0.0205547995865345,0.017283396795392036,-0.0004510692961048335,0.028633635491132736
0.036522675305604935,0.0035885339602828026,-0.021303346380591393,0.01775793544948101,-0.0004514526226557791,0.029491091147065163
0.036445725709199905,0.0034212374594062567,-0.020833194255828857,0.01782119646668434,-0.0006260358495637774,0.02890772931277752
0.036445725709199905,0.0034212374594062567,-0.020833194255828857,0.01782119646668434,-0.0006260358495637774,0.02890772931277752
0.03627052158117294,0.003961158916354179,-0.020618252456188202,0.01765722781419754,-0.0006425309693440795,0.02950448729097843
0.03692642226815224,0.003855369985103607,-0.02016565576195717,0.017686281353235245,-0.000656337128020823,0.029612910002470016
0.03681061044335365,0.003632792504504323,-0.02073177881538868,0.016945458948612213,-0.0006105097127147019,0.029105516150593758
0.036911096423864365,0.0035160593688488007,-0.02089233696460724,0.017378032207489014,-0.0006355874356813729,0.02925320714712143
0.036911096423864365,0.0035160593688488007,-0.02089233696460724,0.017378032207489014,-0.0006355874356813729,0.02925320714712143
0.037279918789863586,0.003428893629461527,-0.020290525630116463,0.01788494922220707,-0.0006366341258399189,0.029161177575588226
0.03674083575606346,0.0037261603865772486,-0.02030189521610737,0.018163979053497314,-0.0006152751157060266,0.0289412010461092
0.036479149013757706,0.003990697208791971,-0.020929545164108276,0.018679050728678703,-0.0006349220057018101,0.02910437434911728
0.037742290645837784,0.003791256807744503,-0.02074071764945984,0.018537135794758797,-0.0005867522559128702,0.02957742288708687
0.037669166922569275,0.003452619770541787,-0.02012433484196663,0.018487699329853058,-0.0006035526748746634,0.02928216941654682
0.03717968612909317,0.003476209007203579,-0.020401237532496452,0.019693948328495026,-0.0006312431651167572,0.02940058894455433
0.03698781132698059,0.0036705785896629095,-0.020691970363259315,0.019083179533481598,-0.0006987217348068953,0.02953939139842987
0.037257272750139236,0.003973671235144138,-0.02034931443631649,0.01844700798392296,-0.0007250659400597215,0.02937529794871807
0.03743671998381615,0.003815647680312395,-0.020563948899507523,0.018922653049230576,-0.0007440350600518286,0.029832251369953156
0.037921469658613205,0.0035308983642607927,-0.02124706655740738,0.018597092479467392,-0.0008542131981812418,0.03021884709596634
0.03745456039905548,0.0035259120631963015,-0.020854897797107697,0.018593305721879005,-0.0009300948004238307,0.03005296178162098
0.03776491805911064,0.003919132053852081,-0.020080886781215668,0.018644647672772408,-0.0009299586527049541,0.03019537404179573
0.03720682114362717,0.003906311001628637,-0.020671002566814423,0.018912965431809425,-0.0008668970549479127,0.030605150386691093
0.037979066371917725,0.003812510287389159,-0.02136077918112278,0.01895168237388134,-0.0008669095695950091,0.030325639992952347
0.037979066371917725,0.003812510287389159,-0.02136077918112278,0.01895168237388134,-0.0008669095695950091,0.030325639992952347
0.03705163300037384,0.0037784320302307606,-0.021127957850694656,0.018325213342905045,-0.0008181477896869183,0.03052983619272709
0.03634526953101158,0.004250121768563986,-0.021276889368891716,0.018365541473031044,-0.0008284313371405005,0.030518781393766403
0.03634526953101158,0.004250121768563986,-0.021276889368891716,0.018365541473031044,-0.0008284313371405005,0.030518781393766403
0.03824135661125183,0.00407176511362195,-0.021581416949629784,0.018776098266243935,-0.0008374083554372191,0.029806863516569138
0.038635361939668655,0.003952238243073225,-0.02050909586250782,0.018446801230311394,-0.000796416774392128,0.030702417716383934
0.039298027753829956,0.004342544823884964,-0.021799778565764427,0.018327277153730392,-0.0007345937774516642,0.03056512027978897
0.037237804383039474,0.0048425584100186825,-0.021480392664670944,0.018044400960206985,-0.0007255413802340627,0.03154371306300163
0.03789703920483589,0.004351034760475159,-0.0204707533121109,0.018677491694688797,-0.0007450307602994144,0.03154173120856285
0.03937899321317673,0.0038967246655374765,-0.02142120525240898,0.0186251699924469,-0.0007619808311574161,0.030618181452155113
0.038790687918663025,0.003945608157664537,-0.02174447290599346,0.018538780510425568,-0.0007691530627198517,0.030290769413113594
0.03842802718281746,0.004034796729683876,-0.021481255069375038,0.01879572682082653,-0.0007089583668857813,0.03153251111507416
0.03893201798200607,0.0039508952759206295,-0.0208562221378088,0.018436959013342857,-0.0007296242984011769,0.031248975545167923
0.038607582449913025,0.00428840471431613,-0.021055476740002632,0.018678681924939156,-0.0007283040904439986,0.031903140246868134
0.03877431899309158,0.004523712210357189,-0.020751122385263443,0.019056079909205437,-0.0007212382624857128,0.03196927160024643
0.03872903808951378,0.004365560598671436,-0.020665792748332024,0.018862618133425713,-0.0006949063390493393,0.03148452937602997
0.03869560360908508,0.0044787004590034485,-0.02079915441572666,0.018693560734391212,-0.0007128820288926363,0.030364785343408585
0.03821823373436928,0.0041993786580860615,-0.021634705364704132,0.018435612320899963,-0.000736289075575769,0.030072182416915894
0.038919929414987564,0.0039634378626942635,-0.02159019559621811,0.01841014251112938,-0.0007562330574728549,0.031539857387542725
0.03930072486400604,0.0038426907267421484,-0.02066010795533657,0.019237538799643517,-0.0007719463901594281,0.031803928315639496
0.039261605590581894,0.004038569983094931,-0.020856063812971115,0.01959906704723835,-0.0009423330775462091,0.03156581521034241
0.03766776993870735,0.004210053011775017,-0.021449023857712746,0.01929382048547268,-0.0009513213881291449,0.031319987028837204
0.038941334933042526,0.004329911433160305,-0.0213032029569149,0.019375277683138847,-0.0009264230611734092,0.031134959310293198
0.03856533765792847,0.003999370615929365,-0.02066759392619133,0.019190534949302673,-0.0008920130203478038,0.03144066408276558
0.0397721603512764,0.004344851244240999,-0.021305948495864868,0.018865758553147316,-0.0008439391967840493,0.03177899867296219
0.03929005190730095,0.0045509496703743935,-0.021581683307886124,0.01919456757605076,-0.0008675134158693254,0.03149088844656944
0.038096025586128235,0.004410882946103811,-0.02140500769019127,0.01943979784846306,-0.0008735107840038836,0.03144724667072296
0.037977151572704315,0.004065703134983778,-0.020890571177005768,0.018955692648887634,-0.0008771558059379458,0.03129119798541069
0.0396340973675251,0.004247007425874472,-0.02143346145749092,0.019081616774201393,-0.0008299229666590691,0.031727418303489685
0.03978238254785538,0.004592885263264179,-0.021661002188920975,0.019310247153043747,-0.0009012097143568099,0.03230665996670723
0.03915957361459732,0.004202878102660179,-0.02133163809776306,0.01967327669262886,-0.0008474848582409322,0.030757786706089973
0.03915957361459732,0.004202878102660179,-0.02133163809776306,0.01967327669262886,-0.0008474848582409322,0.030757786706089973
0.03919818624854088,0.004445098340511322,-0.0215347521007061,0.019862502813339233,-0.0007888893014751375,0.032312046736478806
0.03989604115486145,0.004216353874653578,-0.022029956802725792,0.02018710970878601,-0.0007907678955234587,0.0326998271048069
0.039775580167770386,0.004812493454664946,-0.02131938934326172,0.019066059961915016,-0.0006750772008672357,0.032434675842523575
0.039640218019485474,0.004318310879170895,-0.021979307755827904,0.01930823363363743,-0.0006904472247697413,0.03250344097614288
