davideferrari95/blind_handover_controller/data/Test 143 - [2024-02-07 -- 17-26-12]/joint_states_data.csv
shoulder_pan_joint,shoulder_lift_joint,elbow_joint,wrist_1_joint,wrist_2_joint,wrist_3_joint
0.004580861423164606,-0.0019954859744757414,-0.0075280796736478806,0.008939305320382118,0.0,0.00467756949365139
0.005026679020375013,-0.001977538224309683,-0.007729345001280308,0.00864679180085659,0.0,0.005065579898655415
0.005026679020375013,-0.001977538224309683,-0.007729345001280308,0.00864679180085659,0.0,0.005065579898655415
0.0048933811485767365,-0.0017678297590464354,-0.00797706563025713,0.008761388249695301,0.0,0.005085519514977932
0.004752122797071934,-0.0016256080707535148,-0.006588781252503395,0.009189906530082226,0.0,0.004957194440066814
0.0044919466599822044,-0.0014543862780556083,-0.0077014402486383915,0.009256131947040558,0.0,0.0051544420421123505
0.004561490844935179,-0.0015258364146575332,-0.0076817795634269714,0.009077945724129677,0.0,0.005376489367336035
0.004498101305216551,-0.001745948102325201,-0.006989363580942154,0.009411631152033806,0.0,0.004892115015536547
0.004521662835031748,-0.0021863714791834354,-0.006989039480686188,0.009372331202030182,0.0,0.0048586586490273476
0.004285646136850119,-0.0019465023651719093,-0.007286257576197386,0.00884168315678835,0.0,0.004872669465839863
0.004371033050119877,-0.0018507855711504817,-0.007800066843628883,0.008816670626401901,0.0,0.0047155991196632385
0.004627101588994265,-0.0018362733535468578,-0.007053575478494167,0.009350692853331566,0.0,0.005062233656644821
0.004682082217186689,-0.0018273595487698913,-0.006543561350554228,0.009050602093338966,0.0,0.005526391789317131
0.004676783923059702,-0.001824228442274034,-0.007233611308038235,0.00968195404857397,0.0,0.005174410063773394
0.004434150643646717,-0.0021052942611277103,-0.008357759565114975,0.009059842675924301,0.0,0.004743702244013548
0.0043953596614301205,-0.0019345504697412252,-0.007316955365240574,0.008612612262368202,0.0,0.004665384069085121
0.004560227505862713,-0.002121108816936612,-0.006475905422121286,0.008801685646176338,0.0,0.004697320982813835
0.004601795691996813,-0.0018982611363753676,-0.006367236841470003,0.009351784363389015,0.0,0.005077745765447617
0.004323349334299564,-0.0017850089352577925,-0.007136629894375801,0.008756491355597973,0.0,0.005050653126090765
0.00451265275478363,-0.0017871104646474123,-0.007173244375735521,0.008383044973015785,0.0,0.005148299969732761
0.00461166026070714,-0.0020408076234161854,-0.006850883364677429,0.00889176782220602,0.0,0.005373534746468067
0.004494379740208387,-0.0018473627278581262,-0.006917701568454504,0.008771607652306557,0.0,0.005266170483082533
0.004568100441247225,-0.002071228576824069,-0.007024134509265423,0.008716225624084473,0.0,0.005301413591951132
0.004568100441247225,-0.002071228576824069,-0.007024134509265423,0.008716225624084473,0.0,0.005301413591951132
0.004375000949949026,-0.0018225101521238685,-0.006901743356138468,0.008440165780484676,0.0,0.0049164374358952045
0.004103042185306549,-0.001819490920752287,-0.006227622739970684,0.0081369299441576,0.0,0.0049269236624240875
0.004255734384059906,-0.0018440709682181478,-0.006882112007588148,0.008693481795489788,0.0,0.005371687468141317
0.004586075898259878,-0.0018378678942099214,-0.007113806903362274,0.008876082487404346,0.0,0.005273777060210705
0.004713083617389202,-0.0018376674270257354,-0.006629418581724167,0.008693531155586243,0.0,0.0052106804214417934
0.004236273933202028,-0.0016748178750276566,-0.0070814648643136024,0.00885093305259943,0.0,0.004934568889439106
0.004236273933202028,-0.0016748178750276566,-0.0070814648643136024,0.00885093305259943,0.0,0.004934568889439106
0.004401945974677801,-0.0016090739518404007,-0.006634851451963186,0.00925501249730587,0.0,0.00478732492774725
0.00413288502022624,-0.0016223130514845252,-0.007007731590420008,0.008943228051066399,0.0,0.005294238217175007
0.004277384374290705,-0.0018354583298787475,-0.006683014798909426,0.009121336042881012,0.0,0.0056752050295472145
0.004670803900808096,-0.0019475248409435153,-0.0064821732230484486,0.008665450848639011,0.0,0.004805280826985836
0.004587135277688503,-0.0019642577972263098,-0.007185420021414757,0.008246755227446556,0.0,0.004870952572673559
0.0041298274882137775,-0.0018461375730112195,-0.006803906988352537,0.008954359218478203,0.0,0.005225237458944321
0.004163585603237152,-0.0018472865922376513,-0.006204624194651842,0.009502045810222626,0.0,0.005313814152032137
0.004583584610372782,-0.0016531182918697596,-0.006556822918355465,0.008591375313699245,0.0,0.005175607744604349
0.004298036452382803,-0.0015844121808186173,-0.006718666758388281,0.008331414312124252,0.0,0.004880205728113651
0.004520864225924015,-0.0016324013704434037,-0.007503211032599211,0.00818259734660387,0.0,0.0046815467067062855
0.004749177023768425,-0.0018190466798841953,-0.006645514164119959,0.008494247682392597,0.0,0.0047347997315227985
0.004300501197576523,-0.0018244312377646565,-0.006397118791937828,0.008407969027757645,0.0,0.00468702707439661
0.004192289896309376,-0.001995920902118087,-0.006828105542808771,0.008565257303416729,0.0,0.004626705311238766
0.004028392489999533,-0.0019530161516740918,-0.007553535979241133,0.00857495702803135,0.0,0.005022927187383175
0.003924667369574308,-0.0019267738098278642,-0.007054914254695177,0.008744658902287483,0.0,0.005325281992554665
0.004355951678007841,-0.0018337609944865108,-0.006216739304363728,0.008643552660942078,0.0,0.005363136064261198
0.00467862281948328,-0.0018038059351965785,-0.006282739341259003,0.00890213530510664,0.0,0.005035113543272018
0.00467862281948328,-0.0018038059351965785,-0.006282739341259003,0.00890213530510664,0.0,0.005035113543272018
0.004272972233593464,-0.0020127338357269764,-0.007085164077579975,0.008425280451774597,0.0,0.004985050298273563
0.004272972233593464,-0.0020127338357269764,-0.007085164077579975,0.008425280451774597,0.0,0.004985050298273563
0.004214721731841564,-0.002052226336672902,-0.006451887544244528,0.008392112329602242,0.0,0.004834863822907209
0.004016670398414135,-0.002052712021395564,-0.006079644896090031,0.00862214807420969,0.0,0.0047789886593818665
0.004344064276665449,-0.0019301058491691947,-0.006483903154730797,0.00885588489472866,0.0,0.004909739829599857
0.004711017943918705,-0.0018382029375061393,-0.006836632266640663,0.008542303927242756,0.0,0.005331441760063171
0.004807121120393276,-0.00183059461414814,-0.00652427738532424,0.008620206266641617,0.0,0.0052894484251737595
0.004539842251688242,-0.0017048002919182181,-0.006458637770265341,0.008725847117602825,0.0,0.004944322630763054
0.004288963973522186,-0.001729778479784727,-0.006547070574015379,0.008168610744178295,0.0,0.004642448388040066
0.004227609373629093,-0.0017552835633978248,-0.006434733513742685,0.009390165098011494,0.0,0.004907357040792704
0.004450707230716944,-0.0016185390995815396,-0.006386775989085436,0.008454820141196251,0.0,0.005163765978068113
0.004194417968392372,-0.0018961654277518392,-0.006591267883777618,0.00823499821126461,0.0,0.005006565246731043
0.004366195760667324,-0.001776067540049553,-0.006479338742792606,0.009009450674057007,0.0,0.005093755666166544
0.004576633684337139,-0.002100148471072316,-0.006288798060268164,0.008360426872968674,0.0,0.004902362357825041
0.004697124939411879,-0.0018563305493444204,-0.006501807831227779,0.007835429161787033,0.0,0.004877902567386627
0.0041633895598351955,-0.0015417956747114658,-0.006747688166797161,0.008723217993974686,0.0,0.004723215475678444
0.004391516093164682,-0.001294887624680996,-0.00647765351459384,0.008600949309766293,0.0,0.004789398517459631
0.004162221681326628,-0.0012556591536849737,-0.00619952566921711,0.007924153469502926,0.0,0.005069790408015251
0.0044206115417182446,-0.0012085068738088012,-0.006732509471476078,0.00776601443067193,0.0,0.0048979101702570915
0.004509706515818834,-0.0012866149190813303,-0.006420907564461231,0.008228810504078865,0.0,0.004890885204076767
0.004335892386734486,-0.0013889219844713807,-0.006504843942821026,0.008698651567101479,0.0,0.005037272814661264
0.004400008358061314,-0.0018255359027534723,-0.006228722631931305,0.008091995492577553,0.0,0.004863814916461706
0.004619838669896126,-0.0018355714855715632,-0.006539888679981232,0.00839204341173172,0.0,0.004775922279804945
0.004594814032316208,-0.001580044045113027,-0.006885613314807415,0.008732554502785206,0.0,0.005051842890679836
0.004187613260000944,-0.0014321053167805076,-0.006092478521168232,0.008772024884819984,0.0,0.005169042386114597
0.004163836594671011,-0.001319774892181158,-0.005959852132946253,0.009938964620232582,0.0,0.005106794182211161
0.004163836594671011,-0.001319774892181158,-0.005959852132946253,0.009938964620232582,0.0,0.005106794182211161
0.004815740045160055,-0.0012748263543471694,-0.0065546790137887,0.008196158334612846,0.0,0.004971155431121588
0.004786658566445112,-0.0012319409288465977,-0.006865592207759619,0.008960720151662827,0.0,0.0047969757579267025
0.004869384691119194,-0.0013219090178608894,-0.006546749733388424,0.009077813476324081,0.0,0.0050707063637673855
0.004592920187860727,-0.0016501422505825758,-0.006091012619435787,0.00920103956013918,0.0,0.005056831985712051
0.004249428864568472,-0.0015527241630479693,-0.006251986604183912,0.008844736963510513,0.0,0.004872402176260948
0.004413575865328312,-0.0014569830382242799,-0.006052355747669935,0.009287661872804165,0.0,0.004728694446384907
0.004768555052578449,-0.0014476070646196604,-0.006568659096956253,0.009263097308576107,0.0,0.004999015014618635
0.004991583526134491,-0.0013062705984339118,-0.006045936141163111,0.008449174463748932,0.0,0.004982497543096542
0.004725736565887928,-0.0013147096615284681,-0.006130339112132788,0.008682643063366413,0.0,0.0052459049038589
0.004656546749174595,-0.0013633728958666325,-0.0063733384013175964,0.009000666439533234,0.0,0.004991482011973858
0.004281793255358934,-0.0013493989827111363,-0.006604415830224752,0.008525666780769825,0.0,0.005061658099293709
0.004032702650874853,-0.0014512711204588413,-0.006508371792733669,0.008152134716510773,0.0,0.00536844739690423
0.004288447089493275,-0.0013920289929956198,-0.006432502064853907,0.008824159391224384,0.0,0.0051354640163481236
0.004594767466187477,-0.0015615555457770824,-0.0060613639652729034,0.008990061469376087,0.0,0.005039800424128771
0.004566725343465805,-0.0014839100185781717,-0.0065386611968278885,0.008310825563967228,0.0,0.00518407067283988
0.0045729163102805614,-0.001387313473969698,-0.006617974489927292,0.008495326153934002,0.0,0.005162411835044622
0.00427104951813817,-0.0013513765297830105,-0.006725553423166275,0.008737781085073948,0.0,0.005287395790219307
0.004241817630827427,-0.001301407814025879,-0.006226349622011185,0.008258058689534664,0.0,0.005176462698727846
0.0041565364226698875,-0.0012449206551536918,-0.006137671414762735,0.00854662898927927,0.0,0.0050842901691794395
0.004484395030885935,-0.0013415416469797492,-0.00696695689111948,0.008956587873399258,0.0,0.005531063303351402
0.0045567965134978294,-0.0012724901316687465,-0.006929553579539061,0.008210125379264355,0.0,0.005299211014062166
0.004815485794097185,-0.0014418034115806222,-0.006142907775938511,0.007997443899512291,0.0,0.004758709575980902
0.004815485794097185,-0.0014418034115806222,-0.006142907775938511,0.007997443899512291,0.0,0.004758709575980902
0.0045598638243973255,-0.0015591615810990334,-0.006123737432062626,0.008867207914590836,0.0,0.004681279417127371
0.00437478581443429,-0.0014745498774573207,-0.006915070116519928,0.008621531538665295,0.0,0.0048900386318564415
0.00443292735144496,-0.0013856153236702085,-0.0069767143577337265,0.008103553205728531,0.0,0.004893613513559103
0.004543257411569357,-0.0012861074646934867,-0.0065367138013243675,0.008351342752575874,0.0,0.005162790883332491
0.004876389168202877,-0.0012112585827708244,-0.006277105771005154,0.00906948372721672,0.0,0.0050645931623876095
0.004724389407783747,-0.001160613028332591,-0.006387302652001381,0.008703921921551228,0.0,0.0047866906970739365
0.0046890005469322205,-0.0011591602815315127,-0.0069740149192512035,0.008348759263753891,0.0,0.004657895769923925
0.004608752205967903,-0.0012735924683511257,-0.006980891339480877,0.008778342045843601,0.0,0.004634079989045858
0.004276905208826065,-0.0014363665832206607,-0.006677338387817144,0.008925830014050007,0.0,0.004830735735595226
0.004650556016713381,-0.0015069200890138745,-0.006669357884675264,0.008590255863964558,0.0,0.004817944951355457
0.0050790091045200825,-0.001342137809842825,-0.007097071968019009,0.008819143287837505,0.0,0.004648646339774132
0.004948429763317108,-0.0012437647674232721,-0.00693605188280344,0.008675118908286095,0.0,0.004435457289218903
0.0045708040706813335,-0.0012873470550403,-0.0067733461037278175,0.008560020476579666,0.0,0.004418706987053156
0.005111280828714371,-0.0011795328464359045,-0.006547223776578903,0.009005616419017315,0.0,0.005019119009375572
0.004883609712123871,-0.0012602652423083782,-0.007391927298158407,0.008855351246893406,0.0,0.005281750578433275
0.0048431698232889175,-0.0012401000130921602,-0.007268071174621582,0.00834512896835804,2.020659849222284e-06,0.005200866609811783
0.004856150131672621,-0.0016015045111998916,-0.0067354352213442326,0.008783252909779549,1.3193465520089376e-07,0.004839126951992512
0.005211288575083017,-0.0016055279411375523,-0.006528003606945276,0.00877300649881363,8.614390090144752e-09,0.004499403759837151
0.005089643411338329,-0.0015405449084937572,-0.007304383907467127,0.008417945355176926,5.624581356222791e-10,0.0045841108076274395
0.004636935889720917,-0.0015959182055667043,-0.007052979897707701,0.008993562310934067,3.672449497282848e-11,0.004921405576169491
0.004851344041526318,-0.0015014233067631721,-0.0067979274317622185,0.008398657664656639,2.3978471118402123e-12,0.005252462811768055
0.00527770072221756,-0.0013396330177783966,-0.006632808595895767,0.007959322072565556,1.5656227670638595e-13,0.005290578119456768
0.005176368169486523,-0.0014325478114187717,-0.007279917597770691,0.007538586389273405,1.0222397642180737e-14,0.005123324226588011
0.004845547955483198,-0.0016232227208092809,-0.00812847912311554,0.00872740987688303,6.674494687004167e-16,0.004801829811185598
0.004690281581133604,-0.001772823859937489,-0.006888568866997957,0.008719312027096748,4.357968300883369e-17,0.0046781497076153755
0.0046974788419902325,-0.0016070117708295584,-0.00675338925793767,0.008078871294856071,2.8454417501783114e-18,0.00472341338172555
0.004653092008084059,-0.0016316405963152647,-0.007060934789478779,0.008300131186842918,1.8578702740139747e-19,0.005103996954858303
0.005087039899080992,-0.0014793905429542065,-0.007309858221560717,0.009085986763238907,1.2130564908998937e-20,0.005581574980169535
0.005150143522769213,-0.00139517686329782,-0.0070723784156143665,0.008655632846057415,7.920391690101621e-22,0.005395882297307253
0.00511966971680522,-0.0013550948351621628,-0.00689223688095808,0.008168594911694527,5.1714505549239853e-23,0.005024912301450968
0.005277443211525679,-0.0014017138164490461,-0.007033693138509989,0.008580430410802364,3.376587759457822e-24,0.004706860054284334
0.005277443211525679,-0.0014017138164490461,-0.007033693138509989,0.008580430410802364,3.376587759457822e-24,0.004706860054284334
0.004958400037139654,-0.001455225283280015,-0.007576076313853264,0.00856610108166933,2.20467049398062e-25,0.004481142852455378
0.004999477881938219,-0.0015466714976355433,-0.006894244812428951,0.008278224617242813,1.4394924257295074e-26,0.004569775890558958
0.00527841504663229,-0.0016823385376483202,-0.007154613267630339,0.008330645971000195,9.398855907050535e-28,0.005037566646933556
0.005462287459522486,-0.0016206771833822131,-0.008162069134414196,0.008493470959365368,4.0068799460208e-30,0.005084686446934938
0.005247996188700199,-0.0015622754581272602,-0.00726826349273324,0.008449907414615154,2.6162063231646713e-31,0.004683193750679493
0.005032417830079794,-0.0014622180024161935,-0.006352162454277277,0.00917484425008297,1.7081959175835067e-32,0.004754793830215931
0.005596143193542957,-0.0014010485028848052,-0.006755789741873741,0.008969878777861595,1.1153298867178143e-33,0.004789970815181732
0.005365526769310236,-0.0014503671554848552,-0.007222630549222231,0.008449465036392212,7.282307463460927e-35,0.005210869945585728
0.0053323423489928246,-0.001508005429059267,-0.007498587481677532,0.008433963172137737,4.754826578933633e-36,0.00514376163482666
0.005066006910055876,-0.0016393252881243825,-0.006509725470095873,0.008357451297342777,3.104561949999849e-37,0.00481643108651042
0.005279827862977982,-0.001556562609039247,-0.006413526367396116,0.008305820636451244,2.0270572618792358e-38,0.004676614888012409
0.005433803889900446,-0.0016051004640758038,-0.006999254692345858,0.007669372018426657,1.323523596957861e-39,0.004838976077735424
0.005226482171565294,-0.0016514770686626434,-0.008001291193068027,0.008581116795539856,8.641667499644714e-41,0.004975943826138973
0.005284358747303486,-0.0015379037940874696,-0.00756133534014225,0.008346891961991787,5.6430289158360383e-42,0.00554821640253067
0.004963652230799198,-0.0013554638717323542,-0.006673170253634453,0.008323156274855137,3.685414961174269e-43,0.005337302107363939
0.004789710510522127,-0.0013923816150054336,-0.007299328688532114,0.008485452271997929,2.382207389352189e-44,0.004913257900625467
0.004764240700751543,-0.0013413180131465197,-0.007013214752078056,0.008557497523725033,1.401298464324817e-45,0.00460073072463274
0.004674270749092102,-0.0012328904122114182,-0.008207164704799652,0.007937516085803509,0.0,0.004669310059398413
0.004904618486762047,-0.0012991534313187003,-0.007708395831286907,0.0075788903050124645,0.0,0.004883423447608948
0.005685559473931789,-0.0012807155726477504,-0.007741218898445368,0.0079265758395195,0.0,0.0049361432902514935
0.005262312944978476,-0.0015278399223461747,-0.007181529887020588,0.008121748454868793,0.0,0.005219944752752781
0.004885587841272354,-0.0015437466790899634,-0.007501114159822464,0.008076682686805725,0.0,0.005009956192225218
0.004885587841272354,-0.0015437466790899634,-0.007501114159822464,0.008076682686805725,0.0,0.005009956192225218
0.005206090398132801,-0.0015954026021063328,-0.006835172884166241,0.008148941211402416,0.0,0.00504359882324934
0.005137342028319836,-0.001658857800066471,-0.007287009619176388,0.008275385946035385,0.0,0.00504295015707612
0.0049955821596086025,-0.0015350010944530368,-0.008097083307802677,0.008237932808697224,0.0,0.004955883137881756
0.005238961428403854,-0.0015512254321947694,-0.00702302111312747,0.008383586071431637,0.0,0.005552015732973814
0.0052581545896828175,-0.0013552913442254066,-0.0069918385706841946,0.008280246518552303,0.0,0.005066792480647564
0.00554290134459734,-0.0012921512825414538,-0.007279472891241312,0.00789229478687048,0.0,0.005033018067479134
0.00496454956009984,-0.0012553990818560123,-0.006863459944725037,0.007958868518471718,0.0,0.005009481217712164
0.004957191646099091,-0.0011959692928940058,-0.0066209640353918076,0.008970031514763832,0.0,0.004826221149414778
0.005466995760798454,-0.0011051665060222149,-0.007367085665464401,0.008773073554039001,0.0,0.0051540229469537735
0.005270405672490597,-0.0011887603905051947,-0.007979831658303738,0.00820141937583685,0.0,0.005166332703083754
0.0052943178452551365,-0.0011768637923523784,-0.0068261693231761456,0.007762810215353966,0.0,0.0052682156674563885
0.005006516817957163,-0.0012304408010095358,-0.0065306019969284534,0.008744247257709503,0.0,0.00554657680913806
0.005205394234508276,-0.0011858160141855478,-0.006747566629201174,0.008360808715224266,0.0,0.005545167718082666
0.0053856754675507545,-0.0012387585593387485,-0.007200940977782011,0.007622868753969669,0.0,0.005740250460803509
0.00527780968695879,-0.001113632693886757,-0.006719306576997042,0.008206524886190891,0.0,0.005727972835302353
0.005853419192135334,-0.0010028446558862925,-0.006171071901917458,0.008477943949401379,0.0,0.005170120857656002
0.0055195651948452,-0.0009828804759308696,-0.006129453890025616,0.00851639173924923,0.0,0.004877796862274408
0.005374377127736807,-0.0009699040674604475,-0.006718866992741823,0.007883713580667973,0.0,0.005134330131113529
0.005091715604066849,-0.0009604697697795928,-0.0073012737557291985,0.008295138366520405,0.0,0.005527317989617586
0.0060002850368618965,-0.0008970607304945588,-0.00686037028208375,0.008395169861614704,0.0,0.00541054829955101
0.0060002850368618965,-0.0008970607304945588,-0.00686037028208375,0.008395169861614704,0.0,0.00541054829955101
0.005479962099343538,-0.0008988811168819666,-0.006242622621357441,0.007554751820862293,0.0,0.005431179888546467
0.005549521651118994,-0.0008990085916593671,-0.007092566229403019,0.008788445964455605,0.0,0.004899933002889156
0.005199718754738569,-0.0009501276654191315,-0.0068070050328969955,0.008846386335790157,0.0,0.005123257637023926
0.005199718754738569,-0.0009501276654191315,-0.0068070050328969955,0.008846386335790157,0.0,0.005123257637023926
0.005690951365977526,-0.00104859983548522,-0.006412998773157597,0.00788948591798544,0.0,0.0047422144562006
0.005537145305424929,-0.001058723428286612,-0.006391569972038269,0.00862193014472723,0.0,0.00546079920604825
0.005804379004985094,-0.0010981477098539472,-0.006735629867762327,0.008633115328848362,0.0,0.005443003959953785
0.005619178991764784,-0.0012523930054157972,-0.006373414304107428,0.009021970443427563,0.0,0.005338236223906279
0.005619178991764784,-0.0012523930054157972,-0.006373414304107428,0.009021970443427563,0.0,0.005338236223906279
0.00577002577483654,-0.0012561877956613898,-0.006737975403666496,0.009249714203178883,0.0,0.005303482990711927
0.005264046136289835,-0.0012990115210413933,-0.008323553949594498,0.00844664592295885,0.0,0.0050590382888913155
0.005624854471534491,-0.0011447041761130095,-0.00788417924195528,0.008771327324211597,0.0,0.0049592615105211735
0.005783189088106155,-0.001032384461723268,-0.006563073489814997,0.008863450028002262,0.0,0.005114629864692688
0.005793556105345488,-0.0010085076792165637,-0.006479912903159857,0.008431550115346909,0.0,0.005270548164844513
0.006186955142766237,-0.0009871355723589659,-0.007097747642546892,0.00877692922949791,0.0,0.005475569982081652
0.005594498477876186,-0.0009751495672389865,-0.007532415445894003,0.008641475811600685,0.0,0.0053013102151453495
0.005980800837278366,-0.0010523198870941997,-0.00711079454049468,0.008286782540380955,0.0,0.005169349256902933
0.005544782150536776,-0.0010657781967893243,-0.006707546766847372,0.008572163060307503,0.0,0.005645449738949537
0.005890813656151295,-0.0010528193088248372,-0.007672270759940147,0.008863319642841816,0.0,0.005261645652353764
0.006554599851369858,-0.0013440536567941308,-0.006921602878719568,0.008489854633808136,0.0,0.005420066881924868
0.005780317820608616,-0.0012991157127544284,-0.00683041475713253,0.008157981559634209,0.0,0.005339319817721844
0.005122215952724218,-0.0012304108822718263,-0.006774489302188158,0.008377945981919765,0.0,0.005130395293235779
0.005692687816917896,-0.0011253084521740675,-0.006904994137585163,0.008286235854029655,0.0,0.0058063180185854435
0.005692687816917896,-0.0011253084521740675,-0.006904994137585163,0.008286235854029655,0.0,0.0058063180185854435
0.005903626326471567,-0.0010862828930839896,-0.007305752020329237,0.008082907646894455,0.0,0.005607113242149353
0.005727370269596577,-0.001046636258251965,-0.006924688350409269,0.008438327349722385,0.0,0.005056646652519703
0.005727370269596577,-0.001046636258251965,-0.006924688350409269,0.008438327349722385,0.0,0.005056646652519703
0.005619545932859182,-0.001015623565763235,-0.007113193161785603,0.008053992874920368,0.0,0.00557331508025527
0.005619545932859182,-0.001015623565763235,-0.007113193161785603,0.008053992874920368,0.0,0.00557331508025527
0.006151251494884491,-0.0009801890701055527,-0.0069410717114806175,0.008260576985776424,0.0,0.005584754515439272
0.0057722218334674835,-0.0009382173884660006,-0.006592119578272104,0.008025999180972576,0.0,0.00525811268016696
0.005819658748805523,-0.0009410462225787342,-0.007111246231943369,0.008340384811162949,0.0,0.005192910321056843
0.005819658748805523,-0.0009410462225787342,-0.007111246231943369,0.008340384811162949,0.0,0.005192910321056843
0.005633278284221888,-0.0009349328465759754,-0.007093979045748711,0.008714922703802586,0.0,0.005295753013342619
0.005631979089230299,-0.0009828221518546343,-0.0070372275076806545,0.007829776965081692,0.0,0.005617247894406319
0.0063466825522482395,-0.0010785876074805856,-0.007784642279148102,0.008273513987660408,0.0,0.005482456646859646
0.0057046059519052505,-0.0011832034215331078,-0.0068196519277989864,0.008223976008594036,0.0,0.005741424858570099
0.0057046059519052505,-0.0011832034215331078,-0.0068196519277989864,0.008223976008594036,0.0,0.005741424858570099
0.0054440791718661785,-0.0011481490219011903,-0.006725947838276625,0.008249849081039429,0.0,0.005913002882152796
0.005890031810849905,-0.0012114093406125903,-0.007144762668758631,0.008633600547909737,0.0,0.006132864858955145
0.006350932642817497,-0.001089401193894446,-0.007400483824312687,0.008236747235059738,0.0,0.00538065517321229
0.005633695516735315,-0.0011511329794302583,-0.00707697169855237,0.007684296928346157,0.0,0.005391421262174845
0.005941793322563171,-0.0011062930570915341,-0.007082217838615179,0.008025267161428928,0.0,0.005281464196741581
0.0054215542040765285,-0.0011063313577324152,-0.007393398322165012,0.008298945613205433,0.0,0.006132001522928476
0.005992103833705187,-0.001107137301005423,-0.007314795162528753,0.008196337148547173,0.0,0.005734016187489033
0.00609739450737834,-0.0010800048476085067,-0.00696059875190258,0.007648594211786985,0.0,0.0051030381582677364
0.006351360119879246,-0.0011515269288793206,-0.006741188000887632,0.008062664419412613,0.0,0.0053065139800310135
0.005749852396547794,-0.0012188322143629193,-0.0071375309489667416,0.008335229940712452,0.0,0.005335710942745209
0.005888348910957575,-0.001357506262138486,-0.00811654794961214,0.008247020654380322,0.0,0.005099753383547068
0.0057526929304003716,-0.0013188999146223068,-0.0071418387815356255,0.007904822006821632,0.0,0.005591473542153835
0.0057526929304003716,-0.0013188999146223068,-0.0071418387815356255,0.007904822006821632,0.0,0.005591473542153835
0.005923242773860693,-0.0012602608185261488,-0.007277120836079121,0.008267834782600403,0.0,0.005411217920482159
0.006029624957591295,-0.001218927325680852,-0.007816219702363014,0.008633243851363659,0.0,0.005437806248664856
0.0058081732131540775,-0.001173525582998991,-0.00789011549204588,0.008116232231259346,0.0,0.005221768282353878
0.00564933754503727,-0.001198924845084548,-0.006812011823058128,0.008696219883859158,0.0,0.005420485511422157
0.00564933754503727,-0.001198924845084548,-0.006812011823058128,0.008696219883859158,0.0,0.005420485511422157
0.006169466767460108,-0.001143529312685132,-0.00715257041156292,0.008601785637438297,0.0,0.00555909750983119
0.006362230982631445,-0.0011045669671148062,-0.007591188419610262,0.00875146221369505,0.0,0.005691029597073793
0.005661515519022942,-0.0010740780271589756,-0.007122645154595375,0.00838716235011816,0.0,0.005648219492286444
0.005699990317225456,-0.0010581964161247015,-0.00688493438065052,0.008403552696108818,0.0,0.005987511016428471
0.0061544813215732574,-0.001048087957315147,-0.0075919474475085735,0.008577067404985428,0.0,0.0060483901761472225
0.006342511158436537,-0.0012835622765123844,-0.0076723783276975155,0.008262880146503448,0.0,0.006181231699883938
0.006206396035850048,-0.0012266592821106315,-0.006973484996706247,0.008138316683471203,0.0,0.00553861353546381
0.005914108362048864,-0.001173212192952633,-0.006939747370779514,0.008236376568675041,0.0,0.005590337328612804
0.005795786157250404,-0.0011168104829266667,-0.0074981688521802425,0.00843463372439146,0.0,0.005454501137137413
0.006041431333869696,-0.0010869968682527542,-0.007284126710146666,0.008176794275641441,0.0,0.005813135765492916
0.006475671660155058,-0.0010555299231782556,-0.007100952789187431,0.007861829362809658,0.0,0.005666735116392374
0.006547487806528807,-0.0010411019902676344,-0.007112495601177216,0.007864227518439293,0.0,0.005807328969240189
0.00568720418959856,-0.0011131118517369032,-0.007622314151376486,0.008752974681556225,0.0,0.006367552559822798
0.0057631623931229115,-0.0010763617465272546,-0.007504346314817667,0.008118363097310066,0.0,0.005858466029167175
0.0057631623931229115,-0.0010763617465272546,-0.007504346314817667,0.008118363097310066,0.0,0.005858466029167175
0.006256485357880592,-0.0011085601290687919,-0.007122111972421408,0.008415652438998222,0.0,0.006033042445778847
0.006256485357880592,-0.0011085601290687919,-0.007122111972421408,0.008415652438998222,0.0,0.006033042445778847
0.006917088758200407,-0.0010832155821844935,-0.0076059624552726746,0.008774062618613243,0.0,0.006252321880310774
0.006173144560307264,-0.0011544151930138469,-0.007644279859960079,0.00813556183129549,0.0,0.006302035879343748
0.005971706006675959,-0.0012053436366841197,-0.006877641659229994,0.00805387832224369,0.0,0.005697669927030802
0.006746840197592974,-0.0012012090301141143,-0.0066079492680728436,0.009121921844780445,0.0,0.005791948642581701
0.006306932773441076,-0.0011462769471108913,-0.007268622517585754,0.008662540465593338,0.0,0.005746691487729549
0.0061048842035233974,-0.0011077726958319545,-0.008065318688750267,0.008181324228644371,0.0,0.005967884790152311
0.005832832772284746,-0.0010728120105341077,-0.007716158404946327,0.008454376831650734,0.0,0.006354210432618856
0.005782738793641329,-0.0011662498582154512,-0.007721352856606245,0.008619719184935093,-5.263790171738947e-06,0.0057974024675786495
0.006305224262177944,-0.0012477632844820619,-0.007883300073444843,0.008364015258848667,-2.2440358904418645e-08,0.005997088737785816
0.00627318536862731,-0.0011956265661865473,-0.0073932381346821785,0.008446604013442993,-1.4651950763777677e-09,0.006196408998221159
0.006000986322760582,-0.0011283729691058397,-0.007049492560327053,0.008236519992351532,-9.56667731144556e-11,0.006247293669730425
0.006205286830663681,-0.0009715728810988367,-0.007600192446261644,0.008008916862308979,-6.2463571641468985e-12,0.0060372124426066875
0.006191224325448275,-0.0009568299865350127,-0.007876794785261154,0.008295992389321327,-4.07842488080179e-13,0.006329110357910395
0.006404239218682051,-0.0008630288066342473,-0.007433341350406408,0.008372328244149685,-2.6629199672699617e-14,0.006359257269650698
0.0068233017809689045,-0.0007787197828292847,-0.007632259279489517,0.008222563192248344,-1.7386964840159034e-15,0.005674194544553757
0.006160803139209747,-0.00082096375990659,-0.007774346973747015,0.007894239388406277,-1.1352445102359466e-16,0.005852524656802416
0.006197196431457996,-0.000839038344565779,-0.0073548308573663235,0.008648200891911983,-7.412335690585629e-18,0.005552693735808134
0.0064791468903422356,-0.0012232268927618861,-0.007230284158140421,0.008504504337906837,-4.839725196592367e-19,0.0061763920821249485
0.00650451797991991,-0.0012157228775322437,-0.008266393095254898,0.007862851023674011,-3.1599950529576495e-20,0.006177633535116911
0.006405251566320658,-0.0011766289826482534,-0.008646535687148571,0.00835578516125679,-2.0632509806165086e-21,0.005953604821115732
0.006124303676187992,-0.0011762051144614816,-0.00783375184983015,0.008720758371055126,-1.3471554383301988e-22,0.005601021461188793
0.006601995788514614,-0.001118154264986515,-0.007401487790048122,0.00837821327149868,-8.795963176282568e-24,0.0055429451167583466
0.006599362939596176,-0.0010440793121233582,-0.007909132167696953,0.008402076549828053,-5.74313615967148e-25,0.006014730781316757
0.006528504192829132,-0.001022275653667748,-0.008182967081665993,0.008536969311535358,-3.749857092241484e-26,0.0062493570148944855
0.006329628638923168,-0.0009378835093230009,-0.007614181376993656,0.008348549716174603,-2.448388708573822e-27,0.0062498184852302074
0.006795721594244242,-0.0009218065533787012,-0.0073543451726436615,0.008042877539992332,-1.5986228447928646e-28,0.006425751373171806
0.006931808777153492,-0.0009501278400421143,-0.008393640629947186,0.008262877352535725,-1.0437865470781898e-29,0.006160949356853962
0.0067523568868637085,-0.0009535434655845165,-0.008462944999337196,0.00832944456487894,-6.815180054683288e-31,0.006238818168640137
0.0063576605170965195,-0.0012670085998252034,-0.007001008838415146,0.008264129050076008,-4.4498256365773136e-32,0.005991801153868437
0.006268560420721769,-0.001248413696885109,-0.007157423533499241,0.008642134256660938,-2.905418142720592e-33,0.006000182591378689
0.006716441363096237,-0.0012029251083731651,-0.007698275614529848,0.008289740420877934,-1.8970305764843882e-34,0.006515657529234886
0.006449678912758827,-0.0012803415302187204,-0.007800654973834753,0.008020740002393723,-8.087338714218543e-37,0.00627053203061223
0.006449678912758827,-0.0012803415302187204,-0.007800654973834753,0.008020740002393723,-8.087338714218543e-37,0.00627053203061223
0.006534520536661148,-0.0012152637355029583,-0.007750377058982849,0.008205541409552097,-5.280454148579707e-38,0.006215691566467285
0.006994143594056368,-0.0011757806641981006,-0.00798721332103014,0.00819211546331644,-3.447758945520173e-39,0.0056693460792303085
0.006869068834930658,-0.0011455669300630689,-0.00758955255150795,0.008224080316722393,-2.251143943983889e-40,0.006100815255194902
0.006666450295597315,-0.0011153108207508922,-0.007377403788268566,0.008262524381279945,-1.4698219592303006e-41,0.006283631548285484
0.007404777221381664,-0.001104250899516046,-0.007478971499949694,0.008889573626220226,-9.598894480624997e-43,0.006316164508461952
0.006985827349126339,-0.0012638176558539271,-0.008180864155292511,0.008505798876285553,-6.305843089461677e-44,0.006457665003836155
0.0071234325878322124,-0.0012106429785490036,-0.007546369452029467,0.008149676024913788,-4.203895392974451e-45,0.006133127957582474
0.006850190460681915,-0.0011603611055761576,-0.007226572372019291,0.008442839607596397,-0.0,0.006148707587271929
0.006640235893428326,-0.0010702816070988774,-0.0073043168522417545,0.008509309962391853,-0.0,0.006285299081355333
0.007121679373085499,-0.0010099755600094795,-0.008192989975214005,0.008234904147684574,-0.0,0.006641516461968422
0.0077278343960642815,-0.000991531414911151,-0.007648547179996967,0.007732112891972065,-0.0,0.006570426747202873
0.0074556926265358925,-0.0008957777172327042,-0.007165027782320976,0.00830424576997757,-0.0,0.006108206696808338
0.006851769983768463,-0.0008950941846705973,-0.0073914844542741776,0.008753707632422447,-0.0,0.00611531687900424
0.007369072176516056,-0.0007974008331075311,-0.008230319246649742,0.008432533591985703,-0.0,0.006485338322818279
0.007774286437779665,-0.0007230369374155998,-0.008374183438718319,0.008374224416911602,-0.0,0.006618287414312363
0.006974789313971996,-0.0006236945046111941,-0.007830265909433365,0.008412059396505356,-0.0,0.00653608376160264
0.0068079386837780476,-0.0006437476258724928,-0.007756996434181929,0.008286412805318832,-0.0,0.00641666678711772
0.006756318733096123,-0.0006492016837000847,-0.007988841272890568,0.008255783468484879,-0.0,0.006548783741891384
0.007545460946857929,-0.0006734994240105152,-0.007680273149162531,0.00944624561816454,-0.0,0.006524746771901846
0.007545460946857929,-0.0006734994240105152,-0.007680273149162531,0.00944624561816454,-0.0,0.006524746771901846
0.0076933070085942745,-0.0006414362578652799,-0.0070561738684773445,0.008718034252524376,-0.0,0.006669317837804556
0.0073360782116651535,-0.0007444003713317215,-0.007268987130373716,0.008307787589728832,-0.0,0.006617534440010786
0.006749077700078487,-0.0007684308220632374,-0.008126354776322842,0.00860029086470604,-0.0,0.006597674917429686
0.0073523870669305325,-0.0007501799846068025,-0.007810042705386877,0.008772047236561775,-0.0,0.00660703657194972
0.007615383714437485,-0.0007106658886186779,-0.0073060509748756886,0.00854585226625204,-0.0,0.006691244430840015
0.006888397037982941,-0.0006557532469742,-0.007881155237555504,0.008821629919111729,-0.0,0.006953398231416941
0.007489166688174009,-0.0006588291143998504,-0.007659298367798328,0.008771582506597042,-0.0,0.006569154094904661
0.007934427820146084,-0.0006786357844248414,-0.00752991670742631,0.008256832137703896,-0.0,0.0066091082990169525
0.0074861543253064156,-0.0006139298784546554,-0.007016908843070269,0.008603866212069988,-0.0,0.006736070849001408
0.007116526830941439,-0.0006393464282155037,-0.007346471771597862,0.008856190368533134,-0.0,0.006637641228735447
0.008313515223562717,-0.0006379139376804233,-0.00796867161989212,0.008537434041500092,-0.0,0.006610402837395668
0.007951527833938599,-0.0006100646569393575,-0.007209373638033867,0.007985233329236507,-0.0,0.006215846166014671
0.008142921142280102,-0.000624379375949502,-0.007443012669682503,0.00860661268234253,-0.0,0.006502893287688494
0.007107730023562908,-0.0005752000724896789,-0.008018836379051208,0.009128859266638756,-0.0,0.006559543777257204
0.007521042134612799,-0.0005766465328633785,-0.008611286990344524,0.00854762364178896,-0.0,0.006853754166513681
0.008153646253049374,-0.0005495226359926164,-0.008011911995708942,0.008272546343505383,-0.0,0.00678781233727932
0.007980436086654663,-0.000553328893147409,-0.008010056801140308,0.008683010004460812,-0.0,0.007280195131897926
0.007217777892947197,-0.0005326521932147443,-0.007787459995597601,0.008276589214801788,-0.0,0.006966399494558573
0.007717811036854982,-0.0005587067571468651,-0.007506716530770063,0.007849043235182762,-0.0,0.006795880850404501
0.007918380200862885,-0.0005798611673526466,-0.008072692900896072,0.008313478901982307,-0.0,0.006671024952083826
0.008267371915280819,-0.0006108296802267432,-0.007940041832625866,0.007969365455210209,-0.0,0.006832472048699856
0.00794945377856493,-0.0005790387513116002,-0.008151457644999027,0.007903488352894783,-0.0,0.006683639250695705
0.008437647484242916,-0.0006092785624787211,-0.0077560339123010635,0.008772904053330421,-0.0,0.006418049801141024
0.008022617548704147,-0.0006327560404315591,-0.007227588444948196,0.008856624364852905,-0.0,0.006641498301178217
0.007610284257680178,-0.0005844270926900208,-0.007574011571705341,0.008558130823075771,-0.0,0.006579943001270294
0.007610284257680178,-0.0005844270926900208,-0.007574011571705341,0.008558130823075771,-0.0,0.006579943001270294
0.007817871868610382,-0.0006978530436754227,-0.007547660730779171,0.008356305770576,-0.0,0.007072764914482832
0.008391570299863815,-0.0005471259937621653,-0.008076965808868408,0.008711908012628555,-0.0,0.007074316963553429
0.008391570299863815,-0.0005471259937621653,-0.008076965808868408,0.008711908012628555,-0.0,0.007074316963553429
0.008170684799551964,-0.0005280112964101136,-0.007836628705263138,0.008508484810590744,-0.0,0.006941520143300295
0.008283261209726334,-0.0005599955329671502,-0.007537589408457279,0.008840189315378666,-0.0,0.006979510188102722
0.007895724847912788,-0.0005632753600366414,-0.007588711101561785,0.008146709762513638,-0.0,0.006991263013333082
0.008345567621290684,-0.0005439945962280035,-0.008217751048505306,0.008022365160286427,-0.0,0.007197183091193438
0.008622178807854652,-0.0005097267567180097,-0.007821192964911461,0.008355610072612762,-0.0,0.00710497098043561
0.008288231678307056,-0.0004694359959103167,-0.007672496140003204,0.008273263461887836,-0.0,0.007193976081907749
0.008051847107708454,-0.00048062243149615824,-0.007795319892466068,0.008059759624302387,-0.0,0.006971363909542561
0.008025099523365498,-0.0004658068937715143,-0.007950934581458569,0.008494559675455093,-0.0,0.006878385320305824
0.008826437406241894,-0.0004976639174856246,-0.00808662362396717,0.008656853809952736,-0.0,0.00692361406981945
0.008135488256812096,-0.00046376074897125363,-0.007730931509286165,0.008393291383981705,-0.0,0.0072495052590966225
0.008126598782837391,-0.0004862975620198995,-0.007850254885852337,0.008277710527181625,-0.0,0.00721326656639576
0.008340622298419476,-0.0004619173996616155,-0.008294335566461086,0.008898904547095299,-0.0,0.007798607926815748
0.009661995805799961,-0.00043473526602610946,-0.007901868782937527,0.008390089496970177,-0.0,0.006900246720761061
0.00775784021243453,-0.0004970656591467559,-0.008193920366466045,0.00812615267932415,-0.0,0.006679128855466843
0.007720555178821087,-0.00044894946040585637,-0.008600112982094288,0.00869288295507431,-0.0,0.006754694506525993
0.008618896827101707,-0.00047996005741879344,-0.00800303928554058,0.008700462989509106,-0.0,0.006593408528715372
0.008909798227250576,-0.0004489789134822786,-0.0078007979318499565,0.008357680402696133,-0.0,0.007038136478513479
0.008228459395468235,-0.0004146152932662517,-0.007893585599958897,0.00815342552959919,-0.0,0.0073442659340798855
0.008496547117829323,-0.0004269782511983067,-0.008409373462200165,0.0082377465441823,-1.520185196568491e-05,0.007382021751254797
0.00896112248301506,-0.0004190188192296773,-0.008153429254889488,0.008308308199048042,-9.925723816195386e-07,0.007035250309854746
0.00896112248301506,-0.0004190188192296773,-0.008153429254889488,0.008308308199048042,-9.925723816195386e-07,0.007035250309854746
0.009184255264699459,-0.00040464874473400414,-0.008766316808760166,0.008558225817978382,-4.231491157469236e-09,0.007364668417721987
0.009184255264699459,-0.00040464874473400414,-0.008766316808760166,0.008558225817978382,-4.231491157469236e-09,0.007364668417721987
0.008722536265850067,-0.0003992021956946701,-0.008091386407613754,0.008558954112231731,-2.7628616061647904e-10,0.007458479609340429
0.00816819816827774,-0.0003784448199439794,-0.007686695083975792,0.008364599198102951,-1.8039510857326135e-11,0.007491007912904024
0.009277543984353542,-0.0003487687499728054,-0.008718607015907764,0.008397826924920082,-7.690525869125456e-14,0.007769269403070211
0.008891596458852291,-0.0003660078509710729,-0.008527138270437717,0.008755694143474102,-5.021363777253998e-15,0.007857014425098896
0.009057325311005116,-0.00036207723314873874,-0.007826535031199455,0.008490116335451603,-3.278591900091499e-16,0.008079943247139454
0.008946391753852367,-0.0003395828534848988,-0.007618107367306948,0.008369401097297668,-2.1406860189527244e-17,0.007910747081041336
0.009078740142285824,-0.0003705423732753843,-0.008260637521743774,0.008448489010334015,-1.3977149983765245e-18,0.007752939127385616
0.00880703516304493,-0.0003518848679959774,-0.008102771826088428,0.008506981655955315,-9.12607948808383e-20,0.007516858633607626
0.008668581023812294,-0.00033329593134112656,-0.007865182124078274,0.008085539564490318,-5.9586779374695634e-21,0.007559104356914759
0.009446206502616405,-0.00035991641925647855,-0.0077417949214577675,0.008244839496910572,-3.890590797741943e-22,0.006920766085386276
0.009369471110403538,-0.0003444349567871541,-0.008074427954852581,0.008183464407920837,-2.5402775807625808e-23,0.007269587833434343
0.009350786916911602,-0.0003287309664301574,-0.008169038221240044,0.00799410417675972,-1.658619890702891e-24,0.008047196082770824
0.009115952998399734,-0.0003821095160674304,-0.007865886203944683,0.008065732195973396,-1.0829602068604998e-25,0.008374127559363842
0.0094726188108325,-0.00036060987622477114,-0.008439010940492153,0.008357453159987926,-7.070957035064473e-27,0.008018344640731812
0.00890345312654972,-0.0003775883524212986,-0.00895137619227171,0.008172795176506042,-4.61682963303536e-28,0.00717873265966773
0.009453220292925835,-0.00037275528302416205,-0.00790542084723711,0.008824250660836697,-3.0144595304238253e-29,0.007224917411804199
0.009453220292925835,-0.00037275528302416205,-0.00790542084723711,0.008824250660836697,-3.0144595304238253e-29,0.007224917411804199
0.009079450741410255,-0.0003801391285378486,-0.008263945579528809,0.008720768615603447,-1.2851114324757324e-31,0.007730466313660145
0.009079450741410255,-0.0003801391285378486,-0.008263945579528809,0.008720768615603447,-1.2851114324757324e-31,0.007730466313660145
0.009188576601445675,-0.00036048030597157776,-0.00805958453565836,0.008840846829116344,-8.390859408425927e-33,0.007847628556191921
0.009378572925925255,-0.00034099447657354176,-0.007708937861025333,0.008123425766825676,-5.478631571829724e-34,0.007603327743709087
0.009376473724842072,-0.00035161455161869526,-0.00844747107475996,0.008470794185996056,-2.335626703785303e-36,0.007579232100397348
0.009376473724842072,-0.00035161455161869526,-0.00844747107475996,0.008470794185996056,-2.335626703785303e-36,0.007579232100397348
0.009744449518620968,-0.00033739855280146003,-0.008056232705712318,0.00848356168717146,-1.5249973575878888e-37,0.008132933638989925
0.008896267972886562,-0.0003889124491252005,-0.007590890396386385,0.008653807453811169,-9.957142038223494e-39,0.008305612951517105
0.009150752797722816,-0.0004221021954435855,-0.008096144534647465,0.009274201467633247,-6.501296199265702e-40,0.007965919561684132
0.00904841348528862,-0.0003988336829934269,-0.008230063132941723,0.008419133722782135,-4.2449534379791684e-41,0.008189774118363857
0.009768897667527199,-0.00038098168442957103,-0.008564230985939503,0.008595351129770279,-1.1210387714598537e-44,0.007576113101094961
0.009768897667527199,-0.00038098168442957103,-0.008564230985939503,0.008595351129770279,-1.1210387714598537e-44,0.007576113101094961
0.009404150769114494,-0.0004098463978152722,-0.007867774926126003,0.008424808271229267,-1.401298464324817e-45,0.007868494838476181
0.009119531139731407,-0.0003886341582983732,-0.007402800489217043,0.009324713610112667,-0.0,0.007946309633553028
0.009400901384651661,-0.0004937176126986742,-0.008967866189777851,0.00914856232702732,-0.0,0.008084437809884548
0.009162131696939468,-0.0004466889367904514,-0.008149671368300915,0.009362440556287766,-0.0,0.008263811469078064
0.008934633806347847,-0.0004841945774387568,-0.007916930131614208,0.008992329239845276,-0.0,0.007992841303348541
0.009358540177345276,-0.00044718521530739963,-0.007951408624649048,0.008418828248977661,-0.0,0.00763514032587409
0.01018781028687954,-0.0004735605325549841,-0.009476365521550179,0.008162247017025948,-0.0,0.007548956666141748
0.008952489122748375,-0.00044749677181243896,-0.008349266834557056,0.007781905587762594,-0.0,0.007622348144650459
0.009859013371169567,-0.00045694399159401655,-0.007736932951956987,0.008238263428211212,-0.0,0.008410412818193436
0.009633595123887062,-0.0004476172325666994,-0.008101768791675568,0.008325554430484772,-0.0,0.007905283011496067
0.009234117344021797,-0.0004949523136019707,-0.009066424332559109,0.008013943210244179,-2.5783416276681237e-05,0.008124600164592266
0.009864108636975288,-0.0004950005677528679,-0.007971670478582382,0.008494754321873188,-9.782780398381874e-05,0.00877835787832737
0.009508573450148106,-0.0004544297989923507,-0.008478296920657158,0.008603066205978394,-9.603870421415195e-05,0.008503830060362816
0.009794882498681545,-0.0004860943299718201,-0.00834901724010706,0.008644456043839455,-9.40508398343809e-05,0.007852463982999325
0.009794882498681545,-0.0004860943299718201,-0.00834901724010706,0.008644456043839455,-9.40508398343809e-05,0.007852463982999325
0.01029967050999403,-0.0004537514178082347,-0.00829506665468216,0.008863285183906555,-9.21266691875644e-05,0.008106756024062634
0.009297596290707588,-0.000481251219753176,-0.0078914575278759,0.008855531923472881,-9.027851046994328e-05,0.008049619384109974
0.009795848280191422,-0.00045326646068133414,-0.00875827856361866,0.008812088519334793,-8.85028566699475e-05,0.007891742512583733
0.009795848280191422,-0.00045326646068133414,-0.00875827856361866,0.008812088519334793,-8.85028566699475e-05,0.007891742512583733
0.009734468534588814,-0.0005190245574340224,-0.008531282655894756,0.009159548208117485,-8.679588790982962e-05,0.008646401576697826
0.009639758616685867,-0.0004766038036905229,-0.008368146605789661,0.008962826803326607,-8.515342051396146e-05,0.00868874043226242
0.009704310446977615,-0.0005160295986570418,-0.008753053843975067,0.008639184758067131,-8.357192564290017e-05,0.007881902158260345
0.009552587755024433,-0.0004720540309790522,-0.008709938265383244,0.009429268538951874,-9.736643551150337e-05,0.007758468855172396
0.00982644222676754,-0.0005034246714785695,-0.008278798311948776,0.008960871025919914,-9.662348020356148e-05,0.008310731500387192
0.00982834305614233,-0.00046872434904798865,-0.008241773582994938,0.008241146802902222,-9.498901636106893e-05,0.008855058811604977
0.009563157334923744,-0.0004911413416266441,-0.009139700792729855,0.008404724299907684,-9.335121285403147e-05,0.00863517727702856
0.009357400238513947,-0.000466220109956339,-0.00862097181379795,0.008668124675750732,-9.17651123018004e-05,0.00818257313221693
0.010079589672386646,-0.0004664492153096944,-0.009115123189985752,0.007755969651043415,-8.874876948539168e-05,0.008141355589032173
0.00937299057841301,-0.00042496906826272607,-0.008579213172197342,0.008124697022140026,-9.447984484722838e-05,0.008425988256931305
0.009615504182875156,-0.0004627062880899757,-0.008180605247616768,0.009017105214297771,-9.976300498237833e-05,0.008505855686962605
0.009639373049139977,-0.0004289097851142287,-0.008580932393670082,0.008914156816899776,-9.86436934908852e-05,0.008592627011239529
0.009485166519880295,-0.00044064121902920306,-0.009810801595449448,0.008923148736357689,-9.715139458421618e-05,0.008655102923512459
0.009744163602590561,-0.0004315157129894942,-0.009529074653983116,0.00898726936429739,-9.567780944053084e-05,0.008421874605119228
0.009799503721296787,-0.0004041146894451231,-0.008380605839192867,0.00893545150756836,-9.424662857782096e-05,0.008488168939948082
0.0093728918582201,-0.00043176746112294495,-0.008940480649471283,0.008735628798604012,-9.285756095778197e-05,0.008779587224125862
0.009684676304459572,-0.0004092995950486511,-0.008838631212711334,0.009359429590404034,-9.150889673037454e-05,0.008504894562065601
0.010237321257591248,-0.0004532637831289321,-0.008424855768680573,0.008979965932667255,-9.019864955917001e-05,0.008681333623826504
0.009449111297726631,-0.00041467099799774587,-0.009693726897239685,0.008313486352562904,-8.892548066796735e-05,0.008748030290007591
0.009740551933646202,-0.0004524569376371801,-0.009400015696883202,0.008759675547480583,-8.76878184499219e-05,0.009012899361550808
0.010233688168227673,-0.00042014510836452246,-0.008428127504885197,0.009189208969473839,-8.648405491840094e-05,0.008739661425352097
0.010042301379144192,-0.00044700942817144096,-0.008812131360173225,0.008998493663966656,-8.53128731250763e-05,0.009046953171491623
0.009956738911569118,-0.0004240843409206718,-0.009152397513389587,0.008611297234892845,-8.417302888119593e-05,0.008667104877531528
0.009956738911569118,-0.0004240843409206718,-0.009152397513389587,0.008611297234892845,-8.417302888119593e-05,0.008667104877531528
0.010553855448961258,-0.0003974258725065738,-0.008532864041626453,0.00896616280078888,-8.306333620566875e-05,0.008485321886837482
0.00930436048656702,-0.0003738380328286439,-0.008591554127633572,0.008879417553544044,-8.198240539059043e-05,0.009825634770095348
0.009473768062889576,-0.00035289465449750423,-0.009469638578593731,0.008457026444375515,-8.092921780189499e-05,0.00910742674022913
0.009936913847923279,-0.00037623284151777625,-0.009252255782485008,0.00864497572183609,-7.990286394488066e-05,0.008201821707189083
0.009675931185483932,-0.00036259792977944016,-0.00897058192640543,0.009149760007858276,-8.94285985850729e-05,0.008924786001443863
0.010458567179739475,-0.00030388354207389057,-0.009209483861923218,0.008596044965088367,-8.900988177629188e-05,0.008651734329760075
0.010078840889036655,-0.00028831680538132787,-0.009083268232643604,0.009030974470078945,-8.796723705017939e-05,0.008826480247080326
0.00978688895702362,-0.0002756791946012527,-0.008574911393225193,0.009240200743079185,-8.690838876646012e-05,0.008993975818157196
0.010238151997327805,-0.0002896983060054481,-0.009203774854540825,0.00856221467256546,-8.485995203955099e-05,0.009196439757943153
0.009702968411147594,-0.0002784990647342056,-0.009384790435433388,0.00901740975677967,-8.387144043808803e-05,0.008905291557312012
0.00985637865960598,-0.00026812756550498307,-0.00905952975153923,0.00890363659709692,-8.290571713587269e-05,0.008891691453754902
0.009995424188673496,-0.00025850068777799606,-0.008960261009633541,0.008964195847511292,-9.205413516610861e-05,0.008512910455465317
0.009995424188673496,-0.00025850068777799606,-0.008960261009633541,0.008964195847511292,-9.205413516610861e-05,0.008512910455465317
0.009971167892217636,-0.00023336531012319028,-0.009168348275125027,0.008330739103257656,-9.613739530323073e-05,0.008816943503916264
0.009971167892217636,-0.00023336531012319028,-0.009168348275125027,0.008330739103257656,-9.613739530323073e-05,0.008816943503916264
0.010020095854997635,-0.00022603856632485986,-0.0087959636002779,0.008728593587875366,-9.412904910277575e-05,0.009267866611480713
0.010256608948111534,-0.00021915833349339664,-0.009097018279135227,0.009223656728863716,-9.220056381309405e-05,0.00921159889549017
0.009727958589792252,-0.00021268440468702465,-0.008943840861320496,0.00852256454527378,-9.923841571435332e-05,0.00886361114680767
0.009779062122106552,-0.00020658181165345013,-0.008588844910264015,0.008303232491016388,-0.00010568582365522161,0.008533417247235775
0.010269032791256905,-0.0002008201990975067,-0.008687572553753853,0.008381802588701248,-0.00010419448517495766,0.00870868843048811
0.009998380206525326,-0.00019537100160960108,-0.009321747347712517,0.008634945377707481,-0.0001022572469082661,0.009099284186959267
0.011142509989440441,-0.0001902096119010821,-0.009205633774399757,0.008546486496925354,-0.00010035902232630178,0.00879439152777195
0.009838946163654327,-0.00018531396926846355,-0.008415881544351578,0.008657176047563553,-9.852800576481968e-05,0.008818629197776318
0.009513198398053646,-0.0001806642540032044,-0.008506128564476967,0.00925404205918312,-9.676259651314467e-05,0.009386415593326092
0.010050489567220211,-0.00015451470972038805,-0.009028504602611065,0.008393855765461922,-0.00010984928667312488,0.009538797661662102
0.01061862614005804,-0.00015053134120535105,-0.008546782657504082,0.008552199229598045,-0.00010891511192312464,0.009579222649335861
0.009832615032792091,-0.00014701475447509438,-0.008322241716086864,0.008628265000879765,-0.00010712610674090683,0.00965012889355421
0.009832615032792091,-0.00014701475447509438,-0.008322241716086864,0.008628265000879765,-0.00010712610674090683,0.00965012889355421
0.01008073054254055,-0.00014366210962180048,-0.00905137974768877,0.008479644544422626,-0.00010533900058362633,0.009699361398816109
0.010373488068580627,-0.0001404592185281217,-0.008478091098368168,0.008032293990254402,-0.00011459433881100267,0.009391413070261478
0.009647171944379807,-0.0001373960403725505,-0.008275588043034077,0.008880420587956905,-0.00011624305625446141,0.009433870203793049
0.010082381777465343,-0.00013446356751956046,-0.00927165150642395,0.009252969175577164,-0.00011462112161098048,0.009450646117329597
0.010270501486957073,-0.00013165382551960647,-0.00825022254139185,0.00841538980603218,-0.00011283972708042711,0.00932985171675682
0.009959116578102112,-0.00012637200416065753,-0.008162532933056355,0.009043755009770393,-0.00010943446250166744,0.009396985173225403
0.009959116578102112,-0.00012637200416065753,-0.008162532933056355,0.009043755009770393,-0.00010943446250166744,0.009396985173225403
0.010106315836310387,-0.00012388709001243114,-0.009013106115162373,0.00889037549495697,-0.0001893258304335177,0.009212322533130646
0.010204914957284927,-0.00011919924145331606,-0.008873905055224895,0.008864319883286953,-0.00017986446619033813,0.009536842815577984
0.009978829883038998,-0.00011698592425091192,-0.008800151757895947,0.008931477554142475,-0.00018990984244737774,0.009403876028954983
0.009846869856119156,-0.0001148532101069577,-0.00840187631547451,0.008777335286140442,-0.00019873277051374316,0.009300395846366882
0.010165226645767689,-0.0001127967843785882,-0.00884887296706438,0.00878945179283619,-0.00019267435709480196,0.009366107173264027
0.009879444725811481,-0.00011081297270720825,-0.008958384394645691,0.008921314030885696,-0.0002013021585298702,0.009428057819604874
0.009902505204081535,-0.00010889758414123207,-0.009568105451762676,0.00853359792381525,-0.00020885620324406773,0.010199141688644886
0.010447682812809944,-0.0001070471917046234,-0.00883618276566267,0.008716926909983158,-0.00020305362704675645,0.01016903668642044
0.010175171308219433,-0.00010525887046242133,-0.008703839965164661,0.009447196498513222,-0.00019677175441756845,0.010041493922472
0.009979725815355778,-0.00010352901881560683,-0.009084656834602356,0.008834706619381905,-0.0001908154517877847,0.009841843508183956
0.010295665822923183,-0.00010185533756157383,-0.008344115689396858,0.008195103146135807,-0.00020480185048654675,0.009831761941313744
0.00995951984077692,-0.00010023489448940381,-0.008067389018833637,0.0083233080804348,-0.0002051704068435356,0.00987603422254324
0.009848548099398613,-9.86650338745676e-05,-0.009083854965865612,0.0084232734516263,-0.00019987946143373847,0.00973826739937067
0.010407445020973682,-9.714406041894108e-05,-0.009134786203503609,0.008113901130855083,-0.00024731774465180933,0.009724571369588375
0.00997255090624094,-9.567059896653518e-05,-0.008797092363238335,0.00822506844997406,-0.0002817349159158766,0.009501321241259575
0.00997255090624094,-9.567059896653518e-05,-0.008797092363238335,0.00822506844997406,-0.0002817349159158766,0.009501321241259575
0.01024363562464714,-9.423764277016744e-05,-0.008896206505596638,0.008754989132285118,-0.00026820553466677666,0.009481770917773247
0.010428034700453281,-9.284881525672972e-05,-0.009211682714521885,0.008998187258839607,-0.0002533149381633848,0.009610132314264774
0.009659305214881897,-9.150209371000528e-05,-0.008524308912456036,0.008582495152950287,-0.00023982416314538568,0.009692336432635784
0.01017382089048624,-9.019046410685405e-05,-0.00835703406482935,0.008544904179871082,-0.000261284236330539,0.009998710826039314
0.010196858085691929,-8.891937613952905e-05,-0.009072203189134598,0.008357097394764423,-0.0002592816308606416,0.010411961004137993
0.010449269786477089,-8.768190309638157e-05,-0.008790223859250546,0.00824576523154974,-0.00024805794237181544,0.010055837221443653
0.010258035734295845,-8.647839422337711e-05,-0.00865024235099554,0.00900828093290329,-0.00026640918804332614,0.010267376899719238
0.010047368705272675,-8.416773198405281e-05,-0.009054407477378845,0.008750099688768387,-0.0002543441660236567,0.00991427805274725
0.010478561744093895,-8.305817755172029e-05,-0.008609836921095848,0.008519163355231285,-0.00027033768128603697,0.009841612540185452
0.010138940997421741,-8.197738497983664e-05,-0.008668974041938782,0.009329487569630146,-0.0002684072242118418,0.009812537580728531
0.010317091830074787,-8.092441566986963e-05,-0.008601685985922813,0.00920955277979374,-0.00025927319074980915,0.009801896288990974
0.010427222587168217,-7.989820005604997e-05,-0.008478558622300625,0.008824490942060947,-0.0002502933784853667,0.010635658167302608
0.010432226583361626,-7.889758853707463e-05,-0.008244925178587437,0.00957795511931181,-0.00028104751254431903,0.010326271876692772
0.01058586873114109,-3.129015749436803e-05,-0.008507300168275833,0.009519685991108418,-0.00027716378099285066,0.010583159513771534
0.010729599744081497,-2.4867676984285936e-05,-0.008778387680649757,0.009247701615095139,-0.0002619062433950603,0.010573935694992542
0.01001015305519104,-2.44495204242412e-05,-0.00887481402605772,0.00909584853798151,-0.0002475499059073627,0.010130596347153187
0.010887968353927135,-2.4120818125084043e-05,-0.008969167247414589,0.009386920370161533,-0.00026925551355816424,0.009864985011518002
0.01137035433202982,-2.3801872885087505e-05,-0.009488636627793312,0.008735092356801033,-0.00026680686278268695,0.010096142999827862
0.01201091893017292,-2.3491233150707558e-05,-0.009166188538074493,0.009030605666339397,-0.00025491928681731224,0.010135910473763943
0.012448539026081562,-2.318863153050188e-05,-0.009442782960832119,0.009130475111305714,-0.00024346905411221087,0.010555563494563103
0.011864831671118736,-2.289369331265334e-05,-0.009656292386353016,0.00904229935258627,-0.00025195040507242084,0.010993560776114464
0.012082347646355629,-2.2606185666518286e-05,-0.009255454875528812,0.008892179466784,-0.00025925476802513003,0.010386291891336441
0.012212750501930714,-2.2325819372781552e-05,-0.009210861288011074,0.009249496273696423,-0.00025011683464981616,0.009863005019724369
0.012004543095827103,-2.205229247920215e-05,-0.00975681934505701,0.008909408003091812,-0.0002726806269492954,0.010184044949710369
0.01220714021474123,-2.1785404896945693e-05,-0.010014219209551811,0.008688700385391712,-0.000264747126493603,0.010149928741157055
0.01220714021474123,-2.1785404896945693e-05,-0.010014219209551811,0.008688700385391712,-0.000264747126493603,0.010149928741157055
0.011903228238224983,-2.152489651052747e-05,-0.009048650972545147,0.009036255069077015,-0.00025548855774104595,0.010057158768177032
0.0122499605640769,-2.1270563593134284e-05,-0.009776370599865913,0.008881843648850918,-0.0002467407030053437,0.010372418910264969
0.012642109766602516,-2.1022147848270833e-05,-0.009537936188280582,0.008444175124168396,-0.00027913504163734615,0.010040663182735443
0.012193954549729824,-2.0779489204869606e-05,-0.009020996280014515,0.00877210684120655,-0.00027583265909925103,0.009991070255637169
0.012447228655219078,-2.0542327547445893e-05,-0.0093619916588068,0.008825446479022503,-0.00026074767811223865,0.010425824671983719
0.01259987335652113,-2.0310559193603694e-05,-0.00953472126275301,0.0089598773047328,-0.00024651738931424916,0.009955937042832375
0.012457206845283508,-2.0083951312699355e-05,-0.009901725687086582,0.008732332848012447,-0.00023371368297375739,0.009870639070868492
0.012250705622136593,-1.9862334738718346e-05,-0.009795608930289745,0.009357765316963196,-0.00022217092919163406,0.010339705273509026
0.012712394818663597,-3.5751501759051507e-09,-0.009142141789197922,0.00909743458032608,-0.0002424499689368531,0.010070472955703735
0.012536195106804371,-4.796520472472032e-11,-0.010049192234873772,0.009252756834030151,-0.00023219181457534432,0.010590909980237484
0.0123941944912076,-6.43514375901072e-13,-0.010035231709480286,0.009209384210407734,-0.00022262743732426316,0.010351422242820263
0.012175423093140125,-8.63356712103901e-15,-0.009390156716108322,0.008724994957447052,-0.00024702359223738313,0.010608920827507973
0.012316671200096607,-1.1583032616892708e-16,-0.009272294119000435,0.009780392050743103,-0.0002397866774117574,0.010482247918844223
0.012353071011602879,-1.554011498901455e-18,-0.009885220788419247,0.009812704287469387,-0.00023113039787858725,0.010156658478081226
0.011910129338502884,-2.084904856530785e-20,-0.009417534805834293,0.009144743904471397,-0.00022295827511698008,0.010138314217329025
0.011897183023393154,-2.797165716926734e-22,-0.009845150634646416,0.009422519244253635,-0.00024202109489124268,0.010531017556786537
0.01181179191917181,-3.7527548988211034e-24,-0.010295899584889412,0.009534364566206932,-0.00023769833205733448,0.010813274420797825
0.012526066973805428,-5.034799648835342e-26,-0.009720287285745144,0.009342417120933533,-0.00023033325851429254,0.010819382965564728
0.01217199582606554,-6.754826612493991e-28,-0.010044906288385391,0.009309853427112103,-0.00022320752032101154,0.010402296669781208
0.01244295947253704,-9.062461096364985e-30,-0.009942597709596157,0.00975533202290535,-0.00023756171867717057,0.010701359249651432
0.011891924776136875,-1.2158448401063537e-31,-0.009783062152564526,0.009492888115346432,-0.00023266843345481902,0.01070820726454258
0.012391624972224236,-1.6312111027750258e-33,-0.010287592187523842,0.009689702652394772,-0.0002216862776549533,0.010433709248900414
0.012375316582620144,-2.1884780425730212e-35,-0.009633827954530716,0.009557647630572319,-0.00023194738605525345,0.01104740146547556
0.01248394139111042,-2.9361229598872e-37,-0.008380011655390263,0.009115824475884438,-0.0002407819265499711,0.010995750315487385
0.013254554010927677,-3.9391831065711716e-39,-0.010564045049250126,0.010047141462564468,-0.0002317025064257905,0.010686775669455528
0.012492646463215351,-5.284857028354615e-41,-0.010868755169212818,0.009298603981733322,-0.0002222466137027368,0.01078078057616949
0.012492646463215351,-5.284857028354615e-41,-0.010868755169212818,0.009298603981733322,-0.0002222466137027368,0.01078078057616949
0.012451265938580036,-9.80908925027372e-45,-0.009989136829972267,0.009047367610037327,-0.00022210288443602622,0.010542516596615314
0.012451265938580036,-9.80908925027372e-45,-0.009989136829972267,0.009047367610037327,-0.00022210288443602622,0.010542516596615314
0.012656077742576599,-0.0,-0.010646440088748932,0.009765464812517166,-0.0002296523016411811,0.010628907941281796
0.01245848648250103,0.0,-0.010200468823313713,0.009472834877669811,-0.00022256083320826292,0.010848691686987877
0.012478554621338844,0.0,-0.010820680297911167,0.009216923266649246,-0.000215030595427379,0.011279864236712456
0.01255459152162075,0.0,-0.010112475603818893,0.00913319457322359,-0.0002079372643493116,0.011222854256629944
0.012278011068701744,0.0,-0.010365043766796589,0.009353119879961014,-0.00020129294716753066,0.011325477622449398
0.012370238080620766,0.0,-0.010146480984985828,0.008975552394986153,-0.0002161074080504477,0.01063615269958973
0.012973093427717686,0.0,-0.011013733223080635,0.00886116735637188,-0.00020991681958548725,0.010795274749398232
0.01254214160144329,0.0,-0.010266060009598732,0.008773863315582275,-0.0002039768296526745,0.011073513887822628
0.012766880914568901,0.0,-0.009701058268547058,0.00904072541743517,-0.00019835714192595333,0.011095521040260792
0.012874200008809566,0.0,-0.01042476762086153,0.009163389913737774,-0.0001930391154019162,0.011631110683083534
0.013135424815118313,0.0,-0.010546418838202953,0.008925854228436947,-0.00018799830286297947,0.011275042779743671
0.013341398909687996,0.0,-0.0105232959613204,0.009348333813250065,-0.0002072000497719273,0.011710402555763721
0.014064484275877476,0.0,-0.010151183232665062,0.009578471072018147,-0.00020159533596597612,0.011273750104010105
0.0131663978099823,0.0,-0.010032234713435173,0.009540901519358158,-0.00019317943952046335,0.010765358805656433
0.01235367264598608,0.0,-0.010090316645801067,0.00912089366465807,-0.00018524141341913491,0.011196707375347614
0.013274388387799263,0.0,-0.010913529433310032,0.009927874431014061,-0.000177917187102139,0.011260753497481346
0.013182327151298523,0.0,-0.010160217061638832,0.009639842435717583,-0.00017114916408900172,0.011223637498915195
0.013140060938894749,0.0,-0.01076547708362341,0.009216966107487679,-0.000181028270162642,0.011454462073743343
0.013140060938894749,0.0,-0.01076547708362341,0.009216966107487679,-0.000181028270162642,0.011454462073743343
0.01305566355586052,0.0,-0.01031101681292057,0.009452440775930882,-0.00018427114991936833,0.011711549945175648
0.01305566355586052,0.0,-0.01031101681292057,0.009452440775930882,-0.00018427114991936833,0.011711549945175648
0.013616969808936119,0.0,-0.009955903515219688,0.008773460052907467,-0.00017825209943111986,0.01192315760999918
0.013312348164618015,0.0,-0.010316274128854275,0.008713990449905396,-0.000172559724887833,0.011519153602421284
0.013741456903517246,0.0,-0.010544025339186192,0.00888003595173359,-0.00018088641809299588,0.011827407404780388
0.013024700805544853,0.0,-0.01133621297776699,0.008476958610117435,-0.00018829802866093814,0.012107429094612598
0.013541849330067635,0.0,-0.010507931001484394,0.00926157645881176,-0.00018364623247180134,0.011878833174705505
0.013350252993404865,0.0,-0.009997516870498657,0.009525852277874947,-0.00017849715368356556,0.011487739160656929
0.013820053078234196,0.0,-0.010793534107506275,0.009207746013998985,-0.0001735827827360481,0.011459693312644958
0.013363972306251526,0.0,-0.010648788884282112,0.008771102875471115,-0.00018680999346543103,0.012008612975478172
0.0139143792912364,0.0,-0.009737743996083736,0.009672793559730053,-0.00018761061073746532,0.012146633118391037
0.013736742548644543,0.0,-0.010043523274362087,0.009439781308174133,-0.00017868439317680895,0.012039441615343094
0.01360494177788496,0.0,-0.009743192233145237,0.009286095388233662,-0.00017435834161005914,0.011871328577399254
0.01397315226495266,0.0,-0.010483278892934322,0.010183768346905708,-0.000198235604329966,0.011825351044535637
0.013620329089462757,0.0,-0.01019696332514286,0.008747070096433163,-0.00019875046564266086,0.011909634806215763
0.013816449791193008,0.0,-0.01044907234609127,0.00906690489500761,-0.00019092186994384974,0.011971267871558666
0.014109177514910698,0.0,-0.01080587599426508,0.009322987869381905,-0.00018318858928978443,0.011679710820317268
0.014155472628772259,0.0,-0.010131394490599632,0.009275359101593494,-0.0002020529645960778,0.011589866131544113
0.0139762032777071,0.0,-0.01052075531333685,0.009334482252597809,-0.00020267697982490063,0.011984541080892086
0.014058412052690983,0.0,-0.010693756863474846,0.009254520758986473,-0.00019586198322940618,0.011783987283706665
0.013971498236060143,0.0,-0.009956738911569118,0.008930223993957043,-0.00018903911404777318,0.01206236146390438
0.013793024234473705,0.0,-0.010392798110842705,0.009153611958026886,-0.00020517490338534117,0.012113483622670174
0.013842080719769001,0.0,-0.010483555495738983,0.00916953757405281,-0.00020559898985084146,0.01204021368175745
0.014342048205435276,0.0,-0.010635500773787498,0.009149152785539627,-0.0001995513739529997,0.012205719947814941
0.014230795204639435,0.0,-0.010378295555710793,0.010022486560046673,-0.00019345358305145055,0.012321376241743565
0.01421462930738926,0.0,-0.010633090510964394,0.0094602070748806,-0.0001876914466265589,0.012444739229977131
0.014616145752370358,0.0,-0.009926888160407543,0.009417349472641945,-0.00019504014926496893,0.012033620849251747
0.014327079989016056,0.0,-0.01034469623118639,0.009228387847542763,-0.00020157574908807874,0.012185745872557163
0.014388922601938248,0.0,-0.01031164638698101,0.009719115681946278,-0.0001968482247320935,0.012164128012955189
0.014332803897559643,0.0,-0.010118029080331326,0.009282908402383327,-0.0001916590699693188,0.01213410310447216
0.014332803897559643,0.0,-0.010118029080331326,0.009282908402383327,-0.0001916590699693188,0.01213410310447216
0.014595817774534225,0.0,-0.010587399825453758,0.009227266535162926,-0.00018669285054784268,0.012378696352243423
0.014354078099131584,0.0,-0.01005067490041256,0.009534681215882301,-0.00023479088849853724,0.012109183706343174
0.014742260798811913,0.0,-0.010092864744365215,0.009253878146409988,-0.00023052045435179025,0.01241248194128275
0.014263330027461052,0.0,-0.01027199998497963,0.009684142656624317,-0.00021976785501465201,0.012551996856927872
0.0146155571565032,0.0,-0.010694057680666447,0.009713682346045971,-0.00020956357184331864,0.012727835215628147
0.014209775254130363,0.00016233646601904184,-0.01142715010792017,0.009425168856978416,-0.00020023796241730452,0.012738737277686596
0.014189284294843674,0.00021082395687699318,-0.010359375737607479,0.009491969831287861,-0.0001917059998959303,0.013319863006472588
0.014116084203124046,0.00020210802904330194,-0.009865508414804935,0.009663958102464676,-0.00018387129239272326,0.012398045510053635
0.014347161166369915,0.0001854577858466655,-0.010330402292311192,0.009207328781485558,-0.00020279554883018136,0.01273337472230196
0.014658630825579166,0.00020149299234617501,-0.010423722676932812,0.009481835179030895,-0.00019647146109491587,0.012730643153190613
0.014415577054023743,0.00020543790014926344,-0.010386219248175621,0.010076835751533508,-0.0001896395842777565,0.012537446804344654
0.014290142804384232,0.0001980585657292977,-0.010319695807993412,0.009182223118841648,-0.00018320923845749348,0.012568041682243347
0.014262659475207329,0.00021914031822234392,-0.00982818752527237,0.009767499752342701,-0.00017719680909067392,0.012755446135997772
0.01489534042775631,0.0002152282977476716,-0.010355283506214619,0.009790671989321709,-0.00017156661488115788,0.013103940524160862
0.01471410971134901,0.00023440030054189265,-0.010244631208479404,0.00960728619247675,-0.00019033232820220292,0.01268544141203165
0.015416576527059078,0.00023024661641102284,-0.009866594336926937,0.010140152648091316,-0.00018796154472511262,0.012792718596756458
0.015122771263122559,0.0002231555845355615,-0.010631398297846317,0.010092307813465595,-0.00018272578017786145,0.012410321272909641
0.014706829562783241,0.00033408612944185734,-0.010063091292977333,0.009678347036242485,-0.00017758867761585861,0.012595485895872116
0.01473192498087883,0.00031564553501084447,-0.010230551473796368,0.00993362907320261,-0.00017272040713578463,0.012475410476326942
0.01514472346752882,0.0002950146154034883,-0.010796234011650085,0.009534419514238834,-0.00019051614799536765,0.012692959047853947
0.014785772189497948,0.0003256156051065773,-0.010001067072153091,0.009153609164059162,-0.0001870281557785347,0.012643471360206604
0.014949005097150803,0.0003128868993371725,-0.010957595892250538,0.009810461662709713,-0.00018238571647088975,0.012445084750652313
0.015167833305895329,0.000343102787155658,-0.010464778169989586,0.009416111744940281,-0.0001778854348231107,0.013049771077930927
0.014774537645280361,0.0003271779278293252,-0.010233649984002113,0.008742925710976124,-0.0001738938590278849,0.012983162887394428
0.015086263418197632,0.0003502062172628939,-0.010849368758499622,0.009422415867447853,-0.0001821168843889609,0.013129323720932007
0.014782801270484924,0.000338687386829406,-0.011119362898170948,0.009505434893071651,-0.00017599115381017327,0.012607278302311897
0.014782801270484924,0.000338687386829406,-0.011119362898170948,0.009505434893071651,-0.00017599115381017327,0.012607278302311897
0.01504839863628149,0.0003235329932067543,-0.010102694854140282,0.009106973186135292,-0.00019449021783657372,0.012614956125617027
0.015444601885974407,0.00043741738772951066,-0.010495799593627453,0.009884578175842762,-0.00020448360010050237,0.012988253496587276
0.015010640025138855,0.0004272696969565004,-0.010823516175150871,0.009695162065327168,-0.0002120776189258322,0.013302277773618698
0.015010640025138855,0.0004272696969565004,-0.010823516175150871,0.009695162065327168,-0.0002120776189258322,0.013302277773618698
0.015145928598940372,0.0003962408227380365,-0.010938330553472042,0.009849803522229195,-0.00020608576596714556,0.013167430646717548
0.014591540209949017,0.0004297908453736454,-0.01036240067332983,0.009745289571583271,-0.00022621137031819671,0.013341882266104221
0.015571419149637222,0.0004327248898334801,-0.010666564106941223,0.00991594884544611,-0.00043710600584745407,0.01364249549806118
0.015356883406639099,0.000552699260879308,-0.010634297505021095,0.010270153172314167,-0.00045251307892613113,0.013297423720359802
0.015125066041946411,0.000598867132794112,-0.011227668263018131,0.009332442656159401,-0.0004518249770626426,0.01330877561122179
0.015396405942738056,0.0005492440541274846,-0.011082925833761692,0.00917530432343483,-0.0004191677435301244,0.013323822058737278
0.015631577000021935,0.0005805368418805301,-0.010710051283240318,0.009649001993238926,-0.00038910243893042207,0.013779094442725182
0.01561508048325777,0.0006054294062778354,-0.010906808078289032,0.00965430960059166,-0.0004152042674832046,0.013589783571660519
0.015594307333230972,0.0005611525266431272,-0.010579266585409641,0.00994530413299799,-0.0003962150658480823,0.013511551544070244
0.015406780876219273,0.0006697619101032615,-0.011039715260267258,0.010027692653238773,-0.0003732005425263196,0.013467476703226566
0.015684666112065315,0.0007056924514472485,-0.011142250150442123,0.009569992311298847,-0.0003894515975844115,0.013276669196784496
0.015628132969141006,0.0006357462261803448,-0.010435986332595348,0.009727777913212776,-0.0003804863372351974,0.012898556888103485
0.01600961945950985,0.0006622978835366666,-0.011311931535601616,0.010122342966496944,-0.00036210528924129903,0.012983082793653011
0.015392289496958256,0.0006825466407462955,-0.011304114945232868,0.0101475790143013,-0.0003740755782928318,0.014186402782797813
0.01585431396961212,0.0007758379797451198,-0.011224489659070969,0.00993672851473093,-0.0003502017934806645,0.013084684498608112
0.01585703156888485,0.0008099277038127184,-0.011126495897769928,0.009840812534093857,-0.00035677370033226907,0.013018603436648846
0.01585703156888485,0.0008099277038127184,-0.011126495897769928,0.009840812534093857,-0.00035677370033226907,0.013018603436648846
0.016292862594127655,0.0008425372652709484,-0.011511136777698994,0.010120942257344723,-0.00034083021455444396,0.014251437969505787
0.01599215902388096,0.001185987377539277,-0.012248970568180084,0.010030758567154408,-0.00036692756111733615,0.013746512122452259
0.01599215902388096,0.001185987377539277,-0.012248970568180084,0.010030758567154408,-0.00036692756111733615,0.013746512122452259
0.01584402471780777,0.0011379957431927323,-0.01164647750556469,0.009757078252732754,-0.00035270629450678825,0.01402347907423973
0.01579039730131626,0.0010690703056752682,-0.011367926374077797,0.0104435496032238,-0.00037574052112177014,0.013896685093641281
0.01612376794219017,0.000967620755545795,-0.011217995546758175,0.009869258850812912,-0.0003625054960139096,0.013933786191046238
0.015918882563710213,0.0008792670560069382,-0.011920607648789883,0.009528513997793198,-0.0004353411204647273,0.01377006433904171
0.01671712100505829,0.0007500110077671707,-0.012176512740552425,0.010308317840099335,-0.00042440343531779945,0.013888618908822536
0.016285758465528488,0.0008586993208155036,-0.011910161934792995,0.00976313091814518,-0.00049155781744048,0.013936628587543964
0.016230963170528412,0.0009666915866546333,-0.011150001548230648,0.009905186481773853,-0.0005131472134962678,0.014102294109761715
0.015875892713665962,0.0011458109365776181,-0.011590039357542992,0.01003686711192131,-0.0006419984856620431,0.014411978423595428
0.016216153278946877,0.0011421946110203862,-0.012267381884157658,0.009299959056079388,-0.0008033615886233747,0.01413319818675518
0.016325537115335464,0.0013220247346907854,-0.011678032577037811,0.00988825224339962,-0.0008087484748102725,0.014717725105583668
0.01662743277847767,0.0012658067280426621,-0.011731786653399467,0.010399981401860714,-0.0007925822283141315,0.014481219463050365
0.016277888789772987,0.0011962990975007415,-0.0115001630038023,0.00977089162915945,-0.0007565327687188983,0.014179406687617302
0.016712823882699013,0.001148692681454122,-0.012386481277644634,0.010114669799804688,-0.0007718040142208338,0.014160579070448875
0.016472363844513893,0.0011298395693302155,-0.011838238686323166,0.01011723093688488,-0.0007306644693017006,0.013906138949096203
0.016453208401799202,0.001140872249379754,-0.011481490917503834,0.010309886187314987,-0.0006934707053005695,0.013720137067139149
0.016865314915776253,0.0014168290654197335,-0.011927665211260319,0.010091882199048996,-0.0006619186024181545,0.014119475148618221
0.016330180689692497,0.0016375025734305382,-0.011391112580895424,0.009300374425947666,-0.000592680589761585,0.014235664159059525
0.016861556097865105,0.0018156939186155796,-0.012695453129708767,0.009073124267160892,-0.000577061902731657,0.014564398676156998
0.016735630109906197,0.0018569815438240767,-0.01165019441395998,0.009661034680902958,-0.0005640534800477326,0.014706087298691273
0.017053019255399704,0.001689467579126358,-0.011630697175860405,0.010140964761376381,-0.000519999535754323,0.014634800143539906
0.017619015648961067,0.0015990121755748987,-0.012050019577145576,0.008985050022602081,-0.0005397049826569855,0.014049486257135868
0.016969531774520874,0.0016466964734718204,-0.012183965183794498,0.009970533661544323,-0.0005095705855637789,0.014657226391136646
0.0171656534075737,0.0019102533115074039,-0.011763449758291245,0.010644425638020039,-0.00045910198241472244,0.014483905397355556
0.01688358373939991,0.0019160459050908685,-0.01145189255475998,0.009771202690899372,-0.00040560009074397385,0.014617612585425377
0.01688358373939991,0.0019160459050908685,-0.01145189255475998,0.009771202690899372,-0.00040560009074397385,0.014617612585425377
0.017196355387568474,0.001996922306716442,-0.012020489200949669,0.009779893793165684,-0.0003429285134188831,0.01469157263636589
0.017196355387568474,0.001996922306716442,-0.012020489200949669,0.009779893793165684,-0.0003429285134188831,0.01469157263636589
0.017118245363235474,0.0017070691101253033,-0.011103134602308273,0.009671430103480816,-0.0003654675674624741,0.014338496141135693
0.0177118182182312,0.0017186155309900641,-0.01196029968559742,0.010328526608645916,-0.00035594982909969985,0.015192084014415741
0.016904359683394432,0.0017436270136386156,-0.01155062671750784,0.009487002156674862,-0.00036078033735975623,0.013562025502324104
0.01721644401550293,0.001962139969691634,-0.011708187870681286,0.009912733919918537,-0.00034711597254499793,0.014362809248268604
0.017481084913015366,0.0022236048243939877,-0.011953362263739109,0.010119463317096233,-0.0003293694753665477,0.015331156551837921
0.01846512407064438,0.0022579445503652096,-0.012277173809707165,0.009962585754692554,-0.0003130255499854684,0.014972617849707603
0.017786510288715363,0.0022098489571362734,-0.011840932071208954,0.010746698826551437,-0.0002982060832437128,0.015107786282896996
0.017804337665438652,0.002140939235687256,-0.011672204360365868,0.010278789326548576,-0.00031996137113310397,0.015020409598946571
0.018137739971280098,0.00209927000105381,-0.012029394507408142,0.010559948161244392,-0.00031097145983949304,0.015101760625839233
0.01692790724337101,0.0021914958488196135,-0.011932860128581524,0.010435107164084911,-0.00029839668422937393,0.014863627962768078
0.017644349485635757,0.0021508170757442713,-0.012329661287367344,0.010041655041277409,-0.0002865395217668265,0.014834746718406677
0.01796632446348667,0.002322535030543804,-0.0117492089048028,0.010294963605701923,-0.0002777250192593783,0.014734452590346336
0.017869193106889725,0.0023295776918530464,-0.011859607882797718,0.010108252987265587,-0.0002645101340021938,0.015021867118775845
0.018544653430581093,0.0023192954249680042,-0.012283921241760254,0.009967111982405186,-0.00025001270114444196,0.015137146227061749
0.018346745520830154,0.0026181302964687347,-0.012241469696164131,0.009952672757208347,-0.00023686111671850085,0.015492403879761696
0.01827304996550083,0.002491558203473687,-0.012421520426869392,0.010289671830832958,-0.00022501447529066354,0.015145344659686089
0.017852438613772392,0.0022892928682267666,-0.011751946993172169,0.00967636052519083,-0.00021429585467558354,0.015018569305539131
0.017749901860952377,0.0022819824516773224,-0.012173476628959179,0.009818325750529766,-0.00023476488422602415,0.014723673462867737
0.01862722635269165,0.0020864238031208515,-0.01214771531522274,0.00995255820453167,-0.00023408854031004012,0.01525927148759365
0.018402526155114174,0.0024132216349244118,-0.012147271074354649,0.009670068509876728,-0.00022495660232380033,0.015167797915637493
0.018345044925808907,0.0025042372290045023,-0.011847068555653095,0.010298036970198154,-0.00023361331841442734,0.015337868593633175
0.01862063817679882,0.0026236067060381174,-0.011664128862321377,0.010079548694193363,-0.00024110576487146318,0.015286384150385857
0.01815362274646759,0.002682338235899806,-0.012425970286130905,0.009832882322371006,-0.00023325211077462882,0.015216770581901073
0.018291331827640533,0.002453362103551626,-0.011759085580706596,0.01061275228857994,-0.00022499082842841744,0.014831171371042728
0.018855368718504906,0.002362685278058052,-0.012103804387152195,0.010933457873761654,-0.0002172362874262035,0.01503339596092701
0.018855368718504906,0.002362685278058052,-0.012103804387152195,0.010933457873761654,-0.0002172362874262035,0.01503339596092701
0.018540823832154274,0.0025608702562749386,-0.012095781974494457,0.010136841796338558,-0.00020999475964345038,0.015155714005231857
0.01849857158958912,0.00283460458740592,-0.011271791532635689,0.010181483812630177,-0.00020322023192420602,0.015584399923682213
0.018610043451189995,0.002646966138854623,-0.01192813366651535,0.010378262959420681,-0.00019090299610979855,0.015361676923930645
0.018740292638540268,0.002514514373615384,-0.01192604098469019,0.010677040554583073,-0.0001852876739576459,0.015416909009218216
0.018795790150761604,0.0026498548686504364,-0.011688919737935066,0.010773676447570324,-0.0001799936726456508,0.015043783001601696
0.01832554303109646,0.0026118324603885412,-0.011518514715135098,0.010422435589134693,-0.00017499348905403167,0.015572544187307358
0.019029034301638603,0.0028624346014112234,-0.011910560540854931,0.010774295777082443,-0.00017026379646267742,0.01646214909851551
0.01868148148059845,0.0028319961857050657,-0.011660703457891941,0.010115642100572586,-0.00016578320355620235,0.015391266904771328
0.01840810477733612,0.0028439005836844444,-0.012260335497558117,0.010455826297402382,-0.00017863488756120205,0.015077725052833557
0.018947670236229897,0.0026288204826414585,-0.0116655882447958,0.010460435412824154,-0.00017960273544304073,0.015364422462880611
0.018842071294784546,0.002874755533412099,-0.011590472422540188,0.010287223383784294,-0.00017557721002958715,0.015537375584244728
0.01838136650621891,0.003046659054234624,-0.01210773829370737,0.010957237333059311,-0.00017141998978331685,0.015613841824233532
0.018855255097150803,0.003021405776962638,-0.011712007224559784,0.011069638654589653,-0.00016743507876526564,0.015565929934382439
0.018644554540514946,0.002738287439569831,-0.012319588102400303,0.010211439803242683,-0.00016362970927730203,0.015470505692064762
0.018780631944537163,0.0025536366738379,-0.012137440033257008,0.010257945396006107,-0.00015999354945961386,0.015819210559129715
0.019028622657060623,0.0025549952406436205,-0.012315095402300358,0.010453488677740097,-0.00015651542344130576,0.016142379492521286
0.018873458728194237,0.0025440005119889975,-0.012287706136703491,0.010322706773877144,-0.00015318513032980263,0.015963131561875343
0.01882535219192505,0.0029442589730024338,-0.011846565641462803,0.010703503154218197,-0.00014999396807979792,0.015587653033435345
0.01887974701821804,0.0032479993533343077,-0.012452677823603153,0.010475647635757923,-0.0001469329436076805,0.015802649781107903
0.01901635155081749,0.0028139683417975903,-0.012233451008796692,0.009924693033099174,-0.0001441740896552801,0.01565399207174778
0.01901635155081749,0.0028139683417975903,-0.012233451008796692,0.009924693033099174,-0.0001441740896552801,0.01565399207174778
0.0190510842949152,0.0027566144708544016,-0.012384614907205105,0.010216828435659409,-0.00012476780102588236,0.01605190336704254
0.0190510842949152,0.0027566144708544016,-0.012384614907205105,0.010216828435659409,-0.00012476780102588236,0.01605190336704254
0.01925850659608841,0.0032902350649237633,-0.012232871726155281,0.010464857332408428,-0.00011816593178082258,0.016351928934454918
0.01942189782857895,0.003028895240277052,-0.012251678854227066,0.009855026379227638,-0.00013220973778516054,0.01635933481156826
0.01942189782857895,0.003028895240277052,-0.012251678854227066,0.009855026379227638,-0.00013220973778516054,0.01635933481156826
0.01861199364066124,0.002714803209528327,-0.012333002872765064,0.01049576885998249,-0.00013141801173333079,0.015936223790049553
0.01861199364066124,0.002714803209528327,-0.012333002872765064,0.01049576885998249,-0.00013141801173333079,0.015936223790049553
0.018770383670926094,0.0027885979507118464,-0.012213295325636864,0.010158402845263481,-0.00013882876373827457,0.015904290601611137
0.01915058121085167,0.002923280233517289,-0.012278802692890167,0.010592297650873661,-0.00014286773512139916,0.016420919448137283
0.018962260335683823,0.002955465577542782,-0.01242151390761137,0.00989292748272419,-0.00013974093599244952,0.016364559531211853
0.018256232142448425,0.0031159836798906326,-0.012420066632330418,0.00997912511229515,-0.0001549377921037376,0.016298331320285797
0.018952300772070885,0.003093704115599394,-0.012616140767931938,0.010273884050548077,-0.00015283790708053857,0.016157086938619614
0.01936403103172779,0.0030123256146907806,-0.011956210248172283,0.01014710683375597,-0.0002999998687300831,0.015946324914693832
0.01922137849032879,0.002681272802874446,-0.012646369636058807,0.010890056379139423,-0.00033061933936551213,0.01614144816994667
0.018896810710430145,0.0019808183424174786,-0.012562516145408154,0.010245430283248425,-0.0003383113944437355,0.015999803319573402
0.019077850505709648,0.0013618425000458956,-0.012754397466778755,0.010165941901504993,-0.0003201110230293125,0.017394213005900383
0.01874002441763878,0.0012198109179735184,-0.012667051516473293,0.010801662690937519,-0.0003458948922343552,0.016137488186359406
0.01890571042895317,0.0010914462618529797,-0.012717071920633316,0.010833979584276676,-0.0003335486981086433,0.015771936625242233
0.01906372793018818,0.0008265659562312067,-0.012805882841348648,0.011370962485671043,-0.00033925421303138137,0.01599716581404209
0.01881233975291252,0.0009214960737153888,-0.012647668831050396,0.011485219933092594,-0.00034358692937530577,0.016652937978506088
0.017732303589582443,0.0016205384163185954,-0.013142299838364124,0.011624367907643318,-0.00032921539968810976,0.017185430973768234
0.019551822915673256,0.0017334034200757742,-0.012500745244324207,0.011347840540111065,-0.0003866652259603143,0.017111895605921745
0.019184660166502,0.0016892114654183388,-0.012901738286018372,0.011101496405899525,-0.00041875915485434234,0.01746959798038006
0.019148817285895348,0.0015645670937374234,-0.012784948572516441,0.011254980228841305,-0.00042463093996047974,0.017046766355633736
0.018996447324752808,0.0014149495400488377,-0.01297223661094904,0.010609142482280731,-0.0004254857776686549,0.017040465027093887
0.018996447324752808,0.0014149495400488377,-0.01297223661094904,0.010609142482280731,-0.0004254857776686549,0.017040465027093887
0.01866491138935089,0.0012680006911978126,-0.013210715726017952,0.010408042930066586,-0.00039647758239880204,0.016668114811182022
0.019358821213245392,0.001119807013310492,-0.012797758914530277,0.010471953079104424,-0.0004267448384780437,0.01622491329908371
0.01946089044213295,0.0008579760906286538,-0.013566238805651665,0.010675903409719467,-0.0004031670105177909,0.016534961760044098
0.019188830628991127,0.000954359769821167,-0.013235382735729218,0.010418294928967953,-0.0003791381313931197,0.01703065074980259
0.019549572840332985,0.000986530794762075,-0.013672580942511559,0.010706019587814808,-0.0003825092571787536,0.017254015430808067
0.019581250846385956,0.0013504173839464784,-0.013196817599236965,0.010686427354812622,-0.0003850385546684265,0.017300546169281006
0.019462108612060547,0.0012871571816504002,-0.01355632022023201,0.010973075404763222,-0.00036691530840471387,0.01675846241414547
0.019836213439702988,0.0013408911181613803,-0.01365212444216013,0.01040878426283598,-0.0003673333558253944,0.016650021076202393
0.019860059022903442,0.00131043023429811,-0.013181566260755062,0.010593483224511147,-0.00040151216671802104,0.01760401576757431
0.02015474997460842,0.0012519280426204205,-0.013163276016712189,0.010802265256643295,-0.0004122966784052551,0.01782527193427086
0.020144015550613403,0.0013426494551822543,-0.013462173752486706,0.010694017633795738,-0.0004140494274906814,0.017148688435554504
0.01999754086136818,0.0012703269021585584,-0.013717081397771835,0.011088336817920208,-0.00043134461157023907,0.01722090132534504
0.019676590338349342,0.0012461459264159203,-0.013542248867452145,0.011055146344006062,-0.0004191763000562787,0.01674784906208515
0.019672086462378502,0.0015124579658731818,-0.01303895190358162,0.011061430908739567,-0.0006177985342219472,0.01665661111474037
0.01995047554373741,0.0014888617442920804,-0.013533107936382294,0.01196250319480896,-0.0006274653715081513,0.017013248056173325
0.019755573943257332,0.001899435417726636,-0.013089192099869251,0.01084301806986332,-0.0006077966536395252,0.017080524936318398
0.020452825352549553,0.0017406200058758259,-0.01333879679441452,0.011034319177269936,-0.0006161734345369041,0.017713606357574463
0.020288141444325447,0.0017347292741760612,-0.012975548394024372,0.011226738803088665,-0.0005801896331831813,0.017085058614611626
0.020024437457323074,0.0016950102290138602,-0.013475100509822369,0.010960463434457779,-0.0005692527047358453,0.017939947545528412
0.019946953281760216,0.0017407609848305583,-0.01312940288335085,0.01110742799937725,-0.0005586012848652899,0.01687861606478691
0.020401878282427788,0.0017696123104542494,-0.013561446219682693,0.010783395729959011,-0.0005239390884526074,0.01665322110056877
0.020178986713290215,0.0020073375198990107,-0.012977330945432186,0.01066508051007986,-0.0005130328354425728,0.01729533076286316
0.02015126310288906,0.002045618835836649,-0.01333627849817276,0.011236092075705528,-0.0005079534603282809,0.018014172092080116
0.020199304446578026,0.002374145667999983,-0.013308475725352764,0.010921217501163483,-0.0005011444445699453,0.018283935263752937
0.020199304446578026,0.002374145667999983,-0.013308475725352764,0.010921217501163483,-0.0005011444445699453,0.018283935263752937
0.020353831350803375,0.0021291340235620737,-0.013613849878311157,0.010938339866697788,-0.0005272296839393675,0.018071698024868965
0.020112892612814903,0.0021469411440193653,-0.013783279806375504,0.011432814411818981,-0.00049496692372486,0.01771427132189274
0.020290356129407883,0.0019713430665433407,-0.013106396421790123,0.010673116892576218,-0.0005161130684427917,0.01797453872859478
0.020077578723430634,0.002054310403764248,-0.013252017088234425,0.010736762546002865,-0.000488824094645679,0.017605984583497047
0.02018163539469242,0.002370199654251337,-0.012928137555718422,0.010862121358513832,-0.0005349080893211067,0.017690997570753098
0.020946474745869637,0.002229704288765788,-0.013508946634829044,0.010757203213870525,-0.0005506082088686526,0.01827404834330082
0.02070550248026848,0.0021034248638898134,-0.013949695974588394,0.0098160021007061,-0.0005543685983866453,0.017381148412823677
0.020480060949921608,0.0022283114958554506,-0.013159242458641529,0.010571680031716824,-0.0005268013337627053,0.01735007017850876
0.0203741155564785,0.0019932680297642946,-0.013779772445559502,0.011016571894288063,-0.0005519526312127709,0.0177406445145607
0.020569423213601112,0.0020681063178926706,-0.013188948854804039,0.011004960164427757,-0.0005176677950657904,0.018082700669765472
0.02090558223426342,0.002097382675856352,-0.013592023402452469,0.011283313855528831,-0.0005938370013609529,0.018199583515524864
0.02126559242606163,0.0022996573243290186,-0.013376372866332531,0.011129120364785194,-0.0005329513223841786,0.018160395324230194
0.020816337317228317,0.002334798686206341,-0.01358203124254942,0.010535004548728466,-0.00047698963317088783,0.01786920800805092
0.02060975693166256,0.0021968327928334475,-0.013421463780105114,0.011693684384226799,-0.000494346662890166,0.01776712015271187
0.02110319770872593,0.0022588034626096487,-0.013211330398917198,0.011464834213256836,-0.00047068274579942226,0.01804940775036812
0.021272215992212296,0.0020620611030608416,-0.013759603723883629,0.011283083818852901,-0.00043408904457464814,0.018390262499451637
0.02130766212940216,0.0024293381720781326,-0.013428399339318275,0.011512236669659615,-0.0004640933475457132,0.018346861004829407
0.02079758234322071,0.002425026847049594,-0.01376964058727026,0.01160892192274332,-0.00043602302321232855,0.0181537214666605
0.020938793197274208,0.0024402861017733812,-0.013292568735778332,0.012087222188711166,-0.0004080325597897172,0.01785442978143692
0.020799214020371437,0.0027120502199977636,-0.013581040315330029,0.01171456091105938,-0.0004341558087617159,0.017282968387007713
0.021043986082077026,0.0025675692595541477,-0.01307920552790165,0.011768940836191177,-0.0004125909472350031,0.0173520278185606
0.021973736584186554,0.0024292604066431522,-0.013902858830988407,0.012223168276250362,-0.00038292311364784837,0.017970846965909004
0.02155260555446148,0.00240067346021533,-0.013054669834673405,0.01152260135859251,-0.00035189971094951034,0.01792878657579422
0.02155260555446148,0.00240067346021533,-0.013054669834673405,0.01152260135859251,-0.00035189971094951034,0.01792878657579422
0.021284807473421097,0.0025887901429086924,-0.013629311695694923,0.01132269762456417,-0.00032629448105581105,0.018263675272464752
0.021678214892745018,0.0025162938982248306,-0.013509519398212433,0.011177090927958488,-0.0003042162861675024,0.017830930650234222
0.02164766564965248,0.002830200595781207,-0.014244056306779385,0.01096662413328886,-0.0002849414886441082,0.01849651150405407
0.02180197648704052,0.0028073391877114773,-0.013777025043964386,0.010992676019668579,-0.00031431062961928546,0.018570154905319214
0.02190450392663479,0.002898612292483449,-0.014651301316916943,0.010797888040542603,-0.0003030050138477236,0.01923174038529396
0.021763721480965614,0.0028050020337104797,-0.013970661908388138,0.011384687386453152,-0.0002872929908335209,0.018925167620182037
0.021908793598413467,0.002857138868421316,-0.01428893767297268,0.011476072482764721,-0.00027280134963802993,0.018583420664072037
0.021478373557329178,0.002870326628908515,-0.014251825399696827,0.011485527269542217,-0.00025968035333789885,0.01886397786438465
0.02200196124613285,0.0028908327221870422,-0.014295550994575024,0.011269800364971161,-0.00024776250938884914,0.018401162698864937
0.022335844114422798,0.0028321975842118263,-0.01434298511594534,0.011326516047120094,-0.00026441094814799726,0.019001759588718414
0.02203766256570816,0.0028168109711259604,-0.014474397525191307,0.011559332720935345,-0.00025405347696505487,0.01957646943628788
0.022339871153235435,0.0031202223617583513,-0.01456906646490097,0.01128621120005846,-0.00024422325077466667,0.019489968195557594
0.022366145625710487,0.0027198041789233685,-0.014585388824343681,0.011507048271596432,-0.0002351093280594796,0.019485846161842346
0.022205930203199387,0.0027819927781820297,-0.014574010856449604,0.01100001111626625,-0.0002506018499843776,0.019302764907479286
0.021941443905234337,0.002838044660165906,-0.013903521001338959,0.011666500940918922,-0.00024948103236965835,0.018768547102808952
0.022018451243638992,0.003166226437315345,-0.01449961494654417,0.011882034130394459,-0.00024160329485312104,0.019000012427568436
0.02276928909122944,0.003120709676295519,-0.014697575010359287,0.011521417647600174,-0.00023378949845209718,0.019563475623726845
0.022556990385055542,0.002915986580774188,-0.014799948781728745,0.011692035011947155,-0.00022643803094979376,0.01971513219177723
0.02230508252978325,0.002958990167826414,-0.014659974724054337,0.01136636734008789,-0.00021211766579654068,0.01958322338759899
0.0224846713244915,0.002895953366532922,-0.014271385967731476,0.011708118952810764,-0.00020070587925147265,0.019483020529150963
0.02253549173474312,0.0028161993250250816,-0.014248128049075603,0.011554092168807983,-0.00019201275426894426,0.019066153094172478
0.02233663573861122,0.0026214884128421545,-0.014894356951117516,0.011526627466082573,-0.000211366408620961,0.01913721300661564
0.02260632999241352,0.002922195941209793,-0.014880489557981491,0.011418333277106285,-0.0002116572723025456,0.019397171214222908
0.022221215069293976,0.0030081334989517927,-0.014382182620465755,0.011192918755114079,-0.0002337290352443233,0.01959259621798992
0.022451156750321388,0.003432524623349309,-0.013935229741036892,0.011225673370063305,-0.00024537803255952895,0.019767098128795624
0.022953756153583527,0.0032721722964197397,-0.014572606422007084,0.011253772303462029,-0.00025207040016539395,0.018815863877534866
0.023786304518580437,0.0028794151730835438,-0.01455454807728529,0.010570193640887737,-0.0002445079735480249,0.01878664270043373
0.02274952083826065,0.0026629753410816193,-0.014858991838991642,0.011041024699807167,-0.00023653956304769963,0.0193137489259243
0.02279721200466156,0.0028282611165195704,-0.014533132314682007,0.011524823494255543,-0.0004025994276162237,0.019815344363451004
0.02279721200466156,0.0028282611165195704,-0.014533132314682007,0.011524823494255543,-0.0004025994276162237,0.019815344363451004
0.02093982882797718,0.003217670600861311,-0.014378664083778858,0.011502339504659176,-0.00039251268026418984,0.01918250508606434
0.02314303256571293,0.0030182949267327785,-0.014006609097123146,0.011522293090820312,-0.0004250655765645206,0.01918806880712509
0.023636462166905403,0.003038633381947875,-0.014359761029481888,0.011280321516096592,-0.0004020271298941225,0.019549081102013588
0.02247939258813858,0.0028998428024351597,-0.014601257629692554,0.011576858349144459,-0.00040770985651761293,0.01970147341489792
0.023335427045822144,0.0028121040668338537,-0.014297476969659328,0.011345825158059597,-0.0004241830320097506,0.01953425072133541
