davideferrari95/blind_handover_controller/data/Test 171 - [2024-02-08 -- 11-13-08]/joint_states_data.csv
shoulder_pan_joint,shoulder_lift_joint,elbow_joint,wrist_1_joint,wrist_2_joint,wrist_3_joint
-0.005776641890406609,-0.016413185745477676,-2.488887730894146e-13,0.013418908230960369,-4.465783280839444e-28,-0.005292804446071386
-0.005644119810312986,-0.01608344167470932,-3.3391601556552204e-15,0.013894890435039997,-2.915837472796616e-29,-0.005622552242130041
-0.005644119810312986,-0.01608344167470932,-3.3391601556552204e-15,0.013894890435039997,-2.915837472796616e-29,-0.005622552242130041
-0.006136249750852585,-0.01617780141532421,-4.4799096124247114e-17,0.014568752609193325,-1.9038334717782188e-30,-0.005406618118286133
-0.006079117767512798,-0.016481170430779457,-6.010370328029077e-19,0.014904000796377659,-1.2430671733815664e-31,-0.005110844038426876
-0.005944516509771347,-0.015993338078260422,-8.063678113006558e-21,0.014650712721049786,-8.116340335206644e-33,-0.00523213017731905
-0.005974516272544861,-0.016531623899936676,-1.0818452338152888e-22,0.01439825538545847,-5.2993898054934416e-34,-0.005468631628900766
-0.005435875151306391,-0.01619938760995865,-1.4514335611632576e-24,0.014614162966609001,-3.460123296914949e-35,-0.00508824922144413
-0.005916147492825985,-0.016444774344563484,-1.947283423015437e-26,0.01498341653496027,-2.259213293164734e-36,-0.005284545477479696
-0.005401116795837879,-0.016360506415367126,-2.6125292658686325e-28,0.014824945479631424,-1.4751048544408052e-37,-0.005262552294880152
-0.006080479361116886,-0.01631985977292061,-3.505041659349672e-30,0.014453875832259655,-9.631380782923439e-39,-0.004934682045131922
-0.006080479361116886,-0.01631985977292061,-3.505041659349672e-30,0.014453875832259655,-9.631380782923439e-39,-0.004934682045131922
-0.005850295070558786,-0.01617426425218582,0.0002961746940854937,0.014673997648060322,-4.1059446303181465e-41,-0.005273092072457075
-0.005850295070558786,-0.01617426425218582,0.0002961746940854937,0.014673997648060322,-4.1059446303181465e-41,-0.005273092072457075
-0.0054078372195363045,-0.01682720147073269,0.0002794915926642716,0.014702100306749344,-2.680683962253375e-42,-0.00570184038951993
-0.005477357190102339,-0.016155024990439415,0.0002631664974614978,0.015022093430161476,-1.7516230804060213e-43,-0.005303753539919853
-0.005586198065429926,-0.01642659865319729,0.00024862540885806084,0.014593381434679031,-1.1210387714598537e-44,-0.004909266717731953
-0.005821306724101305,-0.016245801001787186,0.000266473856754601,0.014761672355234623,-1.401298464324817e-45,-0.004945062100887299
-0.005646264646202326,-0.01612246409058571,0.0002684423525352031,0.014118021354079247,-0.0,-0.005054346285760403
-0.005353283137083054,-0.016081705689430237,0.0002559231361374259,0.014378498308360577,-0.0,-0.0051099034026265144
-0.005208008456975222,-0.0159659031778574,0.0002844962873496115,0.014138906262814999,-0.0,-0.005764230154454708
-0.005426940508186817,-0.01639336161315441,0.0002982722653541714,0.014370712451636791,-0.0,-0.00569135369732976
-0.00620728125795722,-0.015807172283530235,0.0002985740720760077,0.014369315467774868,-0.0,-0.005605937447398901
-0.00550925312563777,-0.0163850337266922,0.0003958664310630411,0.014557612128555775,-0.0,-0.005319833755493164
-0.005370978266000748,-0.015883052721619606,0.00037712175981141627,0.014371762983500957,-0.0,-0.005291534122079611
-0.005143593996763229,-0.01584484986960888,0.00041674880776554346,0.014948694035410881,-0.0,-0.0053734565153717995
-0.00541136646643281,-0.015738263726234436,0.0003877438139170408,0.014715300872921944,-0.0,-0.005572270601987839
-0.005667670629918575,-0.01591489277780056,0.00041956506902351975,0.014692315831780434,-0.0,-0.005241686943918467
-0.005486850626766682,-0.01590580679476261,0.0004250967758707702,0.014345214702188969,-0.0,-0.005570220295339823
-0.00517219677567482,-0.016218213364481926,0.000594438286498189,0.01417759619653225,-0.0,-0.00534114520996809
-0.005243996623903513,-0.015431205742061138,0.0006260068621486425,0.014494822360575199,-0.0,-0.0058245970867574215
-0.0051184361800551414,-0.015500085428357124,0.000571380543988198,0.013974521309137344,-0.0,-0.005727189127355814
-0.005440345034003258,-0.015350334346294403,0.0006016844999976456,0.014215344563126564,-0.0,-0.005340684670954943
-0.005668042227625847,-0.015947269275784492,0.0005502562271431088,0.014465874992311,-0.0,-0.0047468263655900955
-0.005668042227625847,-0.015947269275784492,0.0005502562271431088,0.014465874992311,-0.0,-0.0047468263655900955
-0.005258896388113499,-0.015330174937844276,0.0005379872163757682,0.014136240817606449,-0.0,-0.0055235279724001884
-0.005258896388113499,-0.015330174937844276,0.0005379872163757682,0.014136240817606449,-0.0,-0.0055235279724001884
-0.005316999740898609,-0.015309186652302742,0.0006142817437648773,0.014215532690286636,-0.0,-0.0053205331787467
-0.005316999740898609,-0.015309186652302742,0.0006142817437648773,0.014215532690286636,-0.0,-0.0053205331787467
-0.0055986265651881695,-0.015068699605762959,0.0006336350925266743,0.014953498728573322,-0.0,-0.005257260520011187
-0.005159991327673197,-0.014632508158683777,0.0005848458386026323,0.015049019828438759,-0.0,-0.0057450863532722
-0.005199708975851536,-0.014223161153495312,0.0006106169894337654,0.01527838222682476,-0.0,-0.005334218963980675
-0.0050138081423938274,-0.014881634153425694,0.000727179751265794,0.014989008195698261,-0.0,-0.005206786096096039
-0.00476213451474905,-0.0145551273599267,0.0007293226080946624,0.01451954711228609,-0.0,-0.0051667941734194756
-0.005325219593942165,-0.014792939648032188,0.000677290081512183,0.013604608364403248,-0.0,-0.005560616031289101
-0.005204914603382349,-0.014903180301189423,0.0006982904742471874,0.013661535456776619,-0.0,-0.0053705028258264065
-0.004962453618645668,-0.014273974113166332,0.0007184720016084611,0.01335435826331377,-0.0,-0.005082292947918177
-0.0049951765686273575,-0.014431065879762173,0.000769717269577086,0.014082677662372589,-0.0,-0.005206666421145201
-0.004909767769277096,-0.014074559323489666,0.0007967957644723356,0.013797842897474766,-0.0,-0.005238765385001898
-0.004664693493396044,-0.014314363710582256,0.0008110241615213454,0.014173135161399841,-0.0,-0.0058637275360524654
-0.005065693520009518,-0.014225112274289131,0.0007519705104641616,0.014082413166761398,-0.0,-0.005453047342598438
-0.005112017504870892,-0.014422404579818249,0.0007667852332815528,0.01367846131324768,-0.0,-0.005370332859456539
-0.004823269322514534,-0.013483143411576748,0.000844676629640162,0.013619708828628063,-0.0,-0.005490271374583244
-0.004771767184138298,-0.013932352885603905,0.0008589319186285138,0.013389913365244865,-0.0,-0.00521073816344142
-0.004712696187198162,-0.014246725477278233,0.0008610463119111955,0.013578278012573719,-0.0,-0.00540186557918787
-0.005138693377375603,-0.013794529251754284,0.0007763493340462446,0.013732213526964188,-0.0,-0.005444414913654327
-0.004919557832181454,-0.0137478644028306,0.0007835110300220549,0.013669469393789768,-0.0,-0.005260107573121786
-0.004711958579719067,-0.013675273396074772,0.0008032125188037753,0.014136136509478092,-0.0,-0.005207977257668972
-0.004403133410960436,-0.013759780675172806,0.0008157359552569687,0.013740761205554008,-0.0,-0.005499864928424358
-0.004500646609812975,-0.01406941469758749,0.0008253707201220095,0.01393023319542408,-0.0,-0.0053650978952646255
-0.004567428026348352,-0.01345181092619896,0.0009154611034318805,0.013557331636548042,-0.0,-0.005653951317071915
-0.004577989224344492,-0.0137767493724823,0.0010182022815570235,0.014061692170798779,-0.0,-0.005733878817409277
-0.004577989224344492,-0.0137767493724823,0.0010182022815570235,0.014061692170798779,-0.0,-0.005733878817409277
-0.0044831447303295135,-0.013817327097058296,0.0009142367052845657,0.013927869498729706,-0.0,-0.00556569267064333
-0.004327977541834116,-0.013761044479906559,0.0009422862785868347,0.01351496297866106,-0.0,-0.005699108354747295
-0.0045074778608977795,-0.014324652962386608,0.0009350845939479768,0.013998567126691341,-0.0,-0.005566914565861225
-0.00481634633615613,-0.013897959142923355,0.00092980737099424,0.013622907921671867,-0.0,-0.00553878815844655
-0.00481634633615613,-0.013897959142923355,0.00092980737099424,0.013622907921671867,-0.0,-0.00553878815844655
-0.004429933615028858,-0.013665425591170788,0.0009383446886204183,0.013426758348941803,-0.0,-0.005690676625818014
-0.004429933615028858,-0.013665425591170788,0.0009383446886204183,0.013426758348941803,-0.0,-0.005690676625818014
-0.004399195313453674,-0.01439958717674017,0.0009425164316780865,0.013299703598022461,-0.0,-0.006264104042202234
-0.004747664090245962,-0.0138571010902524,0.0009400969720445573,0.013402474112808704,-0.0,-0.005779671017080545
-0.0043212175369262695,-0.014072335325181484,0.0009315322968177497,0.01377381943166256,-0.0,-0.005462402943521738
-0.004508867394179106,-0.013177411630749702,0.0010016674641519785,0.013625078834593296,-0.0,-0.005515777040272951
-0.004211224149912596,-0.013728546909987926,0.0010961375664919615,0.013598741963505745,-0.0,-0.005190090276300907
-0.004372127819806337,-0.01399704348295927,0.0010673890355974436,0.013736397959291935,-0.0,-0.005399974063038826
-0.004178422968834639,-0.014347085729241371,0.0009728916338644922,0.013644573278725147,-0.0,-0.005432159639894962
-0.004135793540626764,-0.013903239741921425,0.0009699614602141082,0.0136119918897748,-0.0,-0.005448109470307827
-0.004196615889668465,-0.014237743802368641,0.0009574373252689838,0.012925226241350174,-0.0,-0.005426009185612202
-0.0044290185905992985,-0.014085028320550919,0.0010363940382376313,0.012717857025563717,-0.0,-0.005563502665609121
-0.004242288414388895,-0.014376029372215271,0.0009511598036624491,0.012318208813667297,-0.0,-0.005307901185005903
-0.004391318652778864,-0.014215108007192612,0.0010685946326702833,0.012234923429787159,-0.0,-0.005927015095949173
-0.004281558562070131,-0.01428765244781971,0.0010543400421738625,0.01206235121935606,-0.0,-0.005618015304207802
-0.004046177491545677,-0.014039221219718456,0.0010371372336521745,0.012933903373777866,-0.0,-0.005815619137138128
-0.004186573438346386,-0.014140298590064049,0.0012046631891280413,0.013409883715212345,-0.0,-0.005802754778414965
-0.004186573438346386,-0.014140298590064049,0.0012046631891280413,0.013409883715212345,-0.0,-0.005802754778414965
-0.004030225332826376,-0.014306689612567425,0.0010324266040697694,0.013180467300117016,-0.0,-0.006114526651799679
-0.003921352792531252,-0.013933947309851646,0.0009203539812006056,0.013764329254627228,-0.0,-0.005695702973753214
-0.004293554928153753,-0.013995293527841568,0.0010155896889045835,0.013305420987308025,-0.0,-0.0057522389106452465
-0.004141584038734436,-0.013735148124396801,0.001030170009471476,0.013915459625422955,-0.0,-0.005537192337214947
-0.0039941477589309216,-0.014033183455467224,0.001099615590646863,0.013280672952532768,-0.0,-0.005735647398978472
-0.004320818465203047,-0.013735697604715824,0.0011224087793380022,0.01332628633826971,-0.0,-0.005889934953302145
-0.004320818465203047,-0.013735697604715824,0.0011224087793380022,0.01332628633826971,-0.0,-0.005889934953302145
-0.004257793538272381,-0.01447391789406538,0.0010971924057230353,0.013016820885241032,-0.0,-0.0054926201701164246
-0.0043680802918970585,-0.01397568266838789,0.0010218709940090775,0.013227207586169243,0.00026997175882570446,-0.005455121397972107
-0.0040779937990009785,-0.013879770413041115,0.0010057277977466583,0.012856965884566307,0.0002583940513432026,-0.005778714083135128
-0.0040779937990009785,-0.013879770413041115,0.0010057277977466583,0.012856965884566307,0.0002583940513432026,-0.005778714083135128
-0.003974900580942631,-0.014140157029032707,0.0010848887031897902,0.013214212842285633,0.0002446013386361301,-0.006063426844775677
-0.004050103016197681,-0.013913330622017384,0.0010022558271884918,0.013008754700422287,0.0002320034254807979,-0.006076894234865904
-0.003925167955458164,-0.014238769188523293,0.001160625135526061,0.01323785912245512,0.00022062537027522922,-0.005652660969644785
-0.003822207683697343,-0.013586371205747128,0.0011293903226032853,0.01311370451003313,0.00024674402084201574,-0.005748170893639326
-0.003747463459149003,-0.013879882171750069,0.0010944261448457837,0.01355922780930996,0.00024073597160167992,-0.00565729895606637
-0.004204768221825361,-0.013579287566244602,0.0010742880403995514,0.01319489348679781,0.00023077207151800394,-0.005849042907357216
-0.004037797916680574,-0.01403559185564518,0.0010515605099499226,0.013443045318126678,0.0002213332918472588,-0.006013755686581135
-0.00349048082716763,-0.013684825040400028,0.0010267291218042374,0.012942222878336906,0.00021261797519400716,-0.00602519977837801
-0.003444249974563718,-0.01397379208356142,0.0010202483972534537,0.012955271638929844,0.00020456244237720966,-0.005925037898123264
-0.004190623760223389,-0.013455885462462902,0.0011328387772664428,0.012862236239016056,0.0002277179155498743,-0.005577546544373035
-0.0040994854643940926,-0.013521138578653336,0.0011301746126264334,0.012509669177234173,0.00022170029114931822,-0.006026994902640581
-0.0039178673177957535,-0.013329597190022469,0.0010951547883450985,0.012601255439221859,0.00021428884065244347,-0.006263805087655783
-0.00389348273165524,-0.013618492521345615,0.0011105234734714031,0.012490215711295605,0.00020724767819046974,-0.005669800564646721
-0.004032574128359556,-0.013495194725692272,0.0010833801934495568,0.012620116584002972,0.00020064660930074751,-0.005741750355809927
-0.00408353703096509,-0.01323326863348484,0.0010526005644351244,0.012303232215344906,0.00020808025146834552,-0.00567028671503067
-0.003497753292322159,-0.013741533271968365,0.0009973979322239757,0.012356099672615528,0.00020924981799907982,-0.005657794885337353
-0.004246228840202093,-0.013366512954235077,0.0009873000672087073,0.012424870394170284,0.00020339261391200125,-0.00605121161788702
-0.004144464619457722,-0.012661443091928959,0.0009777629747986794,0.01236724853515625,0.00019797291315626353,-0.005980443209409714
-0.004144464619457722,-0.012661443091928959,0.0009777629747986794,0.01236724853515625,0.00019797291315626353,-0.005980443209409714
-0.0038881422951817513,-0.013372324407100677,0.0009693612810224295,0.012108705937862396,0.0002008469309657812,-0.005904726684093475
-0.0032440347131341696,-0.012801173143088818,0.0011294459691271186,0.011807259172201157,0.00019299743871670216,-0.0060250405222177505
-0.0032777986489236355,-0.01340560894459486,0.000984610989689827,0.011502530425786972,0.00018510698282625526,-0.006122177001088858
-0.0036013030912727118,-0.012512159533798695,0.0009699505171738565,0.011349675245583057,0.00020862105884589255,-0.006181663367897272
-0.0035621104761958122,-0.012747267261147499,0.0009604833321645856,0.011605056934058666,0.0002049346367130056,-0.006107208784669638
-0.0035952182952314615,-0.013020726852118969,0.0009158356697298586,0.011142010800540447,0.00019770908693317324,-0.00602762633934617
-0.0033371050376445055,-0.012476198375225067,0.0006659101927652955,0.01135231927037239,0.00022037957387510687,-0.006171937100589275
-0.003498614998534322,-0.013406956568360329,0.0004096314078196883,0.011165897361934185,0.00021480073337443173,-0.006212286651134491
-0.0037129512056708336,-0.01251970324665308,-0.0008294145809486508,0.011574563570320606,0.00020783967920579016,-0.005766937043517828
-0.0033333657775074244,-0.01274839323014021,-0.0007438268512487411,0.011728957295417786,0.0002224883355665952,-0.005848769098520279
-0.003024059347808361,-0.012034538201987743,-0.000617234327364713,0.011791203171014786,0.00022234914649743587,-0.005628351122140884
-0.0031492006964981556,-0.012297524139285088,-0.0004657762183342129,0.012497108429670334,0.00021611459669657052,-0.005940446630120277
-0.0034469065722078085,-0.012302573770284653,-0.00019328393682371825,0.011516286991536617,0.0003311870968900621,-0.005664441734552383
-0.0034880826715379953,-0.012232797220349312,-0.0002519739791750908,0.011145534925162792,0.00032483204267919064,-0.00590417068451643
-0.003569230670109391,-0.01308611873537302,-0.0002610007068142295,0.010856459848582745,0.00035657075932249427,-0.006271116901189089
-0.003295460483059287,-0.01214477140456438,-0.00034094261354766786,0.010748378001153469,0.00034127538674511015,-0.005713458638638258
-0.0034939427860081196,-0.013043023645877838,-0.000304058805340901,0.010413608513772488,0.00034750960185192525,-0.00584462471306324
-0.00373037438839674,-0.012124975211918354,-0.00027328429860062897,0.010538052767515182,0.0003521612088661641,-0.00596744567155838
-0.003344549098983407,-0.01246431190520525,-0.00024815561482682824,0.009969675913453102,0.00033500519930385053,-0.00609745504334569
-0.0030616996809840202,-0.012610038742423058,-0.00022726177121512592,0.010401513427495956,0.000360512436600402,-0.006361405365169048
-0.0031550489366054535,-0.012388626113533974,-0.00020961117115803063,0.010780486278235912,0.0003459538274910301,-0.006097734440118074
-0.0035208123736083508,-0.012287232093513012,-0.00019450760737527162,0.011033321730792522,0.00042859994573518634,-0.006163907703012228
-0.0035906084813177586,-0.012141433544456959,-0.00018143391935154796,0.011528621427714825,0.00042146144551225007,-0.005970807280391455
-0.0033059585839509964,-0.012248444370925426,-0.0001599357055965811,0.01108580082654953,0.0004254668310750276,-0.006490252446383238
-0.0034587502013891935,-0.012567564845085144,-0.00015099057054612786,0.011475889012217522,0.0004285106551833451,-0.0059732492081820965
-0.00329399760812521,-0.012309173122048378,-0.00014299304166343063,0.011075166054069996,0.00042881027911789715,-0.005771182477474213
-0.003571753390133381,-0.012396786361932755,-0.0001357999281026423,0.01172337681055069,0.00040328019531443715,-0.006010373588651419
-0.0033147442154586315,-0.012345300987362862,-0.00012929682270623744,0.011388239450752735,0.0004190174804534763,-0.005618280731141567
-0.0033147442154586315,-0.012345300987362862,-0.00012929682270623744,0.011388239450752735,0.0004190174804534763,-0.005618280731141567
-0.003591983811929822,-0.01216796599328518,-0.00012338740634731948,0.01128358207643032,0.000407758925575763,-0.005840887315571308
-0.0032065408304333687,-0.012483860366046429,-0.00011799449566751719,0.011316017247736454,0.0004304420144762844,-0.00681084580719471
-0.003325266996398568,-0.012141047976911068,-0.0001085099793272093,0.010587118566036224,0.0004699902201537043,-0.006258363835513592
-0.003219618694856763,-0.012197272852063179,-0.0001043173106154427,0.010048924945294857,0.0004904023953713477,-0.0057931807823479176
-0.0034903225023299456,-0.01203999388962984,-0.00010043683141702786,0.00950830988585949,0.0004706512263510376,-0.006132642738521099
-0.003372479695826769,-0.012322845868766308,-9.68345339060761e-05,0.010539236478507519,0.0004931173752993345,-0.006639151368290186
-0.003372479695826769,-0.012322845868766308,-9.68345339060761e-05,0.010539236478507519,0.0004931173752993345,-0.006639151368290186
-0.003373966086655855,-0.012079702690243721,-9.34818817768246e-05,0.010183426551520824,0.0005872668116353452,-0.006632042583078146
-0.0030165149364620447,-0.012483901344239712,-9.035353286890313e-05,0.009216275997459888,0.000620226317550987,-0.006208276841789484
-0.002996871480718255,-0.011986598372459412,-8.742767386138439e-05,0.009154992178082466,0.0006463341997005045,-0.0064260405488312244
-0.0033607862424105406,-0.01223744172602892,-8.468539454042912e-05,0.009096551686525345,0.0005890367901884019,-0.006393818650394678
-0.0033057541586458683,-0.012416353449225426,-8.210998930735514e-05,0.008547593839466572,0.0006140373297967017,-0.0070674726739525795
-0.00310343480668962,-0.013429464772343636,-7.968663703650236e-05,0.008693651296198368,0.0006033633835613728,-0.006581977009773254
-0.002990314271301031,-0.01221303641796112,-7.740218279650435e-05,0.008934810757637024,0.0005895991926081479,-0.006520372815430164
-0.002985038561746478,-0.0110242934897542,-7.524507964262739e-05,0.008394017815589905,0.0005885067512281239,-0.00642638374119997
-0.003096676664426923,-0.011895233765244484,-7.320498116314411e-05,0.008127281442284584,0.0006118391174823046,-0.0061145382933318615
-0.0031032089609652758,-0.01201142929494381,-7.127271237550303e-05,0.008961908519268036,0.0005949746118858457,-0.006289665121585131
-0.003073072759434581,-0.01199374534189701,-6.94395275786519e-05,0.009137646295130253,0.0006161605124361813,-0.006208844482898712
-0.0031970201525837183,-0.012425307184457779,-6.769849278498441e-05,0.008768205530941486,0.0006413365481421351,-0.0060608102940022945
-0.0029152254574000835,-0.011925382539629936,-6.604257214348763e-05,0.008690733462572098,0.0008332726429216564,-0.0063481139950454235
-0.003088631434366107,-0.011815836653113365,-6.446579936891794e-05,0.009240387938916683,0.0010781614109873772,-0.006773961707949638
-0.002865839982405305,-0.011858680285513401,-8.194034307962283e-05,0.008897070772945881,0.0009978351881727576,-0.006272331345826387
-0.0026634731329977512,-0.011981631629168987,-8.0207857536152e-05,0.00899158138781786,0.001144209410995245,-0.006430069450289011
-0.002905746456235647,-0.011427389457821846,-7.84609728725627e-05,0.008738278411328793,0.0011114582885056734,-0.006289001554250717
-0.0026843033265322447,-0.01200470793992281,-7.678741530980915e-05,0.008718004450201988,0.0010704394662752748,-0.006272788159549236
-0.0025581771042197943,-0.011744795367121696,-7.518377242377028e-05,0.0089013846591115,0.0010553918546065688,-0.006442157551646233
-0.0027075682301074266,-0.012251612730324268,-7.364584598690271e-05,0.009275184944272041,0.0009353346540592611,-0.006671185605227947
-0.0027075682301074266,-0.012251612730324268,-7.364584598690271e-05,0.009275184944272041,0.0009353346540592611,-0.006671185605227947
-0.0027809911407530308,-0.011447642929852009,-7.21694523235783e-05,0.008545574732124805,0.0009254338801838458,-0.006825458258390427
-0.002516350243240595,-0.011260587722063065,-7.075109897414222e-05,0.008820245042443275,0.0009212238946929574,-0.006418460514396429
-0.0026680361479520798,-0.011313616298139095,-6.807536556152627e-05,0.008376684971153736,0.0009601496276445687,-0.006440358702093363
-0.002730581210926175,-0.011671784333884716,-6.681203376501799e-05,0.00875361729413271,0.0009651529835537076,-0.006086414214223623
-0.002730581210926175,-0.011671784333884716,-6.681203376501799e-05,0.00875361729413271,0.0009651529835537076,-0.006086414214223623
-0.0024803492706269026,-0.011777282692492008,-6.559457688126713e-05,0.00868970062583685,0.0009464609902352095,-0.006428138352930546
-0.002563631860539317,-0.011245179921388626,-6.442088488256559e-05,0.008411779068410397,0.0009396504028700292,-0.006350838113576174
-0.0024218594189733267,-0.011828198097646236,-6.328837480396032e-05,0.008237965404987335,0.0009450401994399726,-0.006388436537235975
-0.002520626410841942,-0.011531720869243145,-6.219500210136175e-05,0.00843337457627058,0.0009352854103781283,-0.006437467876821756
-0.0026760785840451717,-0.011203690432012081,-6.113875133451074e-05,0.00836234912276268,0.0009298369404859841,-0.006679717916995287
-0.002751655410975218,-0.011397779919207096,-6.0117763496236876e-05,0.00822161789983511,0.0009259028593078256,-0.006462434772402048
-0.00280819577164948,-0.010737097822129726,-5.913040877203457e-05,0.008358980529010296,0.0009351365151815116,-0.006433393806219101
-0.002698150696232915,-0.011139354668557644,-5.8174890000373125e-05,0.008620516397058964,0.0009745442075654864,-0.006262186914682388
-0.0024362527765333652,-0.01087474450469017,-5.7363595260540023e-05,0.008013281039893627,0.00098470039665699,-0.006706506945192814
-0.0019383186008781195,-0.010724245570600033,-3.002809353347402e-05,0.007608715910464525,0.000982921221293509,-0.006949565373361111
-0.0019518750486895442,-0.011789674870669842,-2.918712198152207e-05,0.007854939438402653,0.0010514977620914578,-0.006810152903199196
-0.002352501731365919,-0.011343336664140224,-2.871673677873332e-05,0.007695418782532215,0.0010420104954391718,-0.006564069539308548
-0.002589478390291333,-0.010507261380553246,-2.826574200298637e-05,0.007555500138550997,0.0009901991579681635,-0.006404000800102949
-0.0024813676718622446,-0.010898943990468979,-2.7828751626657322e-05,0.007623000536113977,0.0008838063222356141,-0.006785105913877487
-0.00238029845058918,-0.010538664646446705,-2.740505624387879e-05,0.007764081936329603,0.0008794621680863202,-0.007095137611031532
-0.002022275235503912,-0.010416069999337196,-2.6595262170303613e-05,0.007434723433107138,0.0007365723722614348,-0.0063525908626616
-0.0018773607444018126,-0.010200238786637783,-3.878973438986577e-05,0.007083399686962366,0.0007535723852925003,-0.00637436518445611
-0.0022463223431259394,-0.010223979130387306,-3.874090907629579e-05,0.007872355170547962,0.0007205881411209702,-0.007133958395570517
-0.002391343703493476,-0.01048423070460558,-3.8199617847567424e-05,0.007449825294315815,0.0007357719005085528,-0.007065548561513424
-0.002391343703493476,-0.01048423070460558,-3.8199617847567424e-05,0.007449825294315815,0.0007357719005085528,-0.007065548561513424
-0.0023944706190377474,-0.009867565706372261,-3.766677764360793e-05,0.007170541677623987,0.0008496069931425154,-0.0063360207714140415
-0.002385274274274707,-0.009921249002218246,-3.714857666636817e-05,0.007294601760804653,0.0009475849219597876,-0.0061547718942165375
-0.0021782605908811092,-0.00986466370522976,-3.664441464934498e-05,0.008167428895831108,0.0008863020921126008,-0.006879991851747036
-0.0020823939703404903,-0.009707934223115444,-3.615373498178087e-05,0.00803346000611782,0.0008842686656862497,-0.007372865453362465
-0.002232526196166873,-0.010436981916427612,-3.567601743270643e-05,0.0071089006960392,0.0009329851600341499,-0.007413345854729414
-0.002126128878444433,-0.009435226209461689,-3.521082908264361e-05,0.006487500388175249,0.0009413358056917787,-0.007118417415767908
-0.0020974010694772005,-0.009190160781145096,-3.475754056125879e-05,0.0071451663970947266,0.0009358756360597908,-0.00656437361612916
-0.0020279143936932087,-0.009904040023684502,-4.1848808905342594e-05,0.007515099830925465,0.0009310953901149333,-0.007011896464973688
-0.0020832691807299852,-0.009702739305794239,-4.512782834353857e-05,0.00713115930557251,0.0009147549862973392,-0.006943408399820328
-0.002022199332714081,-0.009732773527503014,-4.4619526306632906e-05,0.006656232289969921,0.0009350096806883812,-0.006516839377582073
-0.002014484256505966,-0.010164456441998482,-4.407396409078501e-05,0.006887530442327261,0.000995039939880371,-0.006724699400365353
-0.0018815139774233103,-0.00964467041194439,-4.30205836892128e-05,0.007048458326607943,0.0009800331899896264,-0.007405330426990986
-0.0018815139774233103,-0.00964467041194439,-4.30205836892128e-05,0.007048458326607943,0.0009800331899896264,-0.007405330426990986
-0.0018076973501592875,-0.009782344102859497,-4.2512583604548126e-05,0.00616522366181016,0.0009693534229882061,-0.007635053247213364
-0.0016014552675187588,-0.009455472230911255,-4.2016414226964116e-05,0.005956499371677637,0.0009403876611031592,-0.007043873891234398
-0.0016412056284025311,-0.00931588001549244,-4.837056258111261e-05,0.006560882553458214,0.0008458128431811929,-0.006766136270016432
-0.0015520701417699456,-0.009462423622608185,-5.127503754920326e-05,0.006198121700435877,0.000839002663269639,-0.007089817896485329
-0.0017131274798884988,-0.009429829195141792,-5.0743212341330945e-05,0.005918582435697317,0.0007775757112540305,-0.007262043654918671
-0.0016053138533607125,-0.009010681882500648,-5.0178045057691634e-05,0.005631784442812204,0.0007937090704217553,-0.007153741084039211
-0.0016808559885248542,-0.008859497494995594,-0.00012829246406909078,0.006049273069947958,0.0008248531958088279,-0.0067178416065871716
-0.0015131515683606267,-0.008897741325199604,-0.00013596845383290201,0.006063254550099373,0.0011163227027282119,-0.007160649634897709
-0.0014002700336277485,-0.009338614530861378,-0.0001321310264756903,0.005583145190030336,0.0011173586826771498,-0.006996742449700832
-0.0014218030264601111,-0.009238208644092083,-0.00012836420501116663,0.005287138745188713,0.0010864321375265718,-0.007231003139168024
-0.0013779301661998034,-0.008584392257034779,-0.0001494201715104282,0.004944855812937021,0.0011362365912646055,-0.006809843238443136
-0.0012810021871700883,-0.008858740329742432,-0.00014571707288268954,0.005277096759527922,0.0011087676975876093,-0.007158577907830477
-0.001323993899859488,-0.009353771805763245,-0.00014189226203598082,0.005491928197443485,0.0010737358825281262,-0.007356913294643164
-0.0011707026278600097,-0.008604167960584164,-0.00013826150097884238,0.005689743906259537,0.0010479871416464448,-0.007036483380943537
-0.0011707026278600097,-0.008604167960584164,-0.00013826150097884238,0.005689743906259537,0.0010479871416464448,-0.007036483380943537
-0.0011623877799138427,-0.009000258520245552,-0.00013480961206369102,0.005184206645935774,0.0009669369901530445,-0.007126728072762489
-0.0011529214680194855,-0.008308839052915573,-0.00013152604515198618,0.004944792948663235,0.001033043023198843,-0.007053174078464508
-0.0011137278052046895,-0.008311478421092033,-0.00012839867849834263,0.004792283289134502,0.0010522572556510568,-0.007105708122253418
-0.0010772671084851027,-0.007969241589307785,-0.00014548054605256766,0.004768161103129387,0.0011605601757764816,-0.007144634146243334
-0.0009136509615927935,-0.008993485011160374,-0.00014298713358584791,0.005142868962138891,0.001157773775048554,-0.007364803459495306
-0.0009093519183807075,-0.008360053412616253,-0.00013982431846670806,0.0051087853498756886,0.001202533720061183,-0.007408645004034042
-0.0009041440207511187,-0.007819633930921555,-0.00013678875984624028,0.004945392720401287,0.0011966995662078261,-0.007231538649648428
-0.000903534993994981,-0.008185249753296375,-0.00013388169463723898,0.005091729573905468,0.001187696005217731,-0.008070798590779305
-0.0008568526245653629,-0.009091063402593136,-0.00013109597784932703,0.0053763920441269875,0.0011373418383300304,-0.007085274904966354
-0.0008670436800457537,-0.008115768432617188,-0.00014603519230149686,0.004926688503473997,0.0010998863726854324,-0.007174160331487656
-0.0008615364786237478,-0.008196142502129078,-0.00014382782683242112,0.005300113931298256,0.001037564012221992,-0.007554616779088974
-0.0007697325199842453,-0.008329391479492188,-0.00014102051500231028,0.005264762789011002,0.0010480470955371857,-0.007624309975653887
-0.0006860405555926263,-0.008751080371439457,-0.00013831170508638024,0.004802647978067398,0.0011443373514339328,-0.007148175500333309
-0.0007056979811750352,-0.00790421012789011,-0.00018443803128320724,0.004123352002352476,0.0013022121274843812,-0.007302245125174522
-0.0006437511183321476,-0.007826683111488819,-0.00020060050883330405,0.0035653349477797747,0.0014498643577098846,-0.00796453095972538
-0.000599823659285903,-0.00797354057431221,-0.00019235373474657536,0.003538413206115365,0.0013858908787369728,-0.007917518727481365
-0.0005619337898679078,-0.00795802753418684,-0.00021258994820527732,0.0045508816838264465,0.0013672992354258895,-0.007802511099725962
-0.0005183651228435338,-0.00776681350544095,-0.00020459023653529584,0.004194112494587898,0.0013034455478191376,-0.0075783999636769295
-0.0004730776709038764,-0.008217936381697655,-0.0001971229212358594,0.0036196005530655384,0.001163439592346549,-0.007372132036834955
-0.0004730776709038764,-0.008217936381697655,-0.0001971229212358594,0.0036196005530655384,0.001163439592346549,-0.007372132036834955
-0.0004695772076956928,-0.007542131468653679,-0.00021427836327347904,0.0033294977620244026,0.0012237461050972342,-0.007588322274386883
-0.00043703068513423204,-0.007849259302020073,-0.00020727583614643663,0.003449043957516551,0.0014470793539658189,-0.007551057729870081
-0.0004086756380274892,-0.007933794520795345,-0.00020067401055712253,0.0036262061912566423,0.0015482690650969744,-0.007443525828421116
-0.00038377667078748345,-0.007464615628123283,-0.00022114031889941543,0.0033733833115547895,0.0018095241393893957,-0.00759115070104599
-0.00038377667078748345,-0.007464615628123283,-0.00022114031889941543,0.0033733833115547895,0.0018095241393893957,-0.00759115070104599
-0.0003617375041358173,-0.007229828741401434,-0.0002155912370653823,0.0030359644442796707,0.0016548114363104105,-0.007951519452035427
-0.0003420923021622002,-0.007516938261687756,-0.0003212699666619301,0.0029400463681668043,0.00153830973431468,-0.007794631645083427
-0.00020818246412090957,-0.007457715459167957,-0.0003134748840238899,0.002854415914043784,0.0014465737622231245,-0.007553581614047289
-7.167885632952675e-05,-0.007322422228753567,-0.00035104656126350164,0.002787327626720071,0.0013574296608567238,-0.007963106967508793
-2.681116711755749e-06,-0.00716808345168829,-0.00033034724765457213,0.002739280229434371,0.0013065007515251637,-0.008203982375562191
-3.5970597167533924e-08,-0.007155739236623049,-0.00036105746403336525,0.002506996039301157,0.001445224042981863,-0.007903257384896278
-4.825915222994581e-10,-0.0073483781889081,-0.00034336827229708433,0.0023451042361557484,0.001409222837537527,-0.0077419462613761425
-6.474580854093359e-12,-0.007171436212956905,-0.00036663206992670894,0.002290181117132306,0.0016157025238499045,-0.0076995971612632275
-8.686476695276071e-14,-0.007128452882170677,-0.00035379742621444166,0.002497599460184574,0.0016771761002019048,-0.008101718500256538
-1.1654018213037355e-15,-0.008185235783457756,-0.00033729319693520665,0.0025280059780925512,0.0018206988461315632,-0.007986187934875488
-1.5635353049226303e-17,-0.006683207582682371,-0.0003238801728002727,0.002362436382099986,0.0017515779472887516,-0.008271882310509682
-2.097682212055315e-19,-0.006801725830882788,-0.0004282992158550769,0.002126804320141673,0.0017434697365388274,-0.008338398300111294
-2.814308560543175e-21,-0.007089362479746342,-0.0004679722187574953,0.0020312811248004436,0.001832957612350583,-0.008077822625637054
-3.775754296285003e-23,-0.007552960887551308,-0.000433423207141459,0.0017949867760762572,0.0017036421922966838,-0.00768336933106184
-5.065656497810886e-25,-0.007093946915119886,-0.0004653319192584604,0.001628404832445085,0.0016064197989180684,-0.0075452872551977634
-6.796224669241589e-27,-0.0073758275248110294,-0.0004357008438091725,0.001502461964264512,0.001474815420806408,-0.007987082935869694
-9.118002959938513e-29,-0.006414932198822498,-0.00046492970432154834,0.0013673743233084679,0.0014354342129081488,-0.008046207949519157
-1.6412083148867847e-32,-0.007006590720266104,-0.0005586646148003638,0.0012419144622981548,0.0013668538304045796,-0.008192209526896477
-2.2018905593897108e-34,-0.0068755256943404675,-0.0005957341054454446,0.0011695241555571556,0.0013273351360112429,-0.00789574347436428
-2.9541172464649617e-36,-0.006283235270529985,-0.0006235241889953613,0.0011266522342339158,0.0014817093033343554,-0.007978302426636219
-3.9633249567742525e-38,-0.006139353383332491,-0.0006235833279788494,0.0010873314458876848,0.0016736045945435762,-0.008240262046456337
-5.317311100788378e-40,-0.006384804844856262,-0.0005974821979179978,0.001059118309058249,0.001886851736344397,-0.008260942995548248
0.00011429058213252574,-0.00616880226880312,-0.0007110412116162479,0.0009426098549738526,0.0018840414704754949,-0.008273392915725708
0.00010877692693611607,-0.006280718371272087,-0.0008230694802477956,0.0008532639476470649,0.001867920160293579,-0.008166191168129444
0.0001531617745058611,-0.0060468390583992004,-0.0007628862513229251,0.0007218317477963865,0.0017185007454827428,-0.008323434740304947
0.00019342670566402376,-0.005757619626820087,-0.0007767371716909111,0.0007370810490101576,0.0016937232576310635,-0.008852580562233925
0.00019342670566402376,-0.005757619626820087,-0.0007767371716909111,0.0007370810490101576,0.0016937232576310635,-0.008852580562233925
0.00021435080270748585,-0.006274426355957985,-0.000937229604460299,0.0006550376419909298,0.0016684024594724178,-0.008179827593266964
0.00021881824068259448,-0.006163910962641239,-0.0010407032677903771,0.0005844941479153931,0.0017610499635338783,-0.008073922246694565
0.00020986222079955041,-0.005868792533874512,-0.0010214410722255707,0.0005273566930554807,0.0018104464979842305,-0.008008169941604137
0.0006159572512842715,-0.005482484586536884,-0.0009304233244620264,0.0005390343139879405,0.0019326109904795885,-0.008568384684622288
0.0006428821361623704,-0.005648674909025431,-0.0009281977545469999,0.0005132234655320644,0.002033284166827798,-0.008514820598065853
0.0005850876914337277,-0.006073370575904846,-0.0010369829833507538,0.00047563525731675327,0.002249167300760746,-0.008157890290021896
0.000528009026311338,-0.005760521627962589,-0.001018366776406765,0.0004422987112775445,0.0021000828128308058,-0.008281774818897247
0.00048096198588609695,-0.0057085175067186356,-0.000931828748434782,0.0004132708709221333,0.002120398683473468,-0.008188119158148766
0.000512125960085541,-0.005484591703861952,-0.001098428969271481,0.0003878170973621309,0.0018945126794278622,-0.008702365681529045
0.0004762175667565316,-0.005549097899347544,-0.0010656638769432902,0.0003653198655229062,0.0017909081652760506,-0.008274934254586697
0.0005051171174272895,-0.005264350678771734,-0.0010718925623223186,0.00034528778633102775,0.0017928790766745806,-0.008209578692913055
0.000489406636916101,-0.005379286129027605,-0.0011171568185091019,0.00032734047272242606,0.0018812943017110229,-0.008120612241327763
0.0005277632735669613,-0.00553358206525445,-0.001214045681990683,0.0003111683763563633,0.0018799895187839866,-0.008648191578686237
0.0005679792375303805,-0.005416536703705788,-0.0011978961993008852,0.0002965182648040354,0.0018735711928457022,-0.008813364431262016
0.0005956873064860702,-0.0049324058927595615,-0.0012613231083378196,0.00028318632394075394,0.0017884456319734454,-0.008899691514670849
0.0011439233785495162,-0.005118026398122311,-0.001385791809298098,0.00027100200532004237,0.0016499025514349341,-0.008616781793534756
0.0010100428480654955,-0.00556430546566844,-0.0013129841536283493,0.00025982302031479776,0.0016715382225811481,-0.008502648212015629
0.0009871822549030185,-0.005255542229861021,-0.0014311893610283732,0.0002495302469469607,0.0016908782999962568,-0.008926847949624062
0.0009373315842822194,-0.0050178528763353825,-0.0013692007632926106,0.00024002211284823716,0.0019255010411143303,-0.008830256760120392
0.0008636860293336213,-0.005066206678748131,-0.0013111508451402187,0.00023121247068047523,0.0023086131550371647,-0.00881127454340458
0.0010183635167777538,-0.004643720109015703,-0.0014776958851143718,0.00010971490701194853,0.002379898214712739,-0.009054169058799744
0.0010183635167777538,-0.004643720109015703,-0.0014776958851143718,0.00010971490701194853,0.002379898214712739,-0.009054169058799744
0.0017595503013581038,-0.004709559492766857,-0.0015632271533831954,6.726538413204253e-05,0.0021193206775933504,-0.009084048680961132
0.0017595503013581038,-0.004709559492766857,-0.0015632271533831954,6.726538413204253e-05,0.0021193206775933504,-0.009084048680961132
0.001737697864882648,-0.004455181770026684,-0.0015829438343644142,6.245043186936527e-05,0.0021121150348335505,-0.008508042432367802
0.001551394583657384,-0.004201950039714575,-0.001614982495084405,3.417649713810533e-05,0.002080186503008008,-0.009314339607954025
0.001300479401834309,-0.003904820652678609,-0.001657363842241466,2.9459719371516258e-05,0.0021010751370340586,-0.009095272049307823
0.001300479401834309,-0.003904820652678609,-0.001657363842241466,2.9459719371516258e-05,0.0021010751370340586,-0.009095272049307823
0.0013270500348880887,-0.0038218023255467415,-0.0015626377426087856,7.35890489522717e-06,0.002283949637785554,-0.008652012795209885
0.0017164822202175856,-0.0037862942554056644,-0.0016328349011018872,4.804838908967213e-07,0.002293087774887681,-0.008827677927911282
0.0021090353839099407,-0.003773014759644866,-0.0016808022046461701,3.137216353366057e-08,0.0024605863727629185,-0.009150768630206585
0.002422530669718981,-0.004298093728721142,-0.0015639131888747215,2.048378133778783e-09,0.002418593503534794,-0.009113610722124577
0.002244623377919197,-0.004048757720738649,-0.0016328890342265368,1.337444599514015e-10,0.002261805348098278,-0.009304290637373924
0.0018830453045666218,-0.003805512562394142,-0.0016208466840907931,8.7325580794273e-12,0.0022649357561022043,-0.009219862520694733
0.0018521877937018871,-0.00421068724244833,-0.0015213188016787171,-0.0002650643582455814,0.0020859045907855034,-0.008904523216187954
0.0019806427881121635,-0.004164670594036579,-0.0015826728194952011,-0.0011331078130751848,0.0023004247341305017,-0.008613704703748226
0.0027675521560013294,-0.004013612866401672,-0.0015081356978043914,-0.0012324817944318056,0.0023230842780321836,-0.008580664172768593
0.0027888717595487833,-0.003927208948880434,-0.0016362502938136458,-0.0021307943388819695,0.0023118392564356327,-0.008969341404736042
0.003107184311375022,-0.0034530526027083397,-0.0016261754790320992,-0.0031223869882524014,0.002314969664439559,-0.009264858439564705
0.0029563119169324636,-0.003750008763745427,-0.0015876106917858124,-0.003909019753336906,0.00242510880343616,-0.00922472681850195
0.0029563119169324636,-0.003750008763745427,-0.0015876106917858124,-0.003909019753336906,0.00242510880343616,-0.00922472681850195
0.002918398939073086,-0.0038279772270470858,-0.0016746300971135497,-0.003982072230428457,0.0023445000406354666,-0.009253241121768951
0.003284575417637825,-0.00335122412070632,-0.001724572735838592,-0.004893206525593996,0.0023059509694576263,-0.00912251602858305
0.0034582512453198433,-0.003312506480142474,-0.0016342843882739544,-0.005512728355824947,0.002288987161591649,-0.009668015874922276
0.0034495757427066565,-0.0036013037897646427,-0.0018546364735811949,-0.005578810814768076,0.002111084759235382,-0.00921187736093998
0.0033885890152305365,-0.003641680348664522,-0.001753447693772614,-0.005832682829350233,0.002094769151881337,-0.009435971267521381
0.0035381570924073458,-0.00356180383823812,-0.001985331065952778,-0.005641746800392866,0.002064161002635956,-0.009350474923849106
0.004004595801234245,-0.0034464229829609394,-0.0019516192842274904,-0.006996095646172762,0.0022564809769392014,-0.00900189857929945
0.0043242014944553375,-0.003231136128306389,-0.0018390575423836708,-0.007079967763274908,0.0022533931769430637,-0.00939737819135189
0.004032330121845007,-0.003578613977879286,-0.002045621396973729,-0.007248367182910442,0.0024425406008958817,-0.009385768324136734
0.003363798838108778,-0.0037169349379837513,-0.0023494819179177284,-0.007505400571972132,0.0023107079323381186,-0.009251338429749012
0.003363798838108778,-0.0037169349379837513,-0.0023494819179177284,-0.007505400571972132,0.0023107079323381186,-0.009251338429749012
0.004301807843148708,-0.0033955492544919252,-0.0021465548779815435,-0.007854231633245945,0.002266156719997525,-0.009215212427079678
0.0049893613904714584,-0.0036257042083889246,-0.002051936462521553,-0.007578929886221886,0.0021629598923027515,-0.008997260592877865
0.0049893613904714584,-0.0036257042083889246,-0.002051936462521553,-0.007578929886221886,0.0021629598923027515,-0.008997260592877865
0.004497762303799391,-0.0033362964168190956,-0.0020055663771927357,-0.008183237165212631,0.0021095206029713154,-0.009469340555369854
0.004497762303799391,-0.0033362964168190956,-0.0020055663771927357,-0.008183237165212631,0.0021095206029713154,-0.009469340555369854
0.004347753245383501,-0.0033658877946436405,-0.0022918914910405874,-0.008510882034897804,0.002356625162065029,-0.010726921260356903
0.004966499283909798,-0.0033452375791966915,-0.0024888559710234404,-0.008091872557997704,0.002280243206769228,-0.009428128600120544
0.005110899917781353,-0.0035633377265185118,-0.0023779605980962515,-0.008135649375617504,0.0022044028155505657,-0.009070749394595623
0.005075598135590553,-0.00336386077105999,-0.0020999410189688206,-0.00837943609803915,0.0020091524347662926,-0.009837291203439236
0.005212005227804184,-0.00358762894757092,-0.0020079915411770344,-0.008851203136146069,0.002095745410770178,-0.00993395783007145
0.005226545967161655,-0.0037382617592811584,-0.00196646386757493,-0.008620736189186573,0.002278219908475876,-0.009867355227470398
0.00498959282413125,-0.0034706993028521538,-0.001926701283082366,-0.008600389584898949,0.0025347864720970392,-0.010038766078650951
0.005151525605469942,-0.0034075125586241484,-0.00225870031863451,-0.00841188058257103,0.0027755454648286104,-0.00922220479696989
0.00523514486849308,-0.0036353047471493483,-0.002213707659393549,-0.008591997437179089,0.002701185643672943,-0.009575383737683296
0.006010159850120544,-0.0032710209488868713,-0.002381284721195698,-0.008933356031775475,0.0027072906959801912,-0.010432065464556217
0.005575569346547127,-0.003263849066570401,-0.002335921162739396,-0.008991179056465626,0.0025788310449570417,-0.01004636287689209
0.0056354328989982605,-0.0033209577668458223,-0.0021906427573412657,-0.008502591401338577,0.0026027956046164036,-0.009635701775550842
0.005598415154963732,-0.0034661004319787025,-0.0022315760143101215,-0.008666991256177425,0.002574654994532466,-0.009987667202949524
0.005951541941612959,-0.003276351373642683,-0.002273255493491888,-0.00963497068732977,0.0024910159409046173,-0.010312708094716072
0.006634412799030542,-0.0035297994036227465,-0.0024563781917095184,-0.009495899081230164,0.0024166961666196585,-0.010208860039710999
0.00658355001360178,-0.0034650606103241444,-0.0026814464945346117,-0.009500267915427685,0.0024821453262120485,-0.010016459971666336
0.006249816622585058,-0.003406655741855502,-0.0023654357064515352,-0.01012788712978363,0.0025726663880050182,-0.010127385146915913
0.0061994860880076885,-0.0030597886070609093,-0.002273447811603546,-0.010371399112045765,0.003008679486811161,-0.010649633593857288
0.005986538249999285,-0.003324886318296194,-0.0023788094986230135,-0.010056883096694946,0.0029982486739754677,-0.010276022367179394
0.00673762708902359,-0.003396781627088785,-0.002806080738082528,-0.010360505431890488,0.0025086321402341127,-0.009838572703301907
0.006639247294515371,-0.003057920141145587,-0.002937982091680169,-0.010464470833539963,0.002597945276647806,-0.010499091818928719
0.00655690161511302,-0.0034569797571748495,-0.0026125689037144184,-0.010756555944681168,0.0026215622201561928,-0.010282585397362709
0.007192948833107948,-0.003262291196733713,-0.002701199846342206,-0.009820174425840378,0.002651326823979616,-0.009851505048573017
0.007581793237477541,-0.0030507403425872326,-0.0026678266003727913,-0.010643897578120232,0.0027201552875339985,-0.01021717581897974
0.00689034815877676,-0.002822988433763385,-0.003252941882237792,-0.01125035434961319,0.002291356213390827,-0.010542718693614006
0.00689034815877676,-0.002822988433763385,-0.003252941882237792,-0.01125035434961319,0.002291356213390827,-0.010542718693614006
0.007287994492799044,-0.00280019617639482,-0.003621552139520645,-0.011408369056880474,0.0023491731844842434,-0.011041787452995777
0.007402441464364529,-0.002619612729176879,-0.003108383622020483,-0.01084230002015829,0.0025688144378364086,-0.010481768287718296
0.007330942898988724,-0.00265874108299613,-0.0028239861130714417,-0.010593052953481674,0.0026738399174064398,-0.009742166846990585
0.007006161380559206,-0.0025939634069800377,-0.0027629730757325888,-0.010717194527387619,0.003000920871272683,-0.009881681762635708
0.007198170758783817,-0.002482727635651827,-0.00312222633510828,-0.01040131039917469,0.002857286250218749,-0.01038420107215643
0.007418045774102211,-0.0027624277863651514,-0.0029369769617915154,-0.010196622461080551,0.0028053410351276398,-0.009760206565260887
0.0074891382828354836,-0.002927190624177456,-0.003108592238277197,-0.010646638460457325,0.0026207673363387585,-0.009534506127238274
0.0071911984123289585,-0.0030102767050266266,-0.0030643439386039972,-0.00988770741969347,0.002721962286159396,-0.009839002043008804
0.007273404859006405,-0.002849876880645752,-0.0032805504743009806,-0.009741007350385189,0.0028209893498569727,-0.009756993502378464
0.0080781951546669,-0.0029502103570848703,-0.0031402762979269028,-0.009679415263235569,0.0026983043644577265,-0.010629675351083279
0.007797457277774811,-0.0028983091469854116,-0.0029781926423311234,-0.00939806830137968,0.0027116364799439907,-0.010813524015247822
0.006751762703061104,-0.0029673390090465546,-0.0029074163176119328,-0.009935837239027023,0.002405420644208789,-0.010383001528680325
0.007201753091067076,-0.0028456286527216434,-0.0028159089852124453,-0.009866960346698761,0.0023325118236243725,-0.010321935638785362
0.007440641522407532,-0.0030644184444099665,-0.0029494042973965406,-0.009149845689535141,0.002643272979184985,-0.009981848299503326
0.007563275750726461,-0.0029000721406191587,-0.0032163558062165976,-0.010417268611490726,0.0029148247558623552,-0.010625069960951805
0.007465803995728493,-0.002759587951004505,-0.002888946793973446,-0.01048322208225727,0.00321579328738153,-0.010394386947154999
0.007465803995728493,-0.002759587951004505,-0.002888946793973446,-0.01048322208225727,0.00321579328738153,-0.010394386947154999
0.008014229126274586,-0.0031043491326272488,-0.0018769243033602834,-0.010063025169074535,0.0029620134737342596,-0.010442610830068588
0.007751405704766512,-0.0032251067459583282,-0.0015397514216601849,-0.010619500651955605,0.002977574709802866,-0.010677235201001167
0.007772419136017561,-0.002926252083852887,-0.0014075110666453838,-0.01137423887848854,0.0029210993088781834,-0.010357365012168884
0.008030373603105545,-0.002897435100749135,-0.0010764346225187182,-0.011208177544176579,0.002714506583288312,-0.010492535308003426
0.007905673235654831,-0.0028612359892576933,-0.0011165839387103915,-0.011163248680531979,0.0026113158091902733,-0.010086897760629654
0.007905673235654831,-0.0028612359892576933,-0.0011165839387103915,-0.011163248680531979,0.0026113158091902733,-0.010086897760629654
0.007704178337007761,-0.0028492198325693607,-0.0019300187705084682,-0.01148367952555418,0.0025671771727502346,-0.010428164154291153
0.008810299448668957,-0.002617791760712862,-0.0022053541615605354,-0.010863073170185089,0.0026003902312368155,-0.010400158353149891
0.00820479728281498,-0.0024684169329702854,-0.0021459346171468496,-0.010822233743965626,0.0030098215211182833,-0.010397006757557392
0.007912108674645424,-0.00216715969145298,-0.0017888012807816267,-0.010816149413585663,0.003407828276976943,-0.010807521641254425
0.008865714073181152,-0.0022733889054507017,-0.0015838060062378645,-0.011071587912738323,0.0034317111130803823,-0.010337314568459988
0.00853007286787033,-0.0022738215047866106,-0.0012499059084802866,-0.01153932698071003,0.0031431789975613356,-0.01058958750218153
0.008415942080318928,-0.00220436486415565,-0.001336101209744811,-0.010934662073850632,0.0026823722291737795,-0.010397663339972496
0.009536887519061565,-0.0023187617771327496,-0.0016361703164875507,-0.010889671742916107,0.0025908469688147306,-0.0103150000795722
0.009018950164318085,-0.002025861758738756,-0.001991265919059515,-0.0108156967908144,0.0025749478954821825,-0.010287820361554623
0.008527666330337524,-0.0018310729647055268,-0.0022193610202521086,-0.01054571196436882,0.0024568429216742516,-0.010277517139911652
0.008802993223071098,-0.0018008684273809195,-0.00195448100566864,-0.011114194057881832,0.002677277196198702,-0.010257001034915447
0.009011397138237953,-0.001817128388211131,-0.001771279494278133,-0.011102977208793163,0.003100545611232519,-0.010403753258287907
0.009565881453454494,-0.001817155396565795,-0.0017339227488264441,-0.011019999161362648,0.0030840833205729723,-0.010692145675420761
0.008979780599474907,-0.0018961968598887324,-0.0019093089504167438,-0.011419056914746761,0.002898423932492733,-0.010715744458138943
0.009923722594976425,-0.0018772429320961237,-0.0021802480332553387,-0.01152444165199995,0.0028103317599743605,-0.010753178037703037
0.009260821156203747,-0.001857885392382741,-0.0024231153074651957,-0.011587369255721569,0.0030029118061065674,-0.010744854807853699
0.009386385791003704,-0.0016358691500499845,-0.0022701735142618418,-0.011434444226324558,0.003224719315767288,-0.010573478415608406
0.00731627969071269,-0.0014886785065755248,-0.0020729191601276398,-0.011182752437889576,0.0034659472294151783,-0.012142586521804333
0.007264174520969391,-0.001212392351590097,-0.001997473184019327,-0.011848730966448784,0.0032987676095217466,-0.011180366389453411
0.008155188523232937,-0.0011448086006566882,-0.0018961369059979916,-0.012063706293702126,0.0031224095728248358,-0.010788947343826294
0.007909426465630531,-0.0011015647323802114,-0.0019069479312747717,-0.012253890745341778,0.0029537989757955074,-0.010750367306172848
0.0077422079630196095,-0.0010796820279210806,-0.002442721975967288,-0.012519109062850475,0.0029243272729218006,-0.010909177362918854
0.00802299752831459,-0.001054383465088904,-0.002384915016591549,-0.012870836071670055,0.002811295911669731,-0.011249969713389874
0.008041620254516602,-0.0009441358270123601,-0.0020982108544558287,-0.012551401741802692,0.0027406238950788975,-0.011384694837033749
0.008294184692203999,-0.0008976008975878358,-0.0020249232184141874,-0.013287192210555077,0.003086460754275322,-0.011271625757217407
0.008229047060012817,-0.0008299736073240638,-0.0021043114829808474,-0.012922851368784904,0.003251589834690094,-0.010969594120979309
0.007987975142896175,-0.000744574295822531,-0.0024586208164691925,-0.013458475470542908,0.0030416997615247965,-0.010948842391371727
0.008416971191763878,-0.0006501320749521255,-0.0025354791432619095,-0.013405933976173401,0.002629833295941353,-0.010655405931174755
0.008648165501654148,-0.0005663774791173637,-0.0029403166845440865,-0.01356063038110733,0.002337561920285225,-0.010521402582526207
0.008648165501654148,-0.0005663774791173637,-0.0029403166845440865,-0.01356063038110733,0.002337561920285225,-0.010521402582526207
0.008914748206734657,-0.0005912447231821716,-0.00290513108484447,-0.01353033259510994,0.0022645252756774426,-0.010810479521751404
0.008497575297951698,-0.0005427119904197752,-0.002756053814664483,-0.013952531851828098,0.0022945201490074396,-0.011173848994076252
0.008978649973869324,-0.0004932646406814456,-0.002521280199289322,-0.013700352981686592,0.00297222170047462,-0.011457395739853382
0.009177769534289837,-0.00045196665450930595,-0.002564737107604742,-0.013996299356222153,0.0035283342003822327,-0.011293548159301281
0.00881301797926426,-0.0004170509928371757,-0.0027735328767448664,-0.014150048606097698,0.0035640632268041372,-0.011025605723261833
0.010239397175610065,-0.0003871436056215316,-0.002658731769770384,-0.01407606154680252,0.0035232186783105135,-0.011159928515553474
0.009348778054118156,-0.0003612391883507371,-0.002881948370486498,-0.014167013578116894,0.0032012220472097397,-0.011702852323651314
0.009631458669900894,-0.00033858526148833334,-0.002865646732971072,-0.014285873621702194,0.0034099749755114317,-0.011385861784219742
0.00950881838798523,-0.00031860615126788616,-0.0024926785845309496,-0.014496930874884129,0.003712823847308755,-0.011103004217147827
0.00989155936986208,-0.0003008514759130776,-0.0025036369916051626,-0.014593331143260002,0.0035256831906735897,-0.010943561792373657
0.00942620076239109,-0.00028497393941506743,-0.0027099051512777805,-0.015021661296486855,0.003042092313989997,-0.01087465975433588
0.009237498044967651,-0.00027068774215877056,-0.002899809740483761,-0.015336128883063793,0.0029194324743002653,-0.010940576903522015
0.009705739095807076,-0.00022959978377912194,-0.0028427892830222845,-0.014849802479147911,0.0030750122386962175,-0.010850556194782257
0.009666557423770428,6.863025919301435e-05,-0.0028553777374327183,-0.015303992666304111,0.0030809766612946987,-0.010861112736165524
0.009514620527625084,0.002856632461771369,-0.0028289309702813625,-0.015567279420793056,0.0030872130300849676,-0.010922753252089024
0.010452358983457088,0.003283815225586295,-0.0029616286046802998,-0.015932975336909294,0.0033410731703042984,-0.010901184752583504
0.01004264410585165,0.002111459616571665,-0.0028998253401368856,-0.015888437628746033,0.0036340798251330853,-0.011395594105124474
0.010003612376749516,0.0003674399631563574,-0.0031658976804465055,-0.016627030447125435,0.0037910123355686665,-0.01171073317527771
0.010364837013185024,1.146268277807394e-05,-0.00295579107478261,-0.016178034245967865,0.003369229845702648,-0.01154146809130907
0.009614611975848675,1.53786530177058e-07,-0.00264793261885643,-0.016040176153182983,0.00321868434548378,-0.011724316515028477
0.01011611707508564,2.0632426878108845e-09,-0.002583323512226343,-0.0159091055393219,0.0032989205792546272,-0.011619692668318748
0.01135262567549944,0.002537695225328207,-0.003309563035145402,-0.016635777428746223,0.0035433538723737,-0.01159635279327631
0.010615771636366844,0.0021224471274763346,-0.0031885793432593346,-0.016577953472733498,0.003819480072706938,-0.012218933552503586
0.01076675858348608,0.0007546982378698885,-0.0029248767532408237,-0.017113162204623222,0.0038588170427829027,-0.012054678052663803
0.010689289309084415,0.0005122778820805252,-0.002748790429905057,-0.017101556062698364,0.0038760192692279816,-0.012068606913089752
0.010919204913079739,0.0005254361312836409,-0.0027153328992426395,-0.01756632886826992,0.003512362949550152,-0.011890199966728687
0.010877672582864761,0.0006436267285607755,-0.003119715256616473,-0.017062867060303688,0.003546488704159856,-0.011600756086409092
0.011793762445449829,0.0005609689396806061,-0.003208911046385765,-0.016391104087233543,0.0036411392502486706,-0.011167134158313274
0.011793762445449829,0.0005609689396806061,-0.003208911046385765,-0.016391104087233543,0.0036411392502486706,-0.011167134158313274
0.011560878716409206,0.0007403141935355961,-0.0031197089701890945,-0.016844315454363823,0.0036620721220970154,-0.011703618802130222
0.011430123820900917,0.0012332331389188766,-0.003054187633097172,-0.016725752502679825,0.0036362851969897747,-0.011416074819862843
0.011430123820900917,0.0012332331389188766,-0.003054187633097172,-0.016725752502679825,0.0036362851969897747,-0.011416074819862843
0.011430123820900917,0.0012332331389188766,-0.003054187633097172,-0.016725752502679825,0.0036362851969897747,-0.011416074819862843
0.011430123820900917,0.0012332331389188766,-0.003054187633097172,-0.016725752502679825,0.0036362851969897747,-0.011416074819862843
0.010262741707265377,0.0008132774964906275,-0.003358954330906272,-0.017785435542464256,0.0034002289175987244,-0.011733539402484894
0.010605070739984512,0.0008493883651681244,-0.003564810613170266,-0.018278243020176888,0.0033761239610612392,-0.01170334406197071
0.011658397503197193,0.0011907049920409918,-0.0031728327739983797,-0.018927762284874916,0.0034429545048624277,-0.011820422485470772
0.011484438553452492,0.0012025312753394246,-0.0033225156366825104,-0.017589451745152473,0.00374887534417212,-0.01249071303755045
0.011880583129823208,0.0011637442512437701,-0.0033944149035960436,-0.017196115106344223,0.003979573026299477,-0.011199663393199444
0.011622089892625809,0.0013826678041368723,-0.0034593793097883463,-0.01795661263167858,0.004026580136269331,-0.010923386551439762
0.010878881439566612,0.0012832543579861522,-0.0033524511381983757,-0.017888950183987617,0.003929531201720238,-0.01132343988865614
0.011158537119626999,0.0011132067302241921,-0.0030573145486414433,-0.01773889921605587,0.003395296633243561,-0.011822511442005634
0.011282133869826794,0.0010756939882412553,-0.0028042462654411793,-0.01788746565580368,0.003421301953494549,-0.011316021904349327
0.011871907860040665,0.0010104600805789232,-0.003102193120867014,-0.018386010080575943,0.004062714520841837,-0.011734127067029476
0.011760573834180832,0.001575900474563241,-0.0032743520569056273,-0.018053442239761353,0.004187367856502533,-0.012274649925529957
0.011760573834180832,0.001575900474563241,-0.0032743520569056273,-0.018053442239761353,0.004187367856502533,-0.012274649925529957
0.011760573834180832,0.001575900474563241,-0.0032743520569056273,-0.018053442239761353,0.004187367856502533,-0.012274649925529957
0.010882068425416946,0.0022203070111572742,-0.003302827011793852,-0.018013792112469673,0.0038598005194216967,-0.011979024857282639
0.011252341791987419,0.0016696605598554015,-0.0030800073873251677,-0.018143871799111366,0.0038214249070733786,-0.012422297149896622
0.01089564524590969,0.0016118970233947039,-0.003123620292171836,-0.01825750432908535,0.003438528161495924,-0.01212847139686346
0.01089564524590969,0.0016118970233947039,-0.003123620292171836,-0.01825750432908535,0.003438528161495924,-0.01212847139686346
0.011869213543832302,0.0017263332847505808,-0.0034257860388606787,-0.018853096291422844,0.003988859709352255,-0.012076687067747116
0.011869213543832302,0.0017263332847505808,-0.0034257860388606787,-0.018853096291422844,0.003988859709352255,-0.012076687067747116
0.011052437126636505,0.0023707966320216656,-0.003195353550836444,-0.019370321184396744,0.004208656959235668,-0.012443234212696552
0.010947633534669876,0.0023313157726079226,-0.003420530818402767,-0.019562512636184692,0.003990428987890482,-0.012725749984383583
0.010930029675364494,0.0024420171976089478,-0.0032809358090162277,-0.01982990652322769,0.003840009681880474,-0.012504242360591888
0.011003520339727402,0.0022645480930805206,-0.003479632083326578,-0.019759293645620346,0.0038457438349723816,-0.012301585637032986
0.011780251748859882,0.00216059572994709,-0.0036525612231343985,-0.019917946308851242,0.0040317922830581665,-0.011978819966316223
0.011303708888590336,0.0022813749965280294,-0.0037575187161564827,-0.020356126129627228,0.004105334170162678,-0.012022241950035095
0.011182228103280067,0.0023042424581944942,-0.003241636324673891,-0.02104480192065239,0.003975091967731714,-0.012200290337204933
0.010883535258471966,0.0029551892075687647,-0.0031528060790151358,-0.020968612283468246,0.003807438537478447,-0.012247857637703419
0.010709200985729694,0.003474778961390257,-0.003382448572665453,-0.021091734990477562,0.003853678470477462,-0.012206527404487133
0.011192413978278637,0.0035022797528654337,-0.0036378721706569195,-0.021199189126491547,0.004383501596748829,-0.012709376402199268
0.010787276551127434,0.0035921873059123755,-0.0037772059440612793,-0.0209022369235754,0.004512551240622997,-0.011987850069999695
0.01117850560694933,0.003718549618497491,-0.003932893741875887,-0.02006096951663494,0.004020725376904011,-0.012060116045176983
0.011466936208307743,0.003915499430149794,-0.0038798614405095577,-0.020347656682133675,0.003529512556269765,-0.01244223490357399
0.010920170694589615,0.003918444737792015,-0.0035682066809386015,-0.021326588466763496,0.0034824397880584,-0.012441679835319519
0.011307562701404095,0.0038501389790326357,-0.0036221425980329514,-0.021604245528578758,0.0037222320679575205,-0.012253055348992348
0.011334097944200039,0.003923243377357721,-0.004035618621855974,-0.020659273490309715,0.004143610130995512,-0.011720527894794941
0.011900183744728565,0.004524267744272947,-0.003734838217496872,-0.02182941697537899,0.004289411474019289,-0.01226035039871931
0.01115256454795599,0.004560711327940226,-0.0037444429472088814,-0.02191295102238655,0.0046458616852760315,-0.012057051062583923
0.011319654062390327,0.004392601083964109,-0.004308855626732111,-0.02162175066769123,0.004742494784295559,-0.012308575212955475
0.011178855784237385,0.004589944612234831,-0.004017652943730354,-0.021112710237503052,0.004370810929685831,-0.012760823592543602
0.011088522151112556,0.004546093288809061,-0.0037542711943387985,-0.021063238382339478,0.004040935542434454,-0.012594283558428288
0.011491692624986172,0.005508913192898035,-0.0036865277215838432,-0.021190475672483444,0.003991247620433569,-0.01228681206703186
0.011297582648694515,0.005313690751791,-0.0037591394502669573,-0.02124403417110443,0.004081811755895615,-0.012319684959948063
0.011624339036643505,0.004897648002952337,-0.004187558311969042,-0.021996596828103065,0.004485823214054108,-0.012593949213624
0.01157279685139656,0.005237296223640442,-0.004223938565701246,-0.021922413259744644,0.0049302661791443825,-0.012413732707500458
0.01157279685139656,0.005237296223640442,-0.004223938565701246,-0.021922413259744644,0.0049302661791443825,-0.012413732707500458
0.01151255238801241,0.005614170804619789,-0.004215006250888109,-0.021556463092565536,0.00365853332914412,-0.012716221623122692
0.01151255238801241,0.005614170804619789,-0.004215006250888109,-0.021556463092565536,0.00365853332914412,-0.012716221623122692
0.011324556544423103,0.0057612331584095955,-0.004237412475049496,-0.021966414526104927,0.003568887012079358,-0.012858099304139614
0.01175905205309391,0.006103045307099819,-0.004074414726346731,-0.022694328799843788,0.003747186390683055,-0.01274657528847456
0.011779471300542355,0.006481450516730547,-0.0039030632469803095,-0.023021264001727104,0.004201110918074846,-0.011996512301266193
0.011662790551781654,0.0060852812603116035,-0.004111437126994133,-0.02233733981847763,0.004261789843440056,-0.011878542602062225
0.012090048752725124,0.006384191103279591,-0.004128605592995882,-0.022367462515830994,0.00446642842143774,-0.012114126235246658
0.01169297844171524,0.007134127896279097,-0.004379011690616608,-0.023159079253673553,0.00445686187595129,-0.01263527013361454
0.011854524724185467,0.0068406336940824986,-0.004690695554018021,-0.023349735885858536,0.004163989797234535,-0.012669048272073269
0.011798698455095291,0.0071276030503213406,-0.004416293930262327,-0.023436980322003365,0.003878832096233964,-0.012911817990243435
0.011741846799850464,0.007603612262755632,-0.004490328952670097,-0.023071618750691414,0.0037548753898590803,-0.012841463088989258
0.012286381796002388,0.00792529247701168,-0.004132628440856934,-0.024252835661172867,0.004188860766589642,-0.013400519266724586
0.012069659307599068,0.006923052482306957,-0.003992313984781504,-0.023475348949432373,0.00453893793746829,-0.013180628418922424
0.012379923835396767,0.00695438776165247,-0.004286613315343857,-0.0240805484354496,0.0049413894303143024,-0.01297664362937212
0.011729329824447632,0.007323881145566702,-0.004484972916543484,-0.02429703250527382,0.004741585347801447,-0.012992349453270435
0.012019379064440727,0.0075170909985899925,-0.004598717205226421,-0.024211663752794266,0.004334951285272837,-0.012597010470926762
0.012159889563918114,0.007361404597759247,-0.004565699491649866,-0.024210641160607338,0.0038741519674658775,-0.012964814901351929
0.01209703367203474,0.007151859812438488,-0.004383477382361889,-0.023852363228797913,0.003725832561030984,-0.012712209485471249
0.012262731790542603,0.008363431319594383,-0.004411767702549696,-0.024069633334875107,0.004839090630412102,-0.012991522438824177
0.012386661022901535,0.008215964771807194,-0.004230699501931667,-0.023678617551922798,0.005140500608831644,-0.013292565010488033
0.012246042490005493,0.007919259369373322,-0.004532153718173504,-0.02390354871749878,0.0049663325771689415,-0.0132532874122262
0.012363490648567677,0.008713253773748875,-0.004693117458373308,-0.02413785085082054,0.004406832158565521,-0.013092443346977234
0.01266846526414156,0.00884710531681776,-0.004236217588186264,-0.023999635130167007,0.003953535575419664,-0.012945436872541904
0.01266846526414156,0.00884710531681776,-0.004236217588186264,-0.023999635130167007,0.003953535575419664,-0.012945436872541904
0.012735200114548206,0.00814815517514944,-0.004084752406924963,-0.023902468383312225,0.0037488287780433893,-0.01307283528149128
0.012596432119607925,0.00840817578136921,-0.004063345957547426,-0.024768725037574768,0.004063872620463371,-0.013312124647200108
0.01211248803883791,0.00919558759778738,-0.004519608803093433,-0.024472154676914215,0.0045360177755355835,-0.013400589115917683
0.012551731429994106,0.008319695480167866,-0.004236758686602116,-0.0243357103317976,0.004478525836020708,-0.013794714584946632
0.012771614827215672,0.008555535227060318,-0.0044656130485236645,-0.024225102737545967,0.0044492082670331,-0.013791396282613277
0.012462266720831394,0.008616439998149872,-0.004629470407962799,-0.02367822267115116,0.004624553490430117,-0.013664264231920242
0.01341758668422699,0.008802061900496483,-0.004256123211234808,-0.02447773516178131,0.0046598054468631744,-0.013187199831008911
0.012840497307479382,0.009332927875220776,-0.004227881319820881,-0.024736592546105385,0.0046503678895533085,-0.01338379830121994
0.01291511207818985,0.008719169534742832,-0.004108049441128969,-0.024390319362282753,0.004493814427405596,-0.013353900983929634
0.012775342911481857,0.009128068573772907,-0.004351346753537655,-0.024571698158979416,0.004581889137625694,-0.013197286054491997
0.014521175064146519,0.010305970907211304,-0.004402064252644777,-0.024952510371804237,0.004476895555853844,-0.01328310091048479
0.014697285369038582,0.009973814710974693,-0.0040516783483326435,-0.025638774037361145,0.004397138021886349,-0.013414035551249981
0.014697285369038582,0.009973814710974693,-0.0040516783483326435,-0.025638774037361145,0.004397138021886349,-0.013414035551249981
0.014697285369038582,0.009973814710974693,-0.0040516783483326435,-0.025638774037361145,0.004397138021886349,-0.013414035551249981
0.014736869372427464,0.010234387591481209,-0.004267199896275997,-0.025669749826192856,0.004433885216712952,-0.013245539739727974
0.014736869372427464,0.010234387591481209,-0.004267199896275997,-0.025669749826192856,0.004433885216712952,-0.013245539739727974
0.013889581896364689,0.010759738273918629,-0.004355790559202433,-0.02634221874177456,0.004527288023382425,-0.012870628386735916
0.013889581896364689,0.010759738273918629,-0.004355790559202433,-0.02634221874177456,0.004527288023382425,-0.012870628386735916
0.014711195603013039,0.009674438275396824,-0.003957764245569706,-0.02598249725997448,0.005024580284953117,-0.012875963002443314
0.014759567566215992,0.010384748689830303,-0.004105913918465376,-0.024576617404818535,0.00487509835511446,-0.01338526327162981
0.014671004377305508,0.009857015684247017,-0.0041317506693303585,-0.024494724348187447,0.004687084816396236,-0.013387821614742279
0.014651156961917877,0.01023937202990055,-0.0038982490077614784,-0.025415826588869095,0.004683444742113352,-0.01344028115272522
0.014778104610741138,0.010025661438703537,-0.0037534560542553663,-0.02632101997733116,0.005110860336571932,-0.013651899993419647
0.014793491922318935,0.009497878141701221,-0.004329869523644447,-0.02658713236451149,0.004861215129494667,-0.01346881128847599
0.01460307091474533,0.00878180656582117,-0.004174068570137024,-0.026666348800063133,0.004774757660925388,-0.013188672251999378
0.014657176099717617,0.008606352843344212,-0.004002243746072054,-0.02644512429833412,0.005150622688233852,-0.013361913152039051
0.014705202542245388,0.008326324634253979,-0.003981879912316799,-0.027294890955090523,0.004664914216846228,-0.013275155797600746
0.01476730965077877,0.008754163980484009,-0.004281105473637581,-0.02681659534573555,0.004582468885928392,-0.01337483525276184
0.01476730965077877,0.008754163980484009,-0.004281105473637581,-0.02681659534573555,0.004582468885928392,-0.01337483525276184
0.01476730965077877,0.008754163980484009,-0.004281105473637581,-0.02681659534573555,0.004582468885928392,-0.01337483525276184
0.014361911453306675,0.009497224353253841,-0.0038281234446913004,-0.027372289448976517,0.005009890999644995,-0.013580582104623318
0.014664717018604279,0.00895307119935751,-0.004282863344997168,-0.02698957733809948,0.005204193759709597,-0.013579203747212887
0.014573954045772552,0.008805315010249615,-0.00411114702001214,-0.02737981081008911,0.004976002499461174,-0.013160713948309422
0.014614634215831757,0.009331375360488892,-0.0039048560429364443,-0.02725757285952568,0.004716156516224146,-0.013368415646255016
0.014802560210227966,0.009231416508555412,-0.003842814825475216,-0.027321187779307365,0.004638551268726587,-0.013471060432493687
0.014802560210227966,0.009231416508555412,-0.003842814825475216,-0.027321187779307365,0.004638551268726587,-0.013471060432493687
0.014700004830956459,0.009216876700520515,-0.0039903647266328335,-0.02823156677186489,0.004434165544807911,-0.013697071932256222
0.014924287796020508,0.009207338094711304,-0.004197654314339161,-0.027707582339644432,0.004634310491383076,-0.013332737609744072
0.015269678086042404,0.009466527961194515,-0.004438166972249746,-0.02686542645096779,0.004741730634123087,-0.01349124126136303
0.014856403693556786,0.009738454595208168,-0.004017173312604427,-0.026786115020513535,0.004963258747011423,-0.013371096923947334
0.015008417889475822,0.00943816639482975,-0.004211766179651022,-0.027281666174530983,0.004892618395388126,-0.013873031362891197
0.015062393620610237,0.009820065461099148,-0.004613638389855623,-0.02832629717886448,0.004751258064061403,-0.013529949821531773
0.015574974939227104,0.010674226097762585,-0.004485613200813532,-0.0287308432161808,0.004600561689585447,-0.013513177633285522
0.014950256794691086,0.01009309757500887,-0.004014600068330765,-0.028533704578876495,0.004624416120350361,-0.013485665433108807
0.01571069099009037,0.010212884284555912,-0.003927786368876696,-0.029171617701649666,0.004680766724050045,-0.013471956364810467
0.015135915949940681,0.010024952702224255,-0.003939711954444647,-0.029262404888868332,0.004707597196102142,-0.013546315021812916
0.015435809269547462,0.01067773811519146,-0.0038664760068058968,-0.02860156074166298,0.0051495847292244434,-0.013468463905155659
0.015478020533919334,0.010516065172851086,-0.003864854574203491,-0.028445357456803322,0.005087037105113268,-0.013848850503563881
0.015843311324715614,0.011177719570696354,-0.0048367357812821865,-0.029022034257650375,0.0049124606885015965,-0.012697562575340271
0.015784977003932,0.011722312308847904,-0.004522375296801329,-0.029315849766135216,0.0048113372176885605,-0.01325291022658348
0.01580275595188141,0.010655656456947327,-0.003982950933277607,-0.028965407982468605,0.004709397908300161,-0.013374554924666882
0.01603785715997219,0.010614234954118729,-0.004089662339538336,-0.02894486114382744,0.004735139198601246,-0.013689267449080944
0.015884842723608017,0.011317702010273933,-0.004205793607980013,-0.02916327863931656,0.005542771425098181,-0.013623645529150963
0.01554025523364544,0.011610142886638641,-0.004399208351969719,-0.029548056423664093,0.005388416815549135,-0.013768722303211689
0.01556219533085823,0.011529122479259968,-0.004693795461207628,-0.02956424281001091,0.005046635400503874,-0.014037281274795532
0.015870200470089912,0.011093078181147575,-0.004378443118184805,-0.0294687207788229,0.004974823910742998,-0.013993052765727043
0.016342442482709885,0.011814046651124954,-0.00423776637762785,-0.02958238683640957,0.005293139256536961,-0.013602948747575283
0.01615123823285103,0.01145822461694479,-0.0044633145444095135,-0.029869360849261284,0.00571884261444211,-0.013186555355787277
0.01596638560295105,0.011782088316977024,-0.004533685278147459,-0.030461225658655167,0.005223643500357866,-0.013520698994398117
0.016385644674301147,0.011778002604842186,-0.004733562003821135,-0.030418075621128082,0.004705318249762058,-0.013392656110227108
0.01651640608906746,0.011591584421694279,-0.004797738511115313,-0.030041368678212166,0.004625219386070967,-0.013661672361195087
0.017248693853616714,0.011859936639666557,-0.004896373488008976,-0.030085265636444092,0.004778285976499319,-0.013575484976172447
0.016595743596553802,0.011852532625198364,-0.0044964877888560295,-0.029866758733987808,0.005015346687287092,-0.013635109178721905
0.016463633626699448,0.011762332171201706,-0.0043931398540735245,-0.029954545199871063,0.004947527311742306,-0.013815691694617271
0.016463633626699448,0.011762332171201706,-0.0043931398540735245,-0.029954545199871063,0.004947527311742306,-0.013815691694617271
0.0163055881857872,0.01166099589318037,-0.004590456373989582,-0.030100636184215546,0.004809807054698467,-0.013672085478901863
0.01668686605989933,0.011425958015024662,-0.004766467958688736,-0.030000856146216393,0.004602493718266487,-0.013446803204715252
0.016370493918657303,0.011953102424740791,-0.004729438107460737,-0.02995128370821476,0.004606209229677916,-0.013288537040352821
0.016273582354187965,0.01187036745250225,-0.004693169612437487,-0.03006002865731716,0.005097439978271723,-0.01379243191331625
0.017001967877149582,0.012089167721569538,-0.004611380398273468,-0.030165662989020348,0.00516928406432271,-0.014045617543160915
0.017121845856308937,0.011569769121706486,-0.004574854392558336,-0.030572451651096344,0.005432684440165758,-0.014392555691301823
0.017216471955180168,0.011182954534888268,-0.004643636289983988,-0.029805023223161697,0.005073382053524256,-0.01435110718011856
0.017216583713889122,0.012473865412175655,-0.004309368785470724,-0.03062186762690544,0.0047008441761136055,-0.014091628603637218
0.016375120729207993,0.011417127214372158,-0.004436577670276165,-0.03048674948513508,0.004606525879353285,-0.01330896932631731
0.017087925225496292,0.011608618311583996,-0.0045626102946698666,-0.03058898076415062,0.004742360208183527,-0.013309062458574772
0.017159735783934593,0.011753156781196594,-0.0046595497988164425,-0.030590269714593887,0.004918782040476799,-0.013101301155984402
0.017129581421613693,0.01108642015606165,-0.0046433350071311,-0.030835816636681557,0.0049703167751431465,-0.013550147414207458
0.017129581421613693,0.01108642015606165,-0.0046433350071311,-0.030835816636681557,0.0049703167751431465,-0.013550147414207458
0.017129581421613693,0.01108642015606165,-0.0046433350071311,-0.030835816636681557,0.0049703167751431465,-0.013550147414207458
0.017129581421613693,0.01108642015606165,-0.0046433350071311,-0.030835816636681557,0.0049703167751431465,-0.013550147414207458
0.017365597188472748,0.011560286395251751,-0.004922905936837196,-0.03277203440666199,0.004992176312953234,-0.014512036927044392
0.017764266580343246,0.011059002950787544,-0.004566411953419447,-0.032882269471883774,0.0049275741912424564,-0.01440400816500187
0.018138928338885307,0.011671649292111397,-0.004471467807888985,-0.03155199810862541,0.005320962518453598,-0.013449005782604218
0.018138928338885307,0.011671649292111397,-0.004471467807888985,-0.03155199810862541,0.005320962518453598,-0.013449005782604218
0.01847546175122261,0.010892314836382866,-0.005504127591848373,-0.032899510115385056,0.005037282593548298,-0.014108486473560333
0.018707145005464554,0.011599431745707989,-0.0054388768039643764,-0.03371673449873924,0.004630868323147297,-0.013698759488761425
0.01812904141843319,0.011435567401349545,-0.005503636784851551,-0.03290194645524025,0.005447135306894779,-0.013533949851989746
0.018161462619900703,0.011219359934329987,-0.005184972658753395,-0.031915485858917236,0.0053964639082551,-0.013709495775401592
0.018422745168209076,0.011542387306690216,-0.004786460194736719,-0.031666938215494156,0.005346075631678104,-0.013949631713330746
0.018589584156870842,0.011606697924435139,-0.005451105069369078,-0.03278481960296631,0.00543596176430583,-0.014171614311635494
0.01862972415983677,0.011964836157858372,-0.005331385415047407,-0.03283083811402321,0.005145457573235035,-0.013943296857178211
0.01862289570271969,0.01180032454431057,-0.005924124736338854,-0.03267102316021919,0.005412767641246319,-0.014304323121905327
0.018466899171471596,0.011711880564689636,-0.005411050748080015,-0.03235269710421562,0.005260779522359371,-0.014510777778923512
0.018621552735567093,0.011651643551886082,-0.005170504562556744,-0.03246844559907913,0.005357880610972643,-0.01478564739227295
0.01859387569129467,0.011488331481814384,-0.005420238245278597,-0.0332803912460804,0.0049094222486019135,-0.014509533531963825
0.018606320023536682,0.01229464914649725,-0.005241726990789175,-0.032644372433423996,0.004919035825878382,-0.014383266679942608
0.01869090646505356,0.011629163287580013,-0.005292205139994621,-0.03278440609574318,0.005143651273101568,-0.014157858677208424
0.01831119880080223,0.011791945435106754,-0.005484847351908684,-0.03270262852311134,0.005416744854301214,-0.01421721838414669
0.01830655336380005,0.011433781124651432,-0.005508696660399437,-0.03345445543527603,0.005066012032330036,-0.0142702367156744
0.018578067421913147,0.011305443942546844,-0.005254226736724377,-0.03258971497416496,0.004771302454173565,-0.014403627254068851
0.018897995352745056,0.012104706838726997,-0.005670882761478424,-0.033428091555833817,0.0047391196712851524,-0.014313636347651482
0.018953772261738777,0.012229124084115028,-0.005350474268198013,-0.03324265033006668,0.0051428270526230335,-0.014556110836565495
0.018820103257894516,0.012042876332998276,-0.005087241064757109,-0.033733341842889786,0.0055870055221021175,-0.014474065974354744
0.018646230921149254,0.01176611240953207,-0.005328195635229349,-0.03470756486058235,0.006001932080835104,-0.01479117851704359
0.01911070942878723,0.011904755607247353,-0.005406819749623537,-0.034331709146499634,0.00550672085955739,-0.01467463094741106
0.019057665020227432,0.013546156696975231,-0.005442906636744738,-0.03249900043010712,0.004939498379826546,-0.014380300417542458
0.01866276189684868,0.011319572106003761,-0.005375734530389309,-0.03208203986287117,0.004712103400379419,-0.01445949450135231
0.019149458035826683,0.012175578624010086,-0.005602946970611811,-0.033552732318639755,0.0058561875484883785,-0.014486690983176231
0.01942991092801094,0.01219230704009533,-0.005677871406078339,-0.03399282321333885,0.005895135458558798,-0.014375345781445503
0.019711637869477272,0.01271543838083744,-0.00522830244153738,-0.0343550480902195,0.005290903151035309,-0.014417091384530067
0.01971050351858139,0.012500748969614506,-0.00590373994782567,-0.03332505002617836,0.005173051729798317,-0.014695581048727036
0.019193535670638084,0.01302025094628334,-0.005548779387027025,-0.03277587890625,0.005492499563843012,-0.014433733187615871
0.01894633285701275,0.012742460705339909,-0.005887592677026987,-0.03388616442680359,0.005621816962957382,-0.015322432853281498
0.01894633285701275,0.012742460705339909,-0.005887592677026987,-0.03388616442680359,0.005621816962957382,-0.015322432853281498
0.01920202374458313,0.013066637329757214,-0.005787473637610674,-0.03417298197746277,0.005543938837945461,-0.014357087202370167
0.019289938732981682,0.013178800232708454,-0.006054348777979612,-0.034410618245601654,0.005488126538693905,-0.013971890322864056
0.01959523744881153,0.013137146830558777,-0.005576822906732559,-0.03464262932538986,0.005595619324594736,-0.014442906714975834
0.019300881773233414,0.012941418215632439,-0.0057886820286512375,-0.034858688712120056,0.006023887544870377,-0.014921746216714382
0.019087709486484528,0.01310612540692091,-0.0056430683471262455,-0.034029364585876465,0.005807083565741777,-0.014953927136957645
0.019677722826600075,0.013282164931297302,-0.00596963195130229,-0.03455269709229469,0.005665035918354988,-0.015057351440191269
0.0200255885720253,0.012871679849922657,-0.006094766780734062,-0.03416799381375313,0.005353109445422888,-0.014914347790181637
0.019816629588603973,0.01327560842037201,-0.005411767866462469,-0.03373986482620239,0.005396776366978884,-0.01473754271864891
0.0196178387850523,0.013030819594860077,-0.0053447880782186985,-0.033722780644893646,0.005356159992516041,-0.01490857359021902
0.019949672743678093,0.013609824702143669,-0.005678619258105755,-0.03424549102783203,0.00553664518520236,-0.014633175916969776
0.018695667386054993,0.013385513797402382,-0.006150226108729839,-0.03427324444055557,0.0055831847712397575,-0.014920579269528389
0.019176386296749115,0.014043440110981464,-0.005696963518857956,-0.03457443788647652,0.005702384747564793,-0.014718381687998772
0.01960785873234272,0.013586325570940971,-0.005690706428140402,-0.03476744890213013,0.005817227065563202,-0.01473725214600563
0.019938785582780838,0.013896781951189041,-0.005367808975279331,-0.034598104655742645,0.005930254235863686,-0.014919934794306755
0.01973782666027546,0.013456727378070354,-0.005856156349182129,-0.03481819108128548,0.0059728906489908695,-0.015185752883553505
0.019879011437296867,0.014292879961431026,-0.006120895966887474,-0.03523043915629387,0.0060026682913303375,-0.014927585609257221
0.019544091075658798,0.013866580091416836,-0.005909833591431379,-0.03572789579629898,0.00645111408084631,-0.015180651098489761
0.019459731876850128,0.014262393116950989,-0.005520091392099857,-0.03593101724982262,0.0060283406637609005,-0.015062268823385239
0.0199931301176548,0.01407586969435215,-0.005876748822629452,-0.03606618568301201,0.005714826751500368,-0.015143442898988724
0.020126773044466972,0.014474701136350632,-0.005642480216920376,-0.03663954883813858,0.005420197267085314,-0.014819612726569176
0.020183194428682327,0.014431044459342957,-0.005924975499510765,-0.0369785875082016,0.0057834782637655735,-0.014825742691755295
0.020336292684078217,0.014282116666436195,-0.005727188196033239,-0.03709787130355835,0.005971577949821949,-0.01491440087556839
0.020236873999238014,0.014589253813028336,-0.005620238371193409,-0.036161959171295166,0.005645661149173975,-0.014773933216929436
0.020330896601080894,0.013811342418193817,-0.0057205441407859325,-0.037999290972948074,0.005497463978827,-0.01496481616050005
0.0205112025141716,0.014302734285593033,-0.006109760608524084,-0.0376683808863163,0.005717238411307335,-0.014733275398612022
0.02044900320470333,0.01404067873954773,-0.006263598334044218,-0.0370771624147892,0.00588085176423192,-0.014994149096310139
0.02044026181101799,0.014666588976979256,-0.005708448588848114,-0.03630193695425987,0.006069551687687635,-0.014821913093328476
0.02044026181101799,0.014666588976979256,-0.005708448588848114,-0.03630193695425987,0.006069551687687635,-0.014821913093328476
0.020712757483124733,0.014645052142441273,-0.005878784693777561,-0.037005435675382614,0.00555264949798584,-0.015055045485496521
0.02083730511367321,0.014642401598393917,-0.005882359575480223,-0.037991274148225784,0.005671593826264143,-0.014834333211183548
0.02065122313797474,0.01440785825252533,-0.006274533923715353,-0.03857803717255592,0.005769688170403242,-0.014968129806220531
0.020626341924071312,0.014843359589576721,-0.006238794419914484,-0.03897876664996147,0.005625041201710701,-0.015344412066042423
0.020999060943722725,0.014764887280762196,-0.0054162610322237015,-0.037644125521183014,0.005615645088255405,-0.015667304396629333
0.021082477644085884,0.01463453471660614,-0.005972018465399742,-0.03670058026909828,0.005611068103462458,-0.014466073364019394
0.02073855884373188,0.01414556335657835,-0.005733492784202099,-0.03784499317407608,0.005522202700376511,-0.014369449578225613
0.020982487127184868,0.014798521064221859,-0.006525896023958921,-0.0391843356192112,0.005907496437430382,-0.014880969189107418
0.020892644301056862,0.014691912569105625,-0.0058596087619662285,-0.03853008151054382,0.005724568851292133,-0.014039563946425915
0.02124032936990261,0.015431360341608524,-0.005739980842918158,-0.03868161514401436,0.005902135279029608,-0.01456204243004322
0.02093273401260376,0.015316352248191833,-0.00556924007833004,-0.0388132780790329,0.005840666592121124,-0.014893745072185993
0.02105453424155712,0.015013331547379494,-0.005939265247434378,-0.03905155509710312,0.005728086456656456,-0.015028136782348156
0.021551476791501045,0.014719290658831596,-0.006779059302061796,-0.03896496444940567,0.005977327469736338,-0.015305479988455772
0.021223030984401703,0.015330621972680092,-0.006190385669469833,-0.039056599140167236,0.005809889640659094,-0.015613803640007973
0.020946530625224113,0.014802766032516956,-0.005806276109069586,-0.03861718252301216,0.00635904585942626,-0.015091733075678349
0.021381009370088577,0.015458235517144203,-0.006115299183875322,-0.03953852504491806,0.006218455731868744,-0.014976080507040024
0.021546585485339165,0.015109438449144363,-0.005730818957090378,-0.03955407813191414,0.005958532448858023,-0.015183900482952595
0.02176698110997677,0.015367146581411362,-0.006539301015436649,-0.03894316032528877,0.006101698148995638,-0.015605168417096138
0.021961748600006104,0.015119829215109348,-0.006773822009563446,-0.03898375853896141,0.005646691657602787,-0.015863746404647827
0.02179584838449955,0.015801263973116875,-0.005956058390438557,-0.04051227495074272,0.005958365276455879,-0.015488809905946255
0.02119331620633602,0.015805548056960106,-0.005868234671652317,-0.03847339376807213,0.006053198594599962,-0.015465028584003448
0.021764695644378662,0.016079198569059372,-0.0062863449566066265,-0.0386146642267704,0.006069407798349857,-0.01488509401679039
0.02216200716793537,0.01565604656934738,-0.006527095567435026,-0.03883441910147667,0.006110557820647955,-0.015213086269795895
0.02191721647977829,0.01596013642847538,-0.005824699066579342,-0.038717783987522125,0.006321735680103302,-0.01528188493102789
0.021592305973172188,0.015880079939961433,-0.005743194371461868,-0.03971344977617264,0.0066180722787976265,-0.015773307532072067
0.021792912855744362,0.016375211998820305,-0.006388509646058083,-0.03871707245707512,0.0059934272430837154,-0.016061529517173767
0.02282579615712166,0.015764547511935234,-0.006396569311618805,-0.03778884559869766,0.0060332459397614,-0.01592189259827137
0.0223417729139328,0.016153715550899506,-0.006341078318655491,-0.03907376155257225,0.0061968425288796425,-0.015904869884252548
0.02210202068090439,0.01614941656589508,-0.0063157035037875175,-0.03933226689696312,0.006438449956476688,-0.01567804254591465
0.02210202068090439,0.01614941656589508,-0.0063157035037875175,-0.03933226689696312,0.006438449956476688,-0.01567804254591465
0.02141261287033558,0.01619361713528633,-0.005643312819302082,-0.03960151970386505,0.006177747622132301,-0.015451953746378422
0.02169959433376789,0.0164867602288723,-0.006475497968494892,-0.03965352848172188,0.005967142526060343,-0.015318597666919231
0.022155718877911568,0.01628737337887287,-0.00683801481500268,-0.03953172266483307,0.00602502329275012,-0.015408043749630451
0.022532863542437553,0.016663504764437675,-0.006193060893565416,-0.03987790271639824,0.006281770300120115,-0.015150308609008789
0.021897263824939728,0.01710594817996025,-0.006079539190977812,-0.04099830240011215,0.006630983669310808,-0.015441171824932098
0.022911841049790382,0.017479531466960907,-0.005910928826779127,-0.040356460958719254,0.007494790013879538,-0.015606760047376156
0.022434648126363754,0.01705125719308853,-0.006011635530740023,-0.0397198349237442,0.006551682483404875,-0.015414162538945675
0.021869735792279243,0.017340349033474922,-0.00658984063193202,-0.03980954363942146,0.005867933388799429,-0.014567207545042038
0.02188682369887829,0.01777596026659012,-0.006638317834585905,-0.040819961577653885,0.006346976384520531,-0.015067326836287975
0.02224656566977501,0.01758691668510437,-0.006321385502815247,-0.04090745002031326,0.006389161106199026,-0.015418759547173977
0.02300393395125866,0.01857180893421173,-0.006121348589658737,-0.04084857180714607,0.006535124033689499,-0.015551219694316387
0.022721298038959503,0.017253097146749496,-0.006907487753778696,-0.04096204414963722,0.006846004631370306,-0.015736445784568787
0.022703057155013084,0.017106790095567703,-0.006952283438295126,-0.041265618056058884,0.006791680585592985,-0.015414976514875889
0.022762399166822433,0.017867159098386765,-0.006546312477439642,-0.04146064072847366,0.006374303717166185,-0.015619981102645397
0.02223031595349312,0.017438890412449837,-0.0061503564938902855,-0.040839746594429016,0.006208234466612339,-0.015759583562612534
0.022421836853027344,0.017931858077645302,-0.0067878300324082375,-0.04123488441109657,0.006513446103781462,-0.01592211425304413
0.02281072735786438,0.01787007972598076,-0.007432458456605673,-0.041536055505275726,0.0062727779150009155,-0.015520001761615276
0.022471925243735313,0.018525656312704086,-0.006934983190149069,-0.04177216440439224,0.006274472456425428,-0.01583724655210972
0.02258184924721718,0.01810135319828987,-0.006686589680612087,-0.04314577579498291,0.005783898290246725,-0.015948159620165825
0.022988921031355858,0.01803160458803177,-0.006940617226064205,-0.04267343506217003,0.0062300958670675755,-0.016156461089849472
0.023164235055446625,0.01797250285744667,-0.006917096674442291,-0.04150886461138725,0.005891883745789528,-0.016007810831069946
0.022943133488297462,0.01773771271109581,-0.007014552131295204,-0.04289785772562027,0.005854777991771698,-0.015975864604115486
0.02286297082901001,0.018206145614385605,-0.006897172890603542,-0.04466039687395096,0.006279528606683016,-0.015339910052716732
0.023771153762936592,0.018861932680010796,-0.008058681152760983,-0.04510348290205002,0.006348481401801109,-0.015383999794721603
0.02326252870261669,0.017999187111854553,-0.007253551390022039,-0.04267726466059685,0.006377379409968853,-0.01506549771875143
0.023387262597680092,0.01886741816997528,-0.006613177713006735,-0.04168865457177162,0.0066171130165457726,-0.015830259770154953
0.023387262597680092,0.01886741816997528,-0.006613177713006735,-0.04168865457177162,0.0066171130165457726,-0.015830259770154953
0.023572346195578575,0.01853320561349392,-0.006795113440603018,-0.04393657296895981,0.006322173867374659,-0.01578267104923725
0.023598939180374146,0.017916308715939522,-0.008403840474784374,-0.04421309754252434,0.006149667780846357,-0.016134845092892647
0.023577552288770676,0.018387742340564728,-0.007891034707427025,-0.043284233659505844,0.006361076608300209,-0.016146881505846977
0.023857969790697098,0.018540171906352043,-0.007610329892486334,-0.04332045465707779,0.006680985447019339,-0.015815000981092453
0.02380635216832161,0.01877562142908573,-0.006774089299142361,-0.04362224042415619,0.006452508270740509,-0.015977909788489342
0.023429054766893387,0.018481919541954994,-0.007158638443797827,-0.043381210416555405,0.006542799528688192,-0.016061939299106598
0.023614609614014626,0.017794618383049965,-0.007580920122563839,-0.04348960146307945,0.006398746278136969,-0.016484558582305908
0.024054260924458504,0.018407899886369705,-0.00717652915045619,-0.04338483512401581,0.006372985430061817,-0.01638597622513771
0.02397075481712818,0.019106926396489143,-0.006998734083026648,-0.04331650957465172,0.006565170828253031,-0.016240650787949562
0.024238640442490578,0.018937157467007637,-0.007293762173503637,-0.04336066171526909,0.0066351136192679405,-0.015501720830798149
0.023480581119656563,0.018730446696281433,-0.007223336957395077,-0.04298318549990654,0.006812773644924164,-0.016724515706300735
0.023818939924240112,0.019030576571822166,-0.006806056015193462,-0.0430273599922657,0.0067669302225112915,-0.01574811525642872
0.023951197043061256,0.018388958647847176,-0.007087521255016327,-0.04304511845111847,0.006636617239564657,-0.015306895598769188
0.024189354851841927,0.018437374383211136,-0.0074782478623092175,-0.044552549719810486,0.006665798835456371,-0.015726735815405846
0.023693019524216652,0.018647314980626106,-0.007837207056581974,-0.044227469712495804,0.006912505254149437,-0.01646285504102707
0.02453567273914814,0.01871396414935589,-0.007339588366448879,-0.041890695691108704,0.006891089957207441,-0.01714232750236988
0.02512042410671711,0.019174525514245033,-0.0068176439963281155,-0.044334687292575836,0.006375516764819622,-0.01687794364988804
0.025174804031848907,0.019006207585334778,-0.007359451148658991,-0.04328553378582001,0.006347157992422581,-0.01687534898519516
0.024164732545614243,0.01914295367896557,-0.007279577665030956,-0.04498114064335823,0.007053247652947903,-0.016461670398712158
0.023840375244617462,0.01951007731258869,-0.006908772978931665,-0.04365897551178932,0.006668453104794025,-0.016864608973264694
0.02480798214673996,0.019467761740088463,-0.007300668396055698,-0.045372068881988525,0.006751938723027706,-0.016894180327653885
0.02528676949441433,0.019357353448867798,-0.007548417896032333,-0.04628186300396919,0.006809127051383257,-0.017061825841665268
0.025262346491217613,0.01971120946109295,-0.007285996340215206,-0.04579029604792595,0.007244706153869629,-0.016920873895287514
0.025502707809209824,0.019676489755511284,-0.007140349596738815,-0.0462602861225605,0.006823814939707518,-0.01703609898686409
0.025402836501598358,0.019583800807595253,-0.007301290053874254,-0.046298205852508545,0.006823118310421705,-0.017096584662795067
0.025302065536379814,0.02008030377328396,-0.007279090583324432,-0.04628083109855652,0.006732206325978041,-0.01692734658718109
0.02553365007042885,0.020045220851898193,-0.007048189640045166,-0.04687337577342987,0.006864649243652821,-0.016828440129756927
0.02553365007042885,0.020045220851898193,-0.007048189640045166,-0.04687337577342987,0.006864649243652821,-0.016828440129756927
0.025288093835115433,0.019929349422454834,-0.00727259274572134,-0.046474020928144455,0.007316657807677984,-0.01671937108039856
0.02538141794502735,0.020625000819563866,-0.007549194619059563,-0.04661677032709122,0.006972458213567734,-0.017015868797898293
0.025586161762475967,0.02002760022878647,-0.007973219268023968,-0.047224611043930054,0.006517956964671612,-0.01713348925113678
0.02605731412768364,0.020152756944298744,-0.007442479021847248,-0.046997569501399994,0.006597994361072779,-0.017000677064061165
0.026116827502846718,0.020669568330049515,-0.007024219725281,-0.0467870831489563,0.007021409459412098,-0.016701502725481987
0.02606985531747341,0.020723747089505196,-0.007265265565365553,-0.047255195677280426,0.007225267589092255,-0.017227673903107643
0.026288853958249092,0.02069963328540325,-0.008004876784980297,-0.04751124233007431,0.0070710028521716595,-0.017190834507346153
0.02614694833755493,0.020787859335541725,-0.007523170206695795,-0.04729870706796646,0.0067663430236279964,-0.017038770020008087
0.026141008362174034,0.021336734294891357,-0.006780888885259628,-0.04698620364069939,0.007416498381644487,-0.017145119607448578
0.02615238167345524,0.020907286554574966,-0.007209488656371832,-0.04804783686995506,0.007745209150016308,-0.01735035888850689
0.026131214573979378,0.02068083919584751,-0.007768646813929081,-0.047763388603925705,0.006785758771002293,-0.017289133742451668
0.02632608450949192,0.021216444671154022,-0.007276709657162428,-0.0463259182870388,0.006528653670102358,-0.017581135034561157
0.026409192010760307,0.021071946248412132,-0.006946886889636517,-0.04649628326296806,0.006860439199954271,-0.01721804402768612
0.02657824009656906,0.02099522203207016,-0.007050476036965847,-0.047570619732141495,0.00733405165374279,-0.018770592287182808
0.026810770854353905,0.020944448187947273,-0.007779260165989399,-0.04856713116168976,0.007508378010243177,-0.016972066834568977
0.027044765651226044,0.021723726764321327,-0.0073337978683412075,-0.04750121012330055,0.007079601287841797,-0.016797689720988274
0.026569295674562454,0.02187177911400795,-0.0072187986224889755,-0.045703280717134476,0.006714593153446913,-0.017159588634967804
0.028378630056977272,0.021364562213420868,-0.007900879718363285,-0.047539301216602325,0.007052863948047161,-0.017389798536896706
0.027928033843636513,0.02197219617664814,-0.007415590807795525,-0.04711689427495003,0.006958299316465855,-0.017265791073441505
0.026827115565538406,0.02259758673608303,-0.00727840093895793,-0.04649871587753296,0.0070889787748456,-0.01697424054145813
0.0259287990629673,0.022595735266804695,-0.007604394108057022,-0.04676061496138573,0.006981455255299807,-0.017293384298682213
0.02817048877477646,0.021953698247671127,-0.0076784249395132065,-0.0473286435008049,0.006885283160954714,-0.017410943284630775
0.028162559494376183,0.02136041224002838,-0.007640865631401539,-0.04737349599599838,0.0071921441704034805,-0.01746487058699131
0.02738291025161743,0.021964196115732193,-0.0070338379591703415,-0.0472153015434742,0.007561418693512678,-0.017711637541651726
0.02784815803170204,0.022119823843240738,-0.007272279355674982,-0.04742961376905441,0.007595522794872522,-0.017362505197525024
0.028217120096087456,0.022404130548238754,-0.008078525774180889,-0.04824915528297424,0.007007069885730743,-0.0175815150141716
0.027911847457289696,0.021820634603500366,-0.008106539957225323,-0.04881490021944046,0.006935091223567724,-0.017373064532876015
0.027027908712625504,0.022412726655602455,-0.007717898581176996,-0.04919680580496788,0.007354503031820059,-0.01721687987446785
0.027027908712625504,0.022412726655602455,-0.007717898581176996,-0.04919680580496788,0.007354503031820059,-0.01721687987446785
0.02716296911239624,0.023402564227581024,-0.007817251607775688,-0.04890865087509155,0.007986164651811123,-0.01727980747818947
0.027847712859511375,0.02293289825320244,-0.007610808592289686,-0.0506645143032074,0.007653644774109125,-0.017102571204304695
0.028005115687847137,0.022347962483763695,-0.0074785202741622925,-0.050319548696279526,0.007514726836234331,-0.017346816137433052
0.02809128351509571,0.02264578826725483,-0.008071035146713257,-0.0481770783662796,0.006910071708261967,-0.01736726611852646
