davideferrari95/blind_handover_controller/data/Test 59 - [2024-02-07 -- 15-42-55]/joint_states_data.csv
shoulder_pan_joint,shoulder_lift_joint,elbow_joint,wrist_1_joint,wrist_2_joint,wrist_3_joint
0.003524073865264654,0.001009529223665595,-0.0044194962829351425,0.0031634848564863205,0.00016665742441546172,0.004169474821537733
0.003524073865264654,0.001009529223665595,-0.0044194962829351425,0.0031634848564863205,0.00016665742441546172,0.004169474821537733
0.003315540263429284,0.001188593334518373,-0.005638632457703352,0.00418110890313983,0.00016290826897602528,0.0037420184817165136
0.0038668180350214243,0.0020401899237185717,-0.006743747275322676,0.004011322744190693,0.0001593051856616512,0.0037738471291959286
0.0037597217597067356,0.00216518878005445,-0.006324562709778547,0.003339220304042101,0.00015585662913508713,0.003439202206209302
0.003312391694635153,0.0017728867242112756,-0.005121634807437658,0.0029457546770572662,0.00014938897220417857,0.003986770752817392
0.0036694398149847984,0.0015783484559506178,-0.005337108392268419,0.002997124334797263,0.0001463521912228316,0.004212762229144573
0.0037751926574856043,0.001212674775160849,-0.005680234637111425,0.0030524807516485453,0.00014343659859150648,0.0036414610221982002
0.0037396163679659367,0.0012120933970436454,-0.006287280935794115,0.003085882170125842,0.00011559625272639096,0.0032619237899780273
0.0036293480079621077,0.0016452139243483543,-0.005649273749440908,0.0031450167298316956,0.0001093701139325276,0.0030874775256961584
0.0036293480079621077,0.0016452139243483543,-0.005649273749440908,0.0031450167298316956,0.0001093701139325276,0.0030874775256961584
0.003742681350558996,0.0020658739376813173,-0.005701862741261721,0.002977675059810281,0.00010655702499207109,0.0031580468639731407
0.0038863159716129303,0.0024062437005341053,-0.005285147577524185,0.0029857235495001078,0.00010407788795419037,0.0034868824295699596
0.0034846821799874306,0.0021991997491568327,-0.0053600650280714035,0.0029957187362015247,0.00011172553058713675,0.0035541332326829433
0.00336492620408535,0.0017440714873373508,-0.005086603108793497,0.0030085197649896145,0.00011869492300320417,0.0034110378473997116
0.003433584002777934,0.0017329989932477474,-0.005241168662905693,0.0030910309869796038,0.00011674432607833296,0.0033245219383388758
0.0035967594012618065,0.0016117438208311796,-0.0055293734185397625,0.003129255026578903,0.00011431326129240915,0.003335271030664444
0.0035552282352000475,0.0017231852980330586,-0.005604754667729139,0.0030401444528251886,0.00012578607129398733,0.003510782727971673
0.003552813548594713,0.0022242707200348377,-0.005531611852347851,0.0032643056474626064,0.00012763663835357875,0.0032016157638281584
0.0036157306749373674,0.0022379225119948387,-0.005403160583227873,0.0030222940258681774,0.00012538359442260116,0.0032419227063655853
0.0037414508406072855,0.0022831615060567856,-0.005557594355195761,0.003078598529100418,0.00012295533088035882,0.0032795348670333624
0.003758738748729229,0.002147431019693613,-0.0052030435763299465,0.003049704013392329,0.00013668474275618792,0.0035685040056705475
0.0037356442771852016,0.002212629420682788,-0.005129767116159201,0.0030612749978899956,0.00013516789476852864,0.003735007718205452
0.003698834450915456,0.001995368395000696,-0.005532555282115936,0.0032252941746264696,0.00013274434604682028,0.003719544969499111
0.0037099795881658792,0.002092834794893861,-0.00526598934084177,0.0035389396362006664,0.00013056982425041497,0.0037034288980066776
0.003769256640225649,0.0023633427917957306,-0.0057478658854961395,0.0037042705807834864,0.00025877816369757056,0.0033476974349468946
0.0038568766321986914,0.002349015325307846,-0.005600049160420895,0.003739572362974286,0.00025309299235232174,0.003121469635516405
0.00383661943487823,0.002624410903081298,-0.005678026471287012,0.00328548951074481,0.0002401622332399711,0.0033207980450242758
0.003919883165508509,0.0023832363076508045,-0.005130377132445574,0.003292669076472521,0.00022802634339313954,0.003146788338199258
0.0036586199421435595,0.0024564245250076056,-0.004907876253128052,0.0033535249531269073,0.0002170279185520485,0.0032990670297294855
0.003542025573551655,0.0025947056710720062,-0.005222411826252937,0.0033725842367857695,0.0002070400514639914,0.0033488788176327944
0.0036169863305985928,0.0025281363632529974,-0.005279920529574156,0.003086402313783765,0.00023222895106300712,0.003509550355374813
0.004054361023008823,0.0027057405095547438,-0.005970395635813475,0.0028372297529131174,0.00022716281819157302,0.0037463856860995293
0.0040793949738144875,0.002810686593875289,-0.005318155977874994,0.0030897087417542934,0.00020982339628972113,0.0035812570713460445
0.0038018380291759968,0.0025859589222818613,-0.005078648217022419,0.0034624142572283745,0.00020197515550535172,0.0036677122116088867
0.0037802523002028465,0.0024540636222809553,-0.004924885928630829,0.0032942849211394787,0.00019469234393909574,0.004113831091672182
0.00399544695392251,0.0024560214951634407,-0.005313714034855366,0.0030700555071234703,0.00021109006775077432,0.004193772096186876
0.0038594254292547703,0.002357060555368662,-0.005270318128168583,0.0029715453274548054,0.00021132965048309416,0.0036629207897931337
0.0036485649179667234,0.002868561539798975,-0.005512212868779898,0.003000839613378048,0.00020493348711170256,0.0035109142772853374
0.0036036986857652664,0.003124093636870384,-0.005323749501258135,0.0032321421895176172,0.00019850648823194206,0.0032518629450351
0.0036036986857652664,0.003124093636870384,-0.005323749501258135,0.0032321421895176172,0.00019850648823194206,0.0032518629450351
0.0037434042897075415,0.0030684075318276882,-0.005425614304840565,0.0034575362224131823,0.00019244421855546534,0.00376635929569602
0.003855729941278696,0.0027576121501624584,-0.005580779165029526,0.0036277363542467356,0.00018673970771487802,0.004222166258841753
0.0038184840232133865,0.002718715462833643,-0.005215996410697699,0.0033833603374660015,0.00018136347352992743,0.00407611858099699
0.0038172737695276737,0.0026802716311067343,-0.004879805725067854,0.003535450203344226,0.000176287823705934,0.0037959294859319925
0.003792057279497385,0.0026245098561048508,-0.004672043025493622,0.0036972654052078724,0.0001943428214872256,0.003662931500002742
0.003783710300922394,0.0028054076246917248,-0.004682355094701052,0.00337043940089643,0.00019068617257289588,0.0034813545644283295
0.00426323339343071,0.002827248303219676,-0.005137542262673378,0.0034134648740291595,0.0001858607865869999,0.003383283270522952
0.004083845764398575,0.002446984639391303,-0.005657097324728966,0.003307415172457695,0.0001811897527659312,0.0035363459028303623
0.003908570855855942,0.0025518271140754223,-0.005653942935168743,0.003340371185913682,0.00017674225091468543,0.00325487507507205
0.004302705638110638,0.002511612605303526,-0.005497404839843512,0.004025180358439684,0.00017250736709684134,0.0034372888039797544
0.004182526841759682,0.002361183287575841,-0.0047449530102312565,0.004159328993409872,0.00016847065126057714,0.004056218080222607
0.004468326456844807,0.002676591044291854,-0.004963374231010675,0.003964927513152361,0.00016461907944176346,0.004123353864997625
0.004289451986551285,0.002633997006341815,-0.004926456604152918,0.0038202085997909307,0.00015577147132717073,0.003563057631254196
0.003989504650235176,0.00253362231887877,-0.004897705744951963,0.0038293807301670313,0.0001503602252341807,0.0034278982784599066
0.003958952147513628,0.0026385693345218897,-0.005200986750423908,0.003341712523251772,0.00014548486797139049,0.003402570728212595
0.0034943181090056896,0.0023915902711451054,-0.005483419168740511,0.003161743516102433,0.00014092730998527259,0.0034502900671213865
0.0035523453261703253,0.0023034762125462294,-0.005133047699928284,0.0033905094023793936,0.00013664753350894898,0.0036350253503769636
0.004071502014994621,0.0024279893841594458,-0.00509618641808629,0.004004478920251131,0.00013261997082736343,0.004084330517798662
0.004134669434279203,0.0025968581903725863,-0.004869702272117138,0.004121570847928524,0.00012882298324257135,0.004119883757084608
0.0035419799387454987,0.0024932262022048235,-0.004645002074539661,0.003858912503346801,0.00012523737677838653,0.00426214886829257
0.0037150660064071417,0.0025430587120354176,-0.005335386376827955,0.0033098170533776283,0.00014155068492982537,0.0037764408625662327
0.0038540547247976065,0.002390542533248663,-0.005373056512326002,0.003481298917904496,0.00013865063374396414,0.0037303923163563013
0.0038919025100767612,0.0024471920914947987,-0.005316147580742836,0.003734430531039834,0.0001352266117464751,0.004073734395205975
0.003887284779921174,0.002706902101635933,-0.005262147169560194,0.0038844766095280647,0.00013192590267863125,0.004221947863698006
0.0037836586125195026,0.0026034158654510975,-0.005517466459423304,0.003950284328311682,0.0001287796039832756,0.004415764473378658
0.0042134057730436325,0.00274421414360404,-0.005078957416117191,0.003966295160353184,0.00012577998859342188,0.004284033086150885
0.004193340428173542,0.0026396072935312986,-0.004569320939481258,0.0038508265279233456,0.0001229166373377666,0.004038848448544741
0.0039867316372692585,0.0025028097443282604,-0.004884765949100256,0.003795536234974861,0.00012018097913824022,0.004080560524016619
0.0039867316372692585,0.0025028097443282604,-0.004884765949100256,0.003795536234974861,0.00012018097913824022,0.004080560524016619
0.0038707363419234753,0.00273880735039711,-0.005428974516689777,0.0033753926400095224,0.00011756431922549382,0.003704488044604659
0.0034505438525229692,0.0029461062513291836,-0.005241815932095051,0.00353431049734354,0.0001244896702701226,0.00357669941149652
0.004055917263031006,0.00299590895883739,-0.005895301233977079,0.0033655844163149595,0.00013079900236334652,0.0036716365721076727
0.004185081459581852,0.0027182255871593952,-0.005258494522422552,0.0035200249403715134,0.00012870767386630177,0.0038841746281832457
0.0039421371184289455,0.0025278781540691853,-0.005083600990474224,0.0042169420048594475,0.00012616791354957968,0.003988838288933039
0.0037905052304267883,0.0025936136953532696,-0.005052986554801464,0.0041606673039495945,0.00012369309843052179,0.004311827011406422
0.003946573007851839,0.0025065788067877293,-0.004706555511802435,0.003899740520864725,0.00012131153926020488,0.004071621224284172
0.0038533832412213087,0.0030192879494279623,-0.004895501304417849,0.0033731870353221893,0.00011901965626748279,0.0037899690214544535
0.0035780167672783136,0.0031559281051158905,-0.005420704837888479,0.003407616401091218,0.00011681274918373674,0.0036467802710831165
0.0035172339994460344,0.0029016449116170406,-0.005196151323616505,0.003262361977249384,0.00011468619777588174,0.0035931486636400223
0.0036717138718813658,0.0027299171779304743,-0.005288591608405113,0.0033560816664248705,0.00011263573833275586,0.0037021904718130827
0.00405533704906702,0.0027031779754906893,-0.005093236453831196,0.003519095480442047,0.00012439623242244124,0.004225095734000206
0.003920241259038448,0.0028611719608306885,-0.005282387137413025,0.003722504246979952,0.00012414742377586663,0.004063786473125219
0.0036648104432970285,0.0032212277874350548,-0.005412538535892963,0.004233757499605417,0.00012216472532600164,0.003909687511622906
0.003443934489041567,0.0031493220012634993,-0.005191346164792776,0.004085728898644447,0.0001201345439767465,0.004387054592370987
0.0035409897100180387,0.0028174780309200287,-0.005266408436000347,0.003918651957064867,0.00011816345795523375,0.004615540616214275
0.003930304199457169,0.002670144895091653,-0.0051302011124789715,0.00385254411958158,0.00011625544721027836,0.004289052914828062
0.003903794102370739,0.0027404637075960636,-0.0054873074404895306,0.003875318681821227,0.0001144081397796981,0.0035686700139194727
0.0037426853086799383,0.00262641254812479,-0.00485442066565156,0.0038252007216215134,0.00011261869804002345,0.003560093929991126
0.0036593067925423384,0.002990924520418048,-0.006032983772456646,0.003749104915186763,0.00011088429891970009,0.003844703547656536
0.003696253290399909,0.0031139664351940155,-0.005823269486427307,0.004095763899385929,0.00010920250497292727,0.00403608288615942
0.0038425810635089874,0.0032552634365856647,-0.0053964657709002495,0.004324175883084536,0.00010757093696156517,0.004030564799904823
0.004292224533855915,0.002696629613637924,-0.004756666254252195,0.003822879632934928,0.00010444989311508834,0.004365008790045977
0.004129668697714806,0.002038555219769478,-0.005481256637722254,0.003383954521268606,0.00010295630636392161,0.004100484307855368
0.003901040880009532,0.0012308144941926003,-0.005861329380422831,0.0031505103688687086,0.00010150492016691715,0.0038889446295797825
0.003826025640591979,0.0008586110780015588,-0.005590485874563456,0.0031608573626726866,0.00010009369725594297,0.0034685588907450438
0.004295987542718649,0.0006999653996899724,-0.005001847632229328,0.003392950166016817,9.872137161437422e-05,0.004097488708794117
0.004182699602097273,0.00036686923704110086,-0.004772531799972057,0.0037007632199674845,9.818050602916628e-05,0.004097423981875181
0.003999326378107071,0.000571125652641058,-0.005204761400818825,0.004370011854916811,9.626572136767209e-05,0.004291345365345478
0.004347647074609995,0.0015751615865156054,-0.0051063490100204945,0.0041263815946877,9.426145697943866e-05,0.0046205297112464905
0.004347647074609995,0.0015751615865156054,-0.0051063490100204945,0.0041263815946877,9.426145697943866e-05,0.0046205297112464905
0.00416332995519042,0.0015805757138878107,-0.005016201175749302,0.003527882043272257,9.232808952219784e-05,0.004231683909893036
0.003969770390540361,0.001450484967790544,-0.005197379272431135,0.0033564497716724873,9.047178900800645e-05,0.003891731146723032
0.004206178709864616,0.0012090618256479502,-0.005319606978446245,0.004028606694191694,8.868878649082035e-05,0.0038295937702059746
0.004120181780308485,0.000998897012323141,-0.005487338174134493,0.0041742706671357155,8.69745563250035e-05,0.003925500903278589
0.004245773423463106,0.000809251971077174,-0.005205901339650154,0.004245802294462919,8.532538777217269e-05,0.004259455017745495
0.004447207320481539,0.0007742183515802026,-0.005734267644584179,0.004209592007100582,8.373769378522411e-05,0.004622355103492737
0.004280606284737587,0.000790281395893544,-0.005678365007042885,0.004130864515900612,8.220778545364738e-05,0.004948665387928486
0.004460601136088371,0.0008031638571992517,-0.00561992172151804,0.004055797588080168,8.073296339716762e-05,0.004808589816093445
0.004223598167300224,0.0008248551748692989,-0.005351479630917311,0.0035824335645884275,7.931004802230746e-05,0.0041842893697321415
0.00438174232840538,0.0008676288998685777,-0.005494025535881519,0.003534796182066202,7.793647819198668e-05,0.0036024039145559072
0.004530776292085648,0.0009572668932378292,-0.005910329986363649,0.0036469486076384783,7.660967094125226e-05,0.003485437948256731
0.004529723431915045,0.0011725082295015454,-0.005932891275733709,0.0038122558034956455,7.532726158387959e-05,0.004124809987843037
0.004364479798823595,0.0012267695274204016,-0.0054396698251366615,0.0034548344556242228,7.408708188449964e-05,0.004900582134723663
0.0045579602010548115,0.001018622308038175,-0.005491519346833229,0.003503041109070182,7.288708729902282e-05,0.00471506780013442
0.004464134108275175,0.0009934431873261929,-0.0053128525614738464,0.0041059828363358974,8.419497316936031e-05,0.004544658120721579
0.004337530117481947,0.0008626783965155482,-0.005144873633980751,0.0040664393454790115,8.459763921564445e-05,0.004095818847417831
0.004905207548290491,0.0008654948323965073,-0.00602215388789773,0.0035210575442761183,8.34034217405133e-05,0.004158849362283945
0.00453468831256032,0.000749685219489038,-0.005720348563045263,0.004194997251033783,8.091174822766334e-05,0.004003352951258421
0.0045802779495716095,0.0008678784943185747,-0.005605481099337339,0.0046261027455329895,7.971735612954944e-05,0.004357390571385622
0.004625228233635426,0.0013894707662984729,-0.005317831877619028,0.004440671298652887,7.855764852138236e-05,0.004581889603286982
0.004710493143647909,0.0013849901733919978,-0.006472790613770485,0.004495325498282909,7.74311920395121e-05,0.004660408012568951
0.004743304569274187,0.0013110273284837604,-0.005927083548158407,0.004233706276863813,7.633666973561049e-05,0.004343333654105663
0.004844720009714365,0.0012361413100734353,-0.005733186844736338,0.004051012918353081,7.52725318307057e-05,0.004301904235035181
0.0050033023580908775,0.0011790324933826923,-0.005979288835078478,0.003933515399694443,7.423770148307085e-05,0.004388704895973206
0.0050033023580908775,0.0011790324933826923,-0.005979288835078478,0.003933515399694443,7.423770148307085e-05,0.004388704895973206
0.00487805251032114,0.0012327841250225902,-0.006048952229321003,0.0041137756779789925,7.323099271161482e-05,0.00437561608850956
0.004684060346335173,0.0011956836096942425,-0.006588703487068415,0.004122717771679163,7.225119043141603e-05,0.004521473776549101
0.005192069802433252,0.0013045619707554579,-0.006049741059541702,0.0038652520161122084,7.12972178007476e-05,0.004808125086128712
0.005205454770475626,0.001271525863558054,-0.005800314247608185,0.0037837340496480465,7.036817987682298e-05,0.004623632878065109
0.005078914575278759,0.001511885435320437,-0.006176778580993414,0.004272313788533211,6.94629707140848e-05,0.004489119164645672
0.005056551191955805,0.0014497664524242282,-0.005900248419493437,0.004477892071008682,6.858081906102598e-05,0.004171223379671574
0.00505006592720747,0.0013470550766214728,-0.006836420390754938,0.004335377365350723,6.772082269890234e-05,0.004400501027703285
0.005091644823551178,0.0012313815532252192,-0.006893798243254423,0.003997910767793655,6.688200664939359e-05,0.004558655433356762
0.005390759091824293,0.0012879387941211462,-0.005819802172482014,0.003964378498494625,6.606376700801775e-05,0.004667490255087614
0.005207892041653395,0.001257610390894115,-0.005868417676538229,0.0042473445646464825,6.526531797135249e-05,0.004625391680747271
0.005415642634034157,0.0011975417146459222,-0.005971790757030249,0.004355900455266237,6.448596104746684e-05,0.004636844620108604
0.005081763491034508,0.0013174006016924977,-0.006123630795627832,0.0043852017261087894,6.372498319251463e-05,0.00437468197196722
0.004819175228476524,0.001286026556044817,-0.006491294130682945,0.00410899193957448,6.29817513981834e-05,0.004318599589169025
0.005123812239617109,0.0015235019382089376,-0.005948076024651527,0.0038057896308600903,6.996487354626879e-05,0.004842240829020739
0.005099904257804155,0.0015691496664658189,-0.006095784716308117,0.0037408701609820127,7.162967813201249e-05,0.004885628819465637
0.005170144606381655,0.001458098297007382,-0.006585136987268925,0.003860206576064229,7.098330388544127e-05,0.004624316468834877
0.0052813696675002575,0.0014855103800073266,-0.006827768869698048,0.004296922590583563,7.020279736025259e-05,0.004621410276740789
0.004957403056323528,0.0012854022206738591,-0.005905211437493563,0.004633907228708267,2.297907940373989e-06,0.004884074907749891
0.005071533378213644,0.00138863327447325,-0.005763585679233074,0.004391275346279144,1.5003696773874253e-07,0.0044666072353720665
0.005126965697854757,0.0016084425151348114,-0.0062912264838814735,0.004400765988975763,9.796341515766471e-09,0.004419498611241579
0.00602919515222311,0.0019500128692016006,-0.006622518412768841,0.004492082633078098,6.396311258427545e-10,0.005015830509364605
0.005385029595345259,0.0018759729573503137,-0.006396974436938763,0.004172624554485083,4.176334625349831e-11,0.005133120343089104
0.005385029595345259,0.0018759729573503137,-0.006396974436938763,0.004172624554485083,4.176334625349831e-11,0.005133120343089104
0.005447622388601303,0.0018610376864671707,-0.006013402249664068,0.003914941102266312,2.726847610559635e-12,0.004843577742576599
0.005136266816407442,0.0017237855354323983,-0.00596791272982955,0.004315192345529795,1.7804366921753134e-13,0.004726058337837458
0.005322728306055069,0.001751671894453466,-0.005984057206660509,0.004567643627524376,1.1624979170748399e-14,0.00475980993360281
0.005653265863656998,0.0016148914583027363,-0.0061891451478004456,0.004649391397833824,7.590280239795914e-16,0.004919671919196844
0.005515024997293949,0.0016173679614439607,-0.006157850380986929,0.004340851679444313,4.955910365046106e-17,0.004891902673989534
0.005593707785010338,0.0016690082848072052,-0.006018446292728186,0.004336113575845957,3.2358556964620082e-18,0.005208214744925499
0.005398925393819809,0.001889577484689653,-0.0061619896441698074,0.004105579107999802,2.1127823941374705e-19,0.005139530170708895
0.005327312275767326,0.0018973208498209715,-0.007139742374420166,0.004411331377923489,1.3794958930206466e-20,0.004952560644596815
0.005265731830149889,0.002026399364694953,-0.006322440691292286,0.00466493982821703,9.007121424424293e-22,0.0053163133561611176
0.005878799129277468,0.0019883112981915474,-0.00581387709826231,0.0047763679176568985,5.881006642254405e-23,0.005195824895054102
0.005835332907736301,0.001974184298887849,-0.005617260467261076,0.0048116412945091724,3.8398770916241645e-24,0.004984946455806494
0.005741707049310207,0.001940893940627575,-0.005763879045844078,0.004801738541573286,2.507165371063439e-25,0.005304746329784393
0.0054654586128890514,0.0020102141425013542,-0.0067756688222289085,0.00472849328070879,1.636999777088725e-26,0.005295536480844021
0.005645211320370436,0.0019729561172425747,-0.006931066978722811,0.004284819588065147,1.0688439338512784e-27,0.005065152421593666
0.0056495931930840015,0.001999461790546775,-0.00622726883739233,0.004359911195933819,6.97878650571322e-29,0.005196281708776951
0.005717276129871607,0.0019604803528636694,-0.006229770835489035,0.0050173052586615086,4.556648685708289e-30,0.005042459815740585
0.005979325622320175,0.001964145340025425,-0.006786259822547436,0.005223212763667107,2.9751658575809224e-31,0.005429965443909168
0.005373604595661163,0.001991712022572756,-0.006654635537415743,0.005289219319820404,1.9425708301646516e-32,0.005322366487234831
0.00499424384906888,0.0020612687803804874,-0.0062579442746937275,0.004941144026815891,1.2683598739051867e-33,0.005107568111270666
0.00590403052046895,0.0020531935151666403,-0.006275064777582884,0.004729979671537876,8.281484549322084e-35,0.004949697759002447
0.005874606780707836,0.002208145335316658,-0.005595480091869831,0.004266471602022648,5.4072176927946444e-36,0.005165460519492626
0.005810826551169157,0.002087965374812484,-0.006992059294134378,0.0046492633409798145,2.3051817962741075e-38,0.005321299657225609
0.005440189503133297,0.0019207416335120797,-0.006429314147680998,0.004941270686686039,1.5051192662481784e-39,0.005395430140197277
0.005561199504882097,0.0018453149823471904,-0.006048040930181742,0.004679108504205942,9.827306130309942e-41,0.0052752201445400715
0.005978510715067387,0.0017656516283750534,-0.006201366428285837,0.005017036106437445,6.416545668143337e-42,0.004741600714623928
0.00600923178717494,0.002147832652553916,-0.006231862585991621,0.005334681365638971,4.189882408331203e-43,0.004681705962866545
0.006141167599707842,0.0023172132205218077,-0.006398196332156658,0.005103704985231161,2.802596928649634e-44,0.0050581363029778
0.005809386260807514,0.002269915072247386,-0.006183813791722059,0.005415015853941441,1.401298464324817e-45,0.0053935581818223
0.006217027548700571,0.0024013367947191,-0.0059576560743153095,0.005219753365963697,0.0,0.006204495206475258
0.006217027548700571,0.0024013367947191,-0.0059576560743153095,0.005219753365963697,0.0,0.006204495206475258
0.006237961817532778,0.0021521253511309624,-0.006327246781438589,0.005028102546930313,0.0,0.005755104590207338
0.0061326418071985245,0.0021987094078212976,-0.006395607255399227,0.005136964377015829,0.0,0.005181251559406519
0.0059080347418785095,0.002380800200626254,-0.00613724160939455,0.005050147417932749,0.0,0.004949372261762619
0.005800558719784021,0.0022954721935093403,-0.00607306370511651,0.0047526792623102665,0.0,0.005622938275337219
0.006139733828604221,0.002427513711154461,-0.0062960060313344,0.0049517531879246235,0.0,0.0059332833625376225
0.006294595077633858,0.0023667216300964355,-0.006039327941834927,0.004843500442802906,0.0,0.006057737860828638
0.006253605242818594,0.0024746067356318235,-0.006425032392144203,0.004858641419559717,0.0,0.005427777301520109
0.006034875754266977,0.0023045705165714025,-0.006393035873770714,0.0047345468774437904,0.0,0.0053969318978488445
0.006184443831443787,0.0021614034194499254,-0.006256741471588612,0.004933771677315235,0.0,0.005534323863685131
0.005962362978607416,0.002127955202013254,-0.0062806447967886925,0.004865170456469059,0.0,0.006046944297850132
0.0063303569331765175,0.0021291514858603477,-0.0065182289108633995,0.004938087426126003,0.0,0.005755619611591101
0.006070826202630997,0.002556614112108946,-0.006686243694275618,0.005377074703574181,0.0,0.005346463993191719
0.005911422427743673,0.002437726827338338,-0.006169564556330442,0.005102095659822226,0.0,0.0054369173012673855
0.005932913161814213,0.002350602997466922,-0.006085388828068972,0.0047837733291089535,0.0,0.00552878063172102
0.0064214738085865974,0.002371136099100113,-0.005890033673495054,0.0047369832172989845,0.0,0.005814908538013697
0.006189114414155483,0.0022263869177550077,-0.006119898054748774,0.00464283162727952,0.0,0.0058998363092541695
0.00645291805267334,0.0023505708668380976,-0.006729464512318373,0.004615422338247299,0.0,0.0054612429812550545
0.00606913398951292,0.0021749832667410374,-0.0060513438656926155,0.005606538616120815,0.0,0.005223454441875219
0.006655523087829351,0.0023157172836363316,-0.006267661694437265,0.00532107288017869,0.0,0.005611032713204622
0.006655523087829351,0.0023157172836363316,-0.006267661694437265,0.00532107288017869,0.0,0.005611032713204622
0.006760725751519203,0.0020993773359805346,-0.006854131817817688,0.004937108140438795,0.0,0.005897235125303268
0.006397452671080828,0.002145914826542139,-0.0061610788106918335,0.004800599999725819,0.0,0.00599805498495698
0.006322929635643959,0.0022967045661062002,-0.005651162471622229,0.004938052035868168,0.0,0.005684785544872284
0.006414494942873716,0.002277255291119218,-0.005762763321399689,0.005202672444283962,0.0,0.005835627671331167
0.0064351605251431465,0.0024841204285621643,-0.006132042035460472,0.005228298716247082,0.0,0.005474810488522053
0.006417062599211931,0.0022054710425436497,-0.006925733294337988,0.004733319394290447,0.0,0.005909984465688467
0.006526700221002102,0.002170123625546694,-0.006774710025638342,0.004599918145686388,0.0,0.006203808356076479
0.006513866595923901,0.0019917115569114685,-0.0057324995286762714,0.004826704505831003,0.0,0.005978840868920088
0.006284581031650305,0.002052957657724619,-0.005828889086842537,0.005148701369762421,0.0,0.00613067764788866
0.006461868993937969,0.002356019103899598,-0.006622739136219025,0.005666024517267942,0.0,0.006073717959225178
0.006851624697446823,0.0022201784886419773,-0.006446078419685364,0.005008039530366659,0.0,0.006050463765859604
0.006933595985174179,0.002219829009845853,-0.006184901110827923,0.004471659194678068,0.0,0.006414229515939951
0.006829228717833757,0.00210405420511961,-0.006475707050412893,0.004580527078360319,0.0,0.00615704758092761
0.006663536187261343,0.0021950858645141125,-0.006280591711401939,0.005056907422840595,0.0,0.00596914766356349
0.006790307350456715,0.0020001144148409367,-0.006377695593982935,0.005231541581451893,0.0,0.006018583197146654
0.006599593907594681,0.0021085350308567286,-0.006693398114293814,0.0056412434205412865,0.0,0.006073336582630873
0.006549036130309105,0.0019409756641834974,-0.005796958692371845,0.005396039690822363,0.0,0.00620406586676836
0.008008255623281002,0.001987009309232235,-0.005922792013734579,0.00506734661757946,0.0,0.006292067002505064
0.0068403566256165504,0.0020128346513956785,-0.005997358355671167,0.005102239549160004,0.0,0.006124272011220455
0.0061087277717888355,0.0020222049206495285,-0.006251797080039978,0.005017538089305162,0.0,0.0062342858873307705
0.006408331450074911,0.0022692778147757053,-0.006732250563800335,0.004841553047299385,0.0,0.006502159871160984
0.007247024681419134,0.0024300471413880587,-0.005755473859608173,0.005325848702341318,0.0,0.006365218199789524
0.007303523365408182,0.002188078360632062,-0.00561901880428195,0.005170108284801245,0.0,0.006285080220550299
0.007303523365408182,0.002188078360632062,-0.00561901880428195,0.005170108284801245,0.0,0.006285080220550299
0.00689606973901391,0.0022490830160677433,-0.005800735205411911,0.005532434210181236,0.0,0.0064719500951468945
0.006649641785770655,0.002079302677884698,-0.006299611181020737,0.0053101046942174435,0.0,0.0062128412537276745
0.006998853292316198,0.0017703738994896412,-0.006094244308769703,0.005432224366813898,0.0,0.006414616480469704
0.007145364303141832,0.001554321963340044,-0.0060436618514359,0.005486706271767616,0.0,0.006084281485527754
0.0066867186687886715,0.0014186115004122257,-0.006140805780887604,0.005597053095698357,0.0,0.006197734735906124
0.0067173512652516365,0.0011862225364893675,-0.006772755179554224,0.0053310878574848175,0.0,0.006900005973875523
0.0073027596808969975,0.0012900193687528372,-0.006664424203336239,0.005234713200479746,0.0,0.006999479606747627
0.006971361115574837,0.0018873793305829167,-0.006085149012506008,0.005568919703364372,0.0,0.006882102228701115
0.007271376438438892,0.0019248554017394781,-0.006209997925907373,0.00607359129935503,0.0,0.006485083140432835
0.0068477727472782135,0.0020301577169448137,-0.006888763513416052,0.005599127151072025,0.0,0.006933090277016163
0.007049490697681904,0.0018885746831074357,-0.006697747390717268,0.005364859011024237,0.0,0.006950834766030312
0.0072821578942239285,0.0015388877363875508,-0.006449720822274685,0.005270854104310274,0.0,0.006898981519043446
0.007323880214244127,0.0013681384734809399,-0.006600940600037575,0.004993321839720011,0.0,0.00699112331494689
0.006988022476434708,0.001395112369209528,-0.006165807601064444,0.0054475669749081135,0.0,0.006979187950491905
0.007256058044731617,0.0015322465915232897,-0.006209503393620253,0.005806462373584509,0.0,0.007194182835519314
0.006989818997681141,0.0014744991203770041,-0.006745177786797285,0.005584060680121183,0.0,0.006746555212885141
0.006954988464713097,0.0016152068274095654,-0.00636266777291894,0.005070502869784832,0.0,0.006711158435791731
0.006862792186439037,0.0017544811125844717,-0.006144776940345764,0.005036703310906887,0.0,0.00677188066765666
0.0072080111131072044,0.001618544920347631,-0.006165274418890476,0.005515326280146837,0.0,0.007172123994678259
0.007664124481379986,0.0016481125494465232,-0.006785542704164982,0.005357572343200445,0.0,0.00711887888610363
0.007367949467152357,0.0016161430394276977,-0.007278698496520519,0.005542455241084099,0.0,0.006712632719427347
0.007050912361592054,0.0014480974059551954,-0.007251971401274204,0.005198557861149311,0.0,0.007009678985923529
0.007381140720099211,0.001540873316116631,-0.007186355069279671,0.005497829522937536,0.0,0.007660457864403725
0.0073809376917779446,0.0017865921836346388,-0.007249654736369848,0.005747058428823948,0.0,0.0069534447975456715
0.0070354631170630455,0.0016890737460926175,-0.006602668669074774,0.005733376834541559,0.0,0.0075624557211995125
0.0070354631170630455,0.0016890737460926175,-0.006602668669074774,0.005733376834541559,0.0,0.0075624557211995125
0.007034217938780785,0.0017044063424691558,-0.00717252679169178,0.005662492010742426,0.0,0.007555114571005106
0.007367277517914772,0.0017081316327676177,-0.00845409370958805,0.005240910686552525,0.0,0.007020187098532915
0.007665179669857025,0.0014714085264131427,-0.007859858684241772,0.005246118642389774,0.0,0.006890656892210245
0.007294744718819857,0.0014856584602966905,-0.007372634019702673,0.00498947175219655,0.0,0.007168778218328953
0.0073646921664476395,0.0014271666295826435,-0.006917121820151806,0.006558107677847147,0.0,0.007399567868560553
0.007500164210796356,0.0015269169816747308,-0.008121252991259098,0.0066011082381010056,0.0,0.007447157986462116
0.007516964804381132,0.0015922385500743985,-0.007921257987618446,0.005667408928275108,0.0,0.007485932670533657
0.006986015476286411,0.0018293493194505572,-0.00752687081694603,0.005319652613252401,0.0,0.007143995724618435
0.00737617164850235,0.0017786744283512235,-0.007461128756403923,0.005720883142203093,0.0,0.007140051107853651
0.007882893085479736,0.0016027983510866761,-0.007638243958353996,0.006212994456291199,0.0,0.007954411208629608
0.007885429076850414,0.0016438812017440796,-0.007411022670567036,0.005815949756652117,0.0,0.007731263060122728
0.007497348356992006,0.0015195487067103386,-0.007196353282779455,0.005718955770134926,0.0,0.007528568152338266
0.008319410495460033,0.001509929890744388,-0.007181203458458185,0.005374899599701166,0.0,0.007659329101443291
0.008539438247680664,0.0013928643893450499,-0.007879986427724361,0.005777593702077866,0.0,0.007723588962107897
0.007938141003251076,0.0014389401767402887,-0.007490670308470726,0.006028910633176565,0.0,0.007549438625574112
0.007580472156405449,0.0015169343678280711,-0.007212976459413767,0.006110202055424452,0.0,0.007529334165155888
0.008270586840808392,0.001451887539587915,-0.007396406028419733,0.005554221570491791,0.0,0.007503790315240622
0.008375519886612892,0.0016224023420363665,-0.00810006819665432,0.005248193629086018,0.0,0.00784010998904705
0.008071664720773697,0.0016160563100129366,-0.007679005619138479,0.005102427676320076,0.0,0.007717220578342676
0.00835317000746727,0.0015258492203429341,-0.007226879242807627,0.0057591637596488,0.0,0.007395685184746981
0.008051304146647453,0.0015851533971726894,-0.007367686368525028,0.005866733379662037,0.0,0.007598274853080511
0.008135806769132614,0.0015047723427414894,-0.008766698651015759,0.005537617485970259,0.0,0.007577864453196526
0.007767109666019678,0.001607552170753479,-0.008089704439043999,0.005141856614500284,0.0,0.007702996954321861
0.0086520342156291,0.0014750085538253188,-0.008076227270066738,0.006084692198783159,0.0,0.008209474384784698
0.008240487426519394,0.0015338970115408301,-0.008411315269768238,0.0062614013440907,0.0,0.00788315013051033
0.008201763965189457,0.0014754000585526228,-0.008338488638401031,0.005563853774219751,0.0,0.008059867657721043
0.008201763965189457,0.0014754000585526228,-0.008338488638401031,0.005563853774219751,0.0,0.008059867657721043
0.009186730720102787,0.0016658183885738254,-0.0077341157011687756,0.005559519398957491,0.0,0.0077093965373933315
0.008335152640938759,0.001699176267720759,-0.008182835765182972,0.00557493232190609,0.0,0.008258002810180187
0.008010742254555225,0.0018149776151403785,-0.007758717518299818,0.006300813052803278,0.0,0.008084132336080074
0.00834480207413435,0.0017650183290243149,-0.007770103868097067,0.006412772927433252,0.0,0.00818304531276226
0.008842863142490387,0.0018116510473191738,-0.007496169302612543,0.0059068454429507256,0.0,0.008307110518217087
0.008810271508991718,0.0016513782320544124,-0.008258920162916183,0.005919808056205511,0.0,0.008049719966948032
0.008504959754645824,0.0016954210586845875,-0.008252573199570179,0.005917556118220091,0.0,0.00813120324164629
0.008918078616261482,0.0019454946741461754,-0.007855056785047054,0.006816186476498842,0.0,0.008129175752401352
0.009146280586719513,0.0021552147809416056,-0.007832139730453491,0.006563951261341572,0.0,0.007722256239503622
0.008499500341713428,0.0021583889611065388,-0.008197108283638954,0.0061635361053049564,0.0,0.008014056831598282
0.008969674818217754,0.0021295673213899136,-0.007928740233182907,0.0058802529238164425,0.0,0.008235038258135319
0.009248045273125172,0.0020634508691728115,-0.00807926431298256,0.005923388060182333,0.0,0.00869123637676239
0.008574680425226688,0.0018898876151069999,-0.00781530886888504,0.006475879345089197,0.0,0.008621590211987495
0.009234975092113018,0.0018658714834600687,-0.008021841756999493,0.006584088318049908,0.0,0.008539943024516106
0.00897611677646637,0.001770113711245358,-0.008178617805242538,0.005874537397176027,0.0,0.00841018371284008
0.008749619126319885,0.0017815534956753254,-0.007740885950624943,0.005764879751950502,0.0,0.008747260086238384
0.008848175406455994,0.002023549284785986,-0.008699496276676655,0.005875997245311737,0.0,0.008503376506268978
0.009231275878846645,0.002018338767811656,-0.008104054257273674,0.006652606185525656,0.0,0.008331293240189552
0.009057673625648022,0.0022126624826341867,-0.0077747474424541,0.00694566685706377,0.0,0.008785896934568882
0.008615519851446152,0.0021431504283100367,-0.007910777814686298,0.006453198380768299,0.0,0.008709603920578957
0.009449368342757225,0.002108739223331213,-0.008476083166897297,0.005880407989025116,0.0,0.008088045753538609
0.009258128702640533,0.002172808861359954,-0.008028395473957062,0.00682530552148819,0.0,0.009045138955116272
0.008938758634030819,0.0022494615986943245,-0.007995514199137688,0.006336180958896875,0.0,0.008790059015154839
0.009656106121838093,0.002241304377093911,-0.00791460182517767,0.00614103814586997,0.0,0.008673028089106083
0.009131639264523983,0.0023571867495775223,-0.007887673564255238,0.006375440862029791,0.0,0.008651751093566418
0.009862412698566914,0.0021119031589478254,-0.008313624188303947,0.006037593353539705,0.0,0.009116780944168568
0.009862412698566914,0.0021119031589478254,-0.008313624188303947,0.006037593353539705,0.0,0.009116780944168568
0.009538622573018074,0.0022410356905311346,-0.008607052266597748,0.0061212400905787945,3.1782892619958147e-06,0.00923149660229683
0.009226656518876553,0.002169146900996566,-0.0076758768409490585,0.006508686579763889,2.0751959084464033e-07,0.008882274851202965
0.009966421872377396,0.002077825367450714,-0.007375527638942003,0.00623423233628273,1.354954637378114e-08,0.00878710113465786
0.009908749721944332,0.00214466848410666,-0.008054524660110474,0.006038885097950697,8.846885446445185e-10,0.008654785342514515
0.009224358014762402,0.0020682448521256447,-0.008095471188426018,0.006504288874566555,5.776383538158569e-11,0.008745771832764149
0.009958215057849884,0.0022993970196694136,-0.007533358875662088,0.006215173285454512,3.771565525167997e-12,0.008986313827335835
0.009706912562251091,0.002234169514849782,-0.008102941326797009,0.005961839575320482,2.4625627600451117e-13,0.008420748636126518
0.0093381367623806,0.0023724446073174477,-0.008735397830605507,0.00610343785956502,1.6078775816200444e-14,0.008471383713185787
0.00989202968776226,0.0022861321922391653,-0.008083617314696312,0.006367984227836132,1.0498290460903329e-15,0.008801552467048168
0.009757928550243378,0.002229820005595684,-0.007564378436654806,0.006657611578702927,6.854633316245637e-17,0.00905691273510456
0.009350231848657131,0.002390465931966901,-0.007493114564567804,0.006735580507665873,4.4755851949003455e-18,0.009226208552718163
0.009987234137952328,0.0023003488313406706,-0.008326529525220394,0.006666636560112238,2.9222375601392525e-19,0.009332011453807354
0.010222901590168476,0.0024400416295975447,-0.008785957470536232,0.006638981401920319,1.9080121209776066e-20,0.009586487896740437
0.00947362370789051,0.0026107188314199448,-0.00788807775825262,0.00650975713506341,1.2457955967643393e-21,0.009484874084591866
0.009839284233748913,0.002335082506760955,-0.007700286339968443,0.0066100675612688065,8.13415431519028e-23,0.009661770425736904
0.00975890178233385,0.0025001619942486286,-0.008357380516827106,0.006696614436805248,5.3110218216185664e-24,0.009554214775562286
0.009528986178338528,0.002356639364734292,-0.007793871685862541,0.00601156335324049,3.467717661482245e-25,0.00880175270140171
0.010093716904520988,0.0022738126572221518,-0.007578252349048853,0.0060347579419612885,2.2641719301306286e-26,0.009404037147760391
0.01033717766404152,0.0023605755995959044,-0.007961242459714413,0.006601243279874325,1.4783426697536756e-27,0.009797083213925362
0.00961941946297884,0.0022731455974280834,-0.008431045338511467,0.006889910902827978,9.652520741878885e-29,0.009486409835517406
0.010312424972653389,0.0024076011031866074,-0.00830786395817995,0.006539369933307171,6.3024060030071376e-30,0.009408853948116302
0.010283446870744228,0.0023375507444143295,-0.007536826655268669,0.006339161191135645,4.115020630279499e-31,0.009919165633618832
0.010056783445179462,0.0023056454956531525,-0.008135088719427586,0.006757751107215881,2.6868145072366435e-32,0.009501160122454166
0.009629810228943825,0.0025399490259587765,-0.008045312948524952,0.007303314749151468,1.1454311975943777e-34,0.009492568671703339
0.009657936170697212,0.0024261819198727608,-0.0075396038591861725,0.006764456629753113,7.478846761183086e-36,0.009473706595599651
0.010126209817826748,0.0024165729992091656,-0.007913720794022083,0.006508828606456518,4.883152963299863e-37,0.009276125580072403
0.010183950886130333,0.002223701449111104,-0.00809965468943119,0.006827614735811949,3.188350013284977e-38,0.009697993285953999
0.009548990055918694,0.00234300852753222,-0.008208097890019417,0.007111300248652697,2.0817647947055553e-39,0.00980543065816164
0.010144299827516079,0.0022484164219349623,-0.007728259079158306,0.006903560366481543,1.3592454974104293e-40,0.009847204200923443
0.010086635127663612,0.001949863275513053,-0.008091423660516739,0.006405588239431381,8.874423174569067e-42,0.010116218589246273
0.010167301632463932,0.001728702336549759,-0.007613237015902996,0.006694571115076542,5.801375642304743e-43,0.010098232887685299
0.010167301632463932,0.001728702336549759,-0.007613237015902996,0.006694571115076542,5.801375642304743e-43,0.010098232887685299
0.010151124559342861,0.0016739959828555584,-0.007238301914185286,0.007116202265024185,3.783505853677006e-44,0.009808474220335484
0.009920093230903149,0.0015951506793498993,-0.007955188862979412,0.00711849145591259,2.802596928649634e-45,0.009939450770616531
0.00999756995588541,0.0018557702424004674,-0.008201668038964272,0.006966654676944017,0.0,0.010102213360369205
0.01046126801520586,0.0020288166124373674,-0.008165796287357807,0.007412444334477186,0.0,0.009692174382507801
0.010603844188153744,0.002087616827338934,-0.00780140608549118,0.00779326818883419,0.0,0.009479076601564884
0.00983822625130415,0.0022658677771687508,-0.008002083748579025,0.007328683976083994,0.0,0.009645868092775345
0.010260316543281078,0.0021918038837611675,-0.007850452326238155,0.007147365249693394,0.0,0.00982132088392973
0.010435294359922409,0.0018710714066401124,-0.007944227196276188,0.0074987756088376045,-0.0003162622742820531,0.010408538393676281
0.010211541317403316,0.0018400863045826554,-0.007959478534758091,0.007648102007806301,-0.0003616505127865821,0.010172300972044468
0.011925208382308483,0.0020342275965958834,-0.00915671419352293,0.007537216879427433,-0.00033903622534126043,0.010346721857786179
0.012365894392132759,0.0020249872468411922,-0.008048671297729015,0.007414219435304403,-0.0003461883752606809,0.010122169740498066
0.012725159525871277,0.0022273834329098463,-0.007785593159496784,0.006953002419322729,-0.0003517354198265821,0.009738418273627758
0.011514297686517239,0.0021881163120269775,-0.00793764553964138,0.006994450464844704,-0.00033194563002325594,0.009924265556037426
0.011564287357032299,0.0022166764829307795,-0.008706586435437202,0.007124681491404772,-0.000357926357537508,0.010589043609797955
0.012167254462838173,0.0019499186892062426,-0.008382776752114296,0.007102489471435547,-0.0003808553155977279,0.010743755847215652
0.011928235180675983,0.0017663473263382912,-0.00773035641759634,0.006765278987586498,-0.00037291477201506495,0.010134483687579632
0.011972598731517792,0.0018107574433088303,-0.00914198812097311,0.007589756976813078,-0.0004317956045269966,0.009922917932271957
0.012198638170957565,0.0018882061121985316,-0.008115420117974281,0.0074052950367331505,-0.0003949196543544531,0.010676523670554161
0.012773963622748852,0.0022937501780688763,-0.008268766105175018,0.007297401316463947,-0.00041637185495346785,0.011006063781678677
0.012773963622748852,0.0022937501780688763,-0.008268766105175018,0.007297401316463947,-0.00041637185495346785,0.011006063781678677
0.012878661043941975,0.0021854033693671227,-0.00851849839091301,0.007670170161873102,-0.0003750510804820806,0.010686648078262806
0.012878661043941975,0.0021854033693671227,-0.00851849839091301,0.007670170161873102,-0.0003750510804820806,0.010686648078262806
0.0127906184643507,0.0019898274913430214,-0.008351625874638557,0.007806255482137203,-0.0003822757862508297,0.010438758879899979
0.012499253265559673,0.001888538827188313,-0.007824050262570381,0.008014417253434658,-0.00036201387410983443,0.010791847482323647
0.012725175358355045,0.0019056802848353982,-0.00863651279360056,0.00786058884114027,-0.00034243945265188813,0.010804882273077965
0.012725175358355045,0.0019056802848353982,-0.00863651279360056,0.00786058884114027,-0.00034243945265188813,0.010804882273077965
0.0122150219976902,0.0018911665538325906,-0.009204134345054626,0.0071461861953139305,-0.00034742301795631647,0.010539994575083256
0.011990985833108425,0.0019387745996937156,-0.009462764486670494,0.007490873336791992,-0.00035143052809871733,0.010765179991722107
0.012887152843177319,0.0019407998770475388,-0.009592686779797077,0.00774972140789032,-0.0003363800351507962,0.010393267497420311
0.011975996196269989,0.0021547991782426834,-0.009095569141209126,0.007616300601512194,-0.0003214480821043253,0.010337227955460548
0.012186835519969463,0.0022164436522871256,-0.009463770315051079,0.007971331477165222,-0.0003053666150663048,0.010717285796999931
0.012103433720767498,0.0019426383078098297,-0.009214435704052448,0.008076920174062252,-0.0002863664412871003,0.010358850471675396
0.012414807453751564,0.001800229074433446,-0.009159897454082966,0.00799245573580265,-0.00026925269048660994,0.010668948292732239
0.012904662638902664,0.0018166734371334314,-0.009484313428401947,0.007712147664278746,-0.00030134126427583396,0.011001582257449627
0.012354262173175812,0.0018274668836966157,-0.009197050705552101,0.007616306655108929,-0.0002883302513509989,0.010926020331680775
0.012423209846019745,0.0020812752190977335,-0.009228255599737167,0.0076363664120435715,-0.00027390263858251274,0.01101122796535492
0.011825675144791603,0.0022103749215602875,-0.009746946394443512,0.00815843790769577,-0.0002927590685430914,0.01017888356000185
0.012179923243820667,0.0021919324062764645,-0.009164129383862019,0.007218201644718647,-0.00028938453760929406,0.010054238140583038
0.012761958874762058,0.002354420954361558,-0.008808622136712074,0.007897716015577316,-0.0002773040905594826,0.010651587508618832
0.012452279217541218,0.0022467889357358217,-0.010097883641719818,0.008477642200887203,-0.00026565141160972416,0.010827704332768917
0.013350163586437702,0.002160316100344062,-0.009628928266465664,0.007943990640342236,-0.00025490287225693464,0.01110541820526123
0.012592443265020847,0.0022234078496694565,-0.009188512340188026,0.0074271224439144135,-0.00024498903076164424,0.010585431009531021
0.012229803949594498,0.0021321650128811598,-0.00928430538624525,0.0076547772623598576,-0.0002596303529571742,0.010585399344563484
0.012640340253710747,0.0021174270659685135,-0.009132382459938526,0.007933927699923515,-0.0002507230965420604,0.01050477009266615
0.012640340253710747,0.0021174270659685135,-0.009132382459938526,0.007933927699923515,-0.0002507230965420604,0.01050477009266615
0.012605758383870125,0.002050969749689102,-0.009858346544206142,0.007064321078360081,-0.00023505697026848793,0.010478377342224121
0.012876543216407299,0.0021575409919023514,-0.009512375108897686,0.0077712154015898705,-0.00025399154401384294,0.010728633031249046
0.012706981040537357,0.0019323554588481784,-0.00957220233976841,0.008272461593151093,-0.0002424137492198497,0.01067485474050045
0.012740899808704853,0.0020488507580012083,-0.00961466133594513,0.0078404750674963,-0.00023014894395601004,0.010935141704976559
0.012216443195939064,0.0021198312751948833,-0.009077506139874458,0.007589653600007296,-0.0002512780192773789,0.010809081606566906
0.012834426015615463,0.0023309895768761635,-0.009474431164562702,0.00810797605663538,-0.0002498072572052479,0.011161761358380318
0.012455379590392113,0.0026099281385540962,-0.01057512778788805,0.007782973814755678,-0.00023939200036693364,0.011401433497667313
0.01271767821162939,0.0023004324175417423,-0.009371318854391575,0.007127163931727409,-0.00026487561990506947,0.011043933220207691
0.01271767821162939,0.0023004324175417423,-0.009371318854391575,0.007127163931727409,-0.00026487561990506947,0.011043933220207691
0.01267283596098423,0.0023793051950633526,-0.009662944823503494,0.008081618696451187,-0.00027707000845111907,0.011356636881828308
0.01267283596098423,0.0023793051950633526,-0.009662944823503494,0.008081618696451187,-0.00027707000845111907,0.011356636881828308
0.012107862159609795,0.0025092321448028088,-0.0099761001765728,0.007886496372520924,-0.00037026251084171236,0.011851155199110508
0.012107862159609795,0.0025092321448028088,-0.0099761001765728,0.007886496372520924,-0.00037026251084171236,0.011851155199110508
0.01250207144767046,0.002422128804028034,-0.010127943009138107,0.008245839737355709,-0.0003751373151317239,0.011541597545146942
0.0125310393050313,0.0026100855320692062,-0.009479892440140247,0.008553125895559788,-0.00038220296846702695,0.011434784159064293
0.012912618927657604,0.0026289895176887512,-0.009714911691844463,0.00811399519443512,-0.0003858630661852658,0.011359930038452148
0.012427096255123615,0.0022630521561950445,-0.009638781659305096,0.007593435700982809,-0.0003620184143073857,0.01105774287134409
0.012571711093187332,0.002177844289690256,-0.009335596114397049,0.007679510861635208,-0.0003668961289804429,0.01127017755061388
0.013113697990775108,0.002442313591018319,-0.010111527517437935,0.008069273084402084,-0.0003706351562868804,0.011642196215689182
0.013540939427912235,0.0024206535890698433,-0.009710879996418953,0.007805083878338337,-0.0003516017459332943,0.011586395092308521
0.012647260911762714,0.0029020290821790695,-0.009434951469302177,0.007226726971566677,-0.00033311473089270294,0.011592305265367031
0.012374956160783768,0.002722559031099081,-0.010312835685908794,0.007908543571829796,-0.0003584745281841606,0.01172682922333479
0.012374956160783768,0.002722559031099081,-0.010312835685908794,0.007908543571829796,-0.0003584745281841606,0.01172682922333479
0.013114086352288723,0.00251042190939188,-0.010194940492510796,0.007786836940795183,-0.0003609713457990438,0.011484429240226746
0.01284049917012453,0.002443625358864665,-0.010110806673765182,0.007846030406653881,-0.00033600968890823424,0.011628384701907635
0.013196703977882862,0.002875995123758912,-0.009679073467850685,0.008141081780195236,-0.00037093739956617355,0.011814873665571213
0.01304512470960617,0.0027081093285232782,-0.010332565754652023,0.0077756051905453205,-0.0003506430657580495,0.012085802853107452
0.012971049174666405,0.002530469559133053,-0.010231401771306992,0.007984871976077557,-0.0003294879861641675,0.01211271621286869
0.013677402399480343,0.002358391648158431,-0.009958390146493912,0.00806998461484909,-0.0003553165588527918,0.011889162473380566
0.012907639145851135,0.002124366583302617,-0.010273619554936886,0.007837559096515179,-0.0003421393921598792,0.01184576004743576
0.013198050670325756,0.00226294226013124,-0.009941875003278255,0.008565816096961498,-0.0003248889115639031,0.012069957330822945
0.013198050670325756,0.00226294226013124,-0.009941875003278255,0.008565816096961498,-0.0003248889115639031,0.012069957330822945
0.012737760320305824,0.0025759825948625803,-0.009480439126491547,0.008830875158309937,-0.0003089774982072413,0.012029956094920635
0.013230422511696815,0.0025983217637985945,-0.01015070267021656,0.00806976668536663,-0.0003213808813598007,0.012297946959733963
0.013230422511696815,0.0025983217637985945,-0.01015070267021656,0.00806976668536663,-0.0003213808813598007,0.012297946959733963
0.01338124182075262,0.0024570326786488295,-0.009934681467711926,0.008279346860945225,-0.00030780566157773137,0.012147346511483192
0.013040932826697826,0.002381922211498022,-0.01078506838530302,0.008346715942025185,-0.00029519357485696673,0.011333262547850609
0.01329647097736597,0.0025542268995195627,-0.01005743257701397,0.008233978413045406,-0.0003006476617883891,0.011456921696662903
0.012991508468985558,0.0027742255479097366,-0.010106660425662994,0.00786264892667532,-0.0002980164426844567,0.011504230089485645
0.01363399438560009,0.0025900208856910467,-0.010210116393864155,0.008175835013389587,-0.0002805591211654246,0.012594643048942089
0.013686025515198708,0.002644438063725829,-0.009777054190635681,0.008352388627827168,-0.00030307608540169895,0.012161670252680779
0.013462602160871029,0.002319210907444358,-0.010009173303842545,0.00810561515390873,-0.00029850201099179685,0.012193727307021618
0.013404800556600094,0.0022267282474786043,-0.010519107803702354,0.007849853485822678,-0.0002836165367625654,0.012203266844153404
0.013293077237904072,0.0023083470296114683,-0.010686746798455715,0.008069558069109917,-0.0003026521299034357,0.011914040893316269
0.013725295662879944,0.002666626824066043,-0.010194950737059116,0.00855534989386797,-0.00029871161677874625,0.0120420902967453
0.01355347502976656,0.0026231769006699324,-0.01020951196551323,0.008102603256702423,-0.0002858364023268223,0.012023597955703735
0.014007427729666233,0.0027027390897274017,-0.010051198303699493,0.008479253388941288,-0.0003023306489922106,0.012116432189941406
0.013475285843014717,0.0025727127213031054,-0.010227964259684086,0.00911660399287939,-0.00029886997072026134,0.012122232466936111
0.014203520491719246,0.002331132534891367,-0.010040509514510632,0.008296833373606205,-0.00028834937256760895,0.01209721714258194
0.013918550685048103,0.002171357162296772,-0.010271287523210049,0.008470057509839535,-0.00034373506787233055,0.011999239213764668
0.013918550685048103,0.002171357162296772,-0.010271287523210049,0.008470057509839535,-0.00034373506787233055,0.011999239213764668
0.013640117831528187,0.002334265038371086,-0.009929211810231209,0.008618666790425777,-0.0003791829803958535,0.012213789857923985
0.01388972345739603,0.002483295975252986,-0.010575068183243275,0.008379749953746796,-0.00035794315044768155,0.01215352863073349
0.013937199488282204,0.0023968161549419165,-0.009994433261454105,0.008378722704946995,-0.0003653086896520108,0.012291332706809044
0.013937199488282204,0.0023968161549419165,-0.009994433261454105,0.008378722704946995,-0.0003653086896520108,0.012291332706809044
0.013723639771342278,0.002190851606428623,-0.009682746604084969,0.00853201188147068,-0.00034830550430342555,0.01223003026098013
0.014212462119758129,0.0021132677793502808,-0.010509464889764786,0.008375760167837143,-0.00033025082666426897,0.012458455748856068
0.01398184709250927,0.0019907555542886257,-0.00981072522699833,0.008850976824760437,-0.0003555560251697898,0.01219874806702137
0.014359901659190655,0.0021778547670692205,-0.009680293500423431,0.008751823566854,-0.0004222074639983475,0.01260885875672102
0.014048528857529163,0.0025454373098909855,-0.010602444410324097,0.00853104516863823,-0.00041147455340251327,0.012019254267215729
0.014804366044700146,0.0024451478384435177,-0.009867487475275993,0.008789821527898312,-0.00044396656448952854,0.012412509880959988
0.014643433503806591,0.002619336824864149,-0.009490680880844593,0.009012844413518906,-0.0004185398283880204,0.012278899550437927
0.014902183786034584,0.002599851693958044,-0.01006490271538496,0.009090420790016651,-0.00038896073237992823,0.012502141296863556
0.014737672172486782,0.0023939348757267,-0.00995316170156002,0.008473411202430725,-0.00041509015136398375,0.012875773943960667
0.014970337972044945,0.0024943179450929165,-0.010142093524336815,0.0086936941370368,-0.0003961191978305578,0.01279753353446722
0.01462898962199688,0.002716364338994026,-0.010195490904152393,0.008927092887461185,-0.0004192167252767831,0.012924049980938435
0.014595825225114822,0.0025078931357711554,-0.009672868065536022,0.008269798941910267,-0.00040212945896200836,0.01266953069716692
0.014302398078143597,0.0025766915641725063,-0.010223914869129658,0.00863842573016882,-0.0003812430368270725,0.012953193858265877
0.014800033532083035,0.0026730187237262726,-0.010001121088862419,0.008991889655590057,-0.0004265928000677377,0.012804852798581123
0.01493808813393116,0.0023714490234851837,-0.009769032709300518,0.00834529846906662,-0.00039924311568029225,0.012656204402446747
0.015155804343521595,0.0025441974867135286,-0.01008237712085247,0.008502215147018433,-0.00036731435102410614,0.013601170852780342
0.014536036178469658,0.0024695927277207375,-0.010450352914631367,0.008518517948687077,-0.00038949327426962554,0.013099250383675098
0.014942744746804237,0.002384273800998926,-0.009615586139261723,0.008430181071162224,-0.0003777441452257335,0.01263961661607027
0.0146377794444561,0.002676839241757989,-0.010773519054055214,0.008310263976454735,-0.00035398706677369773,0.012362902984023094
0.015155769884586334,0.0025625114794820547,-0.010244788601994514,0.008844094350934029,-0.0003322598640806973,0.013539769686758518
0.01486543845385313,0.0023643532767891884,-0.009461912326514721,0.008648296818137169,-0.00035811730776913464,0.012145991437137127
0.014443482272326946,0.002567230723798275,-0.010743229649960995,0.008863275870680809,-0.0003676470660138875,0.01247346494346857
0.014885774813592434,0.002416398609057069,-0.00984489917755127,0.008701469749212265,-0.0003550793044269085,0.012777619063854218
0.014885774813592434,0.002416398609057069,-0.00984489917755127,0.008701469749212265,-0.0003550793044269085,0.012777619063854218
0.014802535995841026,0.002498702146112919,-0.00978432223200798,0.008476417511701584,-0.0003627945261541754,0.01289505697786808
0.015428592450916767,0.002319428836926818,-0.009994188323616982,0.00815415009856224,-0.00035760211176238954,0.01301242783665657
0.015209605917334557,0.0024240785278379917,-0.009843791835010052,0.008759308606386185,-0.0003901549498550594,0.013895067386329174
0.015020930208265781,0.0022457328159362078,-0.010702344588935375,0.008946583606302738,-0.0003712545149028301,0.013577345758676529
0.015217920765280724,0.002122454345226288,-0.010023840703070164,0.008568965829908848,-0.00034784735180437565,0.013301350176334381
0.015491032041609287,0.0023637062404304743,-0.009495195932686329,0.008771666325628757,-0.00037750136107206345,0.013138973154127598
0.015587856061756611,0.002364157233387232,-0.011100850068032742,0.009359447285532951,-0.0003971222904510796,0.013170192018151283
0.015273443423211575,0.002492680912837386,-0.010355154052376747,0.009001695550978184,-0.0003877924755215645,0.013152086175978184
0.015743914991617203,0.002334832213819027,-0.009575573727488518,0.009192886762320995,-0.0004979700315743685,0.013308711349964142
0.01507144421339035,0.0022505067754536867,-0.01017940416932106,0.009034675545990467,-0.0004875976010225713,0.01318915281444788
0.015618684701621532,0.002377054188400507,-0.010629951022565365,0.009226762689650059,-0.00044247022015042603,0.013295155018568039
0.015471203252673149,0.00216766819357872,-0.009842813946306705,0.009254664182662964,-0.00040298246312886477,0.013464339077472687
0.015867270529270172,0.002263024216517806,-0.010318038053810596,0.009854022413492203,-0.0003698403015732765,0.013147839345037937
0.015320745296776295,0.002369510941207409,-0.010031841695308685,0.009645174257457256,-0.0003919212322216481,0.013325377367436886
0.015856672078371048,0.0023389786947518587,-0.010135011747479439,0.009115603752434254,-0.0003799277183134109,0.013493533246219158
0.015821795910596848,0.0024993345141410828,-0.011183854192495346,0.009373728185892105,-0.0003558953758329153,0.013804598711431026
0.01634819246828556,0.002517793793231249,-0.010394726879894733,0.009121307171881199,-0.00033394203637726605,0.01367885246872902
0.01633452996611595,0.0023750339169055223,-0.009955627843737602,0.008931240066885948,-0.000359824305633083,0.013761423528194427
0.015640711411833763,0.0024243562947958708,-0.010174805298447609,0.009269105270504951,-0.00034624215913936496,0.013633175753057003
0.01632307842373848,0.0023425035178661346,-0.009941885247826576,0.009278030134737492,-0.0003285832062829286,0.013890823349356651
0.01609892025589943,0.0024771345779299736,-0.010894188657402992,0.009276192635297775,-0.00035094551276415586,0.013432951644062996
0.016459040343761444,0.0027724034152925014,-0.010177952237427235,0.009323006495833397,-0.0003198928607162088,0.013503086753189564
0.01665641739964485,0.002581123262643814,-0.010889914818108082,0.009162905625998974,-0.0002952571085188538,0.013490518555045128
0.017359264194965363,0.0025638097431510687,-0.010271812789142132,0.009370945394039154,-0.00032835701131261885,0.013593546114861965
0.016023291274905205,0.002575970022007823,-0.010048633441329002,0.01031676959246397,-0.0003126816882286221,0.013704042881727219
0.016346950083971024,0.002538758097216487,-0.011306090280413628,0.009533224627375603,-0.0003321128024253994,0.013810121454298496
0.016346950083971024,0.002538758097216487,-0.011306090280413628,0.009533224627375603,-0.0003321128024253994,0.013810121454298496
0.01639840379357338,0.002769539598375559,-0.011338910087943077,0.009655101224780083,-0.0003263077815063298,0.013995020650327206
0.016953326761722565,0.002861123299226165,-0.011095372959971428,0.010350496508181095,-0.0003326325095258653,0.014002624899148941
0.016919882968068123,0.0025444121565669775,-0.01149675901979208,0.009518993087112904,-0.0003372150822542608,0.014033560641109943
0.017147120088338852,0.0025851349346339703,-0.011124871671199799,0.010045917704701424,-0.0003233847382944077,0.014241454191505909
0.01704012230038643,0.002738871378824115,-0.012119554914534092,0.010171868838369846,-0.0004398037272039801,0.014975191093981266
0.016674427315592766,0.0027951858937740326,-0.01148849818855524,0.009663756936788559,-0.0004398639139253646,0.01384571474045515
0.017179593443870544,0.0027429815381765366,-0.011241910047829151,0.00971697922796011,-0.00047814653953537345,0.013899956829845905
0.016984030604362488,0.002820829628035426,-0.011782553978264332,0.009797935374081135,-0.00044388766400516033,0.014084343798458576
0.017077399417757988,0.0027560440357774496,-0.011429857462644577,0.009382827207446098,-0.00041045318357646465,0.01403567474335432
0.01720796711742878,0.0028226515278220177,-0.01219126582145691,0.009435375221073627,-0.0004405686922837049,0.014699891209602356
0.01722850650548935,0.0026308915112167597,-0.011738425120711327,0.009996680542826653,-0.0004153649206273258,0.01453799195587635
0.01760476641356945,0.0027549630030989647,-0.011633730493485928,0.009289709851145744,-0.0004417217569425702,0.014338254928588867
0.017285089939832687,0.002826394746080041,-0.012184000574052334,0.009641542099416256,-0.00041937982314266264,0.014119383879005909
0.017692221328616142,0.00262478762306273,-0.011433136649429798,0.009910312481224537,-0.00046929961536079645,0.014728350564837456
0.017701366916298866,0.0024561851751059294,-0.011951044201850891,0.009428911842405796,-0.0005108094192110002,0.014982393011450768
0.017390234395861626,0.0024460460990667343,-0.011834869161248207,0.00981203094124794,-0.00047666713362559676,0.014978881925344467
0.0178848747164011,0.002385618630796671,-0.01196219865232706,0.009797167964279652,-0.0005065480363555253,0.01464826799929142
0.01751720905303955,0.002762326505035162,-0.012179066427052021,0.009293016977608204,-0.00047297441051341593,0.014601516537368298
0.017726335674524307,0.0029291773680597544,-0.011423968710005283,0.01030652690678835,-0.0004707246262114495,0.014701117761433125
0.017911091446876526,0.0026039835065603256,-0.011960705742239952,0.010363472625613213,-0.00046811578795313835,0.014794623479247093
0.017741043120622635,0.002624093322083354,-0.01194345485419035,0.009892239235341549,-0.0005441837129183114,0.014900578185915947
0.017634103074669838,0.002382669597864151,-0.012215000577270985,0.01032605767250061,-0.0005556525429710746,0.014985820278525352
0.01769714616239071,0.002619044855237007,-0.011565889231860638,0.010507107712328434,-0.0005849378067068756,0.01489033829420805
0.018137799575924873,0.0027483771555125713,-0.012239968404173851,0.010186505503952503,-0.0005966650787740946,0.015071452595293522
0.018137799575924873,0.0027483771555125713,-0.012239968404173851,0.010186505503952503,-0.0005966650787740946,0.015071452595293522
0.017582044005393982,0.0024887355975806713,-0.011979353614151478,0.010131447575986385,-0.0005674734711647034,0.01497610006481409
0.01797756552696228,0.002544311573728919,-0.012646582908928394,0.010132621973752975,-0.0006510209641419351,0.015006091445684433
0.018114542588591576,0.002679500263184309,-0.012295943684875965,0.010234571993350983,-0.0006947549991309643,0.014715868979692459
0.017663652077317238,0.0028339799027889967,-0.013369397260248661,0.010081037878990173,-0.0006418280536308885,0.015042063780128956
0.018340284004807472,0.0026870127767324448,-0.012974833138287067,0.009835689328610897,-0.0006577377789653838,0.01514808926731348
0.018126189708709717,0.0028483921196311712,-0.01250916812568903,0.010694485157728195,-0.0006474930560216308,0.015270586125552654
0.018032021820545197,0.00288211228325963,-0.01297406479716301,0.010776642709970474,-0.0006293270271271467,0.015228226780891418
0.01816774159669876,0.0028725843876600266,-0.012249672785401344,0.010156109929084778,-0.0006587858079001307,0.015030053444206715
0.018298083916306496,0.00265732710249722,-0.012814856134355068,0.010138587094843388,-0.0006001187721267343,0.015204545110464096
0.018371107056736946,0.0028835181146860123,-0.012422125786542892,0.009843037463724613,-0.0006294545601122081,0.01520852092653513
0.017997056245803833,0.0029963157139718533,-0.012800508178770542,0.009877883829176426,-0.0006389035261236131,0.014820515178143978
0.01791270263493061,0.002994850045070052,-0.012547250837087631,0.010422155261039734,-0.0005997668486088514,0.016285112127661705
0.01842140406370163,0.00272977352142334,-0.012579299509525299,0.010178363882005215,-0.0006164698279462755,0.015593101270496845
0.018863724544644356,0.0026134580839425325,-0.012058057822287083,0.00983060710132122,-0.0005763714434579015,0.015143739059567451
0.018725324422121048,0.00263905874453485,-0.013705660589039326,0.009770781733095646,-0.0005951375351287425,0.01542145386338234
0.01906539499759674,0.002535190898925066,-0.01329023763537407,0.010237526148557663,-0.0006138893659226596,0.016134878620505333
0.01895257644355297,0.002813109429553151,-0.012053015641868114,0.009652861393988132,-0.0005732972640544176,0.016615476459264755
0.018351206555962563,0.0029049324803054333,-0.012728416360914707,0.010311799123883247,-0.0005942442221567035,0.016176477074623108
0.018296577036380768,0.002931398106738925,-0.012292306870222092,0.009984474629163742,-0.0005905049038119614,0.01657622493803501
0.01830226369202137,0.002677756128832698,-0.013399955816566944,0.010451697744429111,-0.0005804992979392409,0.016467135399580002
0.018713437020778656,0.0026842777151614428,-0.01362600177526474,0.010306308977305889,-0.0006717289797961712,0.016988655552268028
0.018794462084770203,0.002650055568665266,-0.01274118572473526,0.00962004903703928,-0.0006811110652051866,0.01635000668466091
0.018230918794870377,0.002473008818924427,-0.01278387289494276,0.009942576289176941,-0.0005647154757753015,0.016180818900465965
0.018540455028414726,0.002286183414980769,-0.013571815565228462,0.009584326297044754,-0.0005112825310789049,0.01656617969274521
0.018858997151255608,0.0023891145829111338,-0.01231122575700283,0.009716126136481762,-0.0005046376609243453,0.017338206991553307
0.019345270469784737,0.0022159572690725327,-0.013030163012444973,0.010364364832639694,-0.0004988209693692625,0.01680474355816841
0.019345270469784737,0.0022159572690725327,-0.013030163012444973,0.010364364832639694,-0.0004988209693692625,0.01680474355816841
0.018776094540953636,0.0021734952460974455,-0.012194981798529625,0.009903043508529663,-0.00046427681809291244,0.016339870169758797
0.018745556473731995,0.002347891218960285,-0.012781033292412758,0.01015104353427887,-0.00043252823525108397,0.016185710206627846
0.019395720213651657,0.0025633107870817184,-0.012865129858255386,0.010376237332820892,-0.0004047341353725642,0.01676228642463684
0.018419858068227768,0.0024699298664927483,-0.013279090635478497,0.010153976269066334,-0.0003802914288826287,0.016732636839151382
0.01845483109354973,0.0025677820667624474,-0.012842541560530663,0.010704083368182182,-0.00040631750016473234,0.016993846744298935
0.01911965012550354,0.0027380408719182014,-0.012658882886171341,0.010956591926515102,-0.00038755088462494314,0.017248045653104782
0.019871193915605545,0.0025599568616598845,-0.012900435365736485,0.010966770350933075,-0.00036794255720451474,0.017004424706101418
0.018991125747561455,0.002482258714735508,-0.012597865425050259,0.010999356396496296,-0.0003500600578263402,0.01683064177632332
0.020060671493411064,0.0025477842427790165,-0.013427344150841236,0.010811170563101768,-0.00033382605761289597,0.01612078584730625
0.01937052607536316,0.0023484171833842993,-0.01253482885658741,0.011049121618270874,-0.0002932588686235249,0.016233790665864944
0.019245391711592674,0.002509063808247447,-0.013190604746341705,0.010573160834610462,-0.0002540439600124955,0.016960078850388527
0.019326021894812584,0.0022493749856948853,-0.012854651547968388,0.010581890121102333,-0.00026236221310682595,0.017305320128798485
0.019389774650335312,0.0022882905323058367,-0.013170051388442516,0.011058621108531952,-0.00027068168856203556,0.017701979726552963
0.01969195529818535,0.002387684304267168,-0.012982992455363274,0.011661265045404434,-0.0002590963849797845,0.017245860770344734
0.020222408697009087,0.0023023714311420918,-0.01272157859057188,0.011424437165260315,-0.00028302473947405815,0.017380209639668465
0.020358862355351448,0.0024276452604681253,-0.012903610244393349,0.011171385645866394,-0.0002755458408500999,0.016562459990382195
0.020005688071250916,0.0025777353439480066,-0.012346508912742138,0.01091737113893032,-0.00026430454454384744,0.016321493312716484
0.019899560138583183,0.0023955327924340963,-0.012809169478714466,0.011308925226330757,-0.00025368039496243,0.016945814713835716
0.02042156085371971,0.0025660418905317783,-0.012261858209967613,0.011384817771613598,-0.00027406279696151614,0.017582576721906662
0.02041277103126049,0.002753579057753086,-0.012867016717791557,0.010536224581301212,-0.0002680071338545531,0.01769115962088108
0.019846323877573013,0.0025897633749991655,-0.012425552122294903,0.01087302528321743,-0.00038731502718292177,0.01745600998401642
0.020429641008377075,0.0022833182010799646,-0.012711016461253166,0.010706658475100994,-0.0004131689202040434,0.017478277906775475
0.020429641008377075,0.0022833182010799646,-0.012711016461253166,0.010706658475100994,-0.0004131689202040434,0.017478277906775475
0.020352013409137726,0.002467347774654627,-0.012945416383445263,0.010986526496708393,-0.00041814614087343216,0.017545431852340698
0.020381813868880272,0.0023663020692765713,-0.012421824038028717,0.011049773544073105,-0.00044253506348468363,0.01811264269053936
0.020438026636838913,0.002436131238937378,-0.012879702262580395,0.011099154129624367,-0.00042328060953877866,0.017930228263139725
0.02014443278312683,0.0024954203981906176,-0.012385566718876362,0.010426159016788006,-0.0005300948396325111,0.017621908336877823
0.02075817994773388,0.002385045401751995,-0.012120145373046398,0.011431068181991577,-0.0005626310594379902,0.017740752547979355
0.02075817994773388,0.002385045401751995,-0.012120145373046398,0.011431068181991577,-0.0005626310594379902,0.017740752547979355
0.02076777070760727,0.0025780927389860153,-0.012207533232867718,0.011190437711775303,-0.0005522315623238683,0.01796475052833557
0.02083764597773552,0.002740978030487895,-0.012141955085098743,0.010972247458994389,-0.0005037644295953214,0.01825130730867386
0.02074572443962097,0.002723452402278781,-0.013351574540138245,0.011471227742731571,-0.000517230131663382,0.018176084384322166
0.02098379097878933,0.0027969866059720516,-0.012860584072768688,0.01163108367472887,-0.0004940889193676412,0.017881197854876518
0.020994126796722412,0.0026927636936306953,-0.013598200865089893,0.011505035683512688,-0.00045919197145849466,0.017920373007655144
0.021010132506489754,0.0027113344985991716,-0.012728189118206501,0.011795579455792904,-0.000428048922913149,0.018008092418313026
0.02120109088718891,0.002578222891315818,-0.012939410284161568,0.011512253433465958,-0.00040080444887280464,0.01805342733860016
0.021387195214629173,0.0028461844194680452,-0.012581726536154747,0.011885220184922218,-0.0004269098863005638,0.018396349623799324
0.02107960171997547,0.002671431750059128,-0.012867632322013378,0.011792721226811409,-0.00040609072311781347,0.01854863204061985
0.021155957132577896,0.0025312351062893867,-0.013155240565538406,0.011644874699413776,-0.0003846051695290953,0.018928812816739082
0.02150244265794754,0.0026619676500558853,-0.01322623435407877,0.011674911715090275,-0.00036025058943778276,0.018421750515699387
0.021724196150898933,0.002535969717428088,-0.01385506521910429,0.01137122418731451,-0.00033384718699380755,0.018093159422278404
0.021932752802968025,0.0029652579687535763,-0.013344845734536648,0.012481614015996456,-0.00031079724431037903,0.018832944333553314
0.021782316267490387,0.0028326883912086487,-0.013966303318738937,0.011827782727777958,-0.00029070762684568763,0.01816236786544323
0.022301578894257545,0.0030715903267264366,-0.013463230803608894,0.012005981057882309,-0.0002996372932102531,0.01836986280977726
0.02158086560666561,0.0029365774244070053,-0.013883630745112896,0.012337801046669483,-0.0003070869715884328,0.018956564366817474
0.02169308252632618,0.0025343948509544134,-0.013546464033424854,0.01173421461135149,-0.00029207507031969726,0.01862352155148983
0.02179907262325287,0.002624721033498645,-0.014287250116467476,0.011822393164038658,-0.00027718330966308713,0.019428914412856102
0.022561920806765556,0.0027641330379992723,-0.013709965161979198,0.011713681742548943,-0.0002636516001075506,0.019754385575652122
0.022371018305420876,0.002739889081567526,-0.014493760652840137,0.01225253939628601,-0.0002823112008627504,0.01993655599653721
0.022309530526399612,0.002656753407791257,-0.014253363944590092,0.01189009752124548,-0.0002795076579786837,0.019413497298955917
0.022648371756076813,0.002845169510692358,-0.013953130692243576,0.012392660602927208,-0.0002753100998234004,0.019207898527383804
0.02330879494547844,0.003082531737163663,-0.015040310099720955,0.011293773539364338,-0.0002813190221786499,0.018852608278393745
0.02325301617383957,0.003307384205982089,-0.01429434958845377,0.011462246999144554,-0.00027179467724636197,0.0191503819078207
0.02250470221042633,0.003186643123626709,-0.014471786096692085,0.011774476617574692,-0.0002619752776809037,0.01938682049512863
0.022108694538474083,0.0030803324189037085,-0.014136181212961674,0.011992338113486767,-0.00026555758086033165,0.020097916945815086
0.02267424389719963,0.0028823912143707275,-0.014773396775126457,0.01180917676538229,-0.00025539181660860777,0.020230110734701157
0.023734677582979202,0.002727055922150612,-0.014366517774760723,0.011222928762435913,-0.00024197634775191545,0.0201011560857296
0.0235079824924469,0.002626014407724142,-0.013990442268550396,0.011857643723487854,-0.0002694034483283758,0.019773617386817932
0.0235079824924469,0.002626014407724142,-0.013990442268550396,0.011857643723487854,-0.0002694034483283758,0.019773617386817932
0.023457583039999008,0.002756822621449828,-0.014175270684063435,0.012238885276019573,-0.00026178715052083135,0.019677096977829933
0.02303183451294899,0.0029188194312155247,-0.014960831962525845,0.012236589565873146,-0.0002807911660056561,0.019668594002723694
0.02309754304587841,0.0033253231085836887,-0.014039923436939716,0.012335596606135368,-0.00030751421581953764,0.019878940656781197
0.02333397977054119,0.0032111755572259426,-0.014775077812373638,0.011835494078695774,-0.0004496219626162201,0.019730107858777046
0.023786762729287148,0.002946914406493306,-0.014238188974559307,0.012061764486134052,-0.0006104025524109602,0.019720247015357018
0.023635510355234146,0.0029768061358481646,-0.014651544392108917,0.011415760032832623,-0.0006245535332709551,0.019855743274092674
0.023298395797610283,0.002921048318967223,-0.014025792479515076,0.012051239609718323,-0.0006081477622501552,0.020004671066999435
0.0231204591691494,0.0029544385615736246,-0.014720090664923191,0.012060594744980335,-0.0006311190663836896,0.01981758326292038
0.023810163140296936,0.003298876341432333,-0.01432529091835022,0.011826216243207455,-0.000827187963295728,0.020799940451979637
0.024140458554029465,0.0029854022432118654,-0.015090213157236576,0.0120779974386096,-0.0008381705265492201,0.019891520962119102
0.02398873306810856,0.003091800957918167,-0.01440808828920126,0.011875213123857975,-0.0007552779861725867,0.01933339051902294
0.02418098784983158,0.002981775440275669,-0.014866776764392853,0.012021321803331375,-0.0006644156528636813,0.01944548450410366
0.024177810177206993,0.002593018114566803,-0.014154205098748207,0.012152204290032387,-0.0006763419951312244,0.019991010427474976
0.02405833639204502,0.002698578406125307,-0.01487987581640482,0.012447288259863853,-0.0006210755091160536,0.020327989012002945
0.023847918957471848,0.00303724966943264,-0.014473695307970047,0.012952194549143314,-0.0005659693852066994,0.020127834752202034
0.024360496550798416,0.0035178938414901495,-0.014961731620132923,0.01195595320314169,-0.000583284767344594,0.019876565784215927
0.0246475450694561,0.003314523957669735,-0.014475114643573761,0.012429341673851013,-0.0005476052756421268,0.020033741369843483
0.024726152420043945,0.003056533169001341,-0.014792926609516144,0.012000014074146748,-0.0005094034131616354,0.020052863284945488
0.02473096363246441,0.0027490598149597645,-0.014905537478625774,0.012810125946998596,-0.00043160427594557405,0.020515380427241325
0.024343859404325485,0.0029695124831050634,-0.015501879155635834,0.012784662656486034,-0.0003892501990776509,0.02044494077563286
0.024982208386063576,0.0034101337660104036,-0.015353396534919739,0.01269824430346489,-0.0003971788100898266,0.021208075806498528
0.024453172460198402,0.003197690937668085,-0.015345817431807518,0.01344732940196991,-0.000370463530998677,0.020797966048121452
0.02487647719681263,0.0029759046155959368,-0.015216276980936527,0.01373310573399067,-0.0003892274107784033,0.020950201898813248
0.026098791509866714,0.0031888773664832115,-0.015104209072887897,0.013044738210737705,-0.0003790748305618763,0.02117503434419632
0.02577507123351097,0.003436329308897257,-0.015341843478381634,0.013198473490774632,-0.0003961090405937284,0.02118871733546257
0.02501978725194931,0.003415976418182254,-0.015773596242070198,0.012850412167608738,-0.0003866981132887304,0.02111370675265789
0.02501978725194931,0.003415976418182254,-0.015773596242070198,0.012850412167608738,-0.0003866981132887304,0.02111370675265789
0.02270796336233616,0.003535078838467598,-0.015118634328246117,0.013661986216902733,-0.00036771941813640296,0.021356474608182907
0.025771183893084526,0.003310021013021469,-0.015506713651120663,0.013173100538551807,-0.00035124135320074856,0.0215979665517807
0.02633627876639366,0.0035812901332974434,-0.015129495412111282,0.013552474789321423,-0.0003804914595093578,0.02169591374695301
0.025163711979985237,0.0033155838027596474,-0.015598620288074017,0.0131835350766778,-0.00035438095801509917,0.0218967255204916
0.026066023856401443,0.0034898067824542522,-0.01536613516509533,0.013356801122426987,-0.0003770344774238765,0.02186420001089573
0.026241682469844818,0.0037450147792696953,-0.016151992604136467,0.013260692358016968,-0.00036648084642365575,0.021941667422652245
0.026074619963765144,0.0034255716018378735,-0.015219369903206825,0.013535914942622185,-0.0003441010194364935,0.021800480782985687
0.026003165170550346,0.0033434731885790825,-0.01535751111805439,0.013775523751974106,-0.00037371646612882614,0.022691259160637856
0.02511080726981163,0.0032627375330775976,-0.01544960867613554,0.013549106195569038,-0.00035587712773121893,0.021695682778954506
0.02500893361866474,0.0034325961023569107,-0.015827232971787453,0.013740429654717445,-0.0003818735422100872,0.020990239456295967
0.025867853313684464,0.0032470712903887033,-0.016094151884317398,0.01304737851023674,-0.0003654241154436022,0.021450940519571304
0.026416055858135223,0.0035477611236274242,-0.015604954212903976,0.01370474137365818,-0.0004381338367238641,0.021457521244883537
0.02627968043088913,0.0033285694662481546,-0.0160529725253582,0.013384098187088966,-0.00041195808444172144,0.022064365446567535
0.026094436645507812,0.0031079582404345274,-0.01583072915673256,0.014111049473285675,-0.0004336908459663391,0.02258973754942417
0.02623578906059265,0.0030496150720864534,-0.01621207408607006,0.013519251719117165,-0.0004173927300143987,0.02237587235867977
0.02635139226913452,0.0031671987380832434,-0.01539706252515316,0.014241187833249569,-0.0004486804245971143,0.022402243688702583
0.02648627944290638,0.0035178097896277905,-0.016043631359934807,0.013520583510398865,-0.00045191776007413864,0.021684976294636726
0.02660457231104374,0.003449187381193042,-0.01592772826552391,0.014294941909611225,-0.0004508206620812416,0.02192925475537777
0.02671162411570549,0.003169003175571561,-0.01654236763715744,0.013863016851246357,-0.0004995612544007599,0.022532887756824493
0.026943527162075043,0.003016376169398427,-0.016047246754169464,0.013824569061398506,-0.0005434597842395306,0.02233288623392582
0.027006469666957855,0.0031946159433573484,-0.016730284318327904,0.01435105036944151,-0.0005661515751853585,0.022314628586173058
0.02683299407362938,0.0033523670863360167,-0.015948781743645668,0.014345750212669373,-0.0005376124754548073,0.022835252806544304
0.026591943576931953,0.0033549286890774965,-0.016474571079015732,0.014495575800538063,-0.0005624184268526733,0.022838395088911057
0.026946764439344406,0.0035395531449466944,-0.016116749495267868,0.013965928927063942,-0.000647191540338099,0.0228655356913805
0.026946764439344406,0.0035395531449466944,-0.016116749495267868,0.013965928927063942,-0.000647191540338099,0.0228655356913805
0.027190174907445908,0.003378830151632428,-0.017249424010515213,0.013938110321760178,-0.0007036726456135511,0.02216309867799282
0.0272201094776392,0.00354368076659739,-0.016740567982196808,0.013984140008687973,-0.0007210338371805847,0.02228967659175396
0.027558982372283936,0.003293081419542432,-0.017211418598890305,0.013861696235835552,-0.0006526943179778755,0.022464917972683907
0.027558982372283936,0.003293081419542432,-0.017211418598890305,0.013861696235835552,-0.0006526943179778755,0.022464917972683907
0.02751409262418747,0.003520580241456628,-0.016765428707003593,0.014394410885870457,-0.0005917282542213798,0.022838177159428596
0.027491720393300056,0.00369801907800138,-0.017125321552157402,0.014219728298485279,-0.0006126452353782952,0.023023726418614388
0.028196802362799644,0.0033630894031375647,-0.016669724136590958,0.014240631833672523,-0.0005988553748466074,0.023166662082076073
0.02770976908504963,0.003321562660858035,-0.01693769544363022,0.014224227517843246,-0.0006119711906649172,0.023009685799479485
0.027720864862203598,0.003554275492206216,-0.01753430999815464,0.01479435432702303,-0.0006423870217986405,0.02262394316494465
0.028186585754156113,0.0037529252003878355,-0.01730729080736637,0.014481978490948677,-0.0006680687656626105,0.023501981049776077
0.027790451422333717,0.0036675522569566965,-0.01760704256594181,0.01427481323480606,-0.0008542902651242912,0.02250956930220127
0.02800900675356388,0.0034785347525030375,-0.017350751906633377,0.013857492245733738,-0.0010326122865080833,0.022807782515883446
0.027585966512560844,0.0033089411444962025,-0.01725616306066513,0.013880070298910141,-0.0010219410760328174,0.022751091048121452
0.02858397737145424,0.003417915664613247,-0.01727503165602684,0.013755803927779198,-0.0009565805085003376,0.023059353232383728
0.02891654707491398,0.0032648867927491665,-0.016261659562587738,0.013634543865919113,-0.0008927686722017825,0.023597905412316322
0.02869362384080887,0.0034857834689319134,-0.01718015782535076,0.013564900495111942,-0.0007973547908477485,0.023794250562787056
0.028009241446852684,0.0037541419733315706,-0.017223365604877472,0.013474789448082447,-0.0007215743535198271,0.023374497890472412
0.026908477768301964,0.003838589880615473,-0.017969774082303047,0.014114361256361008,-0.0006321222172118723,0.02341337874531746
0.02805348113179207,0.0037664782721549273,-0.01802619732916355,0.014185222797095776,-0.0006355343502946198,0.023683959618210793
0.02864087000489235,0.003287129569798708,-0.016764696687459946,0.014530174434185028,-0.0005906278383918107,0.023644229397177696
0.02872268110513687,0.0031874917913228273,-0.018407778814435005,0.014841040596365929,-0.000565969618037343,0.023518633097410202
0.02922023832798004,0.0033534180838614702,-0.017316214740276337,0.014573464170098305,-0.0005888973828405142,0.023392820730805397
0.028297213837504387,0.0034717179369181395,-0.017446748912334442,0.015103444457054138,-0.0005498084938153625,0.02307428978383541
0.028586799278855324,0.0035329849924892187,-0.017362048849463463,0.01464683748781681,-0.0005552524817176163,0.02377706952393055
0.028586799278855324,0.0035329849924892187,-0.017362048849463463,0.01464683748781681,-0.0005552524817176163,0.02377706952393055
0.028313636779785156,0.0034772888757288456,-0.018123511224985123,0.014179784804582596,-0.0004984897095710039,0.024286873638629913
0.028394822031259537,0.0035129960160702467,-0.017474565654993057,0.013562106527388096,-0.0005262549384497106,0.02407320961356163
0.02904706820845604,0.003642374649643898,-0.017420845106244087,0.014151488430798054,-0.00048905547009781,0.02334258146584034
0.028853030875325203,0.0038309693336486816,-0.01832808367908001,0.013724918477237225,-0.00044903685920871794,0.023095881566405296
0.028913918882608414,0.0034423742908984423,-0.01790330745279789,0.01432989165186882,-0.0004653075593523681,0.02319697104394436
0.029147334396839142,0.0036196059081703424,-0.017558744177222252,0.014283410273492336,-0.00044796528527513146,0.0243730116635561
0.02894139476120472,0.0033887734171003103,-0.01803756318986416,0.01498759351670742,-0.0004748803039547056,0.024197686463594437
0.029057564213871956,0.003549120156094432,-0.01727147214114666,0.015574844554066658,-0.0004915226600132883,0.023868121206760406
0.029129521921277046,0.0037031283136457205,-0.018129639327526093,0.015782788395881653,-0.00045816710917279124,0.02397497184574604
0.02888623997569084,0.0038266500923782587,-0.018132785335183144,0.015847407281398773,-0.00047781120520085096,0.024575969204306602
0.028592685237526894,0.003882095916196704,-0.017798753455281258,0.015575812198221684,-0.00045632003457285464,0.02419879660010338
0.02891569770872593,0.0034820563159883022,-0.01862691156566143,0.016297435387969017,-0.00048256240552291274,0.02319362387061119
0.028608346357941628,0.0033913881052285433,-0.01811165176331997,0.01580914482474327,-0.0004876046732533723,0.023735588416457176
0.029139520600438118,0.003527585184201598,-0.018016455695033073,0.015797393396496773,-0.0004843065398745239,0.023486683145165443
0.027808068320155144,0.0037109097465872765,-0.01828676089644432,0.015021712519228458,-0.0004556024505291134,0.023974072188138962
0.02975613996386528,0.003675381653010845,-0.018128979951143265,0.015474464744329453,-0.0005334881716407835,0.024570276960730553
0.030060920864343643,0.003642406314611435,-0.018897293135523796,0.015136652626097202,-0.00048466373118571937,0.024767016991972923
0.029673902317881584,0.0042826044373214245,-0.018903575837612152,0.015121132135391235,-0.00048020665417425334,0.02441076561808586
0.02923014387488365,0.004085852298885584,-0.01809382624924183,0.014794453978538513,-0.0004760004812851548,0.024135049432516098
0.02927326038479805,0.003910310100764036,-0.018550127744674683,0.015034635551273823,-0.00043971254490315914,0.024513015523552895
0.029461810365319252,0.0033956391271203756,-0.018546346575021744,0.014916121028363705,-0.0004697327094618231,0.02484016679227352
0.030830509960651398,0.0042345719411969185,-0.018510252237319946,0.015161886811256409,-0.00046914315316826105,0.025280063971877098
0.02947724238038063,0.004127697553485632,-0.018596969544887543,0.015415139496326447,-0.00044217295362614095,0.025446929037570953
0.02947724238038063,0.004127697553485632,-0.018596969544887543,0.015415139496326447,-0.00044217295362614095,0.025446929037570953
0.02944810874760151,0.003996207378804684,-0.018764154985547066,0.015274293720722198,-0.00045418698573485017,0.02510039694607258
0.030298005789518356,0.0035288368817418814,-0.019118670374155045,0.015417934395372868,-0.00045918236719444394,0.025183165445923805
0.030625952407717705,0.0035224228631705046,-0.018986016511917114,0.015600141137838364,-0.0004919226048514247,0.025354502722620964
0.030625952407717705,0.0035224228631705046,-0.018986016511917114,0.015600141137838364,-0.0004919226048514247,0.025354502722620964
0.03110515885055065,0.0037747982423752546,-0.01965935528278351,0.01592455431818962,-0.0005193767137825489,0.025666525587439537
0.030760405585169792,0.004283314570784569,-0.018597742542624474,0.015400518663227558,-0.0007485796813853085,0.025117069482803345
0.030411651358008385,0.004048121627420187,-0.018641024827957153,0.01560333650559187,-0.0008021024987101555,0.02533404715359211
0.02988867275416851,0.003840771736577153,-0.019194552674889565,0.015388713218271732,-0.0007934818277135491,0.02563391625881195
0.03047887794673443,0.0033316798508167267,-0.018794678151607513,0.015707915648818016,-0.0007784590707160532,0.025361865758895874
0.03116944245994091,0.0034148681443184614,-0.01921573281288147,0.015568365342915058,-0.0007443654467351735,0.025471322238445282
0.03115498647093773,0.0036058975383639336,-0.019581705331802368,0.01575191132724285,-0.0007612406625412405,0.025543425232172012
0.03149150684475899,0.0037457766011357307,-0.018980346620082855,0.015871139243245125,-0.0006801551207900047,0.02560451254248619
0.031016312539577484,0.004224932752549648,-0.018576517701148987,0.01595805399119854,-0.0006787132006138563,0.0255211740732193
0.031358007341623306,0.004016445484012365,-0.019192339852452278,0.016261201351881027,-0.0006764282006770372,0.025683507323265076
0.03151185065507889,0.0034464963246136904,-0.019308285787701607,0.015658199787139893,-0.0006528549711219966,0.026161372661590576
0.031166110187768936,0.003345676464959979,-0.020288582891225815,0.016188770532608032,-0.0006673801690340042,0.02632087841629982
0.03205505385994911,0.003488188376650214,-0.019837865605950356,0.015783395618200302,-0.0006210596766322851,0.026408687233924866
0.031636014580726624,0.0037391739897429943,-0.019500140100717545,0.016319898888468742,-0.0006149365217424929,0.02623726800084114
0.03169022127985954,0.003741797059774399,-0.01946493424475193,0.016103992238640785,-0.0006249380530789495,0.026307856664061546
0.03193686157464981,0.003590197768062353,-0.019571345299482346,0.01635812595486641,-0.0006288670701906085,0.026479395106434822
0.031942881643772125,0.003603349905461073,-0.019227303564548492,0.01591683179140091,-0.0006537000881507993,0.02651164121925831
0.03197149559855461,0.0042046112939715385,-0.019842594861984253,0.015679489821195602,-0.0007711249054409564,0.026361018419265747
0.03237079083919525,0.0040896558202803135,-0.020591575652360916,0.016529621556401253,-0.0009027896448969841,0.026185471564531326
0.032321590930223465,0.0034671248868107796,-0.02044818177819252,0.016170402988791466,-0.0008923110435716808,0.025586886331439018
0.0326879620552063,0.0035598748363554478,-0.02027377299964428,0.01572008617222309,-0.000999853597022593,0.027700642123818398
0.03280353918671608,0.0036784640979021788,-0.0202365443110466,0.016079150140285492,-0.0010014462750405073,0.026833057403564453
0.0328652560710907,0.003596710739657283,-0.019486501812934875,0.0161368940025568,-0.0008800708455964923,0.025449644774198532
0.03292426839470863,0.0034726448357105255,-0.020123422145843506,0.016175517812371254,-0.0008670272072777152,0.025807781144976616
0.03292426839470863,0.0034726448357105255,-0.020123422145843506,0.016175517812371254,-0.0008670272072777152,0.025807781144976616
0.03331458568572998,0.003599009243771434,-0.020858289673924446,0.01607484184205532,-0.0007749291253276169,0.02729516476392746
0.033567968755960464,0.003917363006621599,-0.02014211192727089,0.01588224433362484,-0.000782220100518316,0.026756180450320244
0.033811233937740326,0.004075518809258938,-0.020026816055178642,0.016386065632104874,-0.0007141706300899386,0.02679787017405033
0.03354746103286743,0.0038218474946916103,-0.02045799419283867,0.01642801985144615,-0.0006215152097865939,0.028362900018692017
0.03363567218184471,0.0035629949998110533,-0.020365456119179726,0.016776258125901222,-0.0006474264082498848,0.02797258086502552
0.034206368029117584,0.0034083283971995115,-0.019406581297516823,0.017081160098314285,-0.0006742262048646808,0.026650939136743546
0.03567926585674286,0.003512463066726923,-0.020123105496168137,0.0168208796530962,-0.0006903280736878514,0.02609880454838276
0.032879725098609924,0.0038282352034002542,-0.020760219544172287,0.016698362305760384,-0.0007925122044980526,0.026923995465040207
0.03392134979367256,0.004028598312288523,-0.02019837312400341,0.016267774626612663,-0.0008451305911876261,0.027991807088255882
0.03492048382759094,0.0038917118217796087,-0.020206427201628685,0.01651969738304615,-0.0007481607608497143,0.0279901921749115
0.03432217985391617,0.0036371645983308554,-0.02090027928352356,0.016036251559853554,-0.0007522122468799353,0.027774184942245483
0.03496892750263214,0.003418960142880678,-0.020283322781324387,0.01693449169397354,-0.0006833095103502274,0.02760903909802437
0.03610081598162651,0.0034605818800628185,-0.019793769344687462,0.017620835453271866,-0.0006929892115294933,0.027923565357923508
0.03509568050503731,0.0036387224681675434,-0.020133143290877342,0.018020788207650185,-0.0006428713677451015,0.027840882539749146
0.03393636271357536,0.003728721756488085,-0.020250173285603523,0.018001016229391098,-0.0006117054144851863,0.02808947116136551
0.03556821867823601,0.0037102908827364445,-0.020186789333820343,0.01718595251441002,-0.0006419888813979924,0.02812732569873333
0.03606920316815376,0.0036992058157920837,-0.02064833790063858,0.01701868325471878,-0.0006503597251139581,0.028030186891555786
0.035718780010938644,0.003974928054958582,-0.020423581823706627,0.017326606437563896,-0.000609499984420836,0.02836456336081028
0.035511910915374756,0.0038689179345965385,-0.01986466534435749,0.01765557751059532,-0.0006153128924779594,0.028601745143532753
0.03541027754545212,0.003702901303768158,-0.020290836691856384,0.017751846462488174,-0.0006690972368232906,0.02861139550805092
0.035953085869550705,0.0037030058447271585,-0.02034185826778412,0.01713225059211254,-0.0007534597534686327,0.028666861355304718
0.035819776356220245,0.00370778888463974,-0.020386993885040283,0.017345840111374855,-0.0007757750572636724,0.028554633259773254
0.03564804792404175,0.0035160856787115335,-0.01976202055811882,0.01716781221330166,-0.0007154944469220936,0.02861926518380642
0.03541618213057518,0.003562845755368471,-0.020244967192411423,0.016777444630861282,-0.0007113143219612539,0.028596539050340652
0.035706013441085815,0.004106755834072828,-0.019908390939235687,0.017445098608732224,-0.0007198425591923296,0.028007587417960167
0.03588476777076721,0.004317169077694416,-0.020119378343224525,0.0181968342512846,-0.000746808887924999,0.02795601822435856
0.03588476777076721,0.004317169077694416,-0.020119378343224525,0.0181968342512846,-0.000746808887924999,0.02795601822435856
0.03529664874076843,0.0037188499700278044,-0.02027759701013565,0.018132023513317108,-0.0007514131721109152,0.028944838792085648
0.03451138362288475,0.0035460616927593946,-0.020281333476305008,0.017431210726499557,-0.0007421429618261755,0.029247406870126724
0.03587358444929123,0.004153280984610319,-0.020489362999796867,0.0172920823097229,-0.0007182258414104581,0.028536776080727577
0.03703456372022629,0.004110381472855806,-0.02061767317354679,0.016729973256587982,-0.0009130508988164365,0.027301661670207977
0.03595108166337013,0.0036009023897349834,-0.020604480057954788,0.01697729527950287,-0.0009221071377396584,0.026793187484145164
0.034903157502412796,0.0034582314547151327,-0.020633962005376816,0.017131812870502472,-0.0009199798223562539,0.02821577712893486
0.03609618544578552,0.004261220805346966,-0.020800689235329628,0.01723937690258026,-0.0009733369224704802,0.02852034382522106
0.03620317578315735,0.004193644970655441,-0.0206180177628994,0.017632940784096718,-0.0009125432115979493,0.029118545353412628
0.036143314093351364,0.0039292993023991585,-0.020303215831518173,0.017413511872291565,-0.0008762169163674116,0.029315726831555367
0.036693356931209564,0.003783256048336625,-0.021497027948498726,0.017421485856175423,-0.000782651943154633,0.02920420654118061
0.03666815906763077,0.004124040715396404,-0.021274780854582787,0.017401358112692833,-0.0007832276169210672,0.02881043031811714
0.03548352047801018,0.0042047961615026,-0.021905764937400818,0.017309045419096947,-0.0007822855841368437,0.028157155960798264
0.03598973900079727,0.004045594483613968,-0.021514233201742172,0.017999527975916862,-0.0007320599397644401,0.028927838429808617
0.03648514673113823,0.003965763840824366,-0.02096880041062832,0.017741892486810684,-0.0006423930171877146,0.03005870431661606
0.036411870270967484,0.0039647966623306274,-0.020895130932331085,0.017790747806429863,-0.0006593572907149792,0.02996092103421688
0.036591991782188416,0.004385639913380146,-0.021203456446528435,0.017937522381544113,-0.0006472095265053213,0.02951604500412941
0.036081038415431976,0.004225283395498991,-0.021337807178497314,0.01723521575331688,-0.0006266605923883617,0.029516536742448807
0.036448001861572266,0.004111067391932011,-0.02157975360751152,0.017474723979830742,-0.0006513254484161735,0.029834598302841187
0.036804769188165665,0.0036337522324174643,-0.021224452182650566,0.017182374373078346,-0.0008390003931708634,0.0300256609916687
0.036774516105651855,0.0034979006741195917,-0.021841997280716896,0.01741715706884861,-0.0008743758080527186,0.029659824445843697
0.03641039878129959,0.0036338972859084606,-0.02119348756968975,0.017925018444657326,-0.0008368078852072358,0.029653258621692657
0.03684002906084061,0.0038548498414456844,-0.02187221124768257,0.017483064904808998,-0.0007933345623314381,0.029519222676753998
0.037165284156799316,0.004570208955556154,-0.021731287240982056,0.017645331099629402,-0.0008799348142929375,0.03000376559793949
0.037861403077840805,0.00425674906000495,-0.020638149231672287,0.017491158097982407,-0.0007882420904934406,0.030284546315670013
0.037861403077840805,0.00425674906000495,-0.020638149231672287,0.017491158097982407,-0.0007882420904934406,0.030284546315670013
0.037361565977334976,0.003905670251697302,-0.021427340805530548,0.017717523500323296,-0.0007961246301420033,0.029334276914596558
0.036816444247961044,0.003746850648894906,-0.021937403827905655,0.017338860780000687,-0.0007873036083765328,0.02974042110145092
0.037211015820503235,0.0041334060952067375,-0.022237766534090042,0.017746636644005775,-0.0007305560866370797,0.029934853315353394
0.037644173949956894,0.004305950365960598,-0.02167770452797413,0.01804344914853573,-0.0006994727300480008,0.030267441645264626
0.03758040443062782,0.004080190323293209,-0.021544747054576874,0.017768902704119682,-0.0007177687366493046,0.03042185679078102
0.03775353357195854,0.004468671511858702,-0.02183632366359234,0.018114592880010605,-0.0007390558603219688,0.030298106372356415
0.03792953118681908,0.004355006385594606,-0.022086013108491898,0.018145382404327393,-0.000719752861186862,0.030219778418540955
0.03802977129817009,0.004395817406475544,-0.021909445524215698,0.0184320155531168,-0.0006928846705704927,0.030348116531968117
0.03817285597324371,0.004063035361468792,-0.02160079963505268,0.01927424967288971,-0.0007424991927109659,0.03019089810550213
0.038192108273506165,0.004216980189085007,-0.021843750029802322,0.018504463136196136,-0.0007698969566263258,0.0301272664219141
0.037898290902376175,0.004072993062436581,-0.022131839767098427,0.01851886510848999,-0.0007872449932619929,0.030203336849808693
0.03899503871798515,0.003927950281649828,-0.02221556007862091,0.018227597698569298,-0.0007246669847518206,0.030410803854465485
0.040218375623226166,0.004373172298073769,-0.02156904712319374,0.01745600253343582,-0.0007377730798907578,0.030646296218037605
0.03758421167731285,0.004754782188683748,-0.02187473513185978,0.018352236598730087,-0.0007910163840278983,0.030618920922279358
