davideferrari95/blind_handover_controller/data/Test 219 - [2024-02-08 -- 12-13-48]/joint_states_data.csv
shoulder_pan_joint,shoulder_lift_joint,elbow_joint,wrist_1_joint,wrist_2_joint,wrist_3_joint
-0.002710567554458976,-0.015489961951971054,-0.005521359853446484,0.021405857056379318,0.0,-0.0031595006585121155
-0.002505370881408453,-0.015705455094575882,-0.0067334482446312904,0.020485419780015945,0.0,-0.0027734581381082535
-0.002505370881408453,-0.015705455094575882,-0.0067334482446312904,0.020485419780015945,0.0,-0.0027734581381082535
-0.002593096811324358,-0.015816444531083107,-0.007419463247060776,0.020827453583478928,0.0,-0.0026652528904378414
-0.00250137853436172,-0.015000737272202969,-0.006860438734292984,0.020322497934103012,0.0,-0.002474740846082568
-0.002944112755358219,-0.01533402781933546,-0.006202590186148882,0.020002463832497597,0.0,-0.002383491722866893
-0.0030146348290145397,-0.015324302017688751,-0.00679191155359149,0.019422203302383423,0.0,-0.002562693553045392
-0.0029540141113102436,-0.015601339749991894,-0.007318349089473486,0.019579408690333366,0.0,-0.002566382521763444
-0.0029540141113102436,-0.015601339749991894,-0.007318349089473486,0.019579408690333366,0.0,-0.002566382521763444
-0.0028168235439807177,-0.015156854875385761,-0.006842785514891148,0.019655749201774597,0.0,-0.002641740720719099
-0.0028064523357897997,-0.015421140007674694,-0.006822310388088226,0.019744785502552986,0.0,-0.002800237387418747
-0.002526487223803997,-0.015565827488899231,-0.0068814316764473915,0.019579121842980385,0.0,-0.002756400965154171
-0.002356696641072631,-0.01514862198382616,-0.007237140089273453,0.01937781274318695,0.0,-0.0027298913337290287
-0.002637739758938551,-0.01543610729277134,-0.006680596154183149,0.01974739506840706,0.0,-0.0025855235289782286
-0.0029306928627192974,-0.015223861671984196,-0.006278384942561388,0.019866375252604485,0.0,-0.002581265987828374
-0.002937939018011093,-0.015440679155290127,-0.006508432794362307,0.020541410893201828,0.0,-0.0027141235768795013
-0.0025977804325520992,-0.015231953002512455,-0.006788500584661961,0.020350348204374313,0.0,-0.002713628811761737
-0.0023247809149324894,-0.015765037387609482,-0.005676615983247757,0.01958967000246048,0.0,-0.0028486894443631172
-0.0022764152381569147,-0.01511521264910698,-0.0041788374073803425,0.019630219787359238,0.0,-0.0028053359128534794
-0.0026172001380473375,-0.015516462735831738,-0.003550935536623001,0.01956903748214245,0.0,-0.0025473616551607847
-0.003235780168324709,-0.015305832959711552,-0.0048289489932358265,0.019480165094137192,0.0,-0.0025512496940791607
-0.0032577726524323225,-0.01563909649848938,-0.005483752582222223,0.019631966948509216,0.0,-0.002570178359746933
-0.0026912083849310875,-0.015432361513376236,-0.004857932683080435,0.01990850456058979,0.0,-0.002432724926620722
-0.00262792338617146,-0.015020344406366348,-0.004591044038534164,0.01963329315185547,0.0,-0.0025206971913576126
-0.002273419639095664,-0.014452257193624973,-0.0044067976996302605,0.019994329661130905,0.0,-0.002620783168822527
-0.002240553265437484,-0.015027624554932117,-0.004462308716028929,0.020718328654766083,0.0,-0.002487017773091793
-0.0026678135618567467,-0.014966712333261967,-0.004305005539208651,0.02109343931078911,0.0,-0.002658998593688011
-0.0029543573036789894,-0.014549470506608486,-0.004198792390525341,0.020451253280043602,0.0,-0.002835221588611603
-0.0026023031678050756,-0.014394864439964294,-0.004334368277341127,0.020579535514116287,0.0,-0.0026517934165894985
-0.002314262790605426,-0.014233256690204144,-0.0044902171939611435,0.02060956135392189,0.0,-0.0024579192977398634
-0.0021603177301585674,-0.01422148011624813,-0.0040718731470406055,0.020803898572921753,0.0,-0.0021571910474449396
-0.0022550993598997593,-0.01434129849076271,-0.003904817160218954,0.021224748343229294,0.0,-0.002047324785962701
-0.002643931657075882,-0.013786770403385162,-0.004351452924311161,0.02079557627439499,0.0,-0.002286071889102459
-0.00268836272880435,-0.013688061386346817,-0.004609561059623957,0.020044473931193352,0.0,-0.002858002670109272
-0.0026235163677483797,-0.014070761390030384,-0.00425875885412097,0.019891299307346344,0.0,-0.0029257775750011206
-0.002189203631132841,-0.013777157291769981,-0.004379946272820234,0.019977081567049026,0.0,-0.0030928277410566807
-0.002189203631132841,-0.013777157291769981,-0.004379946272820234,0.019977081567049026,0.0,-0.0030928277410566807
-0.002234470099210739,-0.014217973686754704,-0.004495495464652777,0.019636038690805435,0.0,-0.002717580646276474
-0.0021570997778326273,-0.01375667192041874,-0.004675189033150673,0.019332192838191986,0.0,-0.002427299041301012
-0.0021570997778326273,-0.01375667192041874,-0.004675189033150673,0.019332192838191986,0.0,-0.002427299041301012
-0.002408962696790695,-0.013886346481740475,-0.004261063411831856,0.01896618865430355,0.0,-0.0029080433305352926
-0.002613837830722332,-0.014322130009531975,-0.004289672710001469,0.018867621198296547,0.0,-0.003063508775085211
-0.0024228296242654324,-0.013388858176767826,-0.004553859122097492,0.018680641427636147,0.0,-0.0029888253193348646
-0.0022536669857800007,-0.013903719373047352,-0.005132168997079134,0.01852460205554962,0.0,-0.003002688754349947
-0.0020630245562642813,-0.013790236786007881,-0.004839643836021423,0.01900664158165455,0.0,-0.0026754187420010567
-0.0020194381941109896,-0.014235956594347954,-0.0044852024875581264,0.0196877121925354,0.0,-0.0024397217202931643
-0.0020151056814938784,-0.014109297655522823,-0.004906498361378908,0.019629139453172684,0.0,-0.0024612469132989645
-0.00256767007522285,-0.014651241712272167,-0.0050727021880447865,0.01946142129600048,0.0,-0.00250674388371408
-0.0028873560950160027,-0.013970868661999702,-0.0047801220789551735,0.01862269639968872,0.0,-0.0024736968334764242
-0.0028634178452193737,-0.014477870427072048,-0.004884377121925354,0.01819438487291336,0.0,-0.002792599843814969
-0.0025379599537700415,-0.013974758796393871,-0.004737669136375189,0.019203122705221176,0.0,-0.0031152856536209583
-0.0023017781786620617,-0.014440292492508888,-0.0046181948855519295,0.019624920561909676,0.0,-0.0030379248782992363
-0.002154512796550989,-0.014147241599857807,-0.004568238742649555,0.019551167264580727,0.0,-0.0028015640564262867
-0.0022405984345823526,-0.014392713084816933,-0.0050626774318516254,0.01900625415146351,0.0,-0.0025227193254977465
-0.002483141841366887,-0.014433660544455051,-0.004826306831091642,0.019551144912838936,0.0,-0.002448552055284381
-0.0024259353522211313,-0.013958104886114597,-0.0049673751927912235,0.02034994401037693,0.0,-0.002874343888834119
-0.0022387991193681955,-0.01426777709275484,-0.0048294966109097,0.019525820389389992,0.0,-0.00319952005520463
-0.0022418671287596226,-0.013931071385741234,-0.0047655594535171986,0.018350303173065186,0.0,-0.0031000052113085985
-0.002055366989225149,-0.01428950671106577,-0.004734608344733715,0.01877487078309059,0.0,-0.0026995858643203974
-0.0023619772400707006,-0.013645045459270477,-0.004677167162299156,0.018842201679944992,0.0,-0.0027338089421391487
-0.002343936124816537,-0.014347406104207039,-0.004684164188802242,0.018105311319231987,0.0,-0.0030316642951220274
-0.0022735288366675377,-0.013989664614200592,-0.005000657867640257,0.01814148761332035,0.0,-0.0030939565040171146
-0.0022735288366675377,-0.013989664614200592,-0.005000657867640257,0.01814148761332035,0.0,-0.0030939565040171146
-0.002099677687510848,-0.014327521435916424,-0.004937675781548023,0.018738696351647377,0.0,-0.0029816217720508575
-0.0020168444607406855,-0.014340647496283054,-0.004762251861393452,0.01836538314819336,0.0,-0.002719429787248373
-0.002098491881042719,-0.01473550871014595,-0.004918789025396109,0.018182188272476196,0.0,-0.0025431823451071978
-0.0019302191212773323,-0.014336851425468922,-0.004498764872550964,0.017824959009885788,0.0,-0.0024195045698434114
-0.002100161975249648,-0.014599508605897427,-0.004936177749186754,0.017762474715709686,0.0,-0.002665288280695677
-0.0020952809136360884,-0.014116814360022545,-0.005409732926636934,0.018169652670621872,0.0,-0.003275531344115734
-0.002074564341455698,-0.014517642557621002,-0.004760175012052059,0.017771879211068153,0.0,-0.003383476287126541
-0.0019420497119426727,-0.014013143256306648,-0.004587918054312468,0.017913436517119408,0.0,-0.0031446265056729317
-0.001935361186042428,-0.0145876444876194,-0.004914949182420969,0.017949476838111877,0.0,-0.0029940458480268717
-0.0018755885539576411,-0.014323794282972813,-0.004986453801393509,0.017580660060048103,0.0,-0.002746225567534566
-0.001912866486236453,-0.01443923357874155,-0.005175014957785606,0.018103161826729774,0.0,-0.0028952413704246283
-0.0019335246179252863,-0.014041101559996605,-0.00544288195669651,0.01787547953426838,0.0,-0.0029654763638973236
-0.0021539360750466585,-0.014315508306026459,-0.00503400806337595,0.01804427057504654,0.0,-0.0029737730510532856
-0.002216427819803357,-0.014469925314188004,-0.004945654887706041,0.018383868038654327,0.0,-0.0028481329791247845
-0.0021813265047967434,-0.014327646233141422,-0.00482427142560482,0.01825987733900547,0.0,-0.00293536065146327
-0.0021087753120809793,-0.014023587107658386,-0.00484644528478384,0.01838933676481247,0.0,-0.002952530747279525
-0.0020268168300390244,-0.014451022259891033,-0.004749256651848555,0.01747984066605568,0.0,-0.002978638047352433
-0.0019174343906342983,-0.014275330118834972,-0.005085994489490986,0.017808711156249046,0.0,-0.002838741522282362
-0.0019884740468114614,-0.014090321026742458,-0.004823631606996059,0.017775529995560646,1.2401991625665687e-05,-0.00289272447116673
-0.0020090588368475437,-0.014253254979848862,-0.004764191806316376,0.017709115520119667,8.097613317659125e-07,-0.0028854627162218094
-0.002285892376676202,-0.014100234024226665,-0.004737370181828737,0.017851388081908226,5.287162707645621e-08,-0.002727661980316043
-0.0020387398544698954,-0.014253887347877026,-0.00484974030405283,0.017183803021907806,3.4521396852227326e-09,-0.0029290607199072838
-0.00179660611320287,-0.01381372008472681,-0.004828557837754488,0.01717417500913143,2.2540003197235592e-10,-0.002787285251542926
-0.0017748938407748938,-0.01419029850512743,-0.005117964465171099,0.01672421209514141,1.4717012331022516e-11,-0.002654180396348238
-0.001628067228011787,-0.0141287324950099,-0.0049173529259860516,0.017343783751130104,9.609157003084845e-13,-0.002716813236474991
-0.0016641307156533003,-0.014092468656599522,-0.0045054638758301735,0.01741461269557476,6.274092980177934e-14,-0.0027387109585106373
-0.001862862380221486,-0.013621536083519459,-0.004559373017400503,0.016844606027007103,4.096534665442653e-15,-0.0025182832032442093
-0.0019379706354811788,-0.014096344821155071,-0.004971859510987997,0.017268378287553787,2.6747444942740726e-16,-0.002644640626385808
-0.0019379706354811788,-0.014096344821155071,-0.004971859510987997,0.017268378287553787,2.6747444942740726e-16,-0.002644640626385808
-0.0017596161924302578,-0.014321393333375454,-0.0050505707040429115,0.017113259062170982,1.1402853282093294e-18,-0.0031321989372372627
-0.0015928220236673951,-0.014105923473834991,-0.005031994078308344,0.017262011766433716,7.445248483376078e-20,-0.003328230232000351
-0.0015928220236673951,-0.014105923473834991,-0.005031994078308344,0.017262011766433716,7.445248483376078e-20,-0.003328230232000351
-0.00145715510006994,-0.013692440465092659,-0.004890774842351675,0.0166747085750103,4.861216059764834e-21,-0.003350667655467987
-0.0014836814953014255,-0.01386767067015171,-0.005290958099067211,0.016875825822353363,3.1740266594561576e-22,-0.0031208249274641275
-0.0016822717152535915,-0.01380035001784563,-0.005088833160698414,0.016676636412739754,2.072412382029413e-23,-0.003084210678935051
-0.001591045642271638,-0.014191652648150921,-0.004904008936136961,0.016945548355579376,1.353137252245354e-24,-0.0032478871289640665
-0.0016717829275876284,-0.01412251777946949,-0.0051171132363379,0.016841160133481026,0.00013870860857423395,-0.00320858764462173
-0.0017189464997500181,-0.01383938081562519,-0.005376717075705528,0.01683994010090828,0.0002433894987916574,-0.0032275996636599302
-0.001585677731782198,-0.01385161280632019,-0.0051254769787192345,0.01664312370121479,0.0002730206761043519,-0.003265377366915345
-0.001357862027361989,-0.014190099202096462,-0.005428039934486151,0.014775082468986511,0.0002708319516386837,-0.003273504553362727
-0.0014425840927287936,-0.013734380714595318,-0.0051325662061572075,0.01629670150578022,0.0002904344000853598,-0.0033356351777911186
-0.0013563279062509537,-0.013961362652480602,-0.005386678501963615,0.016493244096636772,0.00028723874129354954,-0.0034693111665546894
-0.0015182957286015153,-0.013205843046307564,-0.005578893236815929,0.01667231135070324,0.0003044024051632732,-0.003553930437192321
-0.0015406978782266378,-0.013937386684119701,-0.005412342492491007,0.016269322484731674,0.00030087013146840036,-0.0035820615012198687
-0.0014792019501328468,-0.013331262394785881,-0.0055914209224283695,0.016112223267555237,0.0004143555706832558,-0.0034364350140094757
-0.0015539613086730242,-0.013795243576169014,-0.0051435306668281555,0.016280662268400192,0.0005332112777978182,-0.0035624445881694555
-0.0015262831002473831,-0.013563066720962524,-0.005418837536126375,0.015669869258999825,0.0004864591464865953,-0.003112760605290532
-0.0014380409847944975,-0.01294789183884859,-0.005515695083886385,0.015425351448357105,0.0005155279650352895,-0.0033372787293046713
-0.0013510569697245955,-0.013122178614139557,-0.0050329058431088924,0.01600624993443489,0.0005311487475410104,-0.00367990555241704
-0.0013893662253394723,-0.013207175768911839,-0.00488200644031167,0.015685683116316795,0.0005095142405480146,-0.0034129328560084105
-0.0013347528874874115,-0.01314788032323122,-0.0054189590737223625,0.01599072851240635,0.00048031736514531076,-0.0032136915251612663
-0.0012824947480112314,-0.013440101407468319,-0.005229058675467968,0.015770569443702698,0.0005411240854300559,-0.0029318970628082752
-0.001399846514686942,-0.013061306439340115,-0.005343755707144737,0.015861963853240013,0.000561548222322017,-0.0031815594993531704
-0.0014401148073375225,-0.013353139162063599,-0.00497035589069128,0.016091469675302505,0.0005289710825309157,-0.003314446657896042
-0.0014799314085394144,-0.012681701220571995,-0.00485893152654171,0.015864038839936256,0.0005578304990194738,-0.003485815366730094
-0.001368065015412867,-0.01311627309769392,-0.005077627021819353,0.01631651446223259,0.0005807256093248725,-0.0035970329772681
-0.0012731049209833145,-0.0127198975533247,-0.0054061817936599255,0.01563294045627117,0.0005456886137835681,-0.0036909247282892466
-0.0012099428568035364,-0.013257031328976154,-0.005140372551977634,0.016123091802001,0.0006042892928235233,-0.003456668695434928
-0.0012099428568035364,-0.013257031328976154,-0.005140372551977634,0.016123091802001,0.0006042892928235233,-0.003456668695434928
-0.0010281932773068547,-0.012992452830076218,-0.005230369977653027,0.015621817670762539,0.0006451969966292381,-0.003337707370519638
-0.0010798098519444466,-0.013111741282045841,-0.005273070652037859,0.015467771328985691,0.0006259307847358286,-0.003629202488809824
-0.0010798098519444466,-0.013111741282045841,-0.005273070652037859,0.015467771328985691,0.0006259307847358286,-0.003629202488809824
-0.0011359109776094556,-0.013026291504502296,-0.005503498017787933,0.01569242775440216,0.0006345229339785874,-0.0037929341197013855
-0.0011548080947250128,-0.01329504419118166,-0.005291027016937733,0.01576024666428566,0.0006005010800436139,-0.003875838126987219
-0.0011150272330269217,-0.01300437655299902,-0.005317120347172022,0.0157232116907835,0.0006785917794331908,-0.0037518141325563192
-0.0010825289646163583,-0.013256549835205078,-0.005063231103122234,0.01624578796327114,0.0006076304125599563,-0.0034510367549955845
-0.0010373033583164215,-0.013108542189002037,-0.005085478536784649,0.01572161167860031,0.0006284884293563664,-0.003556264564394951
-0.001014749170280993,-0.01304404903203249,-0.005408748984336853,0.015740541741251945,0.0005741218337789178,-0.0037573440931737423
-0.0009964060736820102,-0.012821507640182972,-0.005032953806221485,0.014904220588505268,0.0005999773275107145,-0.0038334529381245375
-0.00098310352768749,-0.013113158755004406,-0.005414470098912716,0.015075995586812496,0.0006206774851307273,-0.003864099271595478
-0.0009354999056085944,-0.012655876576900482,-0.005337165202945471,0.014454041607677937,0.0005802269442938268,-0.003928379621356726
-0.0009220761712640524,-0.012916184030473232,-0.00503072515130043,0.014732143841683865,0.000568198156543076,-0.003945701755583286
-0.000918733305297792,-0.01295956689864397,-0.0051390924490988255,0.014337840490043163,0.0005169070209376514,-0.0038631469942629337
-0.000916340562980622,-0.012762648053467274,-0.005065074656158686,0.015057412907481194,0.000544284877832979,-0.003981052897870541
-0.0009418139234185219,-0.012998677790164948,-0.005001994781196117,0.014930790290236473,0.0005043004639446735,-0.004056138452142477
-0.0009374863584525883,-0.01263649482280016,-0.00565039087086916,0.015102806501090527,0.0005182670429348946,-0.003856318537145853
-0.0008490726468153298,-0.012558097019791603,-0.005212136544287205,0.015135486610233784,0.000516753236297518,-0.0037037660367786884
-0.0008539904374629259,-0.014580676332116127,-0.004915348254144192,0.014603874646127224,0.000489421421661973,-0.003791679861024022
-0.0008549201884306967,-0.011990952305495739,-0.004828743636608124,0.015416726469993591,0.0004985759733244777,-0.003836053656414151
-0.0008586554904468358,-0.012326519005000591,-0.00518886698409915,0.01461282093077898,0.0004842980997636914,-0.003807566361501813
-0.0008357137558050454,-0.013066456653177738,-0.005424594506621361,0.014434791170060635,0.00043953058775514364,-0.00421091727912426
-0.0007717345142737031,-0.012846174649894238,-0.005682682152837515,0.014038808643817902,0.0004695483949035406,-0.004082611761987209
-0.0007847239030525088,-0.012798300012946129,-0.005218793638050556,0.014321756549179554,0.0004761931486427784,-0.003851508954539895
-0.0007875228184275329,-0.012546571902930737,-0.004819357767701149,0.013426858931779861,0.00047342493780888617,-0.004208363126963377
-0.0008271393598988652,-0.01266070269048214,-0.005360190290957689,0.013390619307756424,0.00044233203516341746,-0.004145015962421894
-0.0008095495286397636,-0.012386786751449108,-0.005304316524416208,0.013059232383966446,0.00046446494525298476,-0.004081122577190399
-0.0007504167151637375,-0.01271018572151661,-0.006006086245179176,0.013902411796152592,0.00044286384945735335,-0.004348050337284803
-0.0006709557492285967,-0.012702289037406445,-0.005346842110157013,0.014250490814447403,0.00041828936082310975,-0.004133991897106171
-0.0006709557492285967,-0.012702289037406445,-0.005346842110157013,0.014250490814447403,0.00041828936082310975,-0.004133991897106171
-0.0006916835554875433,-0.012122132815420628,-0.005283380392938852,0.015373078174889088,0.00043839035788550973,-0.0039604585617780685
-0.0006320911925286055,-0.012613551691174507,-0.005570140667259693,0.014722198247909546,0.0004420403565745801,-0.003840504214167595
-0.0006141616613604128,-0.012569078244268894,-0.0051983012817800045,0.013074945658445358,0.00044147190055809915,-0.0038971207104623318
-0.0005423490656539798,-0.012900229543447495,-0.005428161472082138,0.013610988855361938,0.0004102447419427335,-0.0040158168412745
-0.0005766504327766597,-0.012528644874691963,-0.00531195430085063,0.014281531795859337,0.0004405034123919904,-0.004186389967799187
-0.0005243211635388434,-0.012120119296014309,-0.0052810292690992355,0.013466662727296352,0.00041531541501171887,-0.004774380009621382
-0.0005542343715205789,-0.01219000294804573,-0.004220305010676384,0.01339014433324337,0.00041694860556162894,-0.0047910031862556934
-0.0005122052389197052,-0.012250109575688839,-0.0037438650615513325,0.012943784706294537,0.00041772195254452527,-0.00477092107757926
-0.0005385653930716217,-0.012437965720891953,-0.004100418649613857,0.013505102135241032,0.0004935101605951786,-0.004298227373510599
-0.0005034845671616495,-0.012082090601325035,-0.00464125769212842,0.013158055953681469,0.0005377293564379215,-0.003971412777900696
-0.00047060451470315456,-0.012357114814221859,-0.004857080988585949,0.013408904895186424,0.0005715230363421142,-0.0038556945510208607
-0.00046312963240779936,-0.012040631845593452,-0.004845086019486189,0.013422349467873573,0.000589582952670753,-0.004148747771978378
-0.00042112672235816717,-0.012184813618659973,-0.0040922025218605995,0.013836214318871498,0.0005626088823191822,-0.004609488416463137
-0.00038509254227392375,-0.01223473995923996,-0.003775337478145957,0.01436246931552887,0.0007685563759878278,-0.004687834531068802
-0.00042463946738280356,-0.011844336055219173,-0.004387768916785717,0.013570710085332394,0.0007887634565122426,-0.004390517249703407
-0.0003945476491935551,-0.012474223040044308,-0.004669774789363146,0.013352597132325172,0.0007587777217850089,-0.00403642887249589
-0.0003442449669819325,-0.011724564246833324,-0.004575998522341251,0.0135745108127594,0.0007189995958469808,-0.004259584471583366
-0.0003767770540434867,-0.01208993699401617,-0.004018054809421301,0.013213684782385826,0.000716086127795279,-0.0043909428641200066
-0.00035618754918687046,-0.011510681360960007,-0.004292141180485487,0.01348404586315155,0.0006605202215723693,-0.004766479134559631
-0.0003371342027094215,-0.01161214429885149,-0.004131167195737362,0.012815140187740326,0.0006857715197838843,-0.005064564757049084
-0.0003200081118848175,-0.010931980796158314,-0.00441369554027915,0.013022828847169876,0.0007097887573763728,-0.0050954753533005714
-0.00030453791259787977,-0.011146845296025276,-0.004101836122572422,0.012706849724054337,0.0007291967049241066,-0.004838259425014257
-0.00029049458680674434,-0.01102166622877121,-0.004139449447393417,0.013407287187874317,0.0008232375257648528,-0.0045759063214063644
-0.00031574125750921667,-0.010658720508217812,-0.0046998281031847,0.012904598377645016,0.000871108437422663,-0.004339663777500391
-0.0003039386938326061,-0.01108456403017044,-0.004866519011557102,0.012391041964292526,0.0008775665774010122,-0.004552867263555527
-0.0002916475059464574,-0.01097740139812231,-0.0047517442144453526,0.012341816909611225,0.0008659132872708142,-0.004565906245261431
-0.0002802932867780328,-0.011215108446776867,-0.004239770583808422,0.011714777909219265,0.0009506774367764592,-0.004872054327279329
-0.00026978980167768896,-0.011060233227908611,-0.004410358611494303,0.012252023443579674,0.0009884844766929746,-0.004905948881059885
-0.00026978980167768896,-0.011060233227908611,-0.004410358611494303,0.012252023443579674,0.0009884844766929746,-0.004905948881059885
-0.0002600456355139613,-0.010717207565903664,-0.004540752153843641,0.011732075363397598,0.0009492398239672184,-0.004669028799980879
-0.00025098101468756795,-0.010854938998818398,-0.004605007823556662,0.012004637159407139,0.0009409086778759956,-0.004179927986115217
-0.00024252622097264975,-0.010796927846968174,-0.004743196535855532,0.012237821705639362,0.0008626891649328172,-0.004251415841281414
-0.00023462359968107194,-0.010567696765065193,-0.005020653363317251,0.011991222389042377,0.0008283245842903852,-0.004509688820689917
-0.00022721891582477838,-0.010911403223872185,-0.004883717279881239,0.012773806229233742,0.0008083516731858253,-0.004746309015899897
-0.00022026750957593322,-0.01072228979319334,-0.00474962405860424,0.012266349978744984,0.0007883665966801345,-0.0048184567131102085
-0.0002137292904080823,-0.010177619755268097,-0.004546841606497765,0.012538335286080837,0.0008264542557299137,-0.00497706001624465
-0.00020756767480634153,-0.010814471170306206,-0.005292002111673355,0.011946056969463825,0.0008372424636036158,-0.004449116066098213
-0.0002017511724261567,-0.01125449500977993,-0.005382872652262449,0.012086514383554459,0.001030036830343306,-0.004451730288565159
-0.000196252076420933,-0.010652780532836914,-0.004885391797870398,0.012588858604431152,0.0010323348687961698,-0.004620622377842665
-0.00019104474631603807,-0.010770630091428757,-0.004720505326986313,0.012538057751953602,0.0009182525100186467,-0.004721217323094606
-0.00018610690312925726,-0.010503887198865414,-0.004945127293467522,0.013115462847054005,0.0009096463909372687,-0.005119309760630131
-0.00016650668112561107,-0.01045368704944849,-0.004859407898038626,0.012643367052078247,0.0009707394638098776,-0.005117574706673622
-0.0001553511683596298,-0.010629303753376007,-0.004787882324308157,0.012630503624677658,0.000992314424365759,-0.004897638224065304
-5.3388517699204385e-05,-0.010592253878712654,-0.005076633300632238,0.011484830640256405,0.000874421966727823,-0.004828698467463255
-5.183413304621354e-05,-0.010191459208726883,-0.004904179368168116,0.011656933464109898,0.0008541773422621191,-0.004792752210050821
-5.038301242166199e-05,-0.010797698982059956,-0.004904733505100012,0.010703417472541332,0.0008019910892471671,-0.004798507317900658
-4.9011177907232195e-05,-0.01135192159563303,-0.004751779604703188,0.011165966279804707,0.0007669718470424414,-0.005167718045413494
-4.7712030209368095e-05,-0.010097987949848175,-0.0046425326727330685,0.011091036722064018,0.0007817102014087141,-0.004996181931346655
-4.6479992306558415e-05,-0.01000897865742445,-0.005292389541864395,0.01118393149226904,0.000744433025829494,-0.004763340577483177
-4.531001468421891e-05,-0.010703979060053825,-0.005099601112306118,0.012132265605032444,0.0007593051996082067,-0.005067423917353153
-4.419750621309504e-05,-0.010219840332865715,-0.00475466251373291,0.011416539549827576,0.0009670615545473993,-0.004643202293664217
-4.313824319979176e-05,-0.010629402473568916,-0.004749011714011431,0.011298367753624916,0.0009682064410299063,-0.004594465717673302
-4.212862404529005e-05,-0.010706820525228977,-0.004806817974895239,0.011067352257668972,0.0009915122063830495,-0.005110851023346186
-4.212862404529005e-05,-0.010706820525228977,-0.004806817974895239,0.011067352257668972,0.0009915122063830495,-0.005110851023346186
-2.0133469661232084e-05,-0.011446665041148663,-0.005738927982747555,0.010768312029540539,0.001112579950131476,-0.005104238633066416
-1.9682465790538117e-05,-0.010492894798517227,-0.005242970772087574,0.010177984833717346,0.0010684095323085785,-0.004955547861754894
-1.9682465790538117e-05,-0.010492894798517227,-0.005242970772087574,0.010177984833717346,0.0010684095323085785,-0.004955547861754894
-1.926111326611135e-05,-0.010500811040401459,-0.004629517439752817,0.010532595217227936,0.000929253816138953,-0.004811475984752178
-2.2073679701861693e-06,-0.010595430620014668,-0.004681592341512442,0.01098794024437666,0.0009177227038890123,-0.004741373006254435
-2.9614657393040034e-08,-0.010446070693433285,-0.005333489738404751,0.010696805082261562,0.000816333806142211,-0.005202626343816519
-3.973184281580444e-10,-0.010590167716145515,-0.0051604826003313065,0.010302165523171425,0.0008160157594829798,-0.005464387591928244
-5.330534191133607e-12,-0.010891493409872055,-0.0053663235157728195,0.010559754446148872,0.0008106698514893651,-0.005270510446280241
-7.151591330852719e-14,-0.010271888226270676,-0.005172821693122387,0.010274002328515053,0.000820195593405515,-0.0053605129942297935
-9.594772062770191e-16,-0.010508999228477478,-0.004720706958323717,0.010784444399178028,0.0008852664614096284,-0.005212191957980394
-1.2872611162329818e-17,-0.010683181695640087,-0.0055963434278965,0.010616765357553959,0.0009634266025386751,-0.005719880107790232
-1.7270250352627468e-19,-0.01101023331284523,-0.004912710282951593,0.00877553503960371,0.0009585185325704515,-0.005510909948498011
-2.317024580330879e-21,-0.011555830016732216,-0.004306103102862835,0.00989790353924036,0.0009201247012242675,-0.005378279369324446
-3.108584336480833e-23,-0.010401048697531223,-0.004998070187866688,0.010207869112491608,0.0008689938695169985,-0.005549703724682331
-5.595342252484027e-27,-0.011125259101390839,-0.005055025219917297,0.01022754330188036,0.0008579722489230335,-0.00562817370519042
-7.506865061255155e-29,-0.0106137590482831,-0.004535640124231577,0.00978526659309864,0.0008635568083263934,-0.005587007850408554
-1.0071418366489327e-30,-0.010791430249810219,-0.004722503013908863,0.009762590751051903,0.0008678956073708832,-0.005555116105824709
-1.351209303498317e-32,-0.010965549387037754,-0.004979478660970926,0.010359661653637886,0.0008799765491858125,-0.005291348788887262
-1.812819607600544e-34,-0.010082424618303776,-0.005209818948060274,0.009741469286382198,0.0009009269997477531,-0.005865158978849649
-2.432128949824229e-36,-0.01037124078720808,-0.0050231111235916615,0.009477183222770691,0.000901938125025481,-0.005620718002319336
-3.263011475723896e-38,-0.010588332079350948,-0.004638103302568197,0.010010658763349056,0.0009017360862344503,-0.0054020327515900135
-4.377740480458588e-40,-0.010994167998433113,-0.004573578480631113,0.009200207889080048,0.0009025948820635676,-0.005532942246645689
-5.872841863985308e-42,-0.01077821385115385,-0.004482341464608908,0.008407970890402794,0.0009510343079455197,-0.006012727040797472
0.0002970494970213622,-0.009635894559323788,-0.004397947806864977,0.008803914301097393,0.0009649127605371177,-0.005943177733570337
0.0003545618092175573,-0.009915575385093689,-0.004870506934821606,0.008704393170773983,0.0009782154811546206,-0.0059209223836660385
0.0003545618092175573,-0.009915575385093689,-0.004870506934821606,0.008704393170773983,0.0009782154811546206,-0.0059209223836660385
0.0003296723298262805,-0.010374020785093307,-0.005028324667364359,0.008384580723941326,0.001251128618605435,-0.0059024072252213955
0.0003612437576521188,-0.010620319284498692,-0.004916219972074032,0.008727360516786575,0.0012248145649209619,-0.005950994789600372
0.00034495521686039865,-0.009968851692974567,-0.004574649967253208,0.008142317645251751,0.0011838094796985388,-0.005933079402893782
0.0003596969763748348,-0.010234999470412731,-0.004537909757345915,0.007910707034170628,0.0010993251344189048,-0.00590496975928545
0.00035668894997797906,-0.010025451891124249,-0.0046640560030937195,0.007518585305660963,0.0010684947483241558,-0.005934127606451511
0.00036939961137250066,-0.010113473981618881,-0.00467718718573451,0.0075850216671824455,0.0010404553031548858,-0.006087697576731443
0.0003661841619759798,-0.010179370641708374,-0.005412982776761055,0.007962268777191639,0.0010030893608927727,-0.006345564965158701
0.00034865899942815304,-0.010043999180197716,-0.004647619556635618,0.008349837735295296,0.0009132657432928681,-0.006087785121053457
0.00040221589733846486,-0.009761803783476353,-0.004537853412330151,0.008380277082324028,0.0009562422637827694,-0.0060005225241184235
0.0004011708952020854,-0.010292405262589455,-0.004183958284556866,0.008139175362884998,0.000969109998550266,-0.006044087000191212
0.0003687563294079155,-0.009084349498152733,-0.004354437347501516,0.007950437255203724,0.000974952126853168,-0.00615381496027112
0.0003408246557228267,-0.00958138145506382,-0.004907276947051287,0.007666391786187887,0.0013008007081225514,-0.0061130281537771225
0.00037754999357275665,-0.010027987882494926,-0.0050208112224936485,0.007847240194678307,0.0012417864054441452,-0.005880550481379032
0.0004521910159382969,-0.009526361711323261,-0.004494297783821821,0.008528722450137138,0.0012293120380491018,-0.00605797627940774
0.0006803830619901419,-0.009568548761308193,-0.004410012625157833,0.007917601615190506,0.0013301379512995481,-0.005762170068919659
0.0008800508221611381,-0.009186911396682262,-0.004623520188033581,0.008073469623923302,0.0011946207378059626,-0.006310250610113144
0.0015585341025143862,-0.0094328373670578,-0.004601538646966219,0.007943200878798962,0.001093297265470028,-0.005739844869822264
0.001237628166563809,-0.008924702182412148,-0.004460567142814398,0.007557895965874195,0.0010796708520501852,-0.005794506054371595
0.0011146321194246411,-0.008898383006453514,-0.005425768438726664,0.007381467614322901,0.0010505550308153033,-0.0058961729519069195
0.0009889480425044894,-0.009053356945514679,-0.005314603913575411,0.00817958451807499,0.0010290092322975397,-0.006198719143867493
0.0009720248635858297,-0.009260168299078941,-0.004702148027718067,0.007974687032401562,0.001237916061654687,-0.006708587519824505
0.0008564759627915919,-0.009227986447513103,-0.004836000502109528,0.007542133331298828,0.0013508993433788419,-0.0063181668519973755
0.0008564759627915919,-0.009227986447513103,-0.004836000502109528,0.007542133331298828,0.0013508993433788419,-0.0063181668519973755
0.0008902604458853602,-0.0085883978754282,-0.004831079393625259,0.007306791841983795,0.0016279546543955803,-0.005958762485533953
0.0014129384653642774,-0.009013097733259201,-0.004962319973856211,0.0075180307030677795,0.0016044473741203547,-0.005572022870182991
0.0017226075287908316,-0.008941429667174816,-0.00483903381973505,0.007323279045522213,0.0014913324266672134,-0.006163627840578556
0.0015827727038413286,-0.008996628224849701,-0.004612558986991644,0.007026861421763897,0.0011954198125749826,-0.006356107536703348
0.0015827727038413286,-0.008996628224849701,-0.004612558986991644,0.007026861421763897,0.0011954198125749826,-0.006356107536703348
0.0014447248540818691,-0.00820460170507431,-0.004614115227013826,0.007130565587431192,0.001151715754531324,-0.006356048863381147
0.0013623768463730812,-0.008407807908952236,-0.004770736675709486,0.007661153562366962,0.0011259940220043063,-0.006262213457375765
0.0013183228438720107,-0.007912685163319111,-0.0049752481281757355,0.0071332454681396484,0.0011257140431553125,-0.006822606083005667
0.0014124724548310041,-0.008198807016015053,-0.004460338968783617,0.006906201131641865,0.0010868535609915853,-0.006894303020089865
0.001984876347705722,-0.008342551998794079,-0.0046460614539682865,0.00728795537725091,0.00109301193151623,-0.006761945318430662
0.0021680337376892567,-0.0079062944278121,-0.004698758479207754,0.0070980992168188095,0.0011990986531600356,-0.0064605847001075745
0.0021905028261244297,-0.007919222116470337,-0.004523016512393951,0.006787801627069712,0.001227297238074243,-0.00686945766210556
0.0020132027566432953,-0.00852059107273817,-0.004532048478722572,0.007327001076191664,0.0011976873502135277,-0.006833186373114586
0.0019793480169028044,-0.008380984887480736,-0.004622075241059065,0.006885880138725042,0.0014560853596776724,-0.0070476047694683075
0.002205006079748273,-0.007559117861092091,-0.0043230014853179455,0.006675733719021082,0.0013991588493809104,-0.006982653401792049
0.0021771027240902185,-0.007966231554746628,-0.004979729652404785,0.006855388637632132,0.0013104913523420691,-0.0067922561429440975
0.0025612665340304375,-0.008053709752857685,-0.004880099091678858,0.006888654548674822,0.0011840336956083775,-0.007063577882945538
0.0027987768407911062,-0.007840974256396294,-0.004911199677735567,0.006810770370066166,0.001125974114984274,-0.006730725057423115
0.002641192404553294,-0.00798006821423769,-0.0047199539840221405,0.006724955979734659,0.00117181905079633,-0.007117638364434242
0.0027330536395311356,-0.008205161429941654,-0.004883029498159885,0.006238825153559446,0.0012163919163867831,-0.006061344873160124
0.0024454977829009295,-0.007609274238348007,-0.004837012384086847,0.006022745277732611,0.0012944565387442708,-0.007656416855752468
0.002630089409649372,-0.007507776375859976,-0.004745690617710352,0.006125401705503464,0.001428315881639719,-0.007251172326505184
0.002826834563165903,-0.00757104204967618,-0.004853091202676296,0.006196403410285711,0.001419618260115385,-0.006458905525505543
0.00290791317820549,-0.007791962940245867,-0.004244447220116854,0.0061317263171076775,0.001478260150179267,-0.0065836417488753796
0.0032823868095874786,-0.007364054676145315,-0.0044135237112641335,0.00628502294421196,0.0014451522147282958,-0.007042295765131712
0.002966265892609954,-0.007387319579720497,-0.004660199396312237,0.006345855072140694,0.0013344376347959042,-0.006775738205760717
0.003055629087612033,-0.007452600169926882,-0.004673849791288376,0.006111633498221636,0.0012359014945104718,-0.007150806952267885
0.0034387961495667696,-0.0081516457721591,-0.005026272498071194,0.005715799983590841,0.0010862639173865318,-0.007043938618153334
0.0034387961495667696,-0.0081516457721591,-0.005026272498071194,0.005715799983590841,0.0010862639173865318,-0.007043938618153334
0.003306038212031126,-0.007848137989640236,-0.004842214286327362,0.005522114224731922,0.001178843667730689,-0.006444677710533142
0.0032170445192605257,-0.006979150231927633,-0.004419014789164066,0.005554828327149153,0.0011771253775805235,-0.006392230279743671
0.00332223461009562,-0.008199348114430904,-0.004352961666882038,0.005278795026242733,0.0016821639146655798,-0.007542597129940987
0.0036636944860219955,-0.008048676885664463,-0.004661959130316973,0.005014644470065832,0.001643531140871346,-0.007161160930991173
0.0038554726634174585,-0.007690430153161287,-0.0046843900345265865,0.005614361725747585,0.0017832160228863358,-0.007804501336067915
0.003919599112123251,-0.006862382870167494,-0.004706574138253927,0.005527392495423555,0.0017616958357393742,-0.007142660673707724
0.004273210186511278,-0.007157914340496063,-0.004487068857997656,0.005226113833487034,0.0015518367290496826,-0.007139937486499548
0.004295645281672478,-0.007384692784398794,-0.004437767434865236,0.00483484985306859,0.0015076212584972382,-0.007359078153967857
0.00449551735073328,-0.006946131121367216,-0.004633172415196896,0.004529502242803574,0.00140199379529804,-0.007976365275681019
0.004358801990747452,-0.0071667032316327095,-0.004689472261816263,0.004882498644292355,0.0012853287626057863,-0.007859285920858383
0.004155398346483707,-0.0069585517048835754,-0.004901407286524773,0.005233578849583864,0.0013800750020891428,-0.007102657109498978
0.00493144616484642,-0.006765409838408232,-0.004448795225471258,0.004920844919979572,0.0013547498965635896,-0.007203883491456509
0.005021240562200546,-0.006981589365750551,-0.004512930288910866,0.004938223864883184,0.0017287828959524632,-0.007894576527178288
0.004514755215495825,-0.006953478325158358,-0.004890136420726776,0.004867943935096264,0.001636038301512599,-0.007132652215659618
0.004473896697163582,-0.007482514716684818,-0.004439194221049547,0.004738390911370516,0.0014838224742561579,-0.007174074184149504
0.004630608018487692,-0.0073912544175982475,-0.004482842516154051,0.004755368921905756,0.0013725694734603167,-0.0073670633137226105
0.004712323192507029,-0.006707099266350269,-0.004529778379946947,0.004917667247354984,0.0012638600310310721,-0.007985450327396393
0.0048416657373309135,-0.0066176182590425014,-0.004663505591452122,0.004471038933843374,0.0012214055750519037,-0.008269408717751503
0.0052777668461203575,-0.007366175297647715,-0.004714689217507839,0.004242160823196173,0.0012745283311232924,-0.007644679397344589
0.005090860649943352,-0.007005397696048021,-0.004636647179722786,0.0038029879797250032,0.0017151626525446773,-0.007934292778372765
0.0056973607279360294,-0.006396927870810032,-0.004458526149392128,0.0035023516975343227,0.0017875316552817822,-0.00746049964800477
0.005375909153372049,-0.007147128228098154,-0.00453925970941782,0.00366385979577899,0.0017596681136637926,-0.007237953599542379
0.005826468579471111,-0.0074906786903738976,-0.004601221065968275,0.003987148404121399,0.001642833580262959,-0.007560189813375473
0.005642587784677744,-0.006751569919288158,-0.004650054965168238,0.0035741000901907682,0.0016352722886949778,-0.007509993854910135
0.006112213712185621,-0.006274566985666752,-0.004728817846626043,0.0031902885530143976,0.0016526678809896111,-0.007124571595340967
0.006303252652287483,-0.0066841524094343185,-0.004582426976412535,0.0028734845109283924,0.0015924886101856828,-0.00746432738378644
0.006303252652287483,-0.0066841524094343185,-0.004582426976412535,0.0028734845109283924,0.0015924886101856828,-0.00746432738378644
0.00594461802393198,-0.006746149156242609,-0.004629591945558786,0.002815956249833107,0.0016791909001767635,-0.00830680038779974
0.006272058468312025,-0.006686119828373194,-0.004511263221502304,0.0027482048608362675,0.0018182452768087387,-0.007848474197089672
0.006272058468312025,-0.006686119828373194,-0.004511263221502304,0.0027482048608362675,0.0018182452768087387,-0.007848474197089672
0.006150080356746912,-0.0063545238226652145,-0.004413608927279711,0.0027918273117393255,0.0018335753120481968,-0.008017711341381073
0.006203495431691408,-0.006660741288214922,-0.00494099035859108,0.002765888348221779,0.001778848934918642,-0.007765255868434906
0.006600748747587204,-0.007193408440798521,-0.004647876136004925,0.003033390734344721,0.0016654558712616563,-0.007778973784297705
0.006950595416128635,-0.006802483461797237,-0.004398976918309927,0.002876667072996497,0.0015899570425972342,-0.007984797470271587
0.0065106721594929695,-0.006437115836888552,-0.004058727063238621,0.0027046503964811563,0.0016691845376044512,-0.008079135790467262
0.006486144382506609,-0.006535109132528305,-0.004835852887481451,0.002694061491638422,0.001807995606213808,-0.008086778223514557
0.006747536826878786,-0.006628148723393679,-0.0051207104697823524,0.002482891781255603,0.001966852229088545,-0.008134898729622364
0.006992582697421312,-0.006358148995786905,-0.004784462042152882,0.002302647801116109,0.0018927864730358124,-0.007993279956281185
0.006897651124745607,-0.0060911038890480995,-0.004365145694464445,0.0021674635354429483,0.001844450831413269,-0.008155282586812973
0.006768107879906893,-0.006118929013609886,-0.004298915155231953,0.0020435675978660583,0.0016850761603564024,-0.00800318457186222
0.006631978787481785,-0.006862986367195845,-0.004623791668564081,0.0019830167293548584,0.0016359526198357344,-0.0077606369741261005
0.0067625767551362514,-0.007032010704278946,-0.004615687765181065,0.001922487746924162,0.0016217612428590655,-0.007696784567087889
0.007227128837257624,-0.006483675446361303,-0.0044417004100978374,0.001896484987810254,0.001772480085492134,-0.008022055961191654
0.007314194459468126,-0.006371443159878254,-0.004360658582299948,0.0017777513712644577,0.0018280486110597849,-0.008190046064555645
0.007271311245858669,-0.006424390245229006,-0.0047472030855715275,0.0016600494273006916,0.0018809759058058262,-0.007812058553099632
0.007313612848520279,-0.006638358347117901,-0.004948300775140524,0.0015219057677313685,0.001958530629053712,-0.00799126923084259
0.007335093338042498,-0.0064321719110012054,-0.0041106343269348145,0.0014691908145323396,0.002306438982486725,-0.007861459627747536
0.007325945422053337,-0.006082870066165924,-0.004205376375466585,0.001652514562010765,0.002287463517859578,-0.008517102338373661
0.007379254326224327,-0.0063481745310127735,-0.004992094822227955,0.0015982100740075111,0.0020857418421655893,-0.00831432081758976
0.007865586318075657,-0.006549731828272343,-0.005067982245236635,0.0014600815484300256,0.0019779170397669077,-0.008412147872149944
0.007538389880210161,-0.006508584599941969,-0.004693047609180212,0.0012871433282271028,0.001837029936723411,-0.00834043137729168
0.007214173674583435,-0.0062277368269860744,-0.004778677131980658,0.0012022488517686725,0.0018477693665772676,-0.00848483107984066
0.007417568005621433,-0.00606732489541173,-0.004748983774334192,0.0012778353411704302,0.001882260083220899,-0.008375335484743118
0.0077970619313418865,-0.006400974001735449,-0.004852050915360451,0.0012913262471556664,0.0021474440582096577,-0.008273027837276459
0.00788162462413311,-0.006822311785072088,-0.004640675615519285,0.0012546743964776397,0.002318780869245529,-0.008281898684799671
0.00788162462413311,-0.006822311785072088,-0.004640675615519285,0.0012546743964776397,0.002318780869245529,-0.008281898684799671
0.008195942267775536,-0.006231645122170448,-0.0044168513268232346,0.0011776922037824988,0.002225472591817379,-0.00862878654152155
0.00791814923286438,-0.005764190573245287,-0.0048406426794826984,0.0010090847499668598,0.0022291250061243773,-0.008727448992431164
0.008247671648859978,-0.0061798314563930035,-0.005009049084037542,0.0009607539977878332,0.0020412085577845573,-0.008888277225196362
0.007722457870841026,-0.006158521398901939,-0.004689816385507584,0.0008716849843040109,0.001868387800641358,-0.00822366587817669
0.007728213910013437,-0.006517611909657717,-0.004202327691018581,0.0007790161180309951,0.0018101446330547333,-0.008664891123771667
0.007981888018548489,-0.006412884220480919,-0.004345945548266172,0.0007029531407169998,0.0016718845581635833,-0.009219365194439888
0.00809820368885994,-0.005484024994075298,-0.004158935509622097,0.0006403609295375645,0.0016876967856660485,-0.00879944209009409
0.008738460950553417,-0.006060612853616476,-0.004497792571783066,0.0005880098324269056,0.0015954682603478432,-0.009185376577079296
0.008610615506768227,-0.006031906232237816,-0.004645476117730141,0.0005435829516500235,0.0018515146803110838,-0.008732602000236511
0.008662351407110691,-0.006341501139104366,-0.004630656912922859,0.000505395291838795,0.0020455927588045597,-0.008966557681560516
0.008765680715441704,-0.00595553033053875,-0.0042362515814602375,0.00047222833381965756,0.002136328024789691,-0.00905246939510107
0.008288726210594177,-0.005795425269752741,-0.003880600444972515,0.00044314691331237555,0.002321832347661257,-0.00932616088539362
0.008586264215409756,-0.005394491832703352,-0.0043305628933012486,0.0004174422356300056,0.002150719054043293,-0.009332194924354553
0.0068808067589998245,-0.005887549836188555,-0.0046713631600141525,0.0003945574862882495,0.0022426603827625513,-0.009929439052939415
0.005630312487483025,-0.005758965387940407,-0.004672106355428696,0.0003740517422556877,0.002319985069334507,-0.009178824722766876
0.00588242569938302,-0.006457631941884756,-0.004142755642533302,0.00035557366209104657,0.0022830606903880835,-0.009072047658264637
0.006866337265819311,-0.005578627809882164,-0.004245517309755087,0.00033883535070344806,0.002387771150097251,-0.008991735056042671
0.007262565195560455,-0.005275710020214319,-0.004655123688280582,0.0003236018819734454,0.0026104662101715803,-0.009065147489309311
0.006652418524026871,-0.005831023678183556,-0.004728491418063641,0.00030968140345066786,0.0026226737536489964,-0.008938304148614407
0.006982544902712107,-0.005916078574955463,-0.004357616417109966,0.0002969081106130034,0.0026820283383131027,-0.009130416437983513
0.006895550526678562,-0.005851860158145428,-0.004464815370738506,0.00027428247267380357,0.0020711016841232777,-0.009839902631938457
0.006829422898590565,-0.005514336284250021,-0.004725093021988869,0.0002642159815877676,0.0018823327263817191,-0.009308627806603909
0.006745343562215567,-0.005567008163779974,-0.004806566517800093,0.0002548626798670739,0.001987480092793703,-0.009561287239193916
0.006607128772884607,-0.005974614527076483,-0.004750274121761322,0.00024614803260192275,0.0018908620113506913,-0.009444231167435646
0.007215698715299368,-0.005826712120324373,-0.004723451565951109,0.00021026821923442185,0.002083719475194812,-0.009820682927966118
0.007513523101806641,-0.005734617356210947,-0.005066913552582264,0.0002017254155362025,0.0019449314568191767,-0.01058162096887827
0.007131329737603664,-0.0055538262240588665,-0.004897314123809338,0.00019535153114702553,0.0019297202816233039,-0.00955943949520588
0.007305176462978125,-0.005734398029744625,-0.004769029561430216,0.00018946811906062067,0.0019851773977279663,-0.008786652237176895
0.007607047446072102,-0.005575632676482201,-0.0050223893485963345,9.022195445140824e-05,0.0022070028353482485,-0.009336534887552261
0.008169290609657764,-0.005670483689755201,-0.005234823562204838,5.77270875510294e-05,0.0026249864604324102,-0.009860335849225521
0.008169290609657764,-0.005670483689755201,-0.005234823562204838,5.77270875510294e-05,0.0026249864604324102,-0.009860335849225521
0.007710732985287905,-0.00554917985573411,-0.004821475129574537,3.066037970711477e-05,0.0025277510285377502,-0.009980245493352413
0.007766197435557842,-0.005467784125357866,-0.004527561366558075,1.356991742795799e-05,0.0027159445453435183,-0.010368377901613712
0.008146417327225208,-0.005337598733603954,-0.0048988983035087585,8.8601859715709e-07,0.0028422840405255556,-0.009944509714841843
0.007935278117656708,-0.005774334073066711,-0.005056586116552353,5.7850680690307854e-08,0.0026313213165849447,-0.009581795893609524
0.008687307126820087,-0.005798279773443937,-0.005411941092461348,3.777235857427286e-09,0.0024538240395486355,-0.010200991295278072
0.008213227614760399,-0.005605935584753752,-0.005098492838442326,-0.0014512964989989996,0.0024654578883200884,-0.010094818659126759
0.008611679077148438,-0.005251599475741386,-0.004278181120753288,-0.0022342479787766933,0.0025484072975814342,-0.009858796373009682
0.009081956930458546,-0.005316419061273336,-0.004397460725158453,-0.0024397054221481085,0.0024829749017953873,-0.009864605031907558
0.008228305727243423,-0.005168961361050606,-0.005188027396798134,-0.002248465083539486,0.0024742460809648037,-0.00993809849023819
0.008712305687367916,-0.005143319722265005,-0.005471701733767986,-0.002380638848990202,0.0023713447153568268,-0.010281814262270927
0.00914745219051838,-0.00564837409183383,-0.004956433083862066,-0.003174420678988099,0.0024419950786978006,-0.010050061158835888
0.008617773652076721,-0.005419275723397732,-0.0044305953197181225,-0.003919763024896383,0.0022953017614781857,-0.009836075827479362
0.008383840322494507,-0.0051261503249406815,-0.004414720926433802,-0.004079445265233517,0.002239419613033533,-0.009962835349142551
0.009034897200763226,-0.004899883177131414,-0.004694164264947176,-0.004474260378628969,0.0023780695628374815,-0.010223091579973698
0.009049410931766033,-0.004868840333074331,-0.004845962859690189,-0.005086091347038746,0.002558619948104024,-0.009839886799454689
0.008877076208591461,-0.004997226409614086,-0.005101686809211969,-0.0050680371932685375,0.002545618452131748,-0.010147958993911743
0.009470026008784771,-0.004880423657596111,-0.00543232960626483,-0.005794012453407049,0.0026094967033714056,-0.010026098228991032
0.009425078518688679,-0.004580308683216572,-0.004776369780302048,-0.005951946135610342,0.00269603100605309,-0.009874592535197735
0.009328680112957954,-0.004239318426698446,-0.004861433524638414,-0.0065091256983578205,0.0027043046429753304,-0.010306247510015965
0.009409027174115181,-0.004435122013092041,-0.005030972417443991,-0.00689363107085228,0.002891473937779665,-0.010649879463016987
0.009426393546164036,-0.004801182541996241,-0.005037486087530851,-0.006535344757139683,0.002471738262102008,-0.01122262328863144
0.009682360105216503,-0.004498005378991365,-0.00539488485082984,-0.006820994429290295,0.002513278741389513,-0.010648103430867195
0.01015381794422865,-0.004181908909231424,-0.005265434272587299,-0.007145559415221214,0.002626787405461073,-0.010657718405127525
0.009722651913762093,-0.004417584743350744,-0.005279474426060915,-0.0069986432790756226,0.0026485288981348276,-0.010914189741015434
0.009912562556564808,-0.004133771639317274,-0.005002428311854601,-0.007375138811767101,0.002546340227127075,-0.010954913683235645
0.009912562556564808,-0.004133771639317274,-0.005002428311854601,-0.007375138811767101,0.002546340227127075,-0.010954913683235645
0.010325929149985313,-0.003969929181039333,-0.0055787148885428905,-0.008066760376095772,0.0027930308133363724,-0.011244233697652817
0.010325929149985313,-0.003969929181039333,-0.0055787148885428905,-0.008066760376095772,0.0027930308133363724,-0.011244233697652817
0.01012374460697174,-0.004305686801671982,-0.005532671697437763,-0.00792017299681902,0.0026547121815383434,-0.011097573675215244
0.010242966003715992,-0.004240664653480053,-0.005806942004710436,-0.00779090728610754,0.0027012175414711237,-0.011165142059326172
0.010010186582803726,-0.0039818380028009415,-0.005259620491415262,-0.008090204559266567,0.0028231278993189335,-0.011108099482953548
0.01009735744446516,-0.003812927519902587,-0.004835377912968397,-0.007732156664133072,0.002733977045863867,-0.010417423211038113
0.011044702492654324,-0.0037616987247020006,-0.004733364563435316,-0.007570573594421148,0.002548712072893977,-0.010927161201834679
0.010216628201305866,-0.003713103709742427,-0.005343674216419458,-0.007828316651284695,0.0025524459779262543,-0.011226469650864601
0.010326344519853592,-0.003818255616351962,-0.0061089578084647655,-0.008271087892353535,0.002594643970951438,-0.011548724956810474
0.010327671654522419,-0.003881871933117509,-0.005506142508238554,-0.00788805540651083,0.0025175968185067177,-0.011881308630108833
0.010396714322268963,-0.003454378340393305,-0.00445393193513155,-0.007482036016881466,0.0027195136062800884,-0.01148544903844595
0.010727289132773876,-0.0035739769227802753,-0.004338251892477274,-0.007596233859658241,0.0028361266013234854,-0.011116554029285908
0.010514505207538605,-0.0032916278578341007,-0.0046584345400333405,-0.008622161112725735,0.0030227326788008213,-0.011125581339001656
0.010795033536851406,-0.0033043588045984507,-0.005298187956213951,-0.008384996093809605,0.002950516762211919,-0.011287516914308071
0.010879079811275005,-0.0033469165209680796,-0.005425974726676941,-0.008601197972893715,0.003116775769740343,-0.011432938277721405
0.010552261024713516,-0.0033815328497439623,-0.005174764432013035,-0.00895682442933321,0.0030456155072897673,-0.011148307472467422
0.0109707685187459,-0.003170390147715807,-0.00436744187027216,-0.009055295959115028,0.003177373204380274,-0.011578347533941269
0.011314929462969303,-0.003123799804598093,-0.004472861997783184,-0.008981427177786827,0.0030415854416787624,-0.011183580383658409
0.011099196039140224,-0.0034720608964562416,-0.005202012602239847,-0.00941531453281641,0.0028377221897244453,-0.011212114244699478
0.011186046525835991,-0.0031744895968586206,-0.004990237765014172,-0.009207116439938545,0.0030177312437444925,-0.011566719971597195
0.011867011897265911,-0.0029636432882398367,-0.004352116491645575,-0.009615867398679256,0.0028727364260703325,-0.011252223514020443
0.011548546142876148,-0.0031692597549408674,-0.004036916885524988,-0.009723834693431854,0.00268971617333591,-0.011452923528850079
0.011172659695148468,-0.0031089046970009804,-0.004811094608157873,-0.009106853045523167,0.002913259668275714,-0.011609277687966824
0.011335279792547226,-0.0034311292693018913,-0.005113822408020496,-0.009973878040909767,0.0033490911591798067,-0.011518393643200397
0.010696524754166603,-0.0031070667318999767,-0.005103157367557287,-0.009884754195809364,0.003277296433225274,-0.011403725482523441
0.011153431609272957,-0.0032350001856684685,-0.004857716616243124,-0.009171764366328716,0.0030908617191016674,-0.011873174458742142
0.011316677555441856,-0.0033311101142317057,-0.004708551336079836,-0.009328828193247318,0.003416304476559162,-0.01188601367175579
0.010623265989124775,-0.0031188137363642454,-0.004643453285098076,-0.009843556210398674,0.0031982159707695246,-0.012000706978142262
0.01107138954102993,-0.002971236128360033,-0.004751536995172501,-0.010324176400899887,0.0032003845553845167,-0.012147837318480015
0.01107138954102993,-0.002971236128360033,-0.004751536995172501,-0.010324176400899887,0.0032003845553845167,-0.012147837318480015
0.01087754312902689,-0.002782729221507907,-0.00511630903929472,-0.010468879714608192,0.002996414666995406,-0.01164943166077137
0.010987723246216774,-0.0030037988908588886,-0.0048873648047447205,-0.010511521250009537,0.0025300479028373957,-0.011678572744131088
0.011738062836229801,-0.002999206306412816,-0.00545705109834671,-0.010677576996386051,0.0024848345201462507,-0.011804762296378613
0.010972009971737862,-0.002862009685486555,-0.005157331470400095,-0.011346564628183842,0.002656706143170595,-0.011743301525712013
0.011133554391562939,-0.00262015825137496,-0.004815017804503441,-0.011195845901966095,0.0029650628566741943,-0.011915557086467743
0.01090835127979517,-0.0024660537019371986,-0.005114806815981865,-0.01069670356810093,0.002829287899658084,-0.011668858118355274
0.01074205432087183,-0.0024746046401560307,-0.004931529518216848,-0.011093219742178917,0.002597401849925518,-0.011770461685955524
0.011142455972731113,-0.0024166451767086983,-0.0049013919197022915,-0.011018862016499043,0.002509529236704111,-0.012258526869118214
0.011000766418874264,-0.002532340819016099,-0.005452885292470455,-0.011467238888144493,0.0026593448128551245,-0.012203591875731945
0.012196358293294907,-0.0024970732629299164,-0.005506926216185093,-0.01095818541944027,0.0028711475897580385,-0.012375677935779095
0.011544470675289631,-0.002358117373660207,-0.004928384907543659,-0.010552397929131985,0.0027391468174755573,-0.012434479780495167
0.01110390666872263,-0.0024516128469258547,-0.00519574386999011,-0.010728920809924603,0.002642478793859482,-0.012653656303882599
0.011177861131727695,-0.0026186592876911163,-0.005030243657529354,-0.010287290439009666,0.0024982395116239786,-0.012179305776953697
0.011100041680037975,-0.002496842062100768,-0.005456480663269758,-0.010504809208214283,0.002603416331112385,-0.012174781411886215
0.012092131190001965,-0.0025731786154210567,-0.005131994839757681,-0.010978005826473236,0.002646393608301878,-0.012437093071639538
0.010789635591208935,-0.0023017041385173798,-0.004785137716680765,-0.010363234207034111,0.003292500041425228,-0.012427860870957375
0.010687434114515781,-0.0023596626706421375,-0.004945453256368637,-0.010814501903951168,0.0037743342109024525,-0.012818540446460247
0.011271133087575436,-0.0022634905762970448,-0.004820492118597031,-0.011062282137572765,0.0037879778537899256,-0.012566668912768364
0.010907401330769062,-0.002354690572246909,-0.004635883029550314,-0.011133835650980473,0.0030522895976901054,-0.012539688497781754
0.011069031432271004,-0.0021030083298683167,-0.005145425908267498,-0.011005210690200329,0.0028722670394927263,-0.012710297480225563
0.010748401284217834,-0.0021175171714276075,-0.005161775276064873,-0.011144314892590046,0.002927724737673998,-0.012806016951799393
0.010854773223400116,-0.001949204714037478,-0.005079873837530613,-0.011540433391928673,0.002850682707503438,-0.013034449890255928
0.011232299730181694,-0.0020296929869800806,-0.00489533506333828,-0.010878867469727993,0.002870234427973628,-0.012998061254620552
0.010993832722306252,-0.0020093645434826612,-0.004762961063534021,-0.011565557681024075,0.0028772924561053514,-0.013133282773196697
0.01097790990024805,-0.0022012735716998577,-0.005398232955485582,-0.01175798662006855,0.0028273893985897303,-0.013475668616592884
0.01097790990024805,-0.0022012735716998577,-0.005398232955485582,-0.01175798662006855,0.0028273893985897303,-0.013475668616592884
0.011191868223249912,-0.0022103094961494207,-0.005194936878979206,-0.011666937731206417,0.003232973627746105,-0.013522383756935596
0.010728534311056137,-0.0021096032578498125,-0.004767762031406164,-0.012246474623680115,0.003124607028439641,-0.013466116040945053
0.011200453154742718,-0.0018009351333603263,-0.00463819457218051,-0.011351014487445354,0.0033458496909588575,-0.01327300351113081
0.010874032974243164,-0.0017277785809710622,-0.005165503825992346,-0.013126373291015625,0.0035437617916613817,-0.013083776459097862
0.010831271298229694,-0.0016261207638308406,-0.005114269908517599,-0.012838938273489475,0.0034602228552103043,-0.012924506328999996
0.011078965850174427,-0.0017468167934566736,-0.005109700839966536,-0.012478784658014774,0.0035895882174372673,-0.01304277591407299
0.01075161062180996,-0.0016426554648205638,-0.005369790829718113,-0.012407120317220688,0.0037675260100513697,-0.01283002458512783
0.011225015856325626,-0.0017900399398058653,-0.005101457238197327,-0.012749121524393559,0.0037195205222815275,-0.012856822460889816
0.01149363350123167,-0.0017935445066541433,-0.005436284001916647,-0.012910373508930206,0.003765421686694026,-0.012997066602110863
0.011298611760139465,-0.001519727986305952,-0.005069028120487928,-0.012691041454672813,0.0039308941923081875,-0.01252665650099516
0.011123918928205967,-0.0013683200813829899,-0.004731795750558376,-0.013420183211565018,0.0040595438331365585,-0.012782784178853035
0.011544219218194485,-0.0009245338151231408,-0.004936386831104755,-0.013038061559200287,0.0035529809538275003,-0.012714091688394547
0.011359389871358871,-4.3322619603713974e-05,-0.005577554926276207,-0.013414831832051277,0.00316584762185812,-0.013243863359093666
0.011509026400744915,-5.812282211081765e-07,-0.005080729257315397,-0.01312717329710722,0.00342952786013484,-0.013593376614153385
0.010970080271363258,-7.797918755159117e-09,-0.004632126074284315,-0.013003191910684109,0.0037359013222157955,-0.013504446484148502
0.011754931882023811,-1.0461903565683883e-10,-0.004638897720724344,-0.013257023878395557,0.0037937371525913477,-0.013506755232810974
0.011624681763350964,-1.4035979409993127e-12,-0.00482644559815526,-0.013796074315905571,0.003433659439906478,-0.01367742195725441
0.011892392300069332,-1.8831056912372787e-14,-0.0056448099203407764,-0.014555682428181171,0.0029979601968079805,-0.013746856711804867
0.011609170585870743,-2.5264266429296804e-16,-0.005368148908019066,-0.014786758460104465,0.0028690991457551718,-0.013706442900002003
0.011464596726000309,-3.389523933988128e-18,-0.004806323442608118,-0.014287048950791359,0.0037039329763501883,-0.013780343346297741
0.011670929379761219,-4.547479055003115e-20,-0.004745697136968374,-0.013719688169658184,0.0041478476487100124,-0.013993737287819386
0.01154467836022377,-6.1010234828174e-22,-0.00538330152630806,-0.013818169943988323,0.003988882526755333,-0.01380356214940548
0.012000057846307755,-1.0981625425802402e-25,-0.004713006317615509,-0.01403732132166624,0.003320134710520506,-0.013487077318131924
0.011689357459545135,-1.473325237062558e-27,-0.005210429895669222,-0.013680514879524708,0.0031037963926792145,-0.013669592328369617
0.012341246008872986,-1.9766539738342578e-29,-0.005186664406210184,-0.014312228187918663,0.0032305812928825617,-0.01410007756203413
0.011798105202615261,7.239011756610125e-05,-0.005262872204184532,-0.014666417613625526,0.0039059927221387625,-0.014238948002457619
0.012137695215642452,6.395589298335835e-05,-0.005112362559884787,-0.015280263498425484,0.0042824517004191875,-0.01421334221959114
0.012203700840473175,5.967042307020165e-05,-0.004851407837122679,-0.014917345717549324,0.0040693702176213264,-0.013942880555987358
0.01189136877655983,5.595918992185034e-05,-0.005309955682605505,-0.014843250624835491,0.00380974099971354,-0.013980892486870289
0.012274966575205326,5.268291715765372e-05,-0.005308099091053009,-0.015150654129683971,0.003348161932080984,-0.013874027878046036
0.01210594642907381,8.236213034251705e-05,-0.0049408539198338985,-0.015614365227520466,0.0038455447647720575,-0.013950197957456112
0.01210594642907381,8.236213034251705e-05,-0.0049408539198338985,-0.015614365227520466,0.0038455447647720575,-0.013950197957456112
0.012205648235976696,9.409177437191829e-05,-0.004605120979249477,-0.016323309391736984,0.004259867127984762,-0.013869183138012886
0.012420892715454102,8.96221463335678e-05,-0.004630285315215588,-0.016221776604652405,0.004135820548981428,-0.014460787177085876
0.012203233316540718,8.537386020179838e-05,-0.004835016559809446,-0.016442464664578438,0.0034884887281805277,-0.014456382021307945
0.012326011434197426,8.150783833116293e-05,-0.005680600646883249,-0.01580934226512909,0.003472547745332122,-0.014862661249935627
0.012611417099833488,7.7976452303119e-05,-0.0054290564730763435,-0.016617383807897568,0.0036950772628188133,-0.014855403453111649
0.012715636752545834,0.00011158501001773402,-0.0048599811270833015,-0.016068900004029274,0.004264462273567915,-0.014654407277703285
0.012228586710989475,0.00010763159662019461,-0.004743963945657015,-0.015917811542749405,0.003674671985208988,-0.013916749507188797
0.012588640674948692,0.00010351175296818838,-0.005220382008701563,-0.016513047739863396,0.0036052188370376825,-0.014162404462695122
0.012736187316477299,0.00013157230569049716,-0.005198595114052296,-0.016909772530198097,0.003968806006014347,-0.014529315754771233
0.013019062578678131,0.00012816881644539535,-0.005222746171057224,-0.017478805035352707,0.004178683273494244,-0.014844858087599277
0.01295667514204979,0.00025207793805748224,-0.005420684348791838,-0.016886958852410316,0.004467474762350321,-0.01480499841272831
0.012673127464950085,0.00025412245304323733,-0.004994670394808054,-0.01666608452796936,0.004240858368575573,-0.014541106298565865
0.013008211739361286,0.0002407445281278342,-0.004702574107795954,-0.017045531421899796,0.0038836325984448195,-0.014130698516964912
0.012801812030375004,0.00022852118127048016,-0.004733711015433073,-0.017017800360918045,0.003807173576205969,-0.014376900158822536
0.013291995041072369,0.0002603584434837103,-0.005072619765996933,-0.0174847561866045,0.00390884093940258,-0.014031008817255497
0.013116148300468922,0.00027601272449828684,-0.005424158181995153,-0.01783282496035099,0.003576157381758094,-0.014860370196402073
0.013023688457906246,0.00029938147054053843,-0.004901396110653877,-0.01775546371936798,0.003587214043363929,-0.015191365964710712
0.013435805216431618,0.000440084288129583,-0.004692761227488518,-0.017808126285672188,0.004067321307957172,-0.015557822771370411
0.013214757665991783,0.0005492938216775656,-0.004790332168340683,-0.01806192845106125,0.004181187134236097,-0.014675287529826164
0.013768862932920456,0.0005639504524879158,-0.005191404838114977,-0.01768936775624752,0.004329407121986151,-0.014628146775066853
0.013696612790226936,0.0005421427777037024,-0.0050717489793896675,-0.017820080742239952,0.0040926444344222546,-0.014814360067248344
0.013701757416129112,0.000567869923543185,-0.005144472233951092,-0.019314371049404144,0.0037534073926508427,-0.015205428004264832
0.013443033210933208,0.0005288799875415862,-0.00492970971390605,-0.018168063834309578,0.0036117041017860174,-0.015294228680431843
0.013646739535033703,0.000633812858723104,-0.004828569944947958,-0.018247362226247787,0.0038040941581130028,-0.015187805518507957
0.01521030068397522,0.0006170235574245453,-0.005201189313083887,-0.018634866923093796,0.004307285416871309,-0.015028179623186588
0.015540139749646187,0.0006473868270404637,-0.0049784122966229916,-0.0187465138733387,0.004488848615437746,-0.015453225001692772
0.015047170221805573,0.0005817420897074044,-0.00490279495716095,-0.01895979605615139,0.0041977218352258205,-0.01523016020655632
0.014632534235715866,0.0006114206626079977,-0.005670159589499235,-0.018486803397536278,0.0039113666862249374,-0.01529222447425127
0.01513688638806343,0.000634772062767297,-0.00528071541339159,-0.01853262074291706,0.0034775726962834597,-0.015200707130134106
0.015297004953026772,0.0007070846040733159,-0.004902529064565897,-0.018922222778201103,0.0034990431740880013,-0.015729213133454323
0.015297004953026772,0.0007070846040733159,-0.004902529064565897,-0.018922222778201103,0.0034990431740880013,-0.015729213133454323
0.014788998290896416,0.0007461269851773977,-0.0051803868263959885,-0.018835043534636497,0.003989601042121649,-0.015595202334225178
0.015383800491690636,0.0008395466138608754,-0.0050994716584682465,-0.019002588465809822,0.004324805457144976,-0.01576448231935501
0.015403730794787407,0.0011223054025322199,-0.005954470951110125,-0.019879648461937904,0.004499365575611591,-0.015693143010139465
0.01611005887389183,0.0012260646326467395,-0.005457935389131308,-0.01982729509472847,0.004276893101632595,-0.01614431105554104
0.015643484890460968,0.0011671683751046658,-0.004497982095927,-0.019189001992344856,0.004489749204367399,-0.016072209924459457
0.01567677967250347,0.0011291446862742305,-0.004484569188207388,-0.01979682967066765,0.004977656062692404,-0.015926575288176537
0.015740463510155678,0.0012192754074931145,-0.005150170996785164,-0.020530877634882927,0.004497415851801634,-0.015630288049578667
0.016186295077204704,0.0011629908112809062,-0.005306938663125038,-0.02060673199594021,0.0044133225455880165,-0.015556175261735916
0.01541590690612793,0.001120343804359436,-0.005560762714594603,-0.020158573985099792,0.004245599266141653,-0.015578173100948334
0.01563047245144844,0.0011100267292931676,-0.0051248762756586075,-0.020356273278594017,0.004455749876797199,-0.01571974903345108
0.015872735530138016,0.0012342564295977354,-0.004617422819137573,-0.01972869597375393,0.005133173428475857,-0.016183532774448395
0.01585211232304573,0.0012281023664399981,-0.0048958188854157925,-0.019892048090696335,0.00498999422416091,-0.01639804244041443
0.016243357211351395,0.001589783700183034,-0.0049780127592384815,-0.02046666294336319,0.00454360106959939,-0.01639053225517273
0.015079761855304241,0.0016413071425631642,-0.004926734138280153,-0.021128268912434578,0.0036870772019028664,-0.0157632976770401
0.016679683700203896,0.001729996525682509,-0.005682971328496933,-0.021211223676800728,0.003506635082885623,-0.01613810658454895
0.016021719202399254,0.0017658399883657694,-0.00535968691110611,-0.02102774754166603,0.003989012446254492,-0.016254311427474022
0.01612173393368721,0.001634972053579986,-0.004694687202572823,-0.021188193932175636,0.004377630073577166,-0.016317525878548622
0.01612267456948757,0.002105685416609049,-0.004883861634880304,-0.021330451592803,0.004729466512799263,-0.01615065149962902
0.016445694491267204,0.002055112272500992,-0.005003986414521933,-0.021602747961878777,0.0044028256088495255,-0.016669699922204018
0.016235897317528725,0.0020626105833798647,-0.005813623312860727,-0.02175149880349636,0.004143835511058569,-0.0164658110588789
0.01637924835085869,0.0020660196896642447,-0.005381315480917692,-0.021543385460972786,0.004363826010376215,-0.01662110537290573
0.016033532097935677,0.0023236265406012535,-0.0051676565781235695,-0.021360646933317184,0.004847267642617226,-0.016440946608781815
0.016675572842359543,0.0026322470512241125,-0.0048951623030006886,-0.021803097799420357,0.005444822832942009,-0.016642514616250992
0.016700323671102524,0.002540338085964322,-0.004859720356762409,-0.022296253591775894,0.0053667472675442696,-0.016498228535056114
0.01629755087196827,0.0025786557234823704,-0.00570925697684288,-0.022151824086904526,0.004524522460997105,-0.016293643042445183
0.016317684203386307,0.002262735040858388,-0.005445991642773151,-0.021539216861128807,0.003977515269070864,-0.016707921400666237
0.016134250909090042,0.002210186328738928,-0.0050593409687280655,-0.021854231134057045,0.004128463100641966,-0.016741937026381493
0.016134250909090042,0.002210186328738928,-0.0050593409687280655,-0.021854231134057045,0.004128463100641966,-0.016741937026381493
0.01688605174422264,0.002337201964110136,-0.004975926596671343,-0.022312046959996223,0.004612798802554607,-0.016680549830198288
0.016269773244857788,0.0022315070964396,-0.005048055667430162,-0.02220519632101059,0.005157718434929848,-0.016509654000401497
0.016897063702344894,0.002480366500094533,-0.005099481903016567,-0.02338969148695469,0.004953349009156227,-0.016630208119750023
0.016680851578712463,0.0028130034916102886,-0.005342046730220318,-0.0229040514677763,0.004649892449378967,-0.01708100736141205
0.016606153920292854,0.0034716816153377295,-0.005170771386474371,-0.022738462314009666,0.004399050027132034,-0.017144324257969856
0.016819104552268982,0.0043691350147128105,-0.004797608591616154,-0.023142803460359573,0.004352802876383066,-0.01705295406281948
0.016625357791781425,0.00415496900677681,-0.004680783022195101,-0.02296634390950203,0.004383937455713749,-0.01703931950032711
0.017009012401103973,0.003930967766791582,-0.004786769859492779,-0.023061564192175865,0.004625015426427126,-0.01705780439078808
0.016870809718966484,0.0034124827943742275,-0.005080042406916618,-0.023059070110321045,0.004755267407745123,-0.01705295965075493
0.017321428284049034,0.0035993007477372885,-0.0053174314089119434,-0.023086708039045334,0.005537801422178745,-0.01700933836400509
0.01741848886013031,0.004356025252491236,-0.0052820416167378426,-0.023463325574994087,0.005469381809234619,-0.01727442443370819
0.016833728179335594,0.004625452216714621,-0.0052737523801624775,-0.02367342822253704,0.004941790830343962,-0.018345238640904427
0.01721148006618023,0.0040688058361411095,-0.005036385729908943,-0.023485442623496056,0.004167444538325071,-0.01706218533217907
0.017183678224682808,0.0039748987182974815,-0.004643146879971027,-0.023708952590823174,0.004395231604576111,-0.017343170940876007
0.01730925217270851,0.004062849562615156,-0.004932149313390255,-0.024147959426045418,0.0047771260142326355,-0.017785467207431793
0.017341313883662224,0.004942942410707474,-0.005427403841167688,-0.024487221613526344,0.0057907020673155785,-0.01802247390151024
0.0174152422696352,0.005174754653126001,-0.005277375224977732,-0.024910818785429,0.006141053978353739,-0.017883770167827606
0.017343496903777122,0.00521868746727705,-0.004626760724931955,-0.025368569418787956,0.004381831735372543,-0.018213551491498947
0.01745692826807499,0.0052647944539785385,-0.004686140920966864,-0.02548660710453987,0.004530712962150574,-0.018359297886490822
0.017462609335780144,0.005532547831535339,-0.004756104666739702,-0.02531471848487854,0.004852203652262688,-0.018581712618470192
0.017338687554001808,0.005215196404606104,-0.0050949943251907825,-0.02570398710668087,0.005090123508125544,-0.018389007076621056
0.017834575846791267,0.006080519873648882,-0.005335903260856867,-0.02587394043803215,0.005387661512941122,-0.017985960468649864
0.017286483198404312,0.005908349994570017,-0.005484258756041527,-0.025970708578824997,0.005139605607837439,-0.01826019585132599
0.017621826380491257,0.005636914167553186,-0.004637602716684341,-0.02604735642671585,0.004731159657239914,-0.018425922840833664
0.017977993935346603,0.005748680327087641,-0.0045751165598630905,-0.026124415919184685,0.004616726189851761,-0.018550334498286247
0.017970263957977295,0.006175025831907988,-0.0047299060970544815,-0.02666853740811348,0.004708511289209127,-0.018784528598189354
0.017970263957977295,0.006175025831907988,-0.0047299060970544815,-0.02666853740811348,0.004708511289209127,-0.018784528598189354
0.018436778336763382,0.006442723795771599,-0.00515586556866765,-0.026567015796899796,0.005232661031186581,-0.018031176179647446
0.017968185245990753,0.006225256714969873,-0.005022624507546425,-0.02655334770679474,0.005118151195347309,-0.01804577186703682
0.018087875097990036,0.0061156367883086205,-0.005037250462919474,-0.026132890954613686,0.0049486905336380005,-0.017729032784700394
0.0178880263119936,0.00619496451690793,-0.00493715750053525,-0.02660595066845417,0.005093083716928959,-0.01797921396791935
0.017620114609599113,0.0060027725994586945,-0.005151258781552315,-0.02720610983669758,0.004829247947782278,-0.018582897260785103
0.018510933965444565,0.006614340469241142,-0.004961053375154734,-0.02677156962454319,0.004741620272397995,-0.019046420231461525
0.018594732508063316,0.007001991383731365,-0.005326802376657724,-0.027385229244828224,0.004700079560279846,-0.018926333636045456
0.018352633342146873,0.0069677396677434444,-0.005608813371509314,-0.026888884603977203,0.005058859940618277,-0.01912151835858822
0.018670858815312386,0.00649829488247633,-0.005595359951257706,-0.02544914372265339,0.005139905493706465,-0.01914673112332821
0.018925867974758148,0.007150507066398859,-0.005265030078589916,-0.028150666505098343,0.005633966065943241,-0.019165877252817154
0.01855282299220562,0.007343669887632132,-0.005329630337655544,-0.02859502099454403,0.004839069209992886,-0.018992768600583076
0.01927509903907776,0.007328799460083246,-0.005143715068697929,-0.028120921924710274,0.004345950670540333,-0.018870307132601738
0.019432799890637398,0.007562957238405943,-0.005604572594165802,-0.0289127416908741,0.004377043340355158,-0.01908811181783676
0.018949823454022408,0.007646042387932539,-0.005719102453440428,-0.02965443767607212,0.0049955775029957294,-0.019375117495656013
0.01948484778404236,0.0072597963735461235,-0.005404883064329624,-0.028215013444423676,0.005507493857294321,-0.019446324557065964
0.019143180921673775,0.008008204400539398,-0.005539402365684509,-0.027450457215309143,0.005479663144797087,-0.019465846940875053
0.018858768045902252,0.007826440967619419,-0.00522198062390089,-0.02804582379758358,0.005435972940176725,-0.01954203099012375
0.019510818645358086,0.008252420462667942,-0.005713552702218294,-0.029061248525977135,0.005269499029964209,-0.01980670355260372
0.019996076822280884,0.007978118024766445,-0.005804964806884527,-0.02871081233024597,0.0053586652502417564,-0.019745346158742905
0.01968146301805973,0.007676306180655956,-0.0051685902290046215,-0.028840376064181328,0.005790308117866516,-0.021411381661891937
0.020005634054541588,0.008213989436626434,-0.005258619319647551,-0.029182542115449905,0.005380605813115835,-0.0195618886500597
0.019853733479976654,0.008158108219504356,-0.005702839232981205,-0.02931099385023117,0.005317017436027527,-0.019491106271743774
0.019954757764935493,0.007993622682988644,-0.006126158405095339,-0.02885262295603752,0.005486750975251198,-0.02002328261733055
0.020000750198960304,0.008416878990828991,-0.00545671908184886,-0.028635289520025253,0.0050636897794902325,-0.020403573289513588
0.020084494724869728,0.008955747820436954,-0.005444047506898642,-0.02977740950882435,0.004736749455332756,-0.020422006025910378
0.02050161361694336,0.008311405777931213,-0.005525271873921156,-0.031011521816253662,0.005318673327565193,-0.02038116194307804
0.02040872909128666,0.008663077838718891,-0.005952753126621246,-0.03090107999742031,0.005571770016103983,-0.01991126500070095
0.020387280732393265,0.009524840861558914,-0.006216042675077915,-0.029192281886935234,0.005817950237542391,-0.020445073023438454
0.02033851109445095,0.00819223839789629,-0.005545672960579395,-0.02939833328127861,0.00523522449657321,-0.020476188510656357
0.02033851109445095,0.00819223839789629,-0.005545672960579395,-0.02939833328127861,0.00523522449657321,-0.020476188510656357
0.020789863541722298,0.008780120871961117,-0.0056920889765024185,-0.030604872852563858,0.005122801288962364,-0.02056717872619629
0.020813578739762306,0.009325648657977581,-0.005428821314126253,-0.030497850850224495,0.005150759592652321,-0.02058326080441475
0.020452136173844337,0.009643244557082653,-0.005897713825106621,-0.03095695748925209,0.00541354063898325,-0.020078206434845924
0.020965347066521645,0.009338174015283585,-0.005924413911998272,-0.03234829753637314,0.005513603333383799,-0.019955864176154137
0.021093066781759262,0.009361250326037407,-0.006177237723022699,-0.03168826550245285,0.005481027532368898,-0.019674327224493027
0.021223247051239014,0.00934932567179203,-0.005644714459776878,-0.029792072251439095,0.005681891925632954,-0.02027459256350994
0.02103305049240589,0.009200737811625004,-0.005927710793912411,-0.02991427853703499,0.004940943326801062,-0.020706573501229286
0.021160375326871872,0.010540680959820747,-0.006312559358775616,-0.03131907433271408,0.004825220443308353,-0.020802106708288193
0.02148253843188286,0.009881066158413887,-0.006153334863483906,-0.031131252646446228,0.005377502180635929,-0.020611558109521866
0.021438878029584885,0.009457076899707317,-0.006176493130624294,-0.030720055103302002,0.005581466481089592,-0.020856408402323723
0.02140001952648163,0.010543717071413994,-0.005755746271461248,-0.030947664752602577,0.005277751479297876,-0.021397477015852928
0.02168486826121807,0.010145234875380993,-0.005772354546934366,-0.031197452917695045,0.005027006845921278,-0.021964777261018753
0.021920615807175636,0.009751426987349987,-0.00559249147772789,-0.030233213678002357,0.0055763376876711845,-0.021119428798556328
0.021647684276103973,0.01017795316874981,-0.005912088323384523,-0.03182618319988251,0.005416560918092728,-0.02054155431687832
0.022059405222535133,0.010165232233703136,-0.006456987466663122,-0.03214044123888016,0.005666965153068304,-0.020516643300652504
0.02221504971385002,0.009757465682923794,-0.005932938307523727,-0.03249600529670715,0.005456568207591772,-0.020490286871790886
0.02180374413728714,0.010644622147083282,-0.0058222124353051186,-0.0325358510017395,0.005404917523264885,-0.02120906487107277
0.02281227707862854,0.009947916492819786,-0.005984886549413204,-0.03361671790480614,0.005305747967213392,-0.02139739692211151
0.0227254256606102,0.010649277828633785,-0.00648661982268095,-0.03396860137581825,0.0058709182776510715,-0.021769177168607712
0.02279801480472088,0.01069672405719757,-0.005899261683225632,-0.0339849479496479,0.0058529009111225605,-0.02041851170361042
0.02214248664677143,0.009329973720014095,-0.005825353786349297,-0.03397753834724426,0.005944536533206701,-0.020734267309308052
0.02146471105515957,0.008401015773415565,-0.005750265438109636,-0.034491997212171555,0.00555044412612915,-0.021078694611787796
0.023427624255418777,0.008300664834678173,-0.006367098074406385,-0.034507058560848236,0.00572591507807374,-0.021381918340921402
0.023013681173324585,0.008374722674489021,-0.006540199741721153,-0.03423033282160759,0.006168757565319538,-0.021242894232273102
0.02233562059700489,0.008955925703048706,-0.006137682590633631,-0.03360241651535034,0.0055761500261723995,-0.02136869542300701
0.023078318685293198,0.009053424000740051,-0.005404653958976269,-0.03394024074077606,0.005088836885988712,-0.021525604650378227
0.023078318685293198,0.009053424000740051,-0.005404653958976269,-0.03394024074077606,0.005088836885988712,-0.021525604650378227
0.022892246022820473,0.00897739827632904,-0.0058760615065693855,-0.034960370510816574,0.005574102513492107,-0.02178562432527542
0.02285398542881012,0.009332227520644665,-0.0061277044005692005,-0.03488938510417938,0.00547810597345233,-0.022165486589074135
0.023304197937250137,0.00968495849519968,-0.006417066790163517,-0.034753262996673584,0.005786727648228407,-0.022323420271277428
0.023536909371614456,0.009843290783464909,-0.006530779413878918,-0.035173818469047546,0.006327122915536165,-0.02218496985733509
0.022732838988304138,0.009374991990625858,-0.005754745099693537,-0.035210780799388885,0.006192333530634642,-0.022037440910935402
0.022805100306868553,0.009655361995100975,-0.005872940644621849,-0.035873085260391235,0.005691604223102331,-0.022291216999292374
0.023478198796510696,0.009713921695947647,-0.006642905995249748,-0.0358566977083683,0.005602815188467503,-0.022181587293744087
0.023433038964867592,0.009981070645153522,-0.006440760102123022,-0.03599443659186363,0.0060149007476866245,-0.02229890786111355
0.023315174505114555,0.010226136073470116,-0.005968083161860704,-0.036681875586509705,0.006428997032344341,-0.022619346156716347
0.023687424138188362,0.009764686226844788,-0.005665088538080454,-0.03722039610147476,0.006128738634288311,-0.02252751588821411
0.023637734353542328,0.009943265467882156,-0.005796570796519518,-0.03712503984570503,0.0056084743700921535,-0.02264283411204815
0.023447053506970406,0.010516898706555367,-0.006280069705098867,-0.036730241030454636,0.005367163568735123,-0.022940296679735184
0.023726198822259903,0.009587903507053852,-0.006285618059337139,-0.037656135857105255,0.006002378184348345,-0.02293708361685276
0.024052273482084274,0.010327615775167942,-0.005966447293758392,-0.03821788355708122,0.006181570701301098,-0.022683212533593178
0.024060962721705437,0.01008858997374773,-0.005270922556519508,-0.0378841906785965,0.006112521048635244,-0.02249935269355774
0.024088265374302864,0.009920048527419567,-0.005807273089885712,-0.03688248246908188,0.0060617211274802685,-0.022810619324445724
0.024151641875505447,0.01036121603101492,-0.006556848529726267,-0.0368800163269043,0.005890629254281521,-0.023944679647684097
0.02418045699596405,0.009920512326061726,-0.00633335392922163,-0.03731612488627434,0.006120842415839434,-0.022915326058864594
0.02426512911915779,0.010834447108209133,-0.005983670242130756,-0.038078904151916504,0.006272388622164726,-0.02211577631533146
0.02440025843679905,0.011520834639668465,-0.005426533054560423,-0.0392356775701046,0.006156577728688717,-0.022586926817893982
0.024415114894509315,0.010464531369507313,-0.006750815082341433,-0.03694935142993927,0.005518011748790741,-0.02320648916065693
0.0249454565346241,0.011144603602588177,-0.006116149481385946,-0.03820027783513069,0.006010770797729492,-0.023477181792259216
0.02438156120479107,0.010415046475827694,-0.005788355600088835,-0.038199927657842636,0.006723047699779272,-0.02327219769358635
0.023988625034689903,0.010826371610164642,-0.0070060552097857,-0.03810711205005646,0.006804678123444319,-0.023555608466267586
0.02434558980166912,0.010793794877827168,-0.005739898886531591,-0.03781356289982796,0.0059306006878614426,-0.023876922205090523
0.02478000521659851,0.010328743606805801,-0.005866941995918751,-0.0377395823597908,0.005786285735666752,-0.023788390681147575
0.024648277088999748,0.010868552140891552,-0.005926547572016716,-0.03911028429865837,0.005919128190726042,-0.023500174283981323
0.024617671966552734,0.011104305274784565,-0.006184323225170374,-0.03825195133686066,0.006396761164069176,-0.02318609319627285
0.024617671966552734,0.011104305274784565,-0.006184323225170374,-0.03825195133686066,0.006396761164069176,-0.02318609319627285
0.0243882667273283,0.01088897418230772,-0.005812807474285364,-0.040126971900463104,0.006011097691953182,-0.024571413174271584
0.0243882667273283,0.01088897418230772,-0.005812807474285364,-0.040126971900463104,0.006011097691953182,-0.024571413174271584
0.02409798465669155,0.010354897007346153,-0.006252571940422058,-0.0380331389605999,0.006209082901477814,-0.02474323660135269
0.024892302230000496,0.010996458120644093,-0.006111777853220701,-0.03723764047026634,0.0060174972750246525,-0.024114282801747322
0.024875683709979057,0.011212402954697609,-0.006200422067195177,-0.038365818560123444,0.00590603519231081,-0.023753637447953224
0.025024130940437317,0.010598796419799328,-0.006305102724581957,-0.03827859088778496,0.006164906080812216,-0.023170292377471924
0.02368510514497757,0.010929612442851067,-0.006019287742674351,-0.03927731141448021,0.00689944252371788,-0.023363545536994934
0.02492801658809185,0.010909280739724636,-0.006452061235904694,-0.03931916505098343,0.006540441419929266,-0.02456841990351677
0.025370987132191658,0.010513676330447197,-0.006431809160858393,-0.03822354972362518,0.006592591293156147,-0.024528618901968002
0.02587849274277687,0.011177071370184422,-0.005986950825899839,-0.039065562188625336,0.006455469876527786,-0.024950038641691208
0.0250485111027956,0.011106389574706554,-0.006346278823912144,-0.04087501019239426,0.00707697169855237,-0.024454131722450256
0.025498459115624428,0.011032536625862122,-0.006008651107549667,-0.040772825479507446,0.006568125449120998,-0.025135722011327744
0.024761099368333817,0.011057225987315178,-0.006092272233217955,-0.04104911535978317,0.00604913430288434,-0.024676216766238213
0.025067918002605438,0.011018202640116215,-0.005873538553714752,-0.04104345291852951,0.006346636451780796,-0.023825399577617645
0.025789940729737282,0.011662998236715794,-0.005594409536570311,-0.04084913432598114,0.00729219987988472,-0.023867083713412285
0.02574690245091915,0.011840901337563992,-0.006070015020668507,-0.04136287420988083,0.006948068737983704,-0.024500835686922073
0.02495202049612999,0.011417009867727757,-0.005997811909765005,-0.04122820869088173,0.006631470751017332,-0.02518632635474205
0.025455189868807793,0.011180823668837547,-0.005973093211650848,-0.041952911764383316,0.006360527127981186,-0.024677833542227745
0.026190290227532387,0.01087278313934803,-0.006021387409418821,-0.041771478950977325,0.007019698154181242,-0.024325404316186905
0.0256588663905859,0.011279481463134289,-0.0056495945900678635,-0.04178139567375183,0.0070600626058876514,-0.024733180180191994
0.02528444677591324,0.011187227442860603,-0.005762861110270023,-0.04240751639008522,0.0066044204868376255,-0.024842215701937675
0.025376860052347183,0.011791703291237354,-0.0062485807575285435,-0.042711980640888214,0.006929619703441858,-0.02466580830514431
0.025792686268687248,0.011098477058112621,-0.006100268568843603,-0.04298350214958191,0.0068884645588696,-0.025097748264670372
0.026316357776522636,0.011238079518079758,-0.005807887297123671,-0.04274221137166023,0.0067676943726837635,-0.024841345846652985
0.026109440252184868,0.011799481697380543,-0.005621256772428751,-0.04285933077335358,0.0066320644691586494,-0.024841148406267166
0.025812245905399323,0.011354858055710793,-0.005760525353252888,-0.043649446219205856,0.006512761116027832,-0.024525251239538193
0.02575560286641121,0.011501253582537174,-0.006273367442190647,-0.04392222687602043,0.0070771933533251286,-0.02425687201321125
0.02575560286641121,0.011501253582537174,-0.006273367442190647,-0.04392222687602043,0.0070771933533251286,-0.02425687201321125
0.026204748079180717,0.011495172046124935,-0.005742459092289209,-0.04378799349069595,0.006519377697259188,-0.02674683928489685
0.026204748079180717,0.011495172046124935,-0.005742459092289209,-0.04378799349069595,0.006519377697259188,-0.02674683928489685
0.026037221774458885,0.012441652826964855,-0.00602105213329196,-0.04457715526223183,0.006545044016093016,-0.0248736385256052
0.026294581592082977,0.011560684069991112,-0.005772315431386232,-0.04469957947731018,0.006560859270393848,-0.024289650842547417
0.026308637112379074,0.011991409584879875,-0.006186172366142273,-0.0447244830429554,0.006920154672116041,-0.024963846430182457
0.026455942541360855,0.01214948482811451,-0.006570742931216955,-0.044260960072278976,0.006752233486622572,-0.026255019009113312
0.026748409494757652,0.011431833729147911,-0.005788574926555157,-0.04555840417742729,0.006846667733043432,-0.02666696161031723
0.026375697925686836,0.011775828897953033,-0.005880336742848158,-0.04604855924844742,0.006959338206797838,-0.025299066677689552
0.026562277227640152,0.011697705835103989,-0.006518146954476833,-0.04423540085554123,0.007329566869884729,-0.02442355640232563
0.02518434263765812,0.01243631076067686,-0.006443602032959461,-0.04401110112667084,0.0076001668348908424,-0.025058109313249588
0.027196869254112244,0.012102051638066769,-0.006031536962836981,-0.045142240822315216,0.0070773884654045105,-0.0257364921271801
0.0274503156542778,0.01214580237865448,-0.0057637980207800865,-0.04575245454907417,0.006663097068667412,-0.025770515203475952
0.027178576216101646,0.012048454955220222,-0.005822606384754181,-0.04629484936594963,0.00687229773029685,-0.02524333819746971
0.02657482400536537,0.012286738492548466,-0.006091559771448374,-0.04369882866740227,0.006977222394198179,-0.025823436677455902
0.027358166873455048,0.012438287027180195,-0.00705511961132288,-0.045129939913749695,0.006826994474977255,-0.02732224017381668
0.026919327676296234,0.012054932303726673,-0.006280574947595596,-0.04545513540506363,0.006912790704518557,-0.0264274999499321
0.027951830998063087,0.012678892351686954,-0.005777635611593723,-0.045424655079841614,0.006892984267324209,-0.025107059627771378
0.028236063197255135,0.012628593482077122,-0.005817629862576723,-0.04503210633993149,0.006721145939081907,-0.024962088093161583
0.026838701218366623,0.01233692467212677,-0.006673995405435562,-0.04602546989917755,0.007086558733135462,-0.026614462956786156
0.027697157114744186,0.012540105730295181,-0.005857409443706274,-0.04527664557099342,0.006951546762138605,-0.0271616131067276
0.028772661462426186,0.012865145690739155,-0.005747998598963022,-0.046544529497623444,0.007053673733025789,-0.025840310379862785
0.028384819626808167,0.012589173391461372,-0.005765988025814295,-0.048864807933568954,0.006868208758533001,-0.025888215750455856
0.028419777750968933,0.013190244324505329,-0.006034036632627249,-0.047194961458444595,0.007147055584937334,-0.026220137253403664
0.02903084270656109,0.012496563605964184,-0.006464902777224779,-0.04667259380221367,0.007784905377775431,-0.026510152965784073
0.029530655592679977,0.012887675315141678,-0.005910476669669151,-0.04799209162592888,0.007528021931648254,-0.026571590453386307
0.029265571385622025,0.012930388562381268,-0.005814868491142988,-0.04961922764778137,0.007116702385246754,-0.026494288817048073
0.028152206912636757,0.013493855483829975,-0.006018463522195816,-0.049438901245594025,0.007258713711053133,-0.026565682142972946
0.028152206912636757,0.013493855483829975,-0.006018463522195816,-0.049438901245594025,0.007258713711053133,-0.026565682142972946
0.028662214055657387,0.013176171109080315,-0.006153787486255169,-0.047370921820402145,0.0074430592358112335,-0.026621077209711075
0.029757453128695488,0.01333637535572052,-0.006098915357142687,-0.04863373190164566,0.0075204879976809025,-0.026918426156044006
0.029553933069109917,0.013196858577430248,-0.006138432305306196,-0.04930321127176285,0.008436920121312141,-0.027162304148077965
0.029433052986860275,0.013130348175764084,-0.00603608088567853,-0.04864618927240372,0.007223360240459442,-0.027553750202059746
0.029462162405252457,0.01385433692485094,-0.0062817735597491264,-0.04902096465229988,0.006664386950433254,-0.02770388312637806
0.029412513598799706,0.01333114504814148,-0.006581028923392296,-0.049994420260190964,0.006539030931890011,-0.027635211125016212
0.029624098911881447,0.01342606171965599,-0.006309953052550554,-0.05026623606681824,0.0071954866871237755,-0.027684196829795837
0.028738481923937798,0.013473612256348133,-0.006024967413395643,-0.050856251269578934,0.007378115318715572,-0.028050092980265617
0.030095310881733894,0.014133037067949772,-0.006207245402038097,-0.04984812065958977,0.007212416268885136,-0.027852624654769897
0.0304418932646513,0.013461403548717499,-0.006022391375154257,-0.05011213570833206,0.007343919947743416,-0.02775314450263977
0.03046870045363903,0.013767419382929802,-0.006428005173802376,-0.050663597881793976,0.007211301475763321,-0.027830881997942924
0.030488235875964165,0.013653206638991833,-0.006332342512905598,-0.05101310461759567,0.006957475561648607,-0.0272297915071249
0.030403465032577515,0.013943648897111416,-0.005565957631915808,-0.05123385787010193,0.006996314041316509,-0.027828164398670197
0.030346553772687912,0.012935981154441833,-0.00595122529193759,-0.0504780113697052,0.006966398563235998,-0.02810482494533062
0.030803868547081947,0.013920540921390057,-0.005922787822782993,-0.05052252858877182,0.0071970452554523945,-0.028193701058626175
0.031211132183670998,0.013620655052363873,-0.006400953512638807,-0.05025515705347061,0.007311873137950897,-0.02819242514669895
0.03079107403755188,0.013869632966816425,-0.006341537460684776,-0.05018964037299156,0.007375581655651331,-0.02829856611788273
0.031165679916739464,0.013970870524644852,-0.005898079834878445,-0.050013430416584015,0.007456852588802576,-0.028503146022558212
0.03131241351366043,0.013459045439958572,-0.006135414820164442,-0.050211530178785324,0.007425304502248764,-0.028434185311198235
0.031371306627988815,0.01426003035157919,-0.006455843336880207,-0.04970884323120117,0.007242895197123289,-0.028594601899385452
0.03113904409110546,0.014429828152060509,-0.006299549248069525,-0.05117347836494446,0.007070485968142748,-0.0280662439763546
0.03152710944414139,0.014240480959415436,-0.006516349967569113,-0.050294216722249985,0.007288125343620777,-0.02822604961693287
0.03187490999698639,0.014158179052174091,-0.006197253242135048,-0.04901078715920448,0.007228116039186716,-0.028224756941199303
0.03184262663125992,0.013700718060135841,-0.006435639690607786,-0.050322968512773514,0.007295733783394098,-0.02789902128279209
0.032156169414520264,0.013923238962888718,-0.006640623323619366,-0.051688648760318756,0.007126078940927982,-0.02855064906179905
0.031947217881679535,0.01404211763292551,-0.006074538920074701,-0.05258557200431824,0.007461742497980595,-0.029183926060795784
0.03247455880045891,0.01455264538526535,-0.006213023327291012,-0.04953944310545921,0.007148497272282839,-0.02970552258193493
0.03353242203593254,0.013850705698132515,-0.006006022449582815,-0.05138932541012764,0.007664115633815527,-0.027790306136012077
0.03341943770647049,0.014488961547613144,-0.006428318563848734,-0.052788764238357544,0.007882410660386086,-0.026665588840842247
0.03341943770647049,0.014488961547613144,-0.006428318563848734,-0.052788764238357544,0.007882410660386086,-0.026665588840842247
0.029964081943035126,0.014008751139044762,-0.006583100650459528,-0.053130216896533966,0.008092504926025867,-0.027755651623010635
0.03339523822069168,0.013930105604231358,-0.006149183493107557,-0.05253957211971283,0.007939801551401615,-0.028960095718503
0.03339523822069168,0.013930105604231358,-0.006149183493107557,-0.05253957211971283,0.007939801551401615,-0.028960095718503
0.032677311450242996,0.014962381683290005,-0.006118178367614746,-0.05237194895744324,0.008236704394221306,-0.02863946370780468
0.03372661769390106,0.014483234845101833,-0.0067029730416834354,-0.05267234891653061,0.008317317813634872,-0.029667844995856285
0.03464502841234207,0.015076680108904839,-0.006742875091731548,-0.054296623915433884,0.007819104008376598,-0.029180070385336876
0.03331661596894264,0.015045740641653538,-0.005952256731688976,-0.05432094261050224,0.008059714920818806,-0.02800881490111351
0.03215019404888153,0.014923086389899254,-0.00637342594563961,-0.05222116783261299,0.008427339605987072,-0.027774017304182053
0.033454734832048416,0.014889315702021122,-0.006829208694398403,-0.05353987216949463,0.008016269654035568,-0.02891206182539463
0.033996403217315674,0.015191687270998955,-0.006751277483999729,-0.05462314933538437,0.007608263287693262,-0.030204351991415024
0.03414638713002205,0.015266229398548603,-0.0064018163830041885,-0.05600479990243912,0.007658963557332754,-0.030243143439292908
0.03360707685351372,0.015086368657648563,-0.006544673349708319,-0.05344848707318306,0.008450466208159924,-0.029763953760266304
0.033502932637929916,0.015296123921871185,-0.0066963681019842625,-0.05413202568888664,0.008404077962040901,-0.029268352314829826
0.03378552198410034,0.015163718722760677,-0.006325975991785526,-0.05559185892343521,0.007883988320827484,-0.030513819307088852
0.03317594528198242,0.01566569320857525,-0.0064414432272315025,-0.05610467866063118,0.00814646016806364,-0.02910471521317959
0.0330708809196949,0.015153054147958755,-0.006345395930111408,-0.05557883530855179,0.007904586382210255,-0.028751954436302185
0.033343516290187836,0.015254320576786995,-0.006359270308166742,-0.05549386143684387,0.007927550002932549,-0.02956041507422924
0.03331686928868294,0.01754453219473362,-0.007015166338533163,-0.055716924369335175,0.008324699476361275,-0.02951216511428356
0.033041879534721375,0.014867562800645828,-0.0068979933857917786,-0.05489252880215645,0.007925436832010746,-0.0288461372256279
0.03323829174041748,0.01589573733508587,-0.006364835891872644,-0.055143535137176514,0.007586385123431683,-0.02952321618795395
0.033179447054862976,0.016420777887105942,-0.006419407203793526,-0.05489329621195793,0.008040275424718857,-0.030529258772730827
0.03274545073509216,0.016635984182357788,-0.006716574542224407,-0.05491865798830986,0.007843226194381714,-0.030819902196526527
0.0340399369597435,0.01612652838230133,-0.00728529691696167,-0.05579344183206558,0.007437926717102528,-0.029659535735845566
0.03491169959306717,0.015974655747413635,-0.006838326808065176,-0.0537431463599205,0.007744702976197004,-0.028710180893540382
0.03401024639606476,0.01625615917146206,-0.006382719613611698,-0.05406459793448448,0.007860016077756882,-0.029256034642457962
0.03231542930006981,0.016126172617077827,-0.006480284966528416,-0.054208170622587204,0.007941754534840584,-0.030465593561530113
0.03330511599779129,0.016408901661634445,-0.0070687695406377316,-0.055184733122587204,0.007601027376949787,-0.030297234654426575
0.03330511599779129,0.016408901661634445,-0.0070687695406377316,-0.055184733122587204,0.007601027376949787,-0.030297234654426575
0.03434870392084122,0.016821755096316338,-0.006924256682395935,-0.05664661526679993,0.008112479001283646,-0.03103833645582199
0.03434870392084122,0.016821755096316338,-0.006924256682395935,-0.05664661526679993,0.008112479001283646,-0.03103833645582199
0.034687113016843796,0.01673995889723301,-0.006402050144970417,-0.05686262249946594,0.008415019139647484,-0.030885610729455948
0.03469375520944595,0.016539158299565315,-0.006696667522192001,-0.05436204373836517,0.008177116513252258,-0.028831828385591507
0.03374691680073738,0.01678416319191456,-0.0069169336929917336,-0.055616144090890884,0.008162272162735462,-0.02927401289343834
0.033439137041568756,0.016498589888215065,-0.007154097780585289,-0.05804390460252762,0.00829470157623291,-0.03047030046582222
0.034317102283239365,0.01714584417641163,-0.0069222101010382175,-0.05651985481381416,0.008471568115055561,-0.030707111582159996
0.03455935791134834,0.017436683177947998,-0.0065104765817523,-0.05528559535741806,0.008076174184679985,-0.030415888875722885
0.034439969807863235,0.017360234633088112,-0.007017106283456087,-0.05636369064450264,0.008164718747138977,-0.030430935323238373
