davideferrari95/blind_handover_controller/data/Test 227 - [2024-02-08 -- 12-26-07]/joint_states_data.csv
shoulder_pan_joint,shoulder_lift_joint,elbow_joint,wrist_1_joint,wrist_2_joint,wrist_3_joint
0.012635041028261185,0.007398472633212805,-0.012342749163508415,0.006460293661803007,-0.0,0.012668765150010586
0.012635041028261185,0.007398472633212805,-0.012342749163508415,0.006460293661803007,-0.0,0.012668765150010586
0.012330285273492336,0.006895225029438734,-0.012034861370921135,0.00661974772810936,-0.0,0.012644365429878235
0.012330285273492336,0.006895225029438734,-0.012034861370921135,0.00661974772810936,-0.0,0.012644365429878235
0.012330285273492336,0.006895225029438734,-0.012034861370921135,0.00661974772810936,-0.0,0.012644365429878235
0.012330285273492336,0.006895225029438734,-0.012034861370921135,0.00661974772810936,-0.0,0.012644365429878235
0.012330285273492336,0.006895225029438734,-0.012034861370921135,0.00661974772810936,-0.0,0.012644365429878235
0.012330285273492336,0.006895225029438734,-0.012034861370921135,0.00661974772810936,-0.0,0.012644365429878235
0.012330285273492336,0.006895225029438734,-0.012034861370921135,0.00661974772810936,-0.0,0.012644365429878235
0.012330285273492336,0.006895225029438734,-0.012034861370921135,0.00661974772810936,-0.0,0.012644365429878235
0.012330285273492336,0.006895225029438734,-0.012034861370921135,0.00661974772810936,-0.0,0.012644365429878235
0.01239029411226511,0.0074621462263166904,-0.012343127280473709,0.0068431333638727665,-0.0,0.0128248305991292
0.012336288578808308,0.007242648862302303,-0.012660378590226173,0.006304411683231592,-0.0,0.012431127019226551
0.01245393417775631,0.007436434738337994,-0.013111535459756851,0.006083289161324501,-0.0,0.01271018199622631
0.012745420448482037,0.006988927721977234,-0.013364022597670555,0.005898256320506334,-0.0,0.012539191171526909
0.013289954513311386,0.0070070428773760796,-0.012744376435875893,0.00655741523951292,-0.0,0.012357671745121479
0.012610571458935738,0.007341320160776377,-0.012475049123167992,0.006199774798005819,-0.0,0.01223643496632576
0.012940272688865662,0.007608454208821058,-0.013442497700452805,0.005512793082743883,-0.0,0.012694288976490498
0.012289260514080524,0.006963885854929686,-0.01223039161413908,0.005702736787497997,-0.0,0.012396066449582577
0.01329248771071434,0.007361427880823612,-0.012892229482531548,0.0061678593046963215,-0.0,0.013030561618506908
0.012305386364459991,0.008096619509160519,-0.012272695079445839,0.0062852525152266026,-0.0,0.012576302513480186
0.0125614358112216,0.007871950045228004,-0.012475703842937946,0.006499967537820339,-0.0,0.012548932805657387
0.012188231572508812,0.007482603192329407,-0.012859978713095188,0.005982915870845318,-0.0,0.01256540510803461
0.012188231572508812,0.007482603192329407,-0.012859978713095188,0.005982915870845318,-0.0,0.01256540510803461
0.012465786188840866,0.007618437521159649,-0.012893344275653362,0.006529441103339195,-0.0,0.012532595545053482
0.01275266520678997,0.007464641239494085,-0.01268854457885027,0.006627555470913649,-0.0,0.012511051259934902
0.01275266520678997,0.007464641239494085,-0.01268854457885027,0.006627555470913649,-0.0,0.012511051259934902
0.01244365330785513,0.0075407675467431545,-0.013038196600973606,0.006216700188815594,-0.0,0.012513984926044941
0.01244365330785513,0.0075407675467431545,-0.013038196600973606,0.006216700188815594,-0.0,0.012513984926044941
0.012416365556418896,0.00768252182751894,-0.012935244478285313,0.006475354079157114,-0.0,0.012722606770694256
0.012416365556418896,0.00768252182751894,-0.012935244478285313,0.006475354079157114,-0.0,0.012722606770694256
0.012668007984757423,0.007331693544983864,-0.01309122983366251,0.006394166965037584,-0.0,0.012869507074356079
0.012094532139599323,0.007646746933460236,-0.012481831945478916,0.006059722509235144,-0.0,0.012437313795089722
0.012094532139599323,0.007646746933460236,-0.012481831945478916,0.006059722509235144,-0.0,0.012437313795089722
0.012749610468745232,0.007432227022945881,-0.01309854444116354,0.005932039115577936,-0.0,0.012490046210587025
0.01249003317207098,0.007705617230385542,-0.012470712885260582,0.006090037990361452,-0.0,0.012324810028076172
0.01249003317207098,0.007705617230385542,-0.012470712885260582,0.006090037990361452,-0.0,0.012324810028076172
0.012537271715700626,0.008378020487725735,-0.012737748213112354,0.005805619992315769,-0.0,0.01207130216062069
0.012666856870055199,0.008015898987650871,-0.012613915838301182,0.0062107183039188385,-0.0,0.012234484776854515
0.01252982672303915,0.007937262766063213,-0.01252131536602974,0.00636977469548583,-0.0,0.012503555044531822
0.01223091408610344,0.007463392801582813,-0.012647152878344059,0.005822004750370979,-0.0,0.012331334874033928
0.012536442838609219,0.007681412156671286,-0.011404666118323803,0.006063435226678848,-0.0,0.012329809367656708
0.012347867712378502,0.007921655662357807,-0.013112643733620644,0.006530009675770998,-0.0,0.012731915339827538
0.012827604077756405,0.007910639978945255,-0.013400326482951641,0.006480895448476076,-0.0,0.012553568929433823
0.012827604077756405,0.007910639978945255,-0.013400326482951641,0.006480895448476076,-0.0,0.012553568929433823
0.012827604077756405,0.007910639978945255,-0.013400326482951641,0.006480895448476076,-0.0,0.012553568929433823
0.012827604077756405,0.007910639978945255,-0.013400326482951641,0.006480895448476076,-0.0,0.012553568929433823
0.012016057036817074,0.008167689666152,-0.012911996804177761,0.005833582021296024,-0.0,0.012709299102425575
0.01228129118680954,0.008146106265485287,-0.012874847277998924,0.0059724291786551476,-0.0,0.01242726668715477
0.01228129118680954,0.008146106265485287,-0.012874847277998924,0.0059724291786551476,-0.0,0.01242726668715477
0.01228129118680954,0.008146106265485287,-0.012874847277998924,0.0059724291786551476,-0.0,0.01242726668715477
0.012622908689081669,0.008443182334303856,-0.0127333402633667,0.006716390606015921,-0.0,0.012429964728653431
0.012488575652241707,0.008744892664253712,-0.012495218776166439,0.006393070332705975,-0.0,0.012218479998409748
0.01257495116442442,0.00849961955100298,-0.012080639600753784,0.006148735526949167,-0.0,0.011925210244953632
0.012246004305779934,0.006842138711363077,-0.012536383233964443,0.006123083643615246,-0.0,0.01157394703477621
0.012402663938701153,0.010040582157671452,-0.012729656882584095,0.006135620642453432,-0.0,0.012279867194592953
0.011667067185044289,0.008120132610201836,-0.012714484706521034,0.006021310109645128,-0.0,0.012384749948978424
0.012377631850540638,0.008531486615538597,-0.012428033165633678,0.006140653509646654,-0.0,0.012456404976546764
0.012274357490241528,0.008434326387941837,-0.012431862764060497,0.00583242904394865,-0.0,0.012984790839254856
0.012274357490241528,0.008434326387941837,-0.012431862764060497,0.00583242904394865,-0.0,0.012984790839254856
0.012392239645123482,0.008302521891891956,-0.012288184836506844,0.006010965444147587,-0.0,0.011558889411389828
0.01254609040915966,0.008125264197587967,-0.012150101363658905,0.006060271989554167,-0.0,0.011867950670421124
0.012167612090706825,0.008497534319758415,-0.01267161313444376,0.005616166163235903,-0.0,0.011980852112174034
0.012570865452289581,0.008400439284741879,-0.012352138757705688,0.0056573753245174885,-0.0,0.012104797177016735
0.012400181964039803,0.008422261103987694,-0.012477893382310867,0.00582226924598217,-0.0,0.012411003932356834
0.012328718788921833,0.008721351623535156,-0.01235104352235794,0.006020794622600079,-0.0,0.011953404173254967
0.012327550910413265,0.008639444597065449,-0.011907062493264675,0.006012654397636652,-0.0,0.01207455713301897
0.012548786588013172,0.008579128421843052,-0.012348977848887444,0.005603297147899866,-0.0,0.012236207723617554
0.01254176627844572,0.009004560299217701,-0.011991677805781364,0.00543585978448391,-0.0,0.012783937156200409
0.012412751093506813,0.008573537692427635,-0.012781796045601368,0.005267987959086895,-0.0,0.012398256920278072
0.012886479496955872,0.008471086621284485,-0.01198556274175644,0.0062595997005701065,-0.0,0.012281486764550209
0.012731820344924927,0.008043757639825344,-0.012175220064818859,0.006031495984643698,-0.0,0.01208901684731245
0.012578338384628296,0.008534683845937252,-0.012360596098005772,0.0057966201566159725,-0.0,0.011751333251595497
0.012759095057845116,0.008362716995179653,-0.011911245994269848,0.0053145973943173885,-0.0,0.011843563057482243
0.012759095057845116,0.008362716995179653,-0.011911245994269848,0.0053145973943173885,-0.0,0.011843563057482243
0.013155363500118256,0.008364186622202396,-0.012562265619635582,0.005442983470857143,-0.0,0.011687434278428555
0.012634627521038055,0.008494219742715359,-0.011697505600750446,0.005369381047785282,-0.0,0.012048764154314995
0.012410728260874748,0.00881048571318388,-0.012226028367877007,0.006176741793751717,-0.0,0.012295855209231377
0.012646663002669811,0.008611676283180714,-0.012124564498662949,0.0058556911535561085,-0.0,0.012071975506842136
0.012517406605184078,0.00797254964709282,-0.01237857062369585,0.0054613035172224045,-0.0,0.011813605204224586
0.01271875575184822,0.007618400268256664,-0.012950103729963303,0.005053612869232893,-0.0,0.01160347554832697
0.012190527282655239,0.007507842965424061,-0.011862097308039665,0.00550501374527812,-0.0,0.01209129299968481
0.012786945328116417,0.007666294928640127,-0.012113403528928757,0.005434725433588028,-0.0,0.011742137372493744
0.012235813774168491,0.007829074747860432,-0.012552534230053425,0.004971651826053858,-0.0,0.012254285626113415
0.01304603461176157,0.007460110820829868,-0.012476678006350994,0.005104122217744589,-0.0,0.01184036210179329
0.012520179152488708,0.0073721702210605145,-0.012574365362524986,0.005409149918705225,-0.0,0.012099339626729488
0.012256763875484467,0.007585003972053528,-0.01235838420689106,0.005359239410609007,-0.0,0.01215524971485138
0.012032762169837952,0.007427610456943512,-0.012035122141242027,0.005905588157474995,-0.0,0.011984482407569885
0.012581217102706432,0.007292489055544138,-0.012881985865533352,0.005390049424022436,-0.0,0.011803697794675827
0.012504532933235168,0.0071428269147872925,-0.01234535500407219,0.005286625120788813,-0.0,0.011883310973644257
0.01301521249115467,0.007440025452524424,-0.012430964969098568,0.005339996423572302,-0.0,0.012396003119647503
0.012249169871211052,0.007375829387456179,-0.01275486871600151,0.005692119710147381,-0.0,0.012156318873167038
0.012249169871211052,0.007375829387456179,-0.01275486871600151,0.005692119710147381,-0.0,0.012156318873167038
0.012767587788403034,0.007022107020020485,-0.01302081998437643,0.005396252032369375,-0.0,0.012258864939212799
0.013925674371421337,0.007445880677551031,-0.012797442264854908,0.005309414584189653,-0.0,0.011514407582581043
0.012595049105584621,0.007445874623954296,-0.013293693773448467,0.005137881264090538,-0.0,0.011727443896234035
0.012114048935472965,0.007266581058502197,-0.012263729237020016,0.004998668562620878,-0.0,0.01156436838209629
0.012387823313474655,0.007297893520444632,-0.012997778132557869,0.00585009902715683,-0.0,0.01182849146425724
0.012824379839003086,0.007486106362193823,-0.012714933604001999,0.0057027582079172134,-0.0,0.01207663118839264
0.012433163821697235,0.007684912998229265,-0.012675303034484386,0.005661080591380596,-0.0,0.011921047233045101
0.012433163821697235,0.007684912998229265,-0.012675303034484386,0.005661080591380596,-0.0,0.011921047233045101
0.012525893747806549,0.006623623892664909,-0.012118316255509853,0.005091391038149595,-0.0,0.011796296574175358
0.012525893747806549,0.006623623892664909,-0.012118316255509853,0.005091391038149595,-0.0,0.011796296574175358
0.012724007479846478,0.006950394716113806,-0.012837983667850494,0.005076281726360321,-0.0,0.012015623971819878
0.012530609034001827,0.00740874744951725,-0.01236405223608017,0.005701164714992046,-0.0,0.011846859939396381
0.012514949776232243,0.007150272838771343,-0.012819841504096985,0.005755667574703693,-0.0,0.011837928555905819
0.012922778725624084,0.006800665520131588,-0.012041965499520302,0.005522436928004026,-0.0,0.011955906637012959
0.012235740199685097,0.007474550977349281,-0.013049514964222908,0.00510897021740675,-0.0,0.011756589636206627
0.012156964279711246,0.007046940270811319,-0.012123106978833675,0.005533112678676844,-0.0,0.011504371650516987
0.012537333182990551,0.006603225599974394,-0.01249241828918457,0.0060536484234035015,-0.0,0.011632116511464119
0.012181216850876808,0.006705121137201786,-0.012043425813317299,0.005469540599733591,-0.0,0.011731903068721294
0.01265424583107233,0.00694790855050087,-0.012683384120464325,0.005035570356994867,-0.0,0.011566988192498684
0.012751653790473938,0.007293867412954569,-0.012600981630384922,0.005204691085964441,-0.0,0.01186798233538866
0.012611929327249527,0.007182165049016476,-0.012076223269104958,0.00539040332660079,-0.0,0.011906732805073261
0.012744815088808537,0.007292216178029776,-0.012044222094118595,0.006017469335347414,-0.0,0.011927420273423195
0.012192931957542896,0.006941273808479309,-0.012126930989325047,0.005390168633311987,-0.0,0.011736742220818996
0.012597491964697838,0.007345409598201513,-0.012872475199401379,0.004940605256706476,-0.0,0.01135356817394495
0.012147027999162674,0.006769582629203796,-0.01205748226493597,0.00512312725186348,-0.0,0.011503460817039013
0.012783109210431576,0.006628378760069609,-0.012394583784043789,0.005366806406527758,-0.0,0.011567708104848862
0.012314548715949059,0.00667096022516489,-0.01191179919987917,0.005080751143395901,-0.0,0.011409159749746323
0.012463163584470749,0.007229937240481377,-0.011722702533006668,0.00638151541352272,-0.0,0.01154544111341238
0.012132948264479637,0.007093790918588638,-0.012233208864927292,0.006575123872607946,-0.0,0.011560090817511082
0.01185581460595131,0.007072252221405506,-0.01169044803828001,0.005901488941162825,-0.0,0.0111858444288373
0.012249859981238842,0.006925947964191437,-0.012216686271131039,0.0054175034165382385,-0.0,0.012116792611777782
0.012189547531306744,0.007508613634854555,-0.011419310234487057,0.005352209322154522,-0.0,0.01194180827587843
0.012189547531306744,0.007508613634854555,-0.011419310234487057,0.005352209322154522,-0.0,0.01194180827587843
0.012503850273787975,0.007418826222419739,-0.011958594433963299,0.005518325604498386,-0.0,0.011508283205330372
0.01228646282106638,0.00741798197850585,-0.012006809003651142,0.005461821332573891,-0.0,0.011178852058947086
0.012172984890639782,0.006752178072929382,-0.011593046598136425,0.005048106424510479,-0.0,0.010913936421275139
0.012716539204120636,0.00722903199493885,-0.011814046651124954,0.0047840247862041,-0.0,0.01101835910230875
0.011990448459982872,0.008170617744326591,-0.01163820456713438,0.005145660135895014,-0.0,0.01127246581017971
0.012568460777401924,0.00796531606465578,-0.011939914897084236,0.005469668190926313,-0.0,0.010976255871355534
0.01188254076987505,0.006866928189992905,-0.011998065747320652,0.005679389461874962,-0.0,0.01114500593394041
0.012322249822318554,0.0074431705288589,-0.011876283213496208,0.004513013642281294,-0.0,0.011708010919392109
0.011993792839348316,0.007238405756652355,-0.011575384996831417,0.004869513679295778,-0.0,0.010870365425944328
0.012330125086009502,0.007212718017399311,-0.01180911436676979,0.004963888321071863,-0.0,0.010867561213672161
0.011731929145753384,0.007236171513795853,-0.011525334790349007,0.005263519939035177,-0.0,0.010714637115597725
0.012190967798233032,0.00719418516382575,-0.011142950505018234,0.005486961454153061,-0.0,0.011079826392233372
0.01218267809599638,0.00712650828063488,-0.011895780451595783,0.0051629869267344475,-0.0,0.010692961513996124
0.011830202303826809,0.007048775441944599,-0.011216346174478531,0.00450132368132472,-0.0,0.010722366161644459
0.012129738926887512,0.007358486298471689,-0.011674575507640839,0.004440509248524904,-0.0,0.011108692735433578
0.011868552304804325,0.007448537740856409,-0.011603908613324165,0.0049429237842559814,-0.0,0.011090658605098724
0.012116068974137306,0.0073056952096521854,-0.011303423903882504,0.00521585438400507,-0.0,0.011320127174258232
0.01200516615062952,0.00807126797735691,-0.01144243311136961,0.005727516021579504,-0.0,0.011465080082416534
0.012246678583323956,0.007965683937072754,-0.011830952949821949,0.005296151153743267,-0.0,0.010596455074846745
0.012333608232438564,0.007684969808906317,-0.011764169670641422,0.00488551240414381,-0.0,0.01056123711168766
0.011921927332878113,0.0069039263762533665,-0.01177994254976511,0.004795575048774481,-0.0,0.010013150982558727
0.012266954407095909,0.007206782698631287,-0.011133157648146152,0.00498084956780076,-0.0,0.01048353873193264
0.012097547762095928,0.008162572979927063,-0.011403718031942844,0.005188988987356424,-0.0,0.011066078208386898
0.012055288068950176,0.007703979499638081,-0.011204414069652557,0.00533622782677412,-0.0,0.010582244955003262
0.012321335263550282,0.007666510995477438,-0.011035666801035404,0.00509652541950345,-0.0,0.010714229196310043
0.012220778502523899,0.007061326410621405,-0.01125928945839405,0.005076389294117689,-0.0,0.011074290610849857
0.011925612576305866,0.008053955622017384,-0.01079505030065775,0.004811130929738283,-0.0,0.011117246001958847
0.011684359982609749,0.007921505719423294,-0.012233076617121696,0.004751319531351328,-0.0,0.010785676538944244
0.011684359982609749,0.007921505719423294,-0.012233076617121696,0.004751319531351328,-0.0,0.010785676538944244
0.0127918291836977,0.007608989719301462,-0.011382066644728184,0.005099203437566757,-0.0,0.010820319876074791
0.012395679019391537,0.007830902934074402,-0.011637968942523003,0.0051401536911726,-0.0,0.01064151618629694
0.012395679019391537,0.007830902934074402,-0.011637968942523003,0.0051401536911726,-0.0,0.01064151618629694
0.012179380282759666,0.007542426232248545,-0.010696977376937866,0.005161259323358536,-0.0,0.010355520062148571
0.011760790832340717,0.008002175018191338,-0.011511755175888538,0.004839716013520956,-0.0,0.010157042182981968
0.012248115614056587,0.007851519621908665,-0.011962512508034706,0.005090026650577784,-0.0,0.010713034309446812
0.011724045500159264,0.0069840750657022,-0.011391926556825638,0.005269004497677088,-0.0,0.010264256037771702
0.011883986182510853,0.006632502190768719,-0.010973813943564892,0.005070865154266357,-0.0,0.010217790491878986
0.01190276350826025,0.006897219456732273,-0.01136048324406147,0.004959074780344963,-0.0,0.010346359573304653
0.012009315192699432,0.007381357252597809,-0.011385854333639145,0.005115961190313101,-0.0,0.010314959101378918
0.011821928434073925,0.008057467639446259,-0.011005165986716747,0.004957753233611584,-0.0,0.01059939805418253
0.012530586682260036,0.006891656666994095,-0.012005453929305077,0.005446361377835274,-0.0,0.010788501240313053
0.012106348760426044,0.006603775080293417,-0.011961659416556358,0.005267954897135496,-0.0,0.010405023582279682
0.01201718021184206,0.007076586131006479,-0.011660663411021233,0.0050825318321585655,-0.0,0.010203215293586254
0.012006490491330624,0.007296490017324686,-0.011178293265402317,0.005290409084409475,-0.0,0.010541691444814205
0.012036660686135292,0.007015896495431662,-0.011118898168206215,0.005191622767597437,-0.0,0.010938689112663269
0.012348330579698086,0.006977354176342487,-0.012027905322611332,0.0048814257606863976,-0.0,0.010538742877542973
0.012369923293590546,0.007286184933036566,-0.011959089897572994,0.005060965660959482,-0.0,0.01004072092473507
0.012485666200518608,0.007623851764947176,-0.01201688777655363,0.005149029660969973,-0.0,0.010619716718792915
0.01240453589707613,0.007060369476675987,-0.011976439505815506,0.005282039754092693,-0.0,0.010325511917471886
0.012167534790933132,0.007322150282561779,-0.011020997539162636,0.005170733667910099,-0.0,0.01018004585057497
0.01230244804173708,0.006832687649875879,-0.011944428086280823,0.004853046964854002,-0.0,0.010567176155745983
0.01237068697810173,0.008086693473160267,-0.011994791217148304,0.004712535068392754,-0.0,0.010278930887579918
0.01237068697810173,0.008086693473160267,-0.011994791217148304,0.004712535068392754,-0.0,0.010278930887579918
0.012733490206301212,0.007222397718578577,-0.011883765459060669,0.0047490657307207584,-0.0,0.01011924259364605
0.011814734898507595,0.006890508346259594,-0.01201168168336153,0.004911609925329685,-0.0,0.009953316301107407
0.011922805570065975,0.0070410482585430145,-0.011100984178483486,0.0049959467723965645,-0.0,0.009906631894409657
0.012261763215065002,0.006848997436463833,-0.01137916836887598,0.004912864416837692,-0.0,0.010567949153482914
0.012261763215065002,0.006848997436463833,-0.01137916836887598,0.004912864416837692,-0.0,0.010567949153482914
0.01200718805193901,0.006887305993586779,-0.011662892997264862,0.004651170689612627,-0.0,0.010059038177132607
0.012308057397603989,0.007267452776432037,-0.01111182477325201,0.005336458329111338,-0.0,0.010009567253291607
0.012308057397603989,0.007267452776432037,-0.01111182477325201,0.005336458329111338,-0.0,0.010009567253291607
0.012618035078048706,0.006811906583607197,-0.011706467717885971,0.005001372192054987,-0.0,0.010147571563720703
0.0123560456559062,0.007128573954105377,-0.012182681821286678,0.00471395393833518,-0.0,0.009980723261833191
0.012091039679944515,0.007613405119627714,-0.01185829471796751,0.0046046082861721516,-0.0,0.009834599681198597
0.012387107126414776,0.007550129666924477,-0.011089798994362354,0.005037889815866947,-0.0,0.00991084985435009
0.012134849093854427,0.006880264263600111,-0.011921281926333904,0.005024332087486982,-0.0,0.010274002328515053
0.012413585558533669,0.006757194641977549,-0.011206954717636108,0.004912692587822676,-0.0,0.009846980683505535
0.012199340388178825,0.0073095206171274185,-0.011539827100932598,0.004991242196410894,-0.0,0.010096387006342411
0.012225544080138206,0.007234254851937294,-0.01138558704406023,0.005020366050302982,-0.0,0.010034778155386448
0.012617911212146282,0.006805905606597662,-0.010826261714100838,0.004844404757022858,-0.0,0.01008607167750597
0.012153463438153267,0.007088045589625835,-0.011487722396850586,0.005286694969981909,-0.0,0.009927141480147839
0.012384975329041481,0.007116958033293486,-0.011348689906299114,0.005181544926017523,-0.0,0.009781045839190483
0.012306004762649536,0.007705179043114185,-0.01206115446984768,0.004563505295664072,-0.0,0.009753291495144367
0.012562880292534828,0.007318858057260513,-0.011331407353281975,0.004481208976358175,-0.0,0.010537700727581978
0.012562880292534828,0.007318858057260513,-0.011331407353281975,0.004481208976358175,-0.0,0.010537700727581978
0.012608939781785011,0.007120026275515556,-0.011017785407602787,0.0048299203626811504,-0.0,0.009608766995370388
0.01212361641228199,0.007642296142876148,-0.011576171033084393,0.0048657869920134544,-0.0,0.009372701868414879
0.012264003045856953,0.0071628219448029995,-0.011368751525878906,0.0048909722827374935,-0.0,0.009856103919446468
0.012255511246621609,0.007281748577952385,-0.011211959645152092,0.00535856606438756,-0.0,0.009200514294207096
0.012400813400745392,0.006937425117939711,-0.011609723791480064,0.005186385475099087,-0.0,0.009376886300742626
0.01214572973549366,0.006786213256418705,-0.011035601608455181,0.004973124247044325,-0.0,0.009712028317153454
0.0124353701248765,0.007274588569998741,-0.0115595031529665,0.004967857152223587,-0.0,0.009518282487988472
0.012294712476432323,0.006845689844340086,-0.011607881635427475,0.004882051143795252,-0.0,0.009632385335862637
0.012423363514244556,0.006772723514586687,-0.011301112361252308,0.005186580121517181,-0.0,0.009805489331483841
0.012362267822027206,0.006974903866648674,-0.011802914552390575,0.005372250452637672,-0.0,0.009459391236305237
0.01223037950694561,0.007380600553005934,-0.011188020929694176,0.005255504976958036,-0.0,0.009375286288559437
0.012309183366596699,0.007455769926309586,-0.011987804435193539,0.004856524057686329,-0.0,0.009341076016426086
0.012560195289552212,0.007014795206487179,-0.011564896441996098,0.0046544685028493404,-0.0,0.009119026362895966
0.012409794144332409,0.007976897060871124,-0.011517352424561977,0.005087163764983416,-0.0,0.00960718747228384
0.012460105121135712,0.007297145202755928,-0.011237493716180325,0.0054512955248355865,-0.0,0.009642026387155056
0.012384199537336826,0.00727049307897687,-0.011627634055912495,0.005411171820014715,-0.0,0.009313794784247875
0.011942771263420582,0.006750141270458698,-0.011851470917463303,0.005333767272531986,-0.0,0.009551883675158024
0.012464389204978943,0.007211118470877409,-0.011020275764167309,0.005043881479650736,-0.0,0.009313158690929413
0.012126387096941471,0.007319954223930836,-0.011821853928267956,0.004873915575444698,-0.0,0.009368346072733402
0.01231827586889267,0.007045228965580463,-0.011126166209578514,0.00518887210637331,-0.0,0.00901738926768303
0.011945345439016819,0.006933435797691345,-0.011387917213141918,0.005195959005504847,-0.0,0.00935850664973259
0.011991124600172043,0.0070057944394648075,-0.011333126574754715,0.005165408831089735,-0.0,0.009433829225599766
0.012488528154790401,0.0071702818386256695,-0.011019811034202576,0.0052369278855621815,-0.0,0.009548909962177277
0.012266206555068493,0.0068808202631771564,-0.011822637170553207,0.005022621247917414,-0.0,0.009169838391244411
0.012266206555068493,0.0068808202631771564,-0.011822637170553207,0.005022621247917414,-0.0,0.009169838391244411
0.011982970871031284,0.007340798154473305,-0.011690793558955193,0.005377854220569134,-0.0,0.0087320851162076
0.01223699375987053,0.007635754998773336,-0.011668797582387924,0.005363496020436287,-0.0,0.009307369589805603
0.01307203620672226,0.006926971487700939,-0.01138253603130579,0.0053021470084786415,-0.0,0.00903537217527628
0.012046941556036472,0.0071900649927556515,-0.012594114057719707,0.005092724226415157,-0.0,0.009403161704540253
0.01229521632194519,0.006656167563050985,-0.011330071836709976,0.005111809819936752,-0.0,0.009693719446659088
0.012165441177785397,0.007073437795042992,-0.011385118588805199,0.005450928118079901,-0.0,0.009272572584450245
0.012329759076237679,0.006705484818667173,-0.011414241977036,0.00551303755491972,-0.0,0.00896269641816616
0.012329759076237679,0.006705484818667173,-0.011414241977036,0.00551303755491972,-0.0,0.00896269641816616
0.012225450947880745,0.006793096661567688,-0.01101317722350359,0.005656568333506584,-0.0,0.009019583463668823
0.012546345591545105,0.006438081618398428,-0.01150186825543642,0.005323715507984161,-0.0,0.008608411066234112
0.012710794806480408,0.007192348595708609,-0.011459676548838615,0.004829532466828823,-0.0,0.008822377771139145
0.012172791175544262,0.007537455763667822,-0.012279758229851723,0.004943396896123886,-0.0,0.009019101038575172
0.01238195039331913,0.006464378442615271,-0.010902978479862213,0.005819252226501703,-0.0,0.008583495393395424
0.012345308437943459,0.0068718683905899525,-0.011650970205664635,0.005494910292327404,-0.0,0.008319750428199768
0.012512528337538242,0.007355172652751207,-0.011589824222028255,0.005232219118624926,-0.0,0.008900354616343975
0.012528971768915653,0.006914699450135231,-0.011612375266849995,0.004938538186252117,-0.0,0.008666117675602436
0.01264386810362339,0.006303078960627317,-0.011598719283938408,0.00471053970977664,-0.0,0.00842085387557745
0.01246734894812107,0.006415580399334431,-0.010922576300799847,0.004809768404811621,-0.0,0.009300396777689457
0.012775066308677197,0.00695070018991828,-0.011634712107479572,0.005304285790771246,-0.0,0.00905443262308836
0.012432651594281197,0.0068130940198898315,-0.011638459749519825,0.005059980321675539,-0.0,0.009272133000195026
0.013131213374435902,0.006386452354490757,-0.011148062534630299,0.0048489049077034,-0.0,0.008468606509268284
0.0125614358112216,0.006287446711212397,-0.01162241492420435,0.0050714630633592606,-0.0,0.008741210214793682
0.012685813941061497,0.006665013264864683,-0.011760154739022255,0.004896694328635931,-0.0,0.009013013914227486
0.01254319865256548,0.007292835973203182,-0.012221737764775753,0.0054336898028850555,-0.0,0.00869586132466793
0.012611825950443745,0.006337048951536417,-0.011748211458325386,0.005332635249942541,-0.0,0.008874534629285336
0.013218593783676624,0.006107093300670385,-0.011607477441430092,0.005350819788873196,-0.0,0.00858483836054802
0.01275581680238247,0.006505021825432777,-0.012089376337826252,0.005565018393099308,-0.0,0.008433164097368717
0.01275581680238247,0.006505021825432777,-0.012089376337826252,0.005565018393099308,-0.0,0.008433164097368717
0.012899589724838734,0.006597952451556921,-0.011271053925156593,0.005389735102653503,-0.0,0.009229863993823528
0.012614228762686253,0.0064433878287673,-0.011989646591246128,0.0051381830126047134,-0.0,0.00845403503626585
0.012733515352010727,0.0060301534831523895,-0.01161737460643053,0.005200828425586224,-0.0,0.008132608607411385
0.012434244155883789,0.006010034121572971,-0.011614114046096802,0.005543384235352278,-0.0,0.008228047750890255
0.012786663137376308,0.00592305650934577,-0.011890202760696411,0.0052805813029408455,-0.0,0.008717884309589863
0.012828519567847252,0.006412946153432131,-0.011490099132061005,0.0053208558820188046,-0.0,0.008741210214793682
0.012696176767349243,0.0060571227222681046,-0.012165225110948086,0.0053582824766635895,-0.0,0.008598607033491135
0.013207298703491688,0.005842655431479216,-0.012183234095573425,0.005157390609383583,-0.0,0.008542465977370739
0.012582607567310333,0.005881220567971468,-0.01200134214013815,0.005359665025025606,-0.0,0.008298162370920181
0.012671747244894505,0.006485272198915482,-0.011566122062504292,0.005259877536445856,-0.0,0.008212977088987827
0.012671747244894505,0.006485272198915482,-0.011566122062504292,0.005259877536445856,-0.0,0.008212977088987827
0.012469915673136711,0.0061627840623259544,-0.011660244315862656,0.005236821714788675,-0.0,0.008214925415813923
0.012735536321997643,0.005570181645452976,-0.011895757168531418,0.005135083105415106,-0.0,0.007855663076043129
0.012683549895882607,0.005956531967967749,-0.011702040210366249,0.005019930191338062,-0.0,0.008104977197945118
0.012765699066221714,0.006204717326909304,-0.012002791278064251,0.005683986470103264,-0.0,0.008564158342778683
0.013047096319496632,0.006055937148630619,-0.012547740712761879,0.005466689355671406,-0.0,0.008232680149376392
0.013171527534723282,0.006213387008756399,-0.012281224131584167,0.005361504852771759,-0.0,0.008068323135375977
0.01307701226323843,0.00569147989153862,-0.012731661088764668,0.005563133861869574,-0.0,0.00811691116541624
0.012350357137620449,0.0063715483993291855,-0.011965545825660229,0.006042940076440573,-0.0,0.008033046498894691
0.01306211482733488,0.006647871341556311,-0.012443609535694122,0.005518607795238495,-0.0,0.008162439800798893
0.013142597861588001,0.005859784781932831,-0.012590195052325726,0.005042950622737408,-0.0,0.008332221768796444
0.013483059592545033,0.005797458812594414,-0.012158827856183052,0.005488638766109943,-0.0,0.00864542555063963
0.013237706385552883,0.005803465843200684,-0.012441093102097511,0.005319598130881786,-0.0,0.007969108410179615
0.013172002509236336,0.005967580247670412,-0.011803648434579372,0.005421346984803677,-0.0,0.008092167787253857
0.013176096603274345,0.005828979425132275,-0.01230723038315773,0.005513944197446108,-0.0,0.007903958670794964
0.013176096603274345,0.005828979425132275,-0.01230723038315773,0.005513944197446108,-0.0,0.007903958670794964
0.013105660676956177,0.005796714220196009,-0.012000304646790028,0.005491601303219795,-0.0,0.007960652001202106
0.013174130581319332,0.005534396506845951,-0.012348385527729988,0.005107036791741848,-0.0,0.00832283589988947
0.013174130581319332,0.005534396506845951,-0.012348385527729988,0.005107036791741848,-0.0,0.00832283589988947
0.013212631456553936,0.00643138587474823,-0.011815888807177544,0.005403381772339344,-0.0,0.007703645620495081
0.012760400772094727,0.006208823993802071,-0.01193204801529646,0.005573583301156759,-0.0,0.007856017909944057
0.013243271969258785,0.005818269681185484,-0.011578463949263096,0.005830687936395407,-0.0,0.007912416011095047
0.013151923194527626,0.006188655272126198,-0.012224351055920124,0.005287508480250835,-0.0,0.007854952476918697
0.013151923194527626,0.006188655272126198,-0.012224351055920124,0.005287508480250835,-0.0,0.007854952476918697
0.013138053007423878,0.006229081191122532,-0.01175728626549244,0.005091967061161995,-0.0,0.007586275693029165
0.013169711455702782,0.00611537043005228,-0.011802330613136292,0.005583427380770445,-0.0,0.007420661393553019
0.013182354159653187,0.005881547927856445,-0.011413034051656723,0.0054100435227155685,-0.0,0.00819464586675167
0.013036281801760197,0.0060011958703398705,-0.011786828748881817,0.005332139320671558,-0.0,0.007949856109917164
0.01287707407027483,0.0059535386972129345,-0.011568997986614704,0.005085433833301067,-0.0,0.00741519033908844
0.01338689960539341,0.006440778728574514,-0.011784789152443409,0.005286481697112322,-0.0,0.007914260029792786
0.01286524347960949,0.005767515394836664,-0.010682388208806515,0.00528937391936779,-0.0,0.007901082746684551
0.013295099139213562,0.005876158829778433,-0.01102077029645443,0.005814756266772747,-0.0,0.00713130459189415
0.013035560958087444,0.00601474242284894,-0.011741445399820805,0.005423195194453001,-0.0,0.007239162921905518
0.013451451435685158,0.006166241597384214,-0.012345416471362114,0.005235044285655022,-0.0,0.008104278706014156
0.013305597938597202,0.0062684002332389355,-0.011789634823799133,0.0052611189894378185,-0.0,0.008045953698456287
0.013375853188335896,0.005883986596018076,-0.011121557094156742,0.005792425945401192,-0.0,0.007707991637289524
0.013259956613183022,0.006166062783449888,-0.011981969699263573,0.0058671110309660435,-0.0,0.007505441550165415
0.013422282412648201,0.006176677066832781,-0.011675079353153706,0.005516760516911745,-0.0,0.007588357198983431
0.01352653093636036,0.006446267012506723,-0.011850307695567608,0.005423712078481913,-0.0,0.007657567970454693
0.0132040586322546,0.0063562700524926186,-0.01160470675677061,0.005154258571565151,-0.0,0.0076321871019899845
0.01344376616179943,0.005514413584023714,-0.011380578391253948,0.005397114437073469,-0.0,0.00700766546651721
0.012962372973561287,0.005362064577639103,-0.01213101577013731,0.005599490366876125,-0.0,0.006533987820148468
0.013152391649782658,0.005668486002832651,-0.012346017174422741,0.005620958749204874,-0.0,0.006895489990711212
0.013234954327344894,0.00627088313922286,-0.011768513359129429,0.005256103351712227,-0.0,0.006774116773158312
0.013234954327344894,0.00627088313922286,-0.011768513359129429,0.005256103351712227,-0.0,0.006774116773158312
0.013528743758797646,0.006256653927266598,-0.011830338276922703,0.005281614605337381,-0.0,0.006834019441157579
0.012982727028429508,0.005424192640930414,-0.011103586293756962,0.005305937025696039,-0.0,0.006668625399470329
0.013411527499556541,0.00578918494284153,-0.012691861018538475,0.005445548798888922,-0.0,0.006572394166141748
0.013216094113886356,0.005526886321604252,-0.011890203692018986,0.00594119168817997,-0.0,0.006918103899806738
0.013409747742116451,0.005979597102850676,-0.01164401788264513,0.005632610525935888,-0.0,0.006735756993293762
0.013425955548882484,0.006073931232094765,-0.012143854051828384,0.005480268970131874,-0.0,0.006783108692616224
0.013464098796248436,0.005941805895417929,-0.01156133133918047,0.005310469307005405,-0.0,0.006718234159052372
0.013759813271462917,0.005543406121432781,-0.012045791372656822,0.005746642127633095,-0.0,0.006433228962123394
0.013419483788311481,0.00605121161788702,-0.012003837153315544,0.005843972321599722,-0.0,0.006889109965413809
0.013531878590583801,0.006176826544106007,-0.011827118694782257,0.005259274039417505,-0.0,0.007016356568783522
0.013822653330862522,0.0060339150950312614,-0.01099439151585102,0.005256518721580505,-0.0,0.006923006381839514
0.013041583821177483,0.005519136320799589,-0.011899438686668873,0.005461284425109625,-0.0,0.006651749834418297
0.013781733810901642,0.005720540881156921,-0.012340965680778027,0.0060616363771259785,-0.0,0.0071887546218931675
0.01350976899266243,0.0055382451973855495,-0.011945932172238827,0.005571195390075445,-0.0,0.007030118722468615
0.013292327523231506,0.005962795112282038,-0.011919516138732433,0.005382820963859558,-0.0,0.006498930510133505
0.01205776259303093,0.0054662711918354034,-0.011278160847723484,0.00527154328301549,-0.0,0.006393803283572197
0.013919362798333168,0.005520743317902088,-0.012563962489366531,0.005818996112793684,-0.0,0.006200855132192373
0.01390837226063013,0.005246409215033054,-0.011505992151796818,0.0059877727180719376,-0.0,0.0064358580857515335
0.013672017492353916,0.005611312109977007,-0.011663283221423626,0.006320568732917309,-0.0,0.006652097683399916
0.013466445729136467,0.0064826104789972305,-0.011409163475036621,0.006249810568988323,-0.0,0.006412880029529333
0.013738323003053665,0.0061837900429964066,-0.010782540775835514,0.006000324618071318,-0.0,0.005944707430899143
0.01344507560133934,0.005619649309664965,-0.01169126108288765,0.00609124219045043,-0.0,0.006278681103140116
0.013939044438302517,0.005457498598843813,-0.011326178908348083,0.0058634718880057335,-0.0,0.00654979981482029
0.014119084924459457,0.005605589132755995,-0.011859318241477013,0.005997576285153627,-0.0,0.00668401038274169
0.014119084924459457,0.005605589132755995,-0.011859318241477013,0.005997576285153627,-0.0,0.00668401038274169
0.013296806253492832,0.00598232913762331,-0.011841763742268085,0.006124220788478851,-0.0,0.0063371481373906136
0.014118362218141556,0.006191571243107319,-0.010983631946146488,0.006053001619875431,-0.0,0.006421278230845928
0.013877619989216328,0.006087969057261944,-0.011574916541576385,0.006220656912773848,-0.0,0.006021543405950069
0.014108899980783463,0.005864803213626146,-0.011652301996946335,0.006975994911044836,-0.0,0.006204599980264902
0.013622392900288105,0.005570138338953257,-0.012362325564026833,0.006347943563014269,-0.0,0.006592412944883108
0.014233469031751156,0.005714531056582928,-0.011984650045633316,0.005627590697258711,-0.0,0.006399084813892841
0.013265475630760193,0.006179844494909048,-0.011380167677998543,0.005773698911070824,-0.0,0.00570486206561327
0.013360384851694107,0.005426788702607155,-0.011322696693241596,0.006147440057247877,-0.0,0.00630795257166028
0.014067072421312332,0.005417606793344021,-0.011861234903335571,0.005495206918567419,-0.0,0.006868751719594002
0.013894307427108288,0.005828577559441328,-0.011765710078179836,0.005284457933157682,-0.0,0.006562510970979929
0.014284408651292324,0.006068606860935688,-0.011358913034200668,0.005639456212520599,-0.0,0.006139172241091728
0.01377539150416851,0.005949644837528467,-0.011934924870729446,0.006132206879556179,-8.598432259532274e-07,0.005805626977235079
0.013888493180274963,0.005878656171262264,-0.0117055494338274,0.006266671232879162,-5.614161935341144e-08,0.006127980537712574
0.013797507621347904,0.0057816882617771626,-0.01261508371680975,0.006410188041627407,-3.6656466750883965e-09,0.006030702497810125
0.014081796631217003,0.00597286457195878,-0.012281110510230064,0.006519991438835859,-2.393405473810617e-10,0.005835474003106356
0.013782414607703686,0.006561226677149534,-0.011956832371652126,0.0061290934681892395,-1.5627226943037975e-11,0.006040772423148155
0.014194522984325886,0.005924485623836517,-0.011761682108044624,0.0063536204397678375,-1.0203462423932774e-12,0.005639335140585899
0.014086538925766945,0.005883036181330681,-0.011624339036643505,0.006687852554023266,-6.662132325842285e-14,0.00586792454123497
0.014443007297813892,0.005401728209108114,-0.012696088291704655,0.006462664809077978,-4.349896196010044e-15,0.00615079328417778
0.014068878255784512,0.005889859050512314,-0.012359033338725567,0.005958775524049997,-2.8401713523618175e-16,0.006050899624824524
0.014086520299315453,0.005707402713596821,-0.01208399049937725,0.00577852176502347,-1.854428752886296e-17,0.0056320056319236755
0.014072895981371403,0.005631206091493368,-0.01263184379786253,0.005962391849607229,-1.2108095064646817e-18,0.005755878984928131
0.014138518832623959,0.005459910724312067,-0.011846324428915977,0.006571801379323006,-7.905720543338742e-20,0.006035317666828632
0.014138518832623959,0.005459910724312067,-0.011846324428915977,0.006571801379323006,-7.905720543338742e-20,0.006035317666828632
0.014216439798474312,0.005648639984428883,-0.012619543820619583,0.006408716551959515,-5.161870766930501e-21,0.0058093201369047165
0.01446693204343319,0.005547449924051762,-0.012588771991431713,0.005671607330441475,-3.370332360692127e-22,0.005829049739986658
0.014412610791623592,0.005746724549680948,-0.012901085428893566,0.0058076828718185425,-2.200586186365361e-23,0.00529147544875741
0.014539282768964767,0.005491863004863262,-0.012597944587469101,0.005707703996449709,-1.4368257307432144e-24,0.005170642863959074
0.014441263861954212,0.005572848953306675,-0.012463556602597237,0.005659364629536867,-9.381444498869703e-26,0.005336572416126728
0.014395973645150661,0.0060270787216722965,-0.012579334899783134,0.006390657741576433,-6.125413254775804e-27,0.006254588719457388
0.01441109273582697,0.005547048524022102,-0.012141527608036995,0.006636610720306635,-3.9994571411812333e-28,0.005920014344155788
0.014692019671201706,0.006430371664464474,-0.012625942938029766,0.0063339825719594955,-2.6113596847245926e-29,0.005813079886138439
0.014538977295160294,0.005918487906455994,-0.01212269626557827,0.006281718146055937,-1.705031422138904e-30,0.00563628226518631
0.014612187631428242,0.005769212730228901,-0.012515943497419357,0.006137359421700239,-7.268816255103468e-33,0.005380101501941681
0.014633466489613056,0.005855897441506386,-0.012956704013049603,0.006069018039852381,-4.7460175746491955e-34,0.0054390206933021545
0.014632043428719044,0.006627147551625967,-0.012485149316489697,0.006080234423279762,-3.0988103126057563e-35,0.004933697171509266
0.014785758219659328,0.0060432469472289085,-0.012012309394776821,0.0061561777256429195,-2.023301714732519e-36,0.004700188525021076
0.01456762757152319,0.005951325409114361,-0.012638571672141552,0.006553937681019306,-1.3210713246452926e-37,0.004713470581918955
0.014767933636903763,0.006237848661839962,-0.01239240262657404,0.006406731903553009,-8.62565346079441e-39,0.005030896980315447
0.014593301340937614,0.00566704198718071,-0.012934615835547447,0.006027783267199993,-5.631930631998586e-40,0.005363197531551123
0.014756154268980026,0.005955957341939211,-0.01238465029746294,0.005675357300788164,-3.677287430081185e-41,0.005147571675479412
0.01465785875916481,0.0057176873087882996,-0.012927362695336342,0.0057525672018527985,-2.4004242693884116e-42,0.004699998535215855
0.015136295929551125,0.0055978125892579556,-0.012267827056348324,0.006235848180949688,-1.5694542800437951e-43,0.004571298602968454
0.014673002064228058,0.005754460580646992,-0.012216350063681602,0.006301995366811752,-9.80908925027372e-45,0.004749913699924946
0.014974801801145077,0.006022911053150892,-0.012585538439452648,0.00625831400975585,-0.0,0.004790899809449911
0.014735960401594639,0.006489667110145092,-0.011960002593696117,0.006171558052301407,-0.0,0.004680825863033533
0.015070466324687004,0.0061075142584741116,-0.01240005437284708,0.006623738911002874,-0.0,0.004139435011893511
0.014598986133933067,0.006044988986104727,-0.011567526496946812,0.006643291562795639,-0.0,0.005097236949950457
0.015175068750977516,0.005911759100854397,-0.012255311943590641,0.00638348376378417,-9.046877676155418e-05,0.005425658542662859
0.01463337242603302,0.005829886067658663,-0.012605753727257252,0.006325816735625267,-0.00011467467993497849,0.005090929567813873
0.01497653964906931,0.006146247033029795,-0.01193297654390335,0.006168758496642113,-0.00011351336434017867,0.004874994978308678
0.014998117461800575,0.005486228037625551,-0.012265625409781933,0.006374203134328127,-0.00013008108362555504,0.004388508852571249
0.014998117461800575,0.005486228037625551,-0.012265625409781933,0.006374203134328127,-0.00013008108362555504,0.004388508852571249
0.015413402579724789,0.005747117567807436,-0.012398936785757542,0.006516409572213888,-0.00012961802713107318,0.004312609322369099
0.015201936475932598,0.005864699371159077,-0.01247416902333498,0.00667606433853507,-0.00012674921890720725,0.004244187381118536
0.015577970072627068,0.0055989292450249195,-0.012283352203667164,0.006453694310039282,-0.0001431162527296692,0.004422488622367382
0.015043775551021099,0.005740154068917036,-0.012497276067733765,0.006306330673396587,-0.00014116644160822034,0.004249399993568659
0.014868047088384628,0.006162566598504782,-0.012217579409480095,0.006492903921753168,-0.00015529783559031785,0.004015962593257427
0.01523672230541706,0.005701364949345589,-0.011672466062009335,0.006497829221189022,-0.0003073815896641463,0.0043159653432667255
0.014566069468855858,0.005732864607125521,-0.012251379899680614,0.006527956575155258,-0.0004196483932901174,0.00497850589454174
0.015255116857588291,0.005847071297466755,-0.012919681146740913,0.006703718565404415,-0.0004285292816348374,0.004310164134949446
0.015137848444283009,0.006184009835124016,-0.012540146708488464,0.006785919889807701,-0.0004011014534626156,0.00386081007309258
0.01516635436564684,0.005565842613577843,-0.012854955159127712,0.007121182978153229,-0.0004038575279992074,0.0038522190880030394
0.015523162670433521,0.005772662814706564,-0.012399118393659592,0.006993452087044716,-0.00040559639455750585,0.004019609652459621
0.015025815926492214,0.005463478621095419,-0.011892984621226788,0.00726140383630991,-0.0004093816678505391,0.004083131905645132
0.015603839419782162,0.005871199071407318,-0.0126191982999444,0.007433772087097168,-0.0004106732667423785,0.004073767457157373
0.014969981275498867,0.005860735196620226,-0.012084701098501682,0.006988863926380873,-0.00039003227720968425,0.004359657876193523
0.015246941708028316,0.006030915770679712,-0.012560510076582432,0.006461900193244219,-0.00043692905455827713,0.0045523084700107574
0.01508887205272913,0.005521122831851244,-0.01222481019794941,0.00642332574352622,-0.0004080198996234685,0.004110277164727449
0.01567460037767887,0.00539002288132906,-0.012011690996587276,0.0067058647982776165,-0.0004296815604902804,0.0037843254394829273
0.01513004582375288,0.005420430097728968,-0.012631199322640896,0.006635576020926237,-0.0004138110380154103,0.003807032946497202
0.015610301867127419,0.006101923529058695,-0.012086501345038414,0.0070158024318516254,-0.00043259948142804205,0.004156861919909716
0.015454677864909172,0.005617789924144745,-0.012341039255261421,0.006637643091380596,-0.00041861034696921706,0.004316956270486116
0.015097565948963165,0.005714764818549156,-0.01172006968408823,0.0071397582069039345,-0.0004207715392112732,0.0040762778371572495
0.015477092936635017,0.005397772416472435,-0.012522486969828606,0.007387693040072918,-0.0004213706124573946,0.003949674777686596
0.015482128597795963,0.005357274319976568,-0.012247135862708092,0.007462879177182913,-0.0003996434679720551,0.0034888344816863537
0.015541388653218746,0.005723443813621998,-0.011866281740367413,0.007467758376151323,-0.00045753116137348115,0.0035235255490988493
0.015407945029437542,0.006109343376010656,-0.012221206910908222,0.007628771476447582,-0.00042115405085496604,0.003684291383251548
0.015512911602854729,0.005739457439631224,-0.011639432050287724,0.007424054201692343,-0.0004570601449813694,0.0033729919232428074
0.015512911602854729,0.005739457439631224,-0.011639432050287724,0.007424054201692343,-0.0004570601449813694,0.0033729919232428074
0.015162471681833267,0.0056129577569663525,-0.012076551094651222,0.007190125994384289,-0.0004600904940161854,0.0034533727448433638
0.015168728306889534,0.005909617990255356,-0.012342452071607113,0.00743927713483572,-0.00042912503704428673,0.003645823337137699
0.015168728306889534,0.005909617990255356,-0.012342452071607113,0.00743927713483572,-0.00042912503704428673,0.003645823337137699
0.015622044913470745,0.006264062132686377,-0.011965660378336906,0.007455942686647177,-0.00042979064164683223,0.0036526445765048265
0.015625763684511185,0.0054895151406526566,-0.011590423993766308,0.007299916353076696,-0.0004298125277273357,0.00347888539545238
0.015683520585298538,0.005318414885550737,-0.012523584999144077,0.007233149837702513,-0.00040717804222367704,0.0030872062779963017
0.015803931280970573,0.005483031272888184,-0.01172102801501751,0.0073758745566010475,-0.0004393604467622936,0.0027140621095895767
0.01579144224524498,0.005187035072594881,-0.012160264886915684,0.007433601655066013,-0.0004177676164545119,0.002499337773770094
0.01546185091137886,0.0055760592222213745,-0.011791952885687351,0.0070830113254487514,-0.0004575612547341734,0.003111847909167409
0.01567668654024601,0.005635957233607769,-0.012030464597046375,0.007099211681634188,-0.00045623144251294434,0.002963504521176219
0.015365680679678917,0.005399623885750771,-0.011686707846820354,0.007222714833915234,-0.0004273520899005234,0.003189964685589075
0.01586959883570671,0.0056994203478097916,-0.012638577260077,0.006988564506173134,-0.00040031984099186957,0.0030724506359547377
0.015503008849918842,0.005897824652493,-0.012493406422436237,0.0065986947156488895,-0.00042289754492230713,0.003256683237850666
0.016202323138713837,0.0057169790379703045,-0.012206975370645523,0.006810011342167854,-0.00040543219074606895,0.0030555406119674444
0.015787117183208466,0.005047958809882402,-0.012450654059648514,0.00732746347784996,-0.0003842076985165477,0.002711026929318905
0.016114620491862297,0.005225292406976223,-0.011834069155156612,0.00729538407176733,-0.00036476264358498156,0.002536185784265399
0.016164781525731087,0.005486252252012491,-0.012576209381222725,0.00696070771664381,-0.0003471708041615784,0.0025428279768675566
0.015712285414338112,0.005624248180538416,-0.012430084869265556,0.007272351998835802,-0.0003311978653073311,0.0022808548528701067
0.016180284321308136,0.00528721883893013,-0.012848850339651108,0.0073846266604959965,-0.0003166288079228252,0.002146650105714798
0.015467983670532703,0.005695767235010862,-0.012386052869260311,0.007228498812764883,-0.0003114964929409325,0.0018950796220451593
0.01573987863957882,0.005393845494836569,-0.012864434160292149,0.007211450487375259,-0.0002930372138507664,0.0017944658175110817
0.015518156811594963,0.005837026052176952,-0.01297648437321186,0.007545695640146732,-0.00027522482560016215,0.001662137801758945
0.016343295574188232,0.005360113922506571,-0.012007134035229683,0.007674665190279484,-0.0002593630342744291,0.001942382543347776
0.016003623604774475,0.005457294639199972,-0.013535724021494389,0.007564219646155834,-0.0002452241606079042,0.0020968569442629814
0.01592584140598774,0.0056667812168598175,-0.012465016916394234,0.0073698111809790134,-0.00023254682309925556,0.0023922049440443516
0.015610032714903355,0.005198473576456308,-0.012895810417830944,0.0078086815774440765,-0.0002211170067312196,0.002409035572782159
0.015610032714903355,0.005198473576456308,-0.012895810417830944,0.0078086815774440765,-0.0002211170067312196,0.002409035572782159
0.016010873019695282,0.005188326351344585,-0.01249654684215784,0.008274620398879051,-0.00021075742552056909,0.002372095128521323
0.016265742480754852,0.005321443546563387,-0.013428178615868092,0.008383878506720066,-0.00023883910034783185,0.0022808334324508905
0.015935156494379044,0.0056108031421899796,-0.013168537989258766,0.007690698839724064,-0.00023106294975150377,0.0020306603983044624
0.014815578237175941,0.005740317981690168,-0.012944018468260765,0.007493021432310343,-0.0002217339788330719,0.0015541412867605686
0.01664023846387863,0.005567983724176884,-0.012818260118365288,0.007369516883045435,-0.00021299616491887718,0.0014830899890512228
0.016762763261795044,0.005124387796968222,-0.01264275424182415,0.0073316958732903,-0.00020491327450145036,0.0014154622331261635
0.016064414754509926,0.005889834836125374,-0.013116003014147282,0.006966931279748678,-0.0001974209153559059,0.0014289428945630789
0.01629340462386608,0.005482196342200041,-0.012309154495596886,0.007228468544781208,-0.0002060100232483819,0.0015103255864232779
0.016360515728592873,0.006081642583012581,-0.012872308492660522,0.007992038503289223,-0.00021357173682190478,0.0020940485410392284
0.016096139326691628,0.005635607521981001,-0.012536218389868736,0.007863716222345829,-0.00020748730457853526,0.0021859712433069944
0.01642621122300625,0.005409850738942623,-0.01275816559791565,0.008602190762758255,-0.00019472460553515702,0.0014753739815205336
0.016757134348154068,0.005080922041088343,-0.012776205316185951,0.008784390054643154,-0.0001888861443148926,0.001249022432602942
0.016548650339245796,0.005688575096428394,-0.012663404457271099,0.007967432960867882,-0.0001833871501730755,0.0011054046917706728
0.017015397548675537,0.005847877822816372,-0.012626574374735355,0.00794794037938118,-0.00017819958156906068,0.0009441900765523314
0.01722719706594944,0.005603896453976631,-0.012996641919016838,0.008116085082292557,-0.00017329744878225029,0.000929570640437305
0.0163939967751503,0.005184729117900133,-0.011934165842831135,0.00771400798112154,-0.00016865775978658348,0.000692390080075711
0.017167577520012856,0.005317597184330225,-0.01286995504051447,0.007949498482048512,-0.00018615246517583728,0.0007497284677810967
0.016738705337047577,0.005194716155529022,-0.012812099419534206,0.008527332916855812,-0.00018285258556716144,0.0012183206854388118
0.016558688133955002,0.005849170032888651,-0.013077941723167896,0.008156949654221535,-0.00017841449880506843,0.001842116704210639
0.016657819971442223,0.005723604466766119,-0.012791823595762253,0.00792620237916708,-0.0001741060841595754,0.0019297932740300894
0.016925662755966187,0.00548589089885354,-0.012721027247607708,0.007559408433735371,-0.00016999569197651,0.0018596770241856575
0.017048992216587067,0.005112685728818178,-0.012960693798959255,0.007612012326717377,-0.0001663349976297468,0.0015379865653812885
0.01698857545852661,0.004929818212985992,-0.011930345557630062,0.00805620476603508,-0.0001476187026128173,0.0012416810495778918
0.01702198013663292,0.005237471777945757,-0.01288286317139864,0.008024980314075947,-0.0001420903136022389,0.0010367671493440866
0.016726406291127205,0.00515842717140913,-0.012847600504755974,0.008083844557404518,-0.00013768571079708636,0.0008897872758097947
0.01690136082470417,0.005256041418761015,-0.012909792363643646,0.008276404812932014,-0.00015338219236582518,0.0008748763939365745
0.016941329464316368,0.005365820601582527,-0.01272015180438757,0.00845648068934679,-0.0001552375906612724,0.0007914550951682031
0.01729358546435833,0.005053762812167406,-0.012895509600639343,0.008434019051492214,-0.0001512974704382941,0.0005676783621311188
0.01729358546435833,0.005053762812167406,-0.012895509600639343,0.008434019051492214,-0.0001512974704382941,0.0005676783621311188
0.017422446981072426,0.005450984463095665,-0.01271733921021223,0.008246522396802902,-0.00014719947648700327,0.0005583934835158288
0.017044026404619217,0.005326056387275457,-0.012555875815451145,0.00838140957057476,-0.00016557534399908036,0.0005887651932425797
0.017435645684599876,0.005856345873326063,-0.0127692436799407,0.008227067068219185,-0.0001627511519473046,0.0005963132134638727
0.017227035015821457,0.005321407690644264,-0.012461468577384949,0.008166661486029625,-0.0001587447477504611,0.0005842906539328396
0.017128603532910347,0.004946708679199219,-0.012966764159500599,0.008528499864041805,-0.00015484906907659024,0.0006600911729037762
0.01754671335220337,0.005196231417357922,-0.012501468881964684,0.008512289263308048,-0.00016714108642190695,0.0006725091952830553
0.017674971371889114,0.0054124570451676846,-0.01323248352855444,0.00823723990470171,-0.00016831392713356763,0.0005913191707804799
0.017833976075053215,0.005594588350504637,-0.013068350031971931,0.008553441613912582,-0.00016479319310747087,0.0005229312810115516
0.01782517321407795,0.005440894979983568,-0.013196703046560287,0.008929602801799774,-0.0001611269253771752,0.00046842629672028124
0.01703493855893612,0.005577024072408676,-0.01283098291605711,0.008701258338987827,-0.00021812290651723742,0.00046511570690199733
0.017766328528523445,0.005152896977961063,-0.01250259019434452,0.008529206737875938,-0.0002623996406327933,0.0004622785490937531
0.01754111796617508,0.005405262112617493,-0.012660341337323189,0.008757521398365498,-0.0002616358397062868,0.000396726158214733
0.017963973805308342,0.0052329120226204395,-0.01303334441035986,0.008735430426895618,-0.0002700865443330258,0.00036956658004783094
0.017554938793182373,0.005199088715016842,-0.012794677168130875,0.008347118273377419,-0.00025855988496914506,0.00034588275593705475
0.01770964451134205,0.0052704280242323875,-0.013196593150496483,0.008645333349704742,-0.00028246804140508175,0.0003250504669267684
0.018018878996372223,0.004809284117072821,-0.01260098721832037,0.008455030620098114,-0.0002750267740339041,0.0003065888013225049
0.01652350462973118,0.004147866275161505,-0.012933223508298397,0.008404429070651531,-0.00026382668875157833,0.0002901104453485459
0.018847204744815826,0.0035711827222257853,-0.012882876209914684,0.008631945587694645,-0.0002845997514668852,0.0002753141161520034
0.018662674352526665,0.003998784814029932,-0.012992585077881813,0.008659477345645428,-0.00027791823958978057,0.00026195464306510985
0.01795356161892414,0.004545428790152073,-0.013166060671210289,0.008342447690665722,-0.00026788018294610083,0.0002498323447071016
0.018619025126099586,0.004568152129650116,-0.01299105305224657,0.008388321846723557,-0.00036199940950609744,0.00021932738309260458
0.018535559996962547,0.004130680579692125,-0.013367903418838978,0.00854642502963543,-0.00034205630072392523,0.0001918850321089849
0.018491849303245544,0.004330853000283241,-0.012397047132253647,0.008574207313358784,-0.00031834057881496847,0.00018290059233549982
0.018487434834241867,0.004186586942523718,-0.01333144772797823,0.008015310391783714,-0.00034871025127358735,0.00017568156181368977
0.01862223632633686,0.0039886110462248325,-0.01263144426047802,0.008232585154473782,-0.0003341422416269779,0.00016907438111957163
0.0188243817538023,0.004223841708153486,-0.013272158801555634,0.008405613712966442,-0.00031509509426541626,0.00014698556333314627
0.0188243817538023,0.004223841708153486,-0.013272158801555634,0.008405613712966442,-0.00031509509426541626,0.00014698556333314627
0.018773796036839485,0.0040605561807751656,-0.013313567265868187,0.008280846290290356,-0.0002821808448061347,0.00012162696657469496
0.018773796036839485,0.0040605561807751656,-0.013313567265868187,0.008280846290290356,-0.0002821808448061347,0.00012162696657469496
0.0192716121673584,0.0038838894106447697,-0.013614743016660213,0.008708387613296509,-0.00030686098034493625,0.00011759013432310894
0.01911391131579876,0.003843725426122546,-0.013375550508499146,0.00904522929340601,-0.00029766117222607136,8.731903653824702e-05
0.018959300592541695,0.0038257106207311153,-0.013639876618981361,0.008365580812096596,-0.00028455955907702446,9.961905561794993e-06
0.019445139914751053,0.004198520909994841,-0.013250144198536873,0.00863263662904501,-0.00027228123508393764,-7.452857244061306e-05
0.019418830052018166,0.0042674303986132145,-0.0136871924623847,0.009023234248161316,-0.00029574608197435737,-0.00010622925037750974
0.01939532533288002,0.0045307110995054245,-0.013163963332772255,0.0087291169911623,-0.0002862516266759485,-0.0001327526697423309
0.019301116466522217,0.004229464568197727,-0.013579572550952435,0.009593019261956215,-0.0002766713732853532,-0.00014376614126376808
0.019297832623124123,0.00396431889384985,-0.013277024030685425,0.00955672562122345,-0.0002840280067175627,-0.000943862134590745
0.019505932927131653,0.003868276020511985,-0.014208314009010792,0.009376339614391327,-0.0002686881343834102,-0.0008750708657316864
0.019608862698078156,0.00402952590957284,-0.01409175619482994,0.00935832504183054,-0.0002876865619327873,-0.0007745828479528427
0.01981055922806263,0.004479672759771347,-0.013745340518653393,0.009372547268867493,-0.0002735041780397296,-0.0007620227988809347
0.019891323521733284,0.004738383926451206,-0.013870937749743462,0.009581604041159153,-0.00030075316317379475,-0.0007269037305377424
0.01986723765730858,0.004346152301877737,-0.013543748296797276,0.010403597727417946,-0.00028956367168575525,-0.000825420196633786
0.0196982491761446,0.004465044476091862,-0.014083225280046463,0.009332450106739998,-0.00031128941918723285,-0.0008919740794226527
0.0198981910943985,0.004150026943534613,-0.014066800475120544,0.009528561495244503,-0.0003029048384632915,-0.001789044588804245
0.020515872165560722,0.004192077089101076,-0.014372141100466251,0.009029197506606579,-0.0003665917320176959,-0.0019242515554651618
0.02062889374792576,0.004028711002320051,-0.014234153553843498,0.009068096987903118,-0.00040469749365001917,-0.0019436903530731797
0.02025272510945797,0.004394269082695246,-0.014394220896065235,0.009101863950490952,-0.00043069879757240415,-0.0017162455478683114
0.020469417795538902,0.005172854755073786,-0.01395154744386673,0.009899209253489971,-0.000414972280850634,-0.0014616298722103238
0.02061517909169197,0.004867130424827337,-0.014648491516709328,0.009236861951649189,-0.000433741370216012,-0.0012913907412439585
0.020966827869415283,0.004507313948124647,-0.014733536168932915,0.009411931969225407,-0.0004196450172457844,-0.0013763821916654706
0.021113093942403793,0.004864600952714682,-0.014728990383446217,0.00946895219385624,-0.00044304184848442674,-0.0016318848356604576
0.02117121033370495,0.004531010054051876,-0.014971182681620121,0.00932513177394867,-0.0004236793320160359,-0.0017543387366458774
0.02044840157032013,0.004569515120238066,-0.01491531915962696,0.008821562863886356,-0.0004691897192969918,-0.0022678617388010025
0.019290732219815254,0.004674167837947607,-0.014298168011009693,0.009676097892224789,-0.00048411122406832874,-0.0023850281722843647
0.019290732219815254,0.004674167837947607,-0.014298168011009693,0.009676097892224789,-0.00048411122406832874,-0.0023850281722843647
0.021299829706549644,0.004552232567220926,-0.014718294143676758,0.008896094746887684,-0.0005054697976447642,-0.002309192204847932
0.021064914762973785,0.004534516483545303,-0.013825622387230396,0.008608628995716572,-0.00048061335110105574,-0.002120552584528923
0.020872779190540314,0.004524504765868187,-0.014446860179305077,0.008832238614559174,-0.0004782101314049214,-0.0020319430623203516
0.02030445821583271,0.0044151125475764275,-0.014630434103310108,0.009139200672507286,-0.0004747453785967082,-0.001967162825167179
0.021177733317017555,0.004426604602485895,-0.015138736926019192,0.0091659901663661,-0.0004981731181032956,-0.002046748297289014
0.020953740924596786,0.0045233010314404964,-0.014199058525264263,0.009074369445443153,-0.0004759107541758567,-0.0026591287460178137
0.021090125665068626,0.004737363196909428,-0.014791212044656277,0.009587181732058525,-0.0005412489990703762,-0.002943427301943302
0.021032828837633133,0.004473418463021517,-0.01433590892702341,0.009731514379382133,-0.0005374493775889277,-0.0034097451716661453
0.021248167380690575,0.004549493081867695,-0.015031497925519943,0.009732875041663647,-0.0005277202581055462,-0.0032384959049522877
0.020217716693878174,0.00431974558159709,-0.015091458335518837,0.010074812918901443,-0.0005169223295524716,-0.0027049037162214518
0.02088993787765503,0.004540340509265661,-0.014553426764905453,0.009451043792068958,-0.000541781191714108,-0.0025436070282012224
0.021336687728762627,0.004647485911846161,-0.014787447638809681,0.009612916968762875,-0.0005711230915039778,-0.002330146264284849
0.020726963877677917,0.004786184057593346,-0.014648184180259705,0.009612319059669971,-0.0005631824606098235,-0.0021271882578730583
0.021044766530394554,0.004546414129436016,-0.015247080475091934,0.009631089866161346,-0.0005041787517257035,-0.002826937008649111
0.02142811380326748,0.004505828954279423,-0.014668067917227745,0.009818351827561855,-0.0005376830231398344,-0.003961874637752771
0.020851394161581993,0.004894667770713568,-0.015293660573661327,0.009602578356862068,-0.0004939596401527524,-0.004717652685940266
0.02076992578804493,0.00495688384398818,-0.014682276174426079,0.009300429373979568,-0.00045285397209227085,-0.004411512054502964
0.02056201361119747,0.005253542680293322,-0.015189121477305889,0.00988522358238697,-0.00041780827450565994,-0.0039277090691030025
0.021177494898438454,0.005089049693197012,-0.014182956889271736,0.00957886315882206,-0.0003877827257383615,-0.0033693150617182255
0.02129470556974411,0.004813841078430414,-0.014636912383139133,0.009332275949418545,-0.00041388082900084555,-0.003422851674258709
0.020633405074477196,0.0047661191783845425,-0.013834113255143166,0.010417964309453964,-0.000395031034713611,-0.0036294639576226473
0.021362602710723877,0.0050653498619794846,-0.014886259101331234,0.009241522289812565,-0.000372150243492797,-0.004133646842092276
0.021269142627716064,0.005059737246483564,-0.014363475143909454,0.009121480397880077,-0.00039814310730434954,-0.0041595627553761005
0.020989805459976196,0.005044660996645689,-0.01477096974849701,0.009625806473195553,-0.0003801652928814292,-0.003987743053585291
0.020751703530550003,0.004935562144964933,-0.014657271094620228,0.009786520153284073,-0.00036128226201981306,-0.003530865767970681
0.021101195365190506,0.004736616276204586,-0.014823303557932377,0.010334279388189316,-0.0003440278524067253,-0.003949874546378851
0.021101195365190506,0.004736616276204586,-0.014823303557932377,0.010334279388189316,-0.0003440278524067253,-0.003949874546378851
0.021144485101103783,0.004519901238381863,-0.014049571007490158,0.010157480835914612,-0.00032833608565852046,-0.004133565351366997
0.020956698805093765,0.0047294083051383495,-0.014579419046640396,0.009816254489123821,-0.000284442154224962,-0.004356577061116695
0.021129770204424858,0.004823643248528242,-0.01464146003127098,0.010063518770039082,-0.00026425847318023443,-0.0041898684576153755
0.02163275144994259,0.004960269201546907,-0.014705256558954716,0.010074536316096783,-0.00027368709561415017,-0.0042998306453228
0.021176980808377266,0.004906384274363518,-0.014400589279830456,0.009913007728755474,-0.0002818504872266203,-0.004098960664123297
0.0211146492511034,0.005150739569216967,-0.01500504557043314,0.010347921401262283,-0.00026926276041194797,-0.004504644777625799
0.02024576999247074,0.004919388331472874,-0.014615395106375217,0.010540751740336418,-0.00029359583277255297,-0.004922200925648212
0.021631281822919846,0.004588664975017309,-0.01476246491074562,0.010116970166563988,-0.0002853751357179135,-0.005611666943877935
0.02154473029077053,0.004937720950692892,-0.014917029067873955,0.010489048436284065,-0.00029873763560317457,-0.0045033665373921394
0.02212471514940262,0.0051167206838727,-0.014475543983280659,0.00974840298295021,-0.0003741974360309541,-0.0041863033547997475
0.022132350131869316,0.005016444716602564,-0.014817818999290466,0.009472547098994255,-0.00042065343586727977,-0.004730731714516878
0.02120981551706791,0.004741769749671221,-0.014940556138753891,0.00909742433577776,-0.0004272585501894355,-0.00547582283616066
0.021263906732201576,0.004863126669079065,-0.014698986895382404,0.009316187351942062,-0.00042796385241672397,-0.005585402715951204
0.021848164498806,0.004750436637550592,-0.015035223215818405,0.009384903125464916,-0.00039861927507445216,-0.005731620825827122
0.02246859483420849,0.004824463278055191,-0.014789988286793232,0.009920760057866573,-0.0003713391488417983,-0.005294549744576216
0.0224055964499712,0.0053729042410850525,-0.01474014576524496,0.010414564982056618,-0.0003900573938153684,-0.0050638653337955475
0.021946921944618225,0.0048786913976073265,-0.014740971848368645,0.010121697559952736,-0.0003798353427555412,-0.005077490583062172
0.021874314174056053,0.004398286808282137,-0.015074840746819973,0.01009500864893198,-0.0003968575329054147,-0.005469015333801508
0.022498207166790962,0.004387587774544954,-0.014977327547967434,0.009828953072428703,-0.00038739063893444836,-0.005787190981209278
0.021910876035690308,0.0045797270722687244,-0.014864914119243622,0.010102590546011925,-0.0004202292184345424,-0.005569384898990393
0.02226824127137661,0.004681573249399662,-0.014463953673839569,0.010432228446006775,-0.000440277683082968,-0.005599699914455414
0.021425822749733925,0.005073321983218193,-0.01492377184331417,0.00981721468269825,-0.00044081502710469067,-0.005124854389578104
0.021989095956087112,0.005059580318629742,-0.014645243994891644,0.009860960766673088,-0.00040973929571919143,-0.005127816926687956
0.021802576258778572,0.004787847399711609,-0.015363247133791447,0.01052817702293396,-0.000435806141467765,-0.00551015418022871
0.022021153941750526,0.0046168058179318905,-0.014572709798812866,0.00995781272649765,-0.0004146031860727817,-0.005368195939809084
0.022042052820324898,0.004769634455442429,-0.015246426686644554,0.009950104169547558,-0.0004304182657506317,-0.0063123819418251514
0.02230745553970337,0.005188791546970606,-0.014714041724801064,0.010145017877221107,-0.0004182387492619455,-0.0061711473390460014
0.022625276818871498,0.0050263842567801476,-0.015349953435361385,0.009689373895525932,-0.0004638579557649791,-0.005805259104818106
0.02234678529202938,0.005423837341368198,-0.014780716970562935,0.009618571028113365,-0.00047977693611755967,-0.005193597171455622
0.02199341356754303,0.005013282876461744,-0.015286742709577084,0.010156070813536644,-0.0004373977717477828,-0.005765480455011129
0.02194490283727646,0.00470786402001977,-0.014315269887447357,0.010110248811542988,-0.0004573090991470963,-0.006094117183238268
0.02194490283727646,0.00470786402001977,-0.014315269887447357,0.010110248811542988,-0.0004573090991470963,-0.006094117183238268
0.022623857483267784,0.005047270096838474,-0.014688934199512005,0.010142901912331581,-0.00040643589454703033,-0.00631663529202342
0.022623857483267784,0.005047270096838474,-0.014688934199512005,0.010142901912331581,-0.00040643589454703033,-0.00631663529202342
0.022167373448610306,0.004951497074216604,-0.015172144398093224,0.00958434958010912,-0.00043245626147836447,-0.0059489295817911625
0.021939095109701157,0.005533392075449228,-0.014794884249567986,0.009689172729849815,-0.00041161655099131167,-0.006376610137522221
0.022897616028785706,0.0048438385128974915,-0.015865186229348183,0.009647192433476448,-0.00041467402479611337,-0.0060224710032343864
0.023027632385492325,0.00516684353351593,-0.01549473125487566,0.010441534221172333,-0.0003936214779969305,-0.006561425514519215
0.022604022175073624,0.0051470305770635605,-0.015107025392353535,0.010956269688904285,-0.00039978596032597125,-0.006575425621122122
0.0227255467325449,0.0058279321528971195,-0.014957635663449764,0.010443190112709999,-0.0004078109923284501,-0.006519668269902468
0.02274513803422451,0.005395630840212107,-0.01569598913192749,0.009939512237906456,-0.00040994753362610936,-0.006242995150387287
0.023194685578346252,0.0049407631158828735,-0.015270879492163658,0.010586816817522049,-0.0004162998520769179,-0.007017694879323244
0.023194685578346252,0.0049407631158828735,-0.015270879492163658,0.010586816817522049,-0.0004162998520769179,-0.007017694879323244
0.023002220317721367,0.004952751565724611,-0.015092141926288605,0.010787662118673325,-0.0004397374577820301,-0.007042085751891136
0.022697430104017258,0.005066935438662767,-0.016064519062638283,0.010575254447758198,-0.00042070308700203896,-0.006495425011962652
0.02257486805319786,0.005402337294071913,-0.0153704434633255,0.011076989583671093,-0.000489852565806359,-0.006214148830622435
0.02253461629152298,0.005417254287749529,-0.015262223780155182,0.01140060555189848,-0.0005211524548940361,-0.006818650756031275
0.022885382175445557,0.005558972246944904,-0.014796697534620762,0.0104795191437006,-0.0005412409664131701,-0.0069738333113491535
0.022847646847367287,0.004931078292429447,-0.01565631479024887,0.01092397328466177,-0.0005115207168273628,-0.006814338266849518
0.023071907460689545,0.004761742893606424,-0.015191649086773396,0.010708299465477467,-0.0005062550189904869,-0.006320306099951267
0.02326740324497223,0.005235155113041401,-0.016005398705601692,0.01084192469716072,-0.000500388618092984,-0.006688631605356932
0.022894715890288353,0.005292178597301245,-0.015693021938204765,0.011700344271957874,-0.0004979040240868926,-0.007111011538654566
0.02324007824063301,0.005347683094441891,-0.015877071768045425,0.010874629952013493,-0.0004934259341098368,-0.007466572802513838
0.02313864976167679,0.0050990404561161995,-0.01573536917567253,0.010995308868587017,-0.0004635837976820767,-0.007227456197142601
0.023193713277578354,0.005112842656672001,-0.015119204297661781,0.0109572634100914,-0.0004874278965871781,-0.007229285780340433
0.02358311414718628,0.004872963298112154,-0.01527336798608303,0.01015968807041645,-0.00044789593084715307,-0.007347391452640295
0.023586062714457512,0.004548077937215567,-0.015377895906567574,0.010679677128791809,-0.00040784550947137177,-0.007461169734597206
0.023586062714457512,0.004548077937215567,-0.015377895906567574,0.010679677128791809,-0.00040784550947137177,-0.007461169734597206
0.023709608241915703,0.0041556283831596375,-0.01582060381770134,0.011119766160845757,-0.00043844422907568514,-0.007243020925670862
0.02340489998459816,0.004366286098957062,-0.015290038660168648,0.010551311075687408,-0.0004136170318815857,-0.007694707252085209
0.023173261433839798,0.0044678314588963985,-0.015697667375206947,0.011123529635369778,-0.00044432305730879307,-0.007461531553417444
0.023688102141022682,0.004556731786578894,-0.015261482447385788,0.011186120100319386,-0.0004187040321994573,-0.0071388124488294125
0.0239048283547163,0.0045115468092262745,-0.01573299430310726,0.0113771241158247,-0.00043415717664174736,-0.007236890960484743
0.02402172051370144,0.004125875886529684,-0.015321136452257633,0.01091682817786932,-0.0003991113044321537,-0.007959352806210518
0.024274740368127823,0.004302358720451593,-0.015550103969871998,0.011545724235475063,-0.0004144531849306077,-0.008247741498053074
0.024219848215579987,0.0044295527040958405,-0.015919595956802368,0.011379746720194817,-0.00038537546060979366,-0.00822623260319233
0.023389022797346115,0.004060165025293827,-0.01592448353767395,0.011481129564344883,-0.0003897578571923077,-0.008438091725111008
0.023509841412305832,0.003962190821766853,-0.015558662824332714,0.011711245402693748,-0.0003928152727894485,-0.008178586140275002
0.02405404858291149,0.004038440529257059,-0.015794627368450165,0.01142843160778284,-0.00041322025936096907,-0.00845910981297493
0.02421572431921959,0.00410288805142045,-0.015624741092324257,0.011889408342540264,-0.00040110156987793744,-0.00826555397361517
0.02352561056613922,0.00408364599570632,-0.01629587449133396,0.011618668213486671,-0.0003779582621064037,-0.008304939605295658
0.02414817176759243,0.0041147456504404545,-0.015086720697581768,0.011736288666725159,-0.00035661517176777124,-0.008248955942690372
0.0246403981000185,0.0041025057435035706,-0.015632327646017075,0.011587203480303288,-0.00037923353374935687,-0.00833204947412014
0.024147458374500275,0.0043866392225027084,-0.015216300264000893,0.011767838150262833,-0.00036567944334819913,-0.0079118013381958
0.02451312355697155,0.004326505120843649,-0.015870969742536545,0.011677518486976624,-0.0003483547770883888,-0.008144820109009743
0.02405557595193386,0.00406515970826149,-0.015878768637776375,0.011463340371847153,-0.00033229810651391745,-0.008367829024791718
0.0237854216247797,0.003890193998813629,-0.015614603646099567,0.011549926362931728,-0.00031763603328727186,-0.008018562570214272
0.024155229330062866,0.004245670046657324,-0.015605581924319267,0.012028763070702553,-0.0003046928613912314,-0.008311444893479347
0.024907715618610382,0.004156036768108606,-0.015499129891395569,0.0118175707757473,-0.00030668615363538265,-0.008524845354259014
0.024703307077288628,0.004193427041172981,-0.01575770415365696,0.011946208775043488,-0.0002885076974052936,-0.008616402745246887
0.024110618978738785,0.0042321630753576756,-0.015545010566711426,0.011547126807272434,-0.0002712088462430984,-0.008091763593256474
0.024110618978738785,0.0042321630753576756,-0.015545010566711426,0.011547126807272434,-0.0002712088462430984,-0.008091763593256474
0.025855224579572678,0.004378349985927343,-0.015944866463541985,0.011904076673090458,-0.00030340865487232804,-0.008489815518260002
0.02510962076485157,0.004189689178019762,-0.01513027772307396,0.01204041950404644,-0.0002902034320868552,-0.009031970053911209
0.025049827992916107,0.0040477425791323185,-0.015982182696461678,0.011558474972844124,-0.0003094799758400768,-0.008683057501912117
0.024145476520061493,0.003932645544409752,-0.015031598508358002,0.012151135131716728,-0.0003051340754609555,-0.008375724777579308
0.024764731526374817,0.004345765803009272,-0.01573674939572811,0.011957494542002678,-0.00031206244602799416,-0.008236496709287167
0.02522384561598301,0.004643377847969532,-0.0157132800668478,0.011968898586928844,-0.00031727360328659415,-0.008433111011981964
0.025321772322058678,0.004338640253990889,-0.01605733297765255,0.012164892628788948,-0.0003050687082577497,-0.008954294957220554
0.025203315541148186,0.004453022964298725,-0.015468812547624111,0.01294575072824955,-0.00037982306093908846,-0.008470792323350906
0.025213459506630898,0.004150879103690386,-0.015526896342635155,0.01199472788721323,-0.0003852210647892207,-0.008787526749074459
0.025264503434300423,0.004400382749736309,-0.015726285055279732,0.012106269598007202,-0.0003886099730152637,-0.008885401301085949
0.02501286193728447,0.004600681364536285,-0.0163571760058403,0.011895197443664074,-0.00036441191332414746,-0.008640797808766365
0.025463588535785675,0.004318762104958296,-0.01572336256504059,0.012131894007325172,-0.0003414875827729702,-0.0087504293769598
0.025230664759874344,0.004278350621461868,-0.016347037628293037,0.01181164663285017,-0.00037098684697411954,-0.00899177510291338
0.025388499721884727,0.004147055558860302,-0.015506458468735218,0.011412608437240124,-0.00035341939656063914,-0.009818396531045437
0.026451313868165016,0.0044007329270243645,-0.016154738143086433,0.011834635399281979,-0.00035816928721033037,-0.00913968961685896
0.026546742767095566,0.004651081282645464,-0.016033966094255447,0.011479802429676056,-0.0003617717302404344,-0.009010526351630688
0.02523878775537014,0.004230193793773651,-0.01580449566245079,0.011731212958693504,-0.00038119463715702295,-0.00935637392103672
0.024635016918182373,0.003846456529572606,-0.01619277521967888,0.01163171324878931,-0.00038377390592359006,-0.009576010517776012
0.025672370567917824,0.0042341346852481365,-0.016395729035139084,0.011363144963979721,-0.00041712369420565665,-0.009693974629044533
0.02639549970626831,0.004183425568044186,-0.017125247046351433,0.011627457104623318,-0.0004520431102719158,-0.00991977658122778
0.02549196034669876,0.004118072334676981,-0.016336075961589813,0.01148527953773737,-0.00045937689719721675,-0.00980587862432003
0.02549196034669876,0.004118072334676981,-0.016336075961589813,0.01148527953773737,-0.00045937689719721675,-0.00980587862432003
0.026799527928233147,0.0038120506796985865,-0.015965046361088753,0.01246264111250639,-0.0006922711618244648,-0.008840824477374554
0.026799527928233147,0.0038120506796985865,-0.015965046361088753,0.01246264111250639,-0.0006922711618244648,-0.008840824477374554
0.026373909786343575,0.003793463809415698,-0.016763348132371902,0.01245077047497034,-0.0007519625942222774,-0.010478293523192406
0.02540883980691433,0.003759559942409396,-0.016564778983592987,0.012400176376104355,-0.0006877175183035433,-0.010743304155766964
0.025209179148077965,0.003844035090878606,-0.016193339601159096,0.012474577873945236,-0.0006254153558984399,-0.01021582167595625
0.025209179148077965,0.003844035090878606,-0.016193339601159096,0.012474577873945236,-0.0006254153558984399,-0.01021582167595625
0.02665741555392742,0.003594273468479514,-0.01749616488814354,0.012414153665304184,-0.0005958797410130501,-0.010977420024573803
0.02665741555392742,0.003594273468479514,-0.01749616488814354,0.012414153665304184,-0.0005958797410130501,-0.010977420024573803
0.026202980428934097,0.0035443375818431377,-0.016435908153653145,0.011937310919165611,-0.0005550238420255482,-0.010767671279609203
0.0256333090364933,0.0035792586859315634,-0.016034526750445366,0.011321693658828735,-0.0005166774499230087,-0.010881368070840836
0.026443373411893845,0.0035566186998039484,-0.01654796488583088,0.012364734895527363,-0.000544870097655803,-0.011200296692550182
0.026248648762702942,0.003422701498493552,-0.016333600506186485,0.011783396825194359,-0.0005665228818543255,-0.011549440212547779
0.026562178507447243,0.0033581811003386974,-0.016851957887411118,0.01248392928391695,-0.00053787772776559,-0.012138116173446178
0.02652503177523613,0.0036396796349436045,-0.016525020822882652,0.013633440248668194,-0.0005268107051961124,-0.011313971132040024
0.026513798162341118,0.003513435833156109,-0.01615924946963787,0.013576158322393894,-0.0006343942368403077,-0.011040551587939262
0.02665705420076847,0.0036304607056081295,-0.016395213082432747,0.013791610486805439,-0.000648974790237844,-0.011286725290119648
0.026366304606199265,0.0033304833341389894,-0.01667408086359501,0.013821094296872616,-0.0006024384056217968,-0.011425968259572983
0.026569491252303123,0.00351807102560997,-0.01640051230788231,0.013395522721111774,-0.0006274478510022163,-0.011457962915301323
0.026813790202140808,0.0037299138493835926,-0.016820749267935753,0.013039728626608849,-0.0006153763388283551,-0.011598683893680573
0.026939619332551956,0.0037963767535984516,-0.016172192990779877,0.012732361443340778,-0.0006003684247843921,-0.01164544839411974
0.026505708694458008,0.0037807561457157135,-0.016572032123804092,0.013027261011302471,-0.0005563269951380789,-0.011243008077144623
0.02692268416285515,0.0037612891755998135,-0.016208544373512268,0.012312567792832851,-0.0005666356300935149,-0.01147816888988018
0.027109472081065178,0.003743924666196108,-0.016363848000764847,0.012842442840337753,-0.0005611373344436288,-0.011260808445513248
0.02709168754518032,0.0037300363183021545,-0.01676497422158718,0.012417612597346306,-0.0005487263551913202,-0.011568678542971611
0.026722431182861328,0.00376127939671278,-0.01622462458908558,0.013054989278316498,-0.0005618443829007447,-0.01229271199554205
0.027012936770915985,0.004144846461713314,-0.016279535368084908,0.012843108735978603,-0.0005702414200641215,-0.011708984151482582
0.028098762035369873,0.0042534926906228065,-0.01565050147473812,0.012898839078843594,-0.0005606426857411861,-0.011738462373614311
0.027982527390122414,0.0035149231553077698,-0.0164419487118721,0.012942781671881676,-0.0005222361069172621,-0.011555721051990986
0.027982527390122414,0.0035149231553077698,-0.0164419487118721,0.012942781671881676,-0.0005222361069172621,-0.011555721051990986
0.027708863839507103,0.004085846245288849,-0.016782183200120926,0.013368875719606876,-0.000579338928218931,-0.011736096814274788
0.027813885360956192,0.004262102767825127,-0.01669909805059433,0.012847783975303173,-0.0005650409730151296,-0.011748244054615498
0.027813885360956192,0.004262102767825127,-0.01669909805059433,0.012847783975303173,-0.0005650409730151296,-0.011748244054615498
0.027609525248408318,0.004043541382998228,-0.015871606767177582,0.013366229832172394,-0.000593773671425879,-0.012206003069877625
0.027603643015027046,0.0034667474683374166,-0.016307896003127098,0.01323371846228838,-0.0006048784125596285,-0.011815141886472702
0.02762848325073719,0.003572144778445363,-0.015622923150658607,0.013352377340197563,-0.000574667879845947,-0.011372663080692291
0.027851954102516174,0.004124483559280634,-0.01662171259522438,0.013102651573717594,-0.0005976634565740824,-0.01108936034142971
0.027646830305457115,0.004273761995136738,-0.01646103709936142,0.013371109962463379,-0.0005830879090353847,-0.01102276612073183
0.027518175542354584,0.004088313784450293,-0.016696155071258545,0.01322830468416214,-0.0005197784048505127,-0.011387837119400501
0.02767956629395485,0.003907664213329554,-0.01696941629052162,0.013495542109012604,-0.000546287395991385,-0.011389710940420628
0.02762005291879177,0.003755719866603613,-0.016596771776676178,0.013883988372981548,-0.0005059413379058242,-0.011036140844225883
0.028332233428955078,0.004202509764581919,-0.01627017743885517,0.013974669389426708,-0.0004610613395925611,-0.011939999647438526
0.02862459607422352,0.0041755312122404575,-0.01674424298107624,0.013691958971321583,-0.000458867842098698,-0.011877835728228092
0.02802225388586521,0.00399363087490201,-0.0165806096047163,0.013870094902813435,-0.00045943917939439416,-0.012038801796734333
0.026871725916862488,0.0038866533432155848,-0.016826672479510307,0.01359575241804123,-0.0004577148356474936,-0.011791950091719627
0.02738136611878872,0.00395937729626894,-0.016950683668255806,0.014018815010786057,-0.00044021106441505253,-0.010842878371477127
0.028112994506955147,0.003903541713953018,-0.016616228967905045,0.013513621874153614,-0.0004424590733833611,-0.010654492303729057
0.027357544749975204,0.0038076182827353477,-0.016991397365927696,0.013597933575510979,-0.0004417705931700766,-0.010318241082131863
0.02828366495668888,0.003725743619725108,-0.016590498387813568,0.01350723672658205,-0.00046075787395238876,-0.010219714604318142
0.028840968385338783,0.00397781515493989,-0.01668837107717991,0.014155996032059193,-0.0004440369666554034,-0.010140666738152504
0.028396176174283028,0.003931875806301832,-0.016997382044792175,0.013463864102959633,-0.0004670815833378583,-0.010669703595340252
0.027815986424684525,0.003767171176150441,-0.016539599746465683,0.013787476345896721,-0.0005525482702068985,-0.010927671566605568
0.027480291202664375,0.0036880336701869965,-0.01722758077085018,0.013679882511496544,-0.0006399827543646097,-0.011288470588624477
0.02798786200582981,0.003797331592068076,-0.01681438647210598,0.014174109324812889,-0.00062297418480739,-0.01074783131480217
0.028809837996959686,0.004338689614087343,-0.01729348674416542,0.013550249859690666,-0.0006486726342700422,-0.010479983873665333
0.02856079675257206,0.004090021830052137,-0.01725902408361435,0.013977151364088058,-0.0006555084837600589,-0.010507248342037201
0.028287598863244057,0.003860324388369918,-0.017088349908590317,0.01366212498396635,-0.0006186799146234989,-0.0107062803581357
0.028315944597125053,0.004335588309913874,-0.017216097563505173,0.013793440535664558,-0.0007123094983398914,-0.010721336118876934
0.028703108429908752,0.004105659667402506,-0.016747789457440376,0.013965646736323833,-0.0007446043309755623,-0.010966556146740913
0.02840224839746952,0.004293038509786129,-0.017449239268898964,0.013801151886582375,-0.0007497718906961381,-0.010708085261285305
0.02840224839746952,0.004293038509786129,-0.017449239268898964,0.013801151886582375,-0.0007497718906961381,-0.010708085261285305
0.02847195602953434,0.004311238415539265,-0.018137216567993164,0.014118760824203491,-0.0007655158988200128,-0.010686039924621582
0.029013268649578094,0.004328503273427486,-0.01761794090270996,0.01412118785083294,-0.0008274319698102772,-0.010891269892454147
0.029017729684710503,0.004080258309841156,-0.017991933971643448,0.014056820422410965,-0.000872228411026299,-0.010259322822093964
0.028509819880127907,0.003935175482183695,-0.017280980944633484,0.013758466579020023,-0.0008139849524013698,-0.01107427291572094
0.02856219932436943,0.004302002023905516,-0.017684947699308395,0.013790939934551716,-0.0008129237103275955,-0.011794173158705235
0.028701577335596085,0.0040671080350875854,-0.018156623467803,0.013614535331726074,-0.0007824078784324229,-0.011263812892138958
0.028560608625411987,0.0043903496116399765,-0.017413118854165077,0.013880576007068157,-0.0007468972471542656,-0.011075468733906746
0.028583507984876633,0.004206555429846048,-0.017651185393333435,0.01369134709239006,-0.0007317420095205307,-0.011037423275411129
0.02961239032447338,0.004459420219063759,-0.017405686900019646,0.014204858802258968,-0.0006395683158189058,-0.011195310391485691
0.028248660266399384,0.004073712043464184,-0.018161285668611526,0.013831826858222485,-0.0006454452523030341,-0.011225651018321514
0.028232082724571228,0.004085506312549114,-0.017600078135728836,0.013592967763543129,-0.0006247019628062844,-0.011873993091285229
0.02941376157104969,0.004445783328264952,-0.018191460520029068,0.01405430305749178,-0.000641180609818548,-0.01155563909560442
0.028906604275107384,0.0042150868102908134,-0.01802435703575611,0.01403333805501461,-0.000637499731965363,-0.011663422919809818
0.028294289484620094,0.004379571881145239,-0.01755550131201744,0.014482682570815086,-0.0006809250917285681,-0.01183322910219431
0.02942514605820179,0.004326451104134321,-0.018368832767009735,0.013813355006277561,-0.0007072967709973454,-0.01164020411670208
0.029587065801024437,0.004431037697941065,-0.017356619238853455,0.014367875643074512,-0.0007041782955639064,-0.011814986355602741
0.028496501967310905,0.004351818468421698,-0.01888568140566349,0.01376690249890089,-0.0006814355729147792,-0.011678517796099186
0.027625570073723793,0.004232953302562237,-0.017252301797270775,0.013760348781943321,-0.0008471464971080422,-0.0114877475425601
0.028668144717812538,0.004121668636798859,-0.01733001135289669,0.013202547095716,-0.000834442675113678,-0.011838982813060284
0.029934735968708992,0.00390583835542202,-0.018634621053934097,0.013683243654668331,-0.0007513088639825583,-0.011977814137935638
0.02944086119532585,0.00382200232706964,-0.017911000177264214,0.01401329506188631,-0.0007633167551830411,-0.011693083681166172
0.02941218391060829,0.004773544147610664,-0.017802730202674866,0.014914269559085369,-0.0007339265430346131,-0.011618906632065773
0.029277918860316277,0.004886909853667021,-0.018122097477316856,0.015185625292360783,-0.0007047716644592583,-0.0117233507335186
0.0296219103038311,0.004456112161278725,-0.017799144610762596,0.015560539439320564,-0.0006512916879728436,-0.012299171648919582
0.029417188838124275,0.004198686219751835,-0.018235262483358383,0.014830301515758038,-0.0005784266977570951,-0.012287172488868237
0.02952362783253193,0.00417831027880311,-0.01816047728061676,0.014975844882428646,-0.000513064325787127,-0.012330449186265469
0.02960241585969925,0.004465288016945124,-0.017455514520406723,0.014621857553720474,-0.0005458911182358861,-0.012033073231577873
0.02960241585969925,0.004465288016945124,-0.017455514520406723,0.014621857553720474,-0.0005458911182358861,-0.012033073231577873
0.029699230566620827,0.0046165878884494305,-0.01816374622285366,0.01568855531513691,-0.0005008115549571812,-0.012015515938401222
0.029247427359223366,0.004828586243093014,-0.018032832071185112,0.015164696611464024,-0.0004586016002576798,-0.012592160142958164
0.029352886602282524,0.004331191536039114,-0.01802344061434269,0.014915978536009789,-0.00042269512778148055,-0.01209146436303854
0.029712092131376266,0.003970847465097904,-0.01865406706929207,0.014357645064592361,-0.0004236763052176684,-0.012347365729510784
0.029942559078335762,0.0042169904336333275,-0.017733588814735413,0.014850908890366554,-0.0004241526185069233,-0.012158379890024662
0.0300038680434227,0.004550309851765633,-0.017766902223229408,0.014450554735958576,-0.00039916683454066515,-0.012147453613579273
0.02989177405834198,0.004631703719496727,-0.01815067231655121,0.014785677194595337,-0.00037548839463852346,-0.012402593158185482
0.030580466613173485,0.00471161212772131,-0.01820390485227108,0.01458670198917389,-0.0003831869107671082,-0.012493112124502659
0.030788401141762733,0.004595855250954628,-0.01786399446427822,0.01473791804164648,-0.00034722359851002693,-0.012086995877325535
0.03085307776927948,0.0045028021559119225,-0.018097085878252983,0.015428184531629086,-0.0003495152050163597,-0.012451108545064926
0.030584653839468956,0.004663050174713135,-0.018089432269334793,0.015400974079966545,-0.00035460799699649215,-0.012736532837152481
0.031118107959628105,0.004465204663574696,-0.017495840787887573,0.015145936980843544,-0.00038268472417257726,-0.012853464111685753
0.030876509845256805,0.004289871081709862,-0.01832469552755356,0.01501636765897274,-0.0004057781770825386,-0.013165620155632496
0.03139315918087959,0.004119413439184427,-0.01843075640499592,0.014899149537086487,-0.00060009810840711,-0.013231899589300156
0.030832186341285706,0.003775910008698702,-0.017708154395222664,0.015097108669579029,-0.0007632433553226292,-0.012536432594060898
0.031180335208773613,0.0035663761664181948,-0.018064448609948158,0.015133642591536045,-0.0007313114474527538,-0.012334134429693222
0.031087776646018028,0.003446385730057955,-0.01804926060140133,0.015031959861516953,-0.000748149526771158,-0.012082484550774097
0.030993003398180008,0.003796497592702508,-0.018205400556325912,0.014668750576674938,-0.0007576620555482805,-0.01245145034044981
0.031032519415020943,0.003983508795499802,-0.018230736255645752,0.014792879112064838,-0.0006960291066206992,-0.012622462585568428
0.030951717868447304,0.0038162204436957836,-0.01771310344338417,0.014560434967279434,-0.0006839645793661475,-0.012409073300659657
0.031126201152801514,0.003680991707369685,-0.018058087676763535,0.015010922215878963,-0.0006357863894663751,-0.01280879881232977
0.030930321663618088,0.003689911449328065,-0.017856167629361153,0.014836876653134823,-0.0005597389535978436,-0.013069171458482742
0.030940264463424683,0.0037045355420559645,-0.01777787320315838,0.015076186507940292,-0.0005834414623677731,-0.013371800072491169
0.031441278755664825,0.003650059225037694,-0.018513929098844528,0.014851754531264305,-0.0005369596765376627,-0.01379245426505804
0.03257680684328079,0.0034776474349200726,-0.018512185662984848,0.015078338794410229,-0.0005487279850058258,-0.013348371721804142
0.03257680684328079,0.0034776474349200726,-0.018512185662984848,0.015078338794410229,-0.0005487279850058258,-0.013348371721804142
0.032179005444049835,0.0035423117224127054,-0.017884239554405212,0.014602860435843468,-0.0005217440775595605,-0.012711510993540287
0.03088407963514328,0.003649713471531868,-0.01831844076514244,0.015209505334496498,-0.0005470504984259605,-0.012994286604225636
0.030677422881126404,0.003895493457093835,-0.018076308071613312,0.01474916934967041,-0.0005123631563037634,-0.013458251953125
0.031957559287548065,0.003613217966631055,-0.018138956278562546,0.014847129583358765,-0.00048623685142956674,-0.013539851643145084
0.031463202089071274,0.003561043879017234,-0.01833857223391533,0.01414499618113041,-0.000483936833916232,-0.013648977503180504
0.03163541480898857,0.00365877035073936,-0.018128516152501106,0.014756978489458561,-0.0004795327258761972,-0.013718441128730774
0.03211793676018715,0.003764276159927249,-0.01844179816544056,0.014534605666995049,-0.0004968660068698227,-0.013919570483267307
0.03316144272685051,0.0039744251407682896,-0.018207130953669548,0.015267988666892052,-0.0005092950304970145,-0.013573720119893551
0.031062455847859383,0.0038233143277466297,-0.0178085807710886,0.015123697929084301,-0.0005052710184827447,-0.013621056452393532
0.0312906876206398,0.0036389185115695,-0.018557125702500343,0.015452231280505657,-0.0007247473113238811,-0.01337421964854002
0.03265606611967087,0.003500669961795211,-0.01866062916815281,0.015046733431518078,-0.0007880201446823776,-0.013055444695055485
0.031961411237716675,0.003823413047939539,-0.018459752202033997,0.015109810046851635,-0.0007526054396294057,-0.01391030102968216
0.031889453530311584,0.004046941641718149,-0.018117984756827354,0.015517381019890308,-0.0009212868753820658,-0.013884825631976128
0.03154357895255089,0.003753944765776396,-0.018950507044792175,0.015173193998634815,-0.0009157511522062123,-0.013851765543222427
0.03182268142700195,0.003468393115326762,-0.018493300303816795,0.0152259087190032,-0.0008625639020465314,-0.013585937209427357
0.03215847536921501,0.003214957658201456,-0.017869217321276665,0.015069817192852497,-0.0008086264133453369,-0.01370132714509964
0.03224862366914749,0.0034633588511496782,-0.018334103748202324,0.01524436380714178,-0.0008081531268544495,-0.01282220147550106
0.03227325528860092,0.0037022975739091635,-0.01894768700003624,0.015806086361408234,-0.0007441386114805937,-0.01431753858923912
0.03189565986394882,0.004086906556040049,-0.018545452505350113,0.015423028729856014,-0.0007121936068870127,-0.01443998422473669
0.032192859798669815,0.004231750499457121,-0.018889477476477623,0.015561847016215324,-0.0007324394537135959,-0.014077304862439632
0.03322365880012512,0.00409882003441453,-0.018768329173326492,0.01548350602388382,-0.0007026661769486964,-0.01393875665962696
0.032571759074926376,0.0035154172219336033,-0.018272405490279198,0.015997102484107018,-0.0007193306810222566,-0.013792050071060658
0.03046204149723053,0.003259209915995598,-0.018388401716947556,0.016309920698404312,-0.0008424487896263599,-0.013863591477274895
0.03141630440950394,0.0033752138260751963,-0.018399761989712715,0.016239672899246216,-0.0008623276953585446,-0.013687366619706154
0.03280706703662872,0.0036000641994178295,-0.018595637753605843,0.015914926305413246,-0.0008517776732333004,-0.013493221253156662
0.032618191093206406,0.004300785716623068,-0.01905404031276703,0.01582094095647335,-0.0007758528809063137,-0.013527736067771912
0.032618191093206406,0.004300785716623068,-0.01905404031276703,0.01582094095647335,-0.0007758528809063137,-0.013527736067771912
0.03333469480276108,0.004163660109043121,-0.01855495013296604,0.01563415676355362,-0.0007840234320610762,-0.013858648017048836
0.03341156244277954,0.004026199225336313,-0.018478941172361374,0.015213838778436184,-0.0007124528638087213,-0.01378726027905941
0.03265034407377243,0.003941850271075964,-0.018652411177754402,0.016180656850337982,-0.0006524631171487272,-0.01374322921037674
0.03139880299568176,0.0034274139907211065,-0.01832527667284012,0.016374511644244194,-0.0005925147561356425,-0.013364871963858604
0.032353777438402176,0.0034721416886895895,-0.019114116206765175,0.017136603593826294,-0.0005249700625427067,-0.013691963627934456
0.03359958529472351,0.003707731608301401,-0.018945856019854546,0.016769329085946083,-0.0005573075031861663,-0.013866247609257698
0.03300436586141586,0.003340665018185973,-0.018540725111961365,0.016534224152565002,-0.0005102885770611465,-0.014211147092282772
0.03302362561225891,0.003303263336420059,-0.019089389592409134,0.017061198130249977,-0.0005335402674973011,-0.014316264539957047
0.032926902174949646,0.00345870410092175,-0.0183281060308218,0.01745537668466568,-0.0005278890603221953,-0.014469163492321968
0.032695598900318146,0.003653445513918996,-0.019040009006857872,0.016374340280890465,-0.0005292847636155784,-0.014451348222792149
0.03292311728000641,0.003944594878703356,-0.019051242619752884,0.01580687053501606,-0.0005047944141551852,-0.014459176920354366
0.03342153877019882,0.0037966289091855288,-0.018170392140746117,0.015632672235369682,-0.0005343430675566196,-0.015007766894996166
0.03358237072825432,0.0035148251336067915,-0.01852228306233883,0.016168735921382904,-0.0004960094811394811,-0.014829250983893871
0.033174462616443634,0.003219488775357604,-0.018525633960962296,0.016300233080983162,-0.0004915536264888942,-0.014516863040626049
0.0334462970495224,0.003445384558290243,-0.018490785732865334,0.015729058533906937,-0.0004869359836447984,-0.014278093352913857
0.03364799544215202,0.003752713091671467,-0.01899571157991886,0.016307566314935684,-0.0005143280141055584,-0.014834633097052574
0.033621955662965775,0.003828770946711302,-0.018368348479270935,0.016407711431384087,-0.0005816507036797702,-0.014824362471699715
0.03377173840999603,0.004172252956777811,-0.018638473004102707,0.016995064914226532,-0.0006396058015525341,-0.015222051180899143
0.03396834433078766,0.004252198152244091,-0.018646148964762688,0.016607699915766716,-0.0006691900780424476,-0.014829692430794239
0.03395770490169525,0.004080043639987707,-0.017845138907432556,0.017046630382537842,-0.0006805071025155485,-0.015074857510626316
0.033775694668293,0.003471605945378542,-0.018401717767119408,0.016490794718265533,-0.0006405858439393342,-0.014853368513286114
0.033824317157268524,0.0035412502475082874,-0.018621020019054413,0.016078384593129158,-0.0007882126956246793,-0.015160362236201763
0.03417344391345978,0.0036763017997145653,-0.018419286236166954,0.01674111932516098,-0.0008001333335414529,-0.015213253907859325
0.03468761965632439,0.0037138108164072037,-0.018583029508590698,0.016453322023153305,-0.0007252654759213328,-0.015724925324320793
0.03468761965632439,0.0037138108164072037,-0.018583029508590698,0.016453322023153305,-0.0007252654759213328,-0.015724925324320793
0.03473035246133804,0.004179161041975021,-0.018831122666597366,0.01670892722904682,-0.0007189771858975291,-0.015496077947318554
