davideferrari95/blind_handover_controller/data/Test 249 - [2024-02-08 -- 12-38-54]/joint_states_data.csv
shoulder_pan_joint,shoulder_lift_joint,elbow_joint,wrist_1_joint,wrist_2_joint,wrist_3_joint
0.008452273905277252,0.0069921198301017284,-0.012674870900809765,0.004786221776157618,-6.280536035774276e-05,0.00863934401422739
0.008452273905277252,0.0069921198301017284,-0.012674870900809765,0.004786221776157618,-6.280536035774276e-05,0.00863934401422739
0.008059540763497353,0.006856437772512436,-0.0128807183355093,0.004887349903583527,-6.194085290189832e-05,0.00892232172191143
0.00834884773939848,0.00688108429312706,-0.012673594057559967,0.005131533835083246,-6.109983951319009e-05,0.008205188438296318
0.008420552127063274,0.0073168459348380566,-0.013515331782400608,0.005217631813138723,-6.028137795510702e-05,0.008295726962387562
0.008427271619439125,0.007757578045129776,-0.012694562785327435,0.005183223634958267,-5.9484533267095685e-05,0.008615241385996342
0.007784778717905283,0.007099403068423271,-0.013675738126039505,0.005028845276683569,-5.87084905419033e-05,0.008474605157971382
0.008048824965953827,0.007656031288206577,-0.013098778203129768,0.0051585896871984005,-5.7215573178837076e-05,0.008250034414231777
0.007987050339579582,0.00796465016901493,-0.012896313332021236,0.005479920189827681,-5.64972469874192e-05,0.008038756437599659
0.008322485722601414,0.00776997534558177,-0.013189632445573807,0.005464007146656513,-5.579669596045278e-05,0.008082685060799122
0.008147632703185081,0.007741370238363743,-0.013034281320869923,0.005023414734750986,-5.511335621122271e-05,0.007933398708701134
0.007796209771186113,0.007906467653810978,-0.012665498070418835,0.004759727977216244,-5.444655107567087e-05,0.008132973685860634
0.007638959679752588,0.008038566447794437,-0.013067427091300488,0.005620966665446758,-5.379565845942125e-05,0.008276240900158882
0.007683352567255497,0.007112669292837381,-0.012534957379102707,0.005788187030702829,-5.316016176948324e-05,0.0083660539239645
0.007683352567255497,0.007112669292837381,-0.012534957379102707,0.005788187030702829,-5.316016176948324e-05,0.0083660539239645
0.008305802009999752,0.006888485047966242,-0.0128482049331069,0.0057807439006865025,-5.253950439509936e-05,0.008542346768081188
0.008467189967632294,0.007174505852162838,-0.012689106166362762,0.005299577489495277,-5.19331733812578e-05,0.00876480620354414
0.007809570990502834,0.007426419295370579,-0.0129386056214571,0.005143357440829277,-5.1340670324862e-05,0.008473956026136875
0.007714364677667618,0.0070271799340844154,-0.01256707962602377,0.005427804309874773,-5.0761525926645845e-05,0.007821169681847095
0.007977975532412529,0.006999148055911064,-0.012357154861092567,0.005702934693545103,-5.0195318181067705e-05,0.00813019648194313
0.007809287402778864,0.007385002449154854,-0.012177960947155952,0.005485780071467161,-2.5163368263747543e-05,0.008043404668569565
0.00762782571837306,0.007584418170154095,-0.011945999227464199,0.004983505234122276,-1.642988195271755e-06,0.008286615833640099
0.00793372094631195,0.007788088172674179,-0.012407815083861351,0.0047497875057160854,-1.072753832431772e-07,0.00834791362285614
0.008619810454547405,0.0073934621177613735,-0.012194006703794003,0.004841500427573919,-7.00431579403471e-09,0.007294062525033951
0.007868564687669277,0.007317639421671629,-0.01280861347913742,0.00529992301017046,-4.573317835543378e-10,0.00753925321623683
0.007607656996697187,0.007674418855458498,-0.01256843563169241,0.005675583612173796,-2.986050295916698e-11,0.007763777859508991
0.008008680306375027,0.008641269989311695,-0.012680147774517536,0.005482052452862263,-1.9496773986937832e-12,0.008372197858989239
0.008256365545094013,0.007984383031725883,-0.012606100179255009,0.005098253954201937,-1.2729999888418109e-13,0.007930787280201912
0.007705355528742075,0.007762041874229908,-0.012066001072525978,0.004801335744559765,-8.311780151410049e-15,0.00806444976478815
0.008256092667579651,0.008017909713089466,-0.012752792797982693,0.004841647110879421,-5.426998326573426e-16,0.008192743174731731
0.0084380516782403,0.007955762557685375,-0.012850548140704632,0.005651538725942373,-3.543441897341178e-17,0.008162440732121468
0.007861035875976086,0.007664678152650595,-0.012659067288041115,0.005560225807130337,-2.313614453938621e-18,0.008115960285067558
0.007753659971058369,0.0077477674931287766,-0.01245350856333971,0.005632911808788776,-1.5106247642491007e-19,0.00805202778428793
0.008125923573970795,0.00859849900007248,-0.012987365946173668,0.005307811312377453,-9.863299200701601e-21,0.00806936901062727
0.007864647544920444,0.008435482159256935,-0.012826452031731606,0.005404616706073284,-6.440029704186781e-22,0.008139376528561115
0.007952357642352581,0.008243572898209095,-0.012346991337835789,0.005297808907926083,-2.74548582186085e-24,0.007811175659298897
0.007712739519774914,0.008399327285587788,-0.011945652775466442,0.0055552395060658455,-1.7926059186505135e-25,0.007686590310186148
0.008092423900961876,0.008182954043149948,-0.01300873514264822,0.005156964994966984,-1.170443633246906e-26,0.007273414172232151
0.007886854000389576,0.008290366269648075,-0.01232943870127201,0.004823874682188034,-7.642160797254008e-28,0.007065776735544205
0.007886854000389576,0.008290366269648075,-0.01232943870127201,0.004823874682188034,-7.642160797254008e-28,0.007065776735544205
0.007643057499080896,0.008494437672197819,-0.012700662948191166,0.004985237959772348,-4.989784763059733e-29,0.007293242029845715
0.007497323676943779,0.008186950348317623,-0.01250748336315155,0.0052587431855499744,-3.257973059349209e-30,0.007917421869933605
0.007756460923701525,0.007685340940952301,-0.012604232877492905,0.0058714416809380054,-2.1272234778130057e-31,0.007522117346525192
0.0074119591154158115,0.008645881898701191,-0.012898926623165607,0.005084111355245113,-1.3889248928076562e-32,0.0076047079637646675
0.007612462155520916,0.007932045497000217,-0.012405517511069775,0.004953974392265081,-9.068687287334475e-34,0.007230551913380623
0.008170816116034985,0.007221821695566177,-0.012895097956061363,0.004837841726839542,-5.921204965325575e-35,0.007658907677978277
0.00845012255012989,0.008520138449966908,-0.012530071660876274,0.004999224562197924,-3.866124079372953e-36,0.007564656902104616
0.007717150263488293,0.009213335812091827,-0.013237073086202145,0.005825658794492483,-2.5243028651665484e-37,0.007575170136988163
0.008097422309219837,0.008228071965277195,-0.013038997538387775,0.005451603792607784,-1.6481893171185065e-38,0.007549858186393976
0.008449851535260677,0.007991479709744453,-0.01333068311214447,0.005160871893167496,-1.0761495764536725e-39,0.007968006655573845
0.007828534580767155,0.007947128266096115,-0.012604094110429287,0.0055187903344631195,-7.02653088966393e-41,0.007651027292013168
0.008072195574641228,0.00915571115911007,-0.012533550150692463,0.005223001353442669,-4.587851172199451e-42,0.008056451566517353
0.008499142713844776,0.008294484578073025,-0.012957784347236156,0.0052000898867845535,-2.9987787136551085e-43,0.007816928438842297
0.007805384695529938,0.008402103558182716,-0.012669449672102928,0.005447299685329199,-1.961817850054744e-44,0.007701137103140354
0.007782869040966034,0.008716653101146221,-0.01283590029925108,0.005474541336297989,-1.401298464324817e-45,0.007434118073433638
0.007942721247673035,0.008485894650220871,-0.013224664144217968,0.005203555338084698,-0.0,0.00695235887542367
0.00805178377777338,0.008268801495432854,-0.01404778566211462,0.005625638645142317,-0.0,0.007342294789850712
0.007874551229178905,0.008364196866750717,-0.01351446844637394,0.005405336152762175,-0.0,0.0075538549572229385
0.008140161633491516,0.008899454958736897,-0.013642284087836742,0.0055037979036569595,-0.0,0.007505877409130335
0.008342674002051353,0.008468852378427982,-0.013083252124488354,0.0055164555087685585,-0.0,0.00760055985301733
0.00829688273370266,0.00814535841345787,-0.012951876036822796,0.006018826737999916,-0.0,0.007107550743967295
0.007784746587276459,0.008472222834825516,-0.013121883384883404,0.005500354338437319,-0.0,0.007837521843612194
0.008098384365439415,0.008507520891726017,-0.01297348365187645,0.005291051231324673,-0.0,0.007392126601189375
0.008206116035580635,0.008230222389101982,-0.013025768101215363,0.005628375336527824,-0.0,0.007320601958781481
0.007842857390642166,0.008807875216007233,-0.012360433116555214,0.005584193393588066,-0.0,0.007887301035225391
0.007842857390642166,0.008807875216007233,-0.012360433116555214,0.005584193393588066,-0.0,0.007887301035225391
0.00879631843417883,0.008036607876420021,-0.013219241052865982,0.005815771408379078,-0.0,0.007613719906657934
0.008016320876777172,0.008448375388979912,-0.012343752197921276,0.005955841392278671,-0.0,0.007563395891338587
0.00804330687969923,0.008743333630263805,-0.012826774269342422,0.005949927493929863,-0.0,0.007616539020091295
0.00835458468645811,0.008467054925858974,-0.012720102444291115,0.0056326789781451225,-0.0,0.0074582165107131
0.00835458468645811,0.008467054925858974,-0.012720102444291115,0.0056326789781451225,-0.0,0.0074582165107131
0.008326754905283451,0.008408863097429276,-0.013273067772388458,0.005499459803104401,-0.0,0.007429062854498625
0.007717657834291458,0.008844573050737381,-0.013492380268871784,0.005462087225168943,-0.0,0.007473675534129143
0.008155368268489838,0.008398032747209072,-0.01216753851622343,0.005049016326665878,-0.0,0.007457243278622627
0.008251787163317204,0.008348867297172546,-0.01256017666310072,0.006103481166064739,-0.0,0.007307215593755245
0.008131200447678566,0.00916486419737339,-0.012839984148740768,0.006367184687405825,-0.0,0.0072626578621566296
0.0076320236548781395,0.008113950490951538,-0.013206513598561287,0.005853386130183935,-0.0,0.007302181329578161
0.00886466819792986,0.007874125614762306,-0.011993969790637493,0.005621850956231356,-0.0,0.007381032686680555
0.008265464566648006,0.007749147713184357,-0.011968303471803665,0.005356225650757551,-0.0,0.006854693870991468
0.007891644723713398,0.00811848510056734,-0.012014041654765606,0.005772588308900595,-0.0,0.0068680779077112675
0.007911315187811852,0.008125116117298603,-0.012081490829586983,0.006016934290528297,-0.0,0.007116834167391062
0.008326249197125435,0.0083538219332695,-0.012420927174389362,0.005798448342829943,-0.0,0.0073402877897024155
0.008280527777969837,0.008079157210886478,-0.012012248858809471,0.005550172179937363,-0.0,0.006793549284338951
0.0077001010067760944,0.0081489821895957,-0.012683531269431114,0.005701786372810602,-0.0,0.006785833742469549
0.008167044259607792,0.008049684576690197,-0.01212218590080738,0.00593539047986269,-0.0,0.007291154004633427
0.008788554929196835,0.008059765212237835,-0.012430270202457905,0.005949739366769791,-0.0,0.0070593087002635
0.00853675976395607,0.008422920480370522,-0.012895956635475159,0.0058992523699998856,-0.0,0.006481087300926447
0.007989790290594101,0.00763509888201952,-0.012217042036354542,0.005485233850777149,-0.0,0.006461033131927252
0.008785425685346127,0.007871084846556187,-0.012337186373770237,0.0056649912148714066,-0.0,0.006779126822948456
0.009134246967732906,0.00792167242616415,-0.011914859525859356,0.005469180643558502,-0.0,0.007131280843168497
0.008524922654032707,0.006812029052525759,-0.012567075900733471,0.005766587797552347,-1.0770711469376693e-06,0.006925571244210005
0.008900138549506664,0.006170865148305893,-0.012016484513878822,0.005008849781006575,-4.591723445912521e-09,0.0064504146575927734
0.008951845578849316,0.006144917104393244,-0.011704797856509686,0.0050253854133188725,-2.9980670723794844e-10,0.006796585861593485
0.008503646589815617,0.006799035705626011,-0.011567944660782814,0.005418294575065374,-1.957523726447974e-11,0.0072546713054180145
0.008657794445753098,0.00645018694922328,-0.013069511391222477,0.0060892789624631405,-1.2781232235775652e-12,0.006964406929910183
0.008746697567403316,0.006125689949840307,-0.011572780087590218,0.005550119560211897,-8.345232193002552e-14,0.006512151565402746
0.008862105198204517,0.006111103110015392,-0.011690204963088036,0.0049041216261684895,-5.448840553426036e-15,0.006393550429493189
0.008862105198204517,0.006111103110015392,-0.011690204963088036,0.0049041216261684895,-5.448840553426036e-15,0.006393550429493189
0.008782800287008286,0.006306771654635668,-0.011936567723751068,0.0052780332043766975,-3.557703020497184e-16,0.006947952788323164
0.00890166312456131,0.006322563160210848,-0.011789679527282715,0.005208503920584917,-2.3229259847350997e-17,0.00722696864977479
0.008524853736162186,0.006490815430879593,-0.011765687726438046,0.005949912592768669,-1.5167047226971244e-18,0.0065405662171542645
0.008495131507515907,0.005978349596261978,-0.011535467579960823,0.00623674551025033,-9.902997892431751e-20,0.006106535904109478
0.009140446782112122,0.005841982085257769,-0.011753629893064499,0.005637469235807657,-6.465950083188759e-21,0.006385550834238529
0.008622613735496998,0.0061277239583432674,-0.012091461569070816,0.0053544798865914345,-4.2218033258032303e-22,0.006859578657895327
0.00845466647297144,0.006431231275200844,-0.011981301009654999,0.005625496618449688,-2.756535909319869e-23,0.006820132024586201
0.009423449635505676,0.006163499318063259,-0.012491301633417606,0.006104444619268179,-1.799820865141568e-24,0.006424686871469021
0.009000168181955814,0.005987878888845444,-0.011994723230600357,0.006329730618745089,-1.1751545041131959e-25,0.006315312348306179
0.008681460283696651,0.005914195906370878,-0.011833138763904572,0.006351246498525143,-7.672920305878303e-27,0.00639696279540658
0.009367971681058407,0.005919679533690214,-0.011865460313856602,0.0062044234946370125,-5.009868601261046e-28,0.006466525606811047
0.009613994508981705,0.006714750546962023,-0.011684151366353035,0.005625413730740547,-3.271086084394779e-29,0.006172290537506342
0.008827057667076588,0.006257282570004463,-0.01210986077785492,0.005837469827383757,-2.135785590585299e-30,0.006093442440032959
0.009886208921670914,0.006316306535154581,-0.011436168104410172,0.005883691366761923,-1.3945155145528083e-31,0.005927602760493755
0.009108472615480423,0.006378999911248684,-0.012231215834617615,0.006424943450838327,0.00010605836723698303,0.006210199557244778
0.008873648010194302,0.006577825639396906,-0.012534103356301785,0.0064599718898534775,0.0001851659908425063,0.006506930571049452
0.008812564425170422,0.007489675190299749,-0.01199003029614687,0.005864470265805721,0.0001830847468227148,0.006487515289336443
0.009506693109869957,0.006713926326483488,-0.011703778058290482,0.006380222737789154,0.0001762683823471889,0.006243253592401743
0.009166903793811798,0.00640263594686985,-0.011249643750488758,0.006840892136096954,0.0002012723998632282,0.006416370160877705
0.009144596755504608,0.006801638286560774,-0.01287613995373249,0.006363785360008478,0.00019602924294304103,0.006698051933199167
0.008999775163829327,0.007492403034120798,-0.011417497880756855,0.006086544133722782,0.0002126354374922812,0.006354786921292543
0.008749863132834435,0.0065751709043979645,-0.011958936229348183,0.006036904640495777,0.00022079945483710617,0.006431096699088812
0.009254385717213154,0.006594226695597172,-0.011228681541979313,0.006790484301745892,0.00022739684209227562,0.006332010496407747
0.009254385717213154,0.006594226695597172,-0.011228681541979313,0.006790484301745892,0.00022739684209227562,0.006332010496407747
0.009490711614489555,0.0068375892005860806,-0.012098635546863079,0.006465325132012367,0.0002212942490587011,0.0065459562465548515
0.009087559767067432,0.007215241435915232,-0.011485549621284008,0.006174522917717695,0.0003072581021115184,0.006270282901823521
0.009151694364845753,0.0070724887773394585,-0.012138416059315205,0.0059698414988815784,0.00036854969221167266,0.006185250822454691
0.009810466319322586,0.0068939863704144955,-0.012721731327474117,0.006276966538280249,0.0003458810970187187,0.006009711883962154
0.00895871501415968,0.007232705596834421,-0.012165524065494537,0.006361285224556923,0.000377054326236248,0.006078446749597788
0.009596005082130432,0.007572948466986418,-0.012408164329826832,0.006191269028931856,0.00035953609040006995,0.006184774916619062
0.009224707260727882,0.006958789192140102,-0.011900871992111206,0.006132582668215036,0.00033754840842448175,0.006444834638386965
0.009435820393264294,0.007326649036258459,-0.01288763340562582,0.0056710150092840195,0.00035672110971063375,0.00622751796618104
0.009080013260245323,0.007655241061002016,-0.012630434706807137,0.006306577008217573,0.0003491509414743632,0.006091310176998377
0.010213061235845089,0.007693394552916288,-0.013097585178911686,0.006581176538020372,0.0003725709393620491,0.0062003182247281075
0.009342402219772339,0.007628047838807106,-0.012999622151255608,0.006139417644590139,0.0003596243914216757,0.006191631313413382
0.009203852154314518,0.0077593675814569,-0.012624596245586872,0.005732209421694279,0.0003892871318385005,0.006138363853096962
0.009296363219618797,0.0077386293560266495,-0.01247683446854353,0.005285011138767004,0.00039960400317795575,0.006152728572487831
0.009281854145228863,0.007626562844961882,-0.012281270697712898,0.0055357529781758785,0.00042396457865834236,0.005601951386779547
0.00910915993154049,0.007550987880676985,-0.013095371425151825,0.00576622411608696,0.00040886219358071685,0.00579217029735446
0.009246724657714367,0.0075892494060099125,-0.012123511172831059,0.00545274093747139,0.0004359693266451359,0.00625838665291667
0.00964035652577877,0.007603003643453121,-0.012495276518166065,0.005620258394628763,0.0004148083389736712,0.006121230777353048
0.009411739185452461,0.007637968752533197,-0.01247122511267662,0.005531991831958294,0.00041671597864478827,0.006337902508676052
0.009507683105766773,0.007425774820148945,-0.012428967282176018,0.005787810310721397,0.00041751813841983676,0.006330969277769327
0.010099050588905811,0.007428728509694338,-0.012409042567014694,0.005908928345888853,0.00039617231232114136,0.006112898699939251
0.008952896110713482,0.007443756330758333,-0.012972421012818813,0.005840094294399023,0.0003769771719817072,0.006194217596203089
0.009787856601178646,0.007482270244508982,-0.011411729268729687,0.005956952925771475,0.00043673894833773375,0.006394957657903433
0.00988063495606184,0.007338651921600103,-0.012746995314955711,0.005842540413141251,0.00040384972817264497,0.00595077546313405
0.009322966448962688,0.007424512878060341,-0.013041307218372822,0.005996513646095991,0.0003709423472173512,0.005847102962434292
0.00996535737067461,0.00754457525908947,-0.012251589447259903,0.006495003588497639,0.0004063898522872478,0.0057486845180392265
0.009855998679995537,0.008176795206964016,-0.012200912460684776,0.006645981688052416,0.00038179827970452607,0.005982153117656708
0.00977857131510973,0.007154013030230999,-0.012116909958422184,0.006225191056728363,0.0003885051410179585,0.005406505893915892
0.00977857131510973,0.007154013030230999,-0.012116909958422184,0.006225191056728363,0.0003885051410179585,0.005406505893915892
0.010780686512589455,0.008061992935836315,-0.012415609322488308,0.005837590433657169,0.00036756930057890713,0.005510061047971249
0.010136660188436508,0.00789598934352398,-0.011954019777476788,0.005988044198602438,0.0003903476463165134,0.006131216883659363
0.010094262659549713,0.0074455467984080315,-0.012573059648275375,0.005731763318181038,0.00037584867095574737,0.005946703255176544
0.00976379681378603,0.0074802059680223465,-0.012650419026613235,0.005817857105284929,0.00035756436409428716,0.005722845904529095
0.010734246112406254,0.007747477851808071,-0.012212108820676804,0.005631298758089542,0.0003725328715518117,0.005462566390633583
0.010297452099621296,0.007768015842884779,-0.01209962461143732,0.005822695326060057,0.0003829191846307367,0.0054586478509008884
0.009458723478019238,0.007565194275230169,-0.011762605048716068,0.006186311133205891,0.00038675402174703777,0.005542730446904898
0.009954612702131271,0.007626082748174667,-0.012152698822319508,0.006264701951295137,0.0003921888710465282,0.0059994594193995
0.010914413258433342,0.007812430150806904,-0.01175509113818407,0.00629202788695693,0.00039472925709560513,0.005872019566595554
0.009985251352190971,0.0078416233882308,-0.012114917859435081,0.0061479611322283745,0.00041923075332306325,0.005818973761051893
0.009701427072286606,0.007071530446410179,-0.012045723386108875,0.006054132245481014,0.00040222410461865366,0.005479404702782631
0.010239578783512115,0.007174447178840637,-0.012032655067741871,0.006322595756500959,0.0003813337825704366,0.005690545309334993
0.00981126632541418,0.0074263946153223515,-0.012379932217299938,0.006343345623463392,0.00047274676035158336,0.005367562174797058
0.009862199425697327,0.007469357457011938,-0.01166144572198391,0.006380823440849781,0.00046142516657710075,0.0055916281417012215
0.01034263614565134,0.007293628063052893,-0.012512109242379665,0.006137344520539045,0.0004206864978186786,0.005357777234166861
0.010064978152513504,0.00662803603336215,-0.012711847200989723,0.006521649658679962,0.00045630140812136233,0.0053134458139538765
0.010184221900999546,0.006717674434185028,-0.012372680008411407,0.006608998402953148,0.00042503586155362427,0.005546574480831623
0.010246715508401394,0.007266263011842966,-0.012368032708764076,0.006322639994323254,0.0004510183644015342,0.005999158136546612
0.009815462864935398,0.00682705407962203,-0.012104064226150513,0.006376765202730894,0.00042811193270608783,0.005841105245053768
0.010301336646080017,0.006819097325205803,-0.012351379729807377,0.0068288529291749,0.0004435357986949384,0.005830844864249229
0.010503235273063183,0.0071591646410524845,-0.012075455859303474,0.006987961009144783,0.0004302339511923492,0.005556588526815176
0.009693235158920288,0.00756118493154645,-0.012248197570443153,0.0063791037537157536,0.0004677843826357275,0.005476330406963825
0.010217836126685143,0.007539610844105482,-0.012061189860105515,0.005686912219971418,0.0004965292755514383,0.005354176741093397
0.010695214383304119,0.007078423164784908,-0.012160561047494411,0.005212025251239538,0.0005114591913297772,0.005360824521631002
0.01021567452698946,0.006485134828835726,-0.012186195701360703,0.00563299423083663,0.0005063539138063788,0.005152617581188679
0.010366670787334442,0.006910781841725111,-0.011493387632071972,0.006142876110970974,0.0005333897424861789,0.0050924005918204784
0.010597645305097103,0.00710724713280797,-0.013050154782831669,0.006088091526180506,0.0005032090120948851,0.0055338540114462376
0.010641487315297127,0.006895824801176786,-0.01202999334782362,0.005919779185205698,0.0006932026008144021,0.0051954360678792
0.009842559695243835,0.00682556489482522,-0.012789823114871979,0.006198159419000149,0.0006774889770895243,0.005436307284981012
0.010074596852064133,0.007185147609561682,-0.011907546781003475,0.006488495040684938,0.0006530271493829787,0.005467911716550589
0.010074596852064133,0.007185147609561682,-0.011907546781003475,0.006488495040684938,0.0006530271493829787,0.005467911716550589
0.01079900935292244,0.007266293279826641,-0.012193610891699791,0.00628123851493001,0.0005943610449321568,0.004702049307525158
0.010364944115281105,0.006823955103754997,-0.012507283128798008,0.006368859671056271,0.000543248956091702,0.004528807941824198
0.01094815880060196,0.0067695616744458675,-0.012531917542219162,0.005791332572698593,0.0005617255228571594,0.004606103058904409
0.011289171874523163,0.007076905108988285,-0.012431470677256584,0.005834935698658228,0.0005288328975439072,0.004758485127240419
0.010293975472450256,0.006619636435061693,-0.0121322525665164,0.0060260784812271595,0.0004931398434564471,0.0047903298400342464
0.010873423889279366,0.006900768261402845,-0.012016933411359787,0.0061072250828146935,0.000461544725112617,0.004735500551760197
0.01049345824867487,0.006855035200715065,-0.011692156083881855,0.00617268867790699,0.00043372847721911967,0.004546807613223791
0.01050919946283102,0.007569595240056515,-0.012724067084491253,0.006065737456083298,0.00040907508810050786,0.004224787466228008
0.01106102205812931,0.00696288887411356,-0.012311149388551712,0.006022201385349035,0.0003870749205816537,0.004309736657887697
0.010762562043964863,0.006587938405573368,-0.012619270011782646,0.006264897994697094,0.0003345943696331233,0.004602235741913319
0.010545514523983002,0.006671459414064884,-0.01218225434422493,0.006901026237756014,0.00030285073444247246,0.0047714971005916595
0.010830109938979149,0.007020527962595224,-0.011926518753170967,0.0065591661259531975,0.00028317776741459966,0.004779248498380184
0.010476140305399895,0.007292087655514479,-0.011979933828115463,0.006998101714998484,0.0002663664345163852,0.004657047800719738
0.010606890544295311,0.006741732824593782,-0.011727717705070972,0.006790761835873127,0.00025147301494143903,0.004569911863654852
0.010711032897233963,0.006431347690522671,-0.012527994811534882,0.00657992297783494,0.00023815817257855088,0.004363044630736113
0.010682327672839165,0.006541104521602392,-0.011885162442922592,0.006587134674191475,0.0002261833578813821,0.004469404462724924
0.011154033243656158,0.006876793224364519,-0.012387121096253395,0.006647048518061638,0.00024715025210753083,0.004309427458792925
0.011183876544237137,0.006820834707468748,-0.012637452222406864,0.006636683363467455,0.0002458852541167289,0.0043768868781626225
0.011245227418839931,0.006853361148387194,-0.012077393010258675,0.0065551442094147205,0.0002357995108468458,0.004506568890064955
0.010370500385761261,0.0068483115173876286,-0.012073423713445663,0.006286366377025843,0.00022597293718717992,0.004568902775645256
0.01063744630664587,0.007341722026467323,-0.011409816332161427,0.006492088548839092,0.00021689666027668864,0.004706428851932287
0.010963846929371357,0.006576391868293285,-0.012677081860601902,0.006440047640353441,0.00020076644432265311,0.004825450014322996
0.010821068659424782,0.007200143299996853,-0.012551166117191315,0.0064888522028923035,0.00018686910334508866,0.0048111542128026485
0.010821068659424782,0.007200143299996853,-0.012551166117191315,0.0064888522028923035,0.00018686910334508866,0.0048111542128026485
0.010862340219318867,0.007007737644016743,-0.011937808245420456,0.0069864774122834206,0.0001806182408472523,0.0043991366401314735
0.010210244916379452,0.006543952506035566,-0.012375989928841591,0.006756780203431845,0.000174771950696595,0.004002994857728481
0.010210244916379452,0.006543952506035566,-0.012375989928841591,0.006756780203431845,0.000174771950696595,0.004002994857728481
0.01070740818977356,0.007117228116840124,-0.012143577449023724,0.006521929986774921,0.00016929201956372708,0.003809670452028513
0.01060777809470892,0.006563074421137571,-0.01272724848240614,0.006539155729115009,0.00016414547280874103,0.0037805745378136635
0.010559896007180214,0.006784507539123297,-0.012617481872439384,0.00660176994279027,0.0001593027263879776,0.004069800954312086
0.010887118056416512,0.006802096031606197,-0.012967690825462341,0.006541175302118063,0.0001547375286463648,0.004523052833974361
0.010736788623034954,0.007027109153568745,-0.013005844317376614,0.006966438610106707,0.00015042643644846976,0.004337658174335957
0.011203187517821789,0.006994576659053564,-0.012464139610528946,0.007116437423974276,0.0001463495718780905,0.003954228479415178
0.010654037818312645,0.007712607737630606,-0.01299690455198288,0.0067676519975066185,0.0001424873771611601,0.0036836331710219383
0.010480741038918495,0.007075275294482708,-0.012573864310979843,0.0068139322102069855,0.00013882429630029947,0.0036337305791676044
0.010890617035329342,0.006823429372161627,-0.013039535842835903,0.007196831051260233,0.00013534481695387512,0.003728065174072981
0.010926337912678719,0.006980867590755224,-0.012465061619877815,0.0073045906610786915,0.0001525681436760351,0.004250089172273874
0.01015576533973217,0.007004542741924524,-0.012621642090380192,0.0071619912050664425,0.00015026796609163284,0.0041983663104474545
0.010886452160775661,0.007005409337580204,-0.012703877873718739,0.006759642157703638,0.00014685283531434834,0.003977742046117783
0.01055618654936552,0.006900635082274675,-0.013196396641433239,0.006348070688545704,0.00014351302525028586,0.0038718131836503744
0.010256759822368622,0.006817860063165426,-0.01312627736479044,0.0062971399165689945,0.00014031674072612077,0.0033790345769375563
0.010597866028547287,0.0065011451952159405,-0.013246274553239346,0.006353088654577732,0.00013725961616728455,0.003132621292024851
0.01060878299176693,0.006819583475589752,-0.013044269755482674,0.006133134011179209,0.0001343329349765554,0.003147200681269169
0.011503739282488823,0.006649224553257227,-0.012614612467586994,0.006261521019041538,0.0001315283152507618,0.0034420425072312355
0.011683362536132336,0.006702085491269827,-0.013462584465742111,0.006583553738892078,0.00012883846648037434,0.003754734294489026
0.010383167304098606,0.006669044028967619,-0.012758618220686913,0.00653505977243185,0.00012625628733076155,0.003808440640568733
0.01086046639829874,0.006346687208861113,-0.012824046425521374,0.006206904537975788,0.00012377592793200165,0.0037951194681227207
0.010578075423836708,0.006336331367492676,-0.012598296627402306,0.0060904547572135925,0.0001213907016790472,0.003787585301324725
0.010183452628552914,0.006259663496166468,-0.013280670158565044,0.006035763304680586,0.0001190959446830675,0.0038082757964730263
0.010794375091791153,0.00612093647941947,-0.013017244637012482,0.006367228925228119,0.00011688631639117375,0.0038096762727946043
0.010796422138810158,0.006803787779062986,-0.013031790032982826,0.007086736150085926,0.00011270430695731193,0.003663876559585333
0.011279159225523472,0.006538801360875368,-0.012986497022211552,0.006339462008327246,0.0001107233838411048,0.0035759590100497007
0.010522949509322643,0.006375427357852459,-0.013271667994558811,0.00648663192987442,0.00010881101479753852,0.0033959096763283014
0.01041358057409525,0.0065097627229988575,-0.012326912954449654,0.006610663142055273,0.00010696354001993313,0.0034123652148991823
0.010837551206350327,0.006734437774866819,-0.012690684758126736,0.006836692802608013,0.00010517776536289603,0.003620467847213149
0.010479370132088661,0.006743401754647493,-0.013511965982615948,0.006897233426570892,0.0001034507222357206,0.0034058494493365288
0.010717197321355343,0.00655377097427845,-0.013089255429804325,0.007170870900154114,0.00010177939111599699,0.003506274428218603
0.010717197321355343,0.00655377097427845,-0.013089255429804325,0.007170870900154114,0.00010177939111599699,0.003506274428218603
0.01083958987146616,0.0061733354814350605,-0.012781956233084202,0.007657343987375498,0.00010016128362622112,0.0032809071708470583
0.010864468291401863,0.006285538896918297,-0.012921368703246117,0.007080782670527697,9.859373676590621e-05,0.0032164035364985466
0.011027703061699867,0.006724709179252386,-0.013430755585432053,0.006398050580173731,9.707451681606472e-05,0.0031616094056516886
0.010609753429889679,0.006608615629374981,-0.013065059669315815,0.006451650522649288,9.560149192111567e-05,0.0031447121873497963
0.011188029311597347,0.006076062098145485,-0.013544920831918716,0.006687578745186329,9.417242836207151e-05,0.0030404163990169764
0.011593927629292011,0.006212990265339613,-0.01243332028388977,0.0068061258643865585,9.278545621782541e-05,0.002999386051669717
0.01159762404859066,0.005982549395412207,-0.012805412523448467,0.0067930384539067745,9.143870556727052e-05,0.0029534543864428997
0.011555036529898643,0.00649919081479311,-0.01296754740178585,0.007102482952177525,9.013107774080709e-05,0.0030809706076979637
0.011145379394292831,0.0064314864575862885,-0.013317081145942211,0.007446725852787495,8.885937131708488e-05,0.0033709730487316847
0.011305402964353561,0.005594228859990835,-0.012824474833905697,0.007689961232244968,8.762344805290923e-05,0.003054311266168952
0.011187492869794369,0.0058483281172811985,-0.013335130177438259,0.007244541309773922,8.642188186058775e-05,0.002780828159302473
0.010677497833967209,0.005561579018831253,-0.012771849520504475,0.0070452201180160046,8.525201701559126e-05,0.002690674038603902
0.011220098473131657,0.006454582326114178,-0.012666275724768639,0.0073115467093884945,8.411418093601242e-05,0.0028391527011990547
0.011279278434813023,0.005969892255961895,-0.013111426495015621,0.0077386219054460526,8.30056014820002e-05,0.002883828477934003
0.010773155838251114,0.005741953384131193,-0.013056039810180664,0.006963891442865133,8.192616223823279e-05,0.002821761416271329
0.011035457253456116,0.006123258266597986,-0.013465138152241707,0.0066491966135799885,8.087491005426273e-05,0.002752379048615694
0.01149709615856409,0.0056959656067192554,-0.01286557037383318,0.006649946328252554,7.984989497344941e-05,0.0027766977436840534
0.01133004855364561,0.006537488661706448,-0.01330576278269291,0.007130456622689962,7.885041850386187e-05,0.002456224989145994
0.01215077843517065,0.005998116917908192,-0.012728379108011723,0.0068238782696425915,7.787540380377322e-05,0.0026546306908130646
0.011902379803359509,0.0057440041564404964,-0.013392933644354343,0.006571178324520588,7.692493818467483e-05,0.002879228675737977
0.012118193320930004,0.006119429599493742,-0.012859026901423931,0.006687866523861885,7.599699893034995e-05,0.003133155405521393
0.012143157422542572,0.0059638600796461105,-0.013673312962055206,0.007060706615447998,7.42067422834225e-05,0.0026375455781817436
0.012085781432688236,0.005817044991999865,-0.013589589856564999,0.006696167401969433,7.334285328397527e-05,0.002577797044068575
0.011898033320903778,0.005931055173277855,-0.013297408819198608,0.007012852933257818,7.249887130456045e-05,0.002400571946054697
0.012306447140872478,0.005606004968285561,-0.013202118687331676,0.00758359907194972,7.167406874941662e-05,0.002246745629236102
0.012306447140872478,0.005606004968285561,-0.013202118687331676,0.00758359907194972,7.167406874941662e-05,0.002246745629236102
0.012203098274767399,0.0059762271121144295,-0.013859796337783337,0.007612403016537428,7.086781261023134e-05,0.002271566540002823
0.012575005181133747,0.006373913958668709,-0.013247812166810036,0.007340627256780863,7.00794771546498e-05,0.0022153835743665695
0.012876680120825768,0.006047727074474096,-0.013699174858629704,0.007465444039553404,1.780800630513113e-05,0.002354611176997423
0.012629605829715729,0.005706622265279293,-0.012785571627318859,0.00786658190190792,1.1627355434029596e-06,0.002537681255489588
0.012646880932152271,0.0057427845895290375,-0.013454247266054153,0.007847372442483902,7.591831518993786e-08,0.0024412956554442644
0.012323380447924137,0.005926317069679499,-0.01295532938092947,0.007000828627496958,4.956922872167979e-09,0.0025456417351961136
0.012879087589681149,0.0065447138622403145,-0.013441731221973896,0.006875057239085436,3.236516055160621e-10,0.002640912774950266
0.011894136667251587,0.006124574225395918,-0.0129852294921875,0.006971699185669422,2.113213597165764e-11,0.0023944310378283262
0.012315038591623306,0.006321960128843784,-0.013189617544412613,0.0072665829211473465,1.37977747716872e-12,0.002338789403438568
0.012612815015017986,0.005764291621744633,-0.012995829805731773,0.007245729677379131,9.008959756581086e-14,0.0020939407404512167
0.012502073310315609,0.0058321263641119,-0.01301501039415598,0.0071553634479641914,5.882206749680333e-15,0.0019300266867503524
0.012494825758039951,0.0065448409877717495,-0.01268466841429472,0.007385774049907923,3.8406607292745874e-16,0.0018046963959932327
0.012894803658127785,0.006123370490968227,-0.012674584053456783,0.006700941827148199,2.5076771054210635e-17,0.0018615643493831158
0.01192966103553772,0.00568895461037755,-0.0134452348574996,0.007573853712528944,1.6373339189918044e-18,0.0017682588659226894
0.012521789409220219,0.005544022656977177,-0.01282951608300209,0.007872753776609898,1.0690620530893991e-19,0.001986938063055277
0.013349413871765137,0.005717226769775152,-0.013628080487251282,0.008427102118730545,6.980211258849174e-21,0.0020525658037513494
0.012791445478796959,0.005879429168999195,-0.013199392706155777,0.008482025004923344,4.557579382646785e-22,0.0020975235383957624
0.012855825014412403,0.006135975942015648,-0.013671980239450932,0.008062368258833885,2.975773607743996e-23,0.0019108089618384838
0.01305618416517973,0.0061417375691235065,-0.012886354699730873,0.007915711030364037,1.942967565002973e-24,0.0017345068044960499
0.012833445332944393,0.0056059290654957294,-0.014091814868152142,0.008190004155039787,1.2686189906828142e-25,0.001709664473310113
0.012888810597360134,0.0063421111553907394,-0.01354063767939806,0.00824011117219925,8.283175090288709e-27,0.0016288565238937736
0.013487053103744984,0.005868651904165745,-0.01334252767264843,0.007492510601878166,3.5312470207402366e-29,0.0014257418224588037
0.013163871131837368,0.005929554812610149,-0.013104934245347977,0.007538476027548313,2.305652047442965e-30,0.0013822782784700394
0.01365450955927372,0.005895138252526522,-0.013185678981244564,0.007979180663824081,1.505426110189898e-31,0.0013643107376992702
0.013085940852761269,0.006149349268525839,-0.013104126788675785,0.007810422219336033,9.829355926565316e-33,0.001319868490099907
0.01335795596241951,0.006598713342100382,-0.013898169621825218,0.007647393271327019,6.4178676293485594e-34,0.0013814641861245036
0.013092534616589546,0.005870523396879435,-0.013237168081104755,0.007650476880371571,4.1904086328988365e-35,0.001289948238991201
0.013429363258183002,0.005745531525462866,-0.013678348623216152,0.007591971196234226,2.7360377178795025e-36,0.0012425765162333846
0.013429363258183002,0.005745531525462866,-0.013678348623216152,0.007591971196234226,2.7360377178795025e-36,0.0012425765162333846
0.013227701187133789,0.005829910282045603,-0.012963331304490566,0.007061397656798363,1.7864370515575842e-37,0.0011030740570276976
0.013363718055188656,0.006111165042966604,-0.013643499463796616,0.007379487156867981,1.1664157584614663e-38,0.0010665084701031446
0.013184751383960247,0.0064874752424657345,-0.01326142717152834,0.0077231330797076225,7.615860971820375e-40,0.0010385250207036734
0.01341072004288435,0.005959017667919397,-0.014148346148431301,0.008177726529538631,2.5719957193359733e-05,0.0010273355292156339
0.013584530912339687,0.005654509644955397,-0.013867398723959923,0.0077591342851519585,1.6793293298178469e-06,0.001010648556984961
0.013569490984082222,0.0055564288049936295,-0.014137299731373787,0.0076522501185536385,1.0964821228753863e-07,0.0009437809931114316
0.013951019383966923,0.006181451492011547,-0.01380173396319151,0.008628522977232933,7.1592447525858915e-09,0.0008650810923427343
0.01381584070622921,0.006754590664058924,-0.014551552012562752,0.008557606488466263,4.674474696209074e-10,0.0008401330560445786
0.013756741769611835,0.005807728040963411,-0.01384473405778408,0.007857765071094036,3.0520978105963437e-11,0.0007656746893189847
0.013513159938156605,0.005882485304027796,-0.014078512787818909,0.008126613683998585,1.9928017569448286e-12,0.0007682073628529906
0.014060726389288902,0.005471079144626856,-0.014143656007945538,0.00801923405379057,1.301157125837074e-13,0.0007058900664560497
0.013744107447564602,0.005860351491719484,-0.014247672632336617,0.007665157318115234,8.4956269585457e-15,0.0006184374215081334
0.014153892174363136,0.0070440154522657394,-0.0142170749604702,0.007833300158381462,5.547037188880345e-16,0.0006448639323934913
0.01361683290451765,0.00603498937562108,-0.014235400594770908,0.00851241685450077,3.621818914741802e-17,0.0006527428631670773
0.014169690199196339,0.005767488852143288,-0.013869917951524258,0.008848374709486961,2.3647888097148265e-18,0.0006115061114542186
0.013796520419418812,0.005659984890371561,-0.014056789688766003,0.008098620921373367,1.5440380788583267e-19,0.0006274490733630955
0.014094352722167969,0.006150580942630768,-0.014325127936899662,0.007933353073894978,1.0081465663881761e-20,0.0005858081858605146
0.013369397260248661,0.006733760237693787,-0.01441032811999321,0.007854478433728218,6.582476526653074e-22,0.0006207248079590499
0.014034018851816654,0.006195808295160532,-0.014145957306027412,0.008054730482399464,4.297887129954497e-23,0.0006115434225648642
0.013933061622083187,0.005641302093863487,-0.014559097588062286,0.008201584219932556,2.8062131232056685e-24,0.0005928886821493506
0.014095164835453033,0.005470214411616325,-0.014364751055836678,0.008492749184370041,1.8322566561967668e-25,0.0005370437866076827
0.013976224698126316,0.005552302580326796,-0.014152800664305687,0.00912291556596756,1.1963326768941392e-26,0.0005482357228174806
0.01408002432435751,0.006090268492698669,-0.014085006900131702,0.008797233924269676,5.100154391494597e-29,0.0005420270026661456
0.014312637969851494,0.006066802889108658,-0.014776445925235748,0.00905340164899826,3.330036317348403e-30,0.0005116696702316403
0.01424852479249239,0.00548981549218297,-0.014330016449093819,0.008708663284778595,2.17427593058885e-31,0.0005199036677367985
0.014404402114450932,0.005833294242620468,-0.014422204345464706,0.008268672972917557,1.4196468784767783e-32,0.0004730618675239384
0.01415491383522749,0.005912800785154104,-0.013903075829148293,0.008698208257555962,9.269278969817568e-34,0.0005079909460619092
0.014708039350807667,0.006244336720556021,-0.0139676034450531,0.008934871293604374,6.052176732143145e-35,0.00046905214549042284
0.014364740811288357,0.005791081581264734,-0.013719713315367699,0.008708992972970009,3.9516387105219446e-36,0.00043185101822018623
0.014364740811288357,0.005791081581264734,-0.013719713315367699,0.008708992972970009,3.9516387105219446e-36,0.00043185101822018623
0.014623602852225304,0.005715002305805683,-0.014083083719015121,0.008659501560032368,2.580137546425632e-37,0.00039986736373975873
0.014594657346606255,0.005312458612024784,-0.013889852911233902,0.00856201071292162,1.684645497966381e-38,0.0003722819674294442
0.01473370660096407,0.005846469197422266,-0.014543564058840275,0.008051510900259018,1.0999534334671581e-39,0.00034825754119083285
0.014732453040778637,0.006259359885007143,-0.014139020815491676,0.00803213007748127,7.181934889357552e-41,0.00037429260555654764
0.015161963179707527,0.00559031218290329,-0.014075241051614285,0.008552157320082188,4.688744661630838e-42,0.0003593786677811295
0.014941025525331497,0.005477783270180225,-0.013304503634572029,0.008849411271512508,3.0548306522281012e-43,0.00034037631121464074
0.015349548310041428,0.005729105789214373,-0.014199404045939445,0.008633144199848175,1.961817850054744e-44,0.0003229496069252491
0.014853639528155327,0.00563077861443162,-0.01411042083054781,0.00891746487468481,1.401298464324817e-45,0.00030719913775101304
0.015654858201742172,0.005958993453532457,-0.014735939912497997,0.008933691307902336,0.0,0.00029291186365298927
0.015171846374869347,0.0058500198647379875,-0.01385881844907999,0.008992472663521767,0.0,0.0002798954665195197
0.015095321461558342,0.005695713683962822,-0.014183325693011284,0.00914592482149601,0.0,0.00026826499379239976
0.015065819956362247,0.005505618639290333,-0.013612371869385242,0.00950321089476347,0.0,0.00011791147699113935
0.015569934621453285,0.005395954009145498,-0.014475863426923752,0.00898309238255024,0.0,0.00010244020813843235
0.015557872131466866,0.006133318413048983,-0.013907678425312042,0.008735178969800472,0.0,9.637876792112365e-05
0.015572595410048962,0.005912802182137966,-0.014455800876021385,0.00934585276991129,0.0,9.144339128397405e-05
0.015478228218853474,0.005773113574832678,-0.013978471979498863,0.009485673159360886,0.0,8.701877959538251e-05
0.015245052985846996,0.005217188503593206,-0.014457328245043755,0.008775347843766212,0.0,8.300467015942559e-05
0.01575568877160549,0.00577253382652998,-0.013597351498901844,0.009045221842825413,0.0,7.934486347949132e-05
0.01564762182533741,0.005704178474843502,-0.01405580434948206,0.009560237638652325,0.0,7.599416858283803e-05
0.016062056645751,0.005960070062428713,-0.013619341887533665,0.009072673507034779,0.0,7.291509245987982e-05
0.015654658898711205,0.005552929360419512,-0.014463136903941631,0.008844909258186817,0.0,4.416870069690049e-05
0.015577408485114574,0.0054765865206718445,-0.014105025678873062,0.008837797679007053,0.0,3.254542389186099e-05
0.016128186136484146,0.005711380857974291,-0.01361211109906435,0.009322542697191238,0.0,2.1249834389891475e-06
0.015893759205937386,0.0060713039711117744,-0.014022829942405224,0.010076982900500298,0.0,1.387462305046938e-07
0.015509010292589664,0.005436821840703487,-0.0135183809325099,0.009668025188148022,0.0,9.059138328382232e-09
0.015509010292589664,0.005436821840703487,-0.0135183809325099,0.009668025188148022,0.0,9.059138328382232e-09
0.01621195860207081,0.005484260618686676,-0.013896968215703964,0.008594878949224949,-0.0004232609935570508,3.8620519976495515e-11
0.01621195860207081,0.005484260618686676,-0.013896968215703964,0.008594878949224949,-0.0004232609935570508,3.8620519976495515e-11
0.016765136271715164,0.00591819453984499,-0.01406986452639103,0.008838219568133354,-0.0004878095060121268,2.5216441348202556e-12
0.01569567434489727,0.006006389390677214,-0.013996344059705734,0.00813690759241581,-0.0005295702139846981,1.6464534271544429e-13
0.016437992453575134,0.006009336560964584,-0.013939857482910156,0.008913611061871052,-0.0004876043531112373,1.0750164389857104e-14
0.016436867415905,0.005854019895195961,-0.013697602786123753,0.00917381327599287,-0.0004836179141420871,-0.0005375774344429374
0.016271818429231644,0.0057939947582781315,-0.014043022878468037,0.008645009249448776,-0.00047964786062948406,-0.0009136378648690879
0.016326885670423508,0.006149827968329191,-0.013895627111196518,0.008855762891471386,-0.0004476965987123549,-0.0009324702550657094
0.01636277139186859,0.006371531635522842,-0.014473207294940948,0.00900434609502554,-0.00044713058741763234,-0.000820928777102381
0.01659134030342102,0.006195510737597942,-0.014486883766949177,0.009165866300463676,-0.0004460889904294163,-0.0007266917382366955
0.01636948063969612,0.00624277675524354,-0.01381591148674488,0.008973659947514534,-0.00042169771040789783,-0.0007377402507700026
0.01710219867527485,0.005584369413554668,-0.014298342168331146,0.009500356391072273,-0.00039846522849984467,-0.0007085187244229019
0.016697430983185768,0.00589062599465251,-0.013922134414315224,0.00914066657423973,-0.0003944238123949617,-0.0007345064077526331
0.016755221411585808,0.006361685693264008,-0.014757758006453514,0.009839911013841629,-0.0003658294735942036,-0.0008424664847552776
0.016838764771819115,0.005956951528787613,-0.014550670981407166,0.009524903260171413,-0.00033851503394544125,-0.0014503828715533018
0.01648869924247265,0.00606056023389101,-0.014503363519906998,0.009436496533453465,-0.00034539290936663747,-0.0015934881521388888
0.016978317871689796,0.005588549189269543,-0.014460458420217037,0.009432259947061539,-0.00035096314968541265,-0.0019376648124307394
0.016917698085308075,0.00635093217715621,-0.01458667777478695,0.009422270581126213,-0.00033126099151559174,-0.00188297382555902
0.017015203833580017,0.0062003713101148605,-0.014777329750359058,0.009194092825055122,-0.0003606514073908329,-0.0015996635193005204
0.017078852280974388,0.005882558412849903,-0.015312716364860535,0.009171544574201107,-0.00034411196247674525,-0.0013992387102916837
0.01671648770570755,0.005575475748628378,-0.014862093143165112,0.010082186199724674,-0.00032648068736307323,-0.0013162768445909023
0.017348051071166992,0.00574108399450779,-0.014458968304097652,0.009396825917065144,-0.0003320464165881276,-0.0014863427495583892
0.017329799011349678,0.005893647205084562,-0.015115136280655861,0.009706062264740467,-0.0003228203859180212,-0.002425448503345251
0.017329799011349678,0.005893647205084562,-0.015115136280655861,0.009706062264740467,-0.0003228203859180212,-0.002425448503345251
0.017070287838578224,0.00554366409778595,-0.014402058906853199,0.008992902934551239,-0.00029730924870818853,-0.002490862738341093
0.017582949250936508,0.0060411905869841576,-0.014720659703016281,0.009278424084186554,-0.00030458238325081766,-0.0022690733894705772
0.01721109077334404,0.0065374309197068214,-0.014447118155658245,0.009482039138674736,-0.0002869470918085426,-0.0022293501533567905
0.017395582050085068,0.006144313141703606,-0.014971809461712837,0.008842822164297104,-0.0003096011932939291,-0.00232441583648324
0.017395582050085068,0.006144313141703606,-0.014971809461712837,0.008842822164297104,-0.0003096011932939291,-0.00232441583648324
0.017287632450461388,0.005714197643101215,-0.014660421758890152,0.008968014270067215,-0.0003045706544071436,-0.002289795083925128
0.017209015786647797,0.005554285366088152,-0.015293871983885765,0.009681609459221363,-0.0003125705989077687,-0.002459124894812703
0.01758458837866783,0.005658375099301338,-0.01461105328053236,0.009656109847128391,-0.000318560196319595,-0.0025758035480976105
0.01730092614889145,0.0055780126713216305,-0.014884469099342823,0.009532919153571129,-0.00030458232504315674,-0.0024534952826797962
0.01778227649629116,0.00619529327377677,-0.014478528872132301,0.009862620383501053,-0.00031090277479961514,-0.0025350507348775864
0.018214544281363487,0.005741075612604618,-0.015173754654824734,0.009665229357779026,-0.00031610828591510653,-0.002401184057816863
0.01738649234175682,0.005788194015622139,-0.014167922548949718,0.009558890014886856,-0.0003039933799300343,-0.002242997521534562
0.01758182793855667,0.005515115801244974,-0.015171447768807411,0.009735345840454102,-0.0002917524834629148,-0.0024676385801285505
0.018130868673324585,0.005844178143888712,-0.014696522615849972,0.009226583875715733,-0.0003507293004076928,-0.003394670318812132
0.018191656097769737,0.00593274412676692,-0.015236012637615204,0.009165870025753975,-0.0003471295640338212,-0.004060158971697092
0.01845434680581093,0.005810403730720282,-0.014651624485850334,0.009877344593405724,-0.00032368412939831614,-0.0044183311983942986
0.017375726252794266,0.005517276935279369,-0.015195915475487709,0.00975819956511259,-0.00035423896042630076,-0.004362086299806833
0.018291546031832695,0.00565335014835,-0.014199452474713326,0.009459385648369789,-0.0003391151549294591,-0.0035721436142921448
0.017997611314058304,0.006084790453314781,-0.014969296753406525,0.009798972867429256,-0.00031950781703926623,-0.0032204058952629566
0.016029005870223045,0.005663021933287382,-0.01467884425073862,0.009783647954463959,-0.0003387427132111043,-0.0033201854676008224
0.018837945535779,0.005770205054432154,-0.014912606216967106,0.01028140727430582,-0.0003324708086438477,-0.0037066778168082237
0.018941443413496017,0.005602101795375347,-0.015084212645888329,0.010998722165822983,-0.0003165222005918622,-0.003968785982578993
0.018326248973608017,0.005478110630065203,-0.015258378349244595,0.010399553924798965,-0.00030142348259687424,-0.0040292078629136086
0.01849544793367386,0.005493327043950558,-0.014921016059815884,0.010200655087828636,-0.0003077378496527672,-0.003936311230063438
0.01841934211552143,0.006059220526367426,-0.015005150809884071,0.010289059951901436,-0.0003130227269139141,-0.004168662242591381
0.01870330236852169,0.005715213716030121,-0.015302570536732674,0.010634665377438068,-0.0003011495864484459,-0.00412596482783556
0.018677471205592155,0.005305287428200245,-0.015114853158593178,0.011173940263688564,-0.0002891331387218088,-0.004311379510909319
0.018856434151530266,0.005128160584717989,-0.015234379097819328,0.010508585721254349,-0.00029380666092038155,-0.004200355149805546
0.01908273436129093,0.005458361003547907,-0.01523485966026783,0.010621698573231697,-0.0002738010080065578,-0.004601648077368736
0.01809503696858883,0.0058053284883499146,-0.014781158417463303,0.010552361607551575,-0.0002581544977147132,-0.004583215806633234
0.018726985901594162,0.005514116026461124,-0.015278825536370277,0.010520056821405888,-0.0002679490717127919,-0.0048303729854524136
0.01903342828154564,0.005563084501773119,-0.015184097923338413,0.010984433814883232,-0.0002762594085652381,-0.004757108632475138
0.018899062648415565,0.0053139240480959415,-0.015569916926324368,0.010685085318982601,-0.00026418111519888043,-0.004762264899909496
0.018899062648415565,0.0053139240480959415,-0.015569916926324368,0.010685085318982601,-0.00026418111519888043,-0.004762264899909496
0.019542278721928596,0.005049841944128275,-0.015067643485963345,0.010627800598740578,-0.00025194702902808785,-0.004508863668888807
0.019348738715052605,0.005876549519598484,-0.015425963327288628,0.010411557741463184,-0.0002780967624858022,-0.004407486412674189
0.0191122367978096,0.005557025317102671,-0.014874035492539406,0.0106397345662117,-0.0002686726802494377,-0.00461473548784852
0.019403226673603058,0.00530574657022953,-0.015573686920106411,0.010374462231993675,-0.0002897602680604905,-0.005296178162097931
0.019374368712306023,0.00506365904584527,-0.01535018254071474,0.010402954183518887,-0.0002827706921380013,-0.005190606229007244
0.019490376114845276,0.005349493119865656,-0.015282833017408848,0.009965273551642895,-0.0002723593497648835,-0.005389613565057516
0.019976621493697166,0.005556538701057434,-0.015015567652881145,0.010211210697889328,-0.00031955738086253405,-0.005181883927434683
0.01985452137887478,0.0055133081041276455,-0.015527765266597271,0.010149778798222542,-0.000316122081130743,-0.005231155082583427
0.019674185663461685,0.005766876973211765,-0.015560653060674667,0.010309859178960323,-0.00032535570790059865,-0.005446634721010923
0.019760051742196083,0.005386624019593,-0.015024508349597454,0.010997418314218521,-0.0003319258976262063,-0.0055032093077898026
0.019996577873826027,0.005301293917000294,-0.015658225864171982,0.010316227562725544,-0.00035295236739329994,-0.005459103267639875
0.02017664909362793,0.004996842239052057,-0.015542360953986645,0.009997814893722534,-0.0003457732091192156,-0.005311759188771248
0.019874360412359238,0.005155305843800306,-0.015911178663372993,0.010584772564470768,-0.0003722409310285002,-0.005538344383239746
0.020382437855005264,0.00548758776858449,-0.015087418258190155,0.010809235274791718,-0.00035750475944951177,-0.005325817037373781
0.020515959709882736,0.005421709269285202,-0.015690360218286514,0.011121905408799648,-0.0005148987984284759,-0.0050989980809390545
0.019742535427212715,0.005060946568846703,-0.014942287467420101,0.011047675274312496,-0.0005430425517261028,-0.005586674902588129
0.02034745365381241,0.005211088806390762,-0.015710374340415,0.010837766341865063,-0.0005135172978043556,-0.005459480453282595
0.02038651704788208,0.005531699862331152,-0.01533668115735054,0.010962116532027721,-0.0004702169098891318,-0.005415419582277536
0.020225053653120995,0.005259730853140354,-0.01593717932701111,0.011213832534849644,-0.0004995841882191598,-0.00550907664000988
0.020116988569498062,0.005848242435604334,-0.016048867255449295,0.010417515411973,-0.0004992744070477784,-0.005980419460684061
0.020688550546765327,0.005339771043509245,-0.0159167293459177,0.010968368500471115,-0.0004948353162035346,-0.005694447550922632
0.02049936167895794,0.005001937039196491,-0.01599854603409767,0.01086406409740448,-0.0004648325266316533,-0.00581271992996335
0.020709354430437088,0.005377941764891148,-0.01590798795223236,0.010811762884259224,-0.0005013784975744784,-0.00589993130415678
0.020780766382813454,0.006050451193004847,-0.015439632348716259,0.010425779968500137,-0.0004957363707944751,-0.005904873833060265
0.020780766382813454,0.006050451193004847,-0.015439632348716259,0.010425779968500137,-0.0004957363707944751,-0.005904873833060265
0.02091430500149727,0.0053458260372281075,-0.016021471470594406,0.010510302148759365,-0.0005220577004365623,-0.005880885757505894
0.021022699773311615,0.005469162482768297,-0.015583540312945843,0.010837668552994728,-0.0005244727362878621,-0.006275995168834925
0.021158577874302864,0.005348446313291788,-0.01629026047885418,0.010960697196424007,-0.0006242517847567797,-0.006219801492989063
0.021158577874302864,0.005348446313291788,-0.01629026047885418,0.010960697196424007,-0.0006242517847567797,-0.006219801492989063
0.02105366624891758,0.005844260565936565,-0.016157975420355797,0.01088543701916933,-0.0006471367669291794,-0.006060139741748571
0.021420300006866455,0.005927173886448145,-0.01669410802423954,0.010884806513786316,-0.0006255623884499073,-0.006064756773412228
0.021700803190469742,0.005478632170706987,-0.016190875321626663,0.011131532490253448,-0.0006088793743401766,-0.006017982494086027
0.02149692364037037,0.005563682410866022,-0.016703443601727486,0.010279947891831398,-0.000592464697547257,-0.006449094507843256
0.02130913734436035,0.0052049653604626656,-0.016252992674708366,0.010690828785300255,-0.000581506232265383,-0.006141355726867914
0.020858820527791977,0.005439283791929483,-0.016858093440532684,0.01077058631926775,-0.000569764815736562,-0.005960248876363039
0.021817993372678757,0.005735058803111315,-0.016472602263092995,0.010664038360118866,-0.0005674366839230061,-0.006011995952576399
0.022001342847943306,0.00547383027151227,-0.016538087278604507,0.011104805395007133,-0.0005383663228712976,-0.006865404546260834
0.02199610322713852,0.005042019300162792,-0.016785291954874992,0.0109434574842453,-0.000566114904358983,-0.007000033278018236
0.021585455164313316,0.005197104997932911,-0.01665160432457924,0.01074159238487482,-0.0005865158746019006,-0.006716534495353699
0.021985936909914017,0.005549764260649681,-0.01762389950454235,0.011262272484600544,-0.0005936211091466248,-0.006672282237559557
0.02136489748954773,0.0053969938308000565,-0.017117099836468697,0.011083138175308704,-0.0005818271893076599,-0.006788198370486498
0.02078523486852646,0.005790873430669308,-0.01717912219464779,0.011186880990862846,-0.0007042940706014633,-0.006956515833735466
0.021372396498918533,0.005327502265572548,-0.017283141613006592,0.011233659461140633,-0.0006324138958007097,-0.006555939558893442
0.022084183990955353,0.005787793546915054,-0.016924764961004257,0.010727230459451675,-0.0006368174217641354,-0.006669152993708849
0.021925384178757668,0.0053770835511386395,-0.01761910878121853,0.011183647438883781,-0.0005917549133300781,-0.00679463567212224
0.021453170105814934,0.005493965465575457,-0.017016740515828133,0.011236383579671383,-0.0005347076221369207,-0.006916750688105822
0.021772412583231926,0.005769155919551849,-0.017123760655522346,0.011160043068230152,-0.0005618481081910431,-0.00668377336114645
0.02270161360502243,0.005555367562919855,-0.0171711016446352,0.011518704704940319,-0.0005203260225243866,-0.006382283754646778
0.021934498101472855,0.005527367815375328,-0.017229225486516953,0.011030701920390129,-0.000540183566045016,-0.006738935597240925
0.0213233083486557,0.005443959031254053,-0.01768489181995392,0.011025194078683853,-0.0005100006237626076,-0.006832737009972334
0.021957581862807274,0.005806246772408485,-0.01744496077299118,0.010838470421731472,-0.00043123934301547706,-0.006979850120842457
0.021844858303666115,0.005797489546239376,-0.017509276047348976,0.011760368943214417,-0.0003910601662937552,-0.007347143720835447
0.02206212468445301,0.005230024456977844,-0.017290590330958366,0.011301123537123203,-0.0003596012538764626,-0.007096186745911837
0.022199910134077072,0.005145581439137459,-0.017777299508452415,0.011142502538859844,-0.00038188224425539374,-0.00784272886812687
0.022149870172142982,0.005091118160635233,-0.017037857323884964,0.011593703180551529,-0.00037085366784594953,-0.007781645283102989
0.022052472457289696,0.0057704029604792595,-0.017023084685206413,0.010856032371520996,-0.0003479422884993255,-0.007147558964788914
0.022052472457289696,0.0057704029604792595,-0.017023084685206413,0.010856032371520996,-0.0003479422884993255,-0.007147558964788914
0.021883893758058548,0.005859274882823229,-0.016937490552663803,0.011623699218034744,-0.0003269313892815262,-0.007333945482969284
0.022189565002918243,0.00545552046969533,-0.017140032723546028,0.011072543449699879,-0.0003527057997416705,-0.007977833040058613
0.02231055498123169,0.005046119913458824,-0.017468659207224846,0.010753490030765533,-0.00033975980477407575,-0.007907390594482422
0.021931488066911697,0.00516127422451973,-0.01681380532681942,0.011664272285997868,-0.00036266152164898813,-0.0076115932315588
0.022072426974773407,0.005438936874270439,-0.01717083901166916,0.010988674126565456,-0.0003504949272610247,-0.007155680563300848
0.02210669219493866,0.00522666284814477,-0.016893794760107994,0.01115473173558712,-0.000334810494678095,-0.007863237522542477
0.02218502387404442,0.00516149029135704,-0.017451608553528786,0.01133334543555975,-0.00036287461989559233,-0.0077900392934679985
0.02223426103591919,0.005247881636023521,-0.01762918196618557,0.011691253632307053,-0.0003391250502318144,-0.007844468578696251
0.022209974005818367,0.005496724508702755,-0.016727613285183907,0.011964692734181881,-0.00037007182254455984,-0.008691970258951187
0.022189820185303688,0.005206777714192867,-0.017268037423491478,0.012120657600462437,-0.0003533029230311513,-0.008940983563661575
0.02214125357568264,0.005008048843592405,-0.017297830432653427,0.011995792388916016,-0.0003320547111798078,-0.008527858182787895
0.022492242977023125,0.005828175228089094,-0.017524536699056625,0.012160167098045349,-0.0003512594266794622,-0.00844795722514391
0.022430647164583206,0.005538643803447485,-0.017784152179956436,0.01274842582643032,-0.00034409185172989964,-0.008581623435020447
0.021026020869612694,0.005696306936442852,-0.016592852771282196,0.012839952483773232,-0.0003674571053124964,-0.008196265436708927
0.02251068502664566,0.005248642060905695,-0.0175013430416584,0.012128054164350033,-0.00035492840106599033,-0.00860870722681284
0.022917794063687325,0.005443485453724861,-0.017486998811364174,0.011934292502701283,-0.00039506860775873065,-0.008957773447036743
0.023020144551992416,0.00553871737793088,-0.01705033890902996,0.011731340549886227,-0.00041381255141459405,-0.00851276982575655
0.022800380364060402,0.005728376563638449,-0.0175645649433136,0.012042210437357426,-0.0003822511644102633,-0.008130314759910107
0.022595977410674095,0.005493693053722382,-0.016941018402576447,0.011912881396710873,-0.000418031559092924,-0.007914472371339798
0.022534288465976715,0.005592562258243561,-0.01758347451686859,0.012144244275987148,-0.00042367129935882986,-0.008119886741042137
0.02261018194258213,0.0052060335874557495,-0.017422854900360107,0.012632671743631363,-0.0004244312003720552,-0.008408419787883759
0.023970533162355423,0.005470310337841511,-0.01769103668630123,0.012432001531124115,-0.000428416853537783,-0.00862094946205616
0.023100843653082848,0.00530645065009594,-0.01674656756222248,0.011847150512039661,-0.0004065849061589688,-0.008344372734427452
0.02343636006116867,0.005293330177664757,-0.017724886536598206,0.012233852408826351,-0.0004899237537756562,-0.008195938542485237
0.022421862930059433,0.005106301512569189,-0.017740003764629364,0.012833059765398502,-0.0005267861415632069,-0.008821040391921997
0.022421862930059433,0.005106301512569189,-0.017740003764629364,0.012833059765398502,-0.0005267861415632069,-0.008821040391921997
0.023265933617949486,0.005294179078191519,-0.01723526418209076,0.012434248812496662,-0.0004900094354525208,-0.008753064088523388
0.023854991421103477,0.005247493274509907,-0.017625093460083008,0.01261196006089449,-0.000504859839566052,-0.008366037160158157
0.023823825642466545,0.005953629966825247,-0.017160942777991295,0.012259173206984997,-0.0004832001286558807,-0.008637060411274433
0.023220686241984367,0.005420013330876827,-0.017634080722928047,0.013033404015004635,-0.0004970337031409144,-0.008889601565897465
0.023607326671481133,0.005907575134187937,-0.01783444546163082,0.012707528658211231,-0.000558435742277652,-0.009201548993587494
0.024325840175151825,0.005465638358145952,-0.01735987886786461,0.013104117475450039,-0.0006648186827078462,-0.008783087134361267
0.024530094116926193,0.005526786204427481,-0.018035942688584328,0.012815247289836407,-0.0006955911521799862,-0.008527670055627823
0.02435181848704815,0.005835770163685083,-0.018428253009915352,0.012916040606796741,-0.0007048153202049434,-0.009301663376390934
0.023349488154053688,0.005039999261498451,-0.017622433602809906,0.01313844881951809,-0.0006621981738135219,-0.008918561972677708
0.023760922253131866,0.0041588107123970985,-0.01796739175915718,0.012583772651851177,-0.0008614606340415776,-0.009447469376027584
0.024005137383937836,0.0038186563178896904,-0.017616908997297287,0.013027828186750412,-0.0008676716242916882,-0.008845399133861065
0.024574246257543564,0.004389854148030281,-0.018106432631611824,0.012553351931273937,-0.0007631925982423127,-0.008677839301526546
0.024744972586631775,0.004732822999358177,-0.01810980960726738,0.013063034974038601,-0.0007652452914044261,-0.008843638002872467
0.02462540939450264,0.0047811842523515224,-0.017774883657693863,0.0124457236379385,-0.0006938529550097883,-0.00843178853392601
0.02449715882539749,0.0046987649984657764,-0.018458349630236626,0.012986416928470135,-0.0006687244167551398,-0.008446542546153069
0.024522457271814346,0.004495744593441486,-0.018134286627173424,0.013580931350588799,-0.0006474278634414077,-0.00870472751557827
0.0244539063423872,0.004068752750754356,-0.017932111397385597,0.013576466590166092,-0.0005963105359114707,-0.008836371824145317
0.0246150940656662,0.004439536482095718,-0.018412094563245773,0.013161632232367992,-0.0005169114447198808,-0.009417334571480751
0.02456054277718067,0.0047136214561760426,-0.01773979887366295,0.012808365747332573,-0.0005288427346386015,-0.008556044660508633
0.024874037131667137,0.0044838483445346355,-0.018964389339089394,0.013165481388568878,-0.0005003676633350551,-0.008525481447577477
0.025711510330438614,0.0043877363204956055,-0.018645836040377617,0.013245834037661552,-0.0004961329977959394,-0.009128119796514511
0.02510281652212143,0.004423753824084997,-0.018036622554063797,0.012838521972298622,-0.0004911604337394238,-0.009087513200938702
0.024945324286818504,0.00480478722602129,-0.018184009939432144,0.01285378634929657,-0.0005798419588245451,-0.009143225848674774
0.02487042173743248,0.004656196106225252,-0.017959333956241608,0.012861963361501694,-0.0006962472689338028,-0.009089108556509018
0.02507692575454712,0.00445628771558404,-0.018329374492168427,0.013088086619973183,-0.0007251737988553941,-0.008969824761152267
0.025051286444067955,0.004450365900993347,-0.01842588745057583,0.012953815050423145,-0.0007080050418153405,-0.00913283508270979
0.025802001357078552,0.004601587541401386,-0.018605774268507957,0.013361038640141487,-0.0006826772005297244,-0.009255335666239262
0.02604578249156475,0.004620303399860859,-0.018514564260840416,0.01342131569981575,-0.0008321702480316162,-0.009555322118103504
0.025601305067539215,0.004639108665287495,-0.017707576975226402,0.013080076314508915,-0.0008374924655072391,-0.009463874623179436
0.025601305067539215,0.004639108665287495,-0.017707576975226402,0.013080076314508915,-0.0008374924655072391,-0.009463874623179436
0.025649793446063995,0.004974155221134424,-0.018108714371919632,0.013126335106790066,-0.0007544609834440053,-0.00950996857136488
0.02587433159351349,0.004528730642050505,-0.018360884860157967,0.012614944018423557,-0.0007661778945475817,-0.009106005541980267
0.025320403277873993,0.004549051634967327,-0.018032699823379517,0.01295993011444807,-0.0006890875520184636,-0.009177366271615028
0.026135724037885666,0.004365012049674988,-0.01842154562473297,0.012791815213859081,-0.0007038078038021922,-0.009555405005812645
0.026509534567594528,0.004548172932118177,-0.01817987486720085,0.013769648037850857,-0.0006509082159027457,-0.009970367886126041
0.026102598756551743,0.004923174157738686,-0.018147272989153862,0.013865836896002293,-0.0005946196615695953,-0.009815477766096592
0.026691216975450516,0.004912031814455986,-0.018717128783464432,0.014119835570454597,-0.0005773283774033189,-0.01028810627758503
0.02698514051735401,0.0046206251718103886,-0.018060125410556793,0.013827985152602196,-0.0005623964825645089,-0.0098845474421978
0.027255546301603317,0.005056827329099178,-0.018210487440228462,0.013665995560586452,-0.0005744507070630789,-0.009782463312149048
0.02723231352865696,0.004892092663794756,-0.018761446699500084,0.013263582251966,-0.0005442496621981263,-0.0103080365806818
0.027127079665660858,0.004959772806614637,-0.018242493271827698,0.013494989834725857,-0.0005021104007028043,-0.010022343136370182
0.027088889852166176,0.0047614392824471,-0.01846626214683056,0.01389611791819334,-0.0005268539534881711,-0.010707586072385311
0.027451515197753906,0.004815530963242054,-0.01807590201497078,0.013751786202192307,-0.0004946712870150805,-0.010940499603748322
0.02798752672970295,0.0052525377832353115,-0.0176845733076334,0.014135955832898617,-0.000491719925776124,-0.011020294390618801
0.028326978906989098,0.004976412281394005,-0.018263261765241623,0.013466344214975834,-0.00045341229997575283,-0.010406466200947762
0.02778603322803974,0.004892796743661165,-0.018264083191752434,0.013022675178945065,-0.0004523552779573947,-0.01023072749376297
0.026399947702884674,0.004900933243334293,-0.01811237260699272,0.012515311129391193,-0.0004506973491515964,-0.010291889309883118
0.028186464682221413,0.0047521451488137245,-0.01847645826637745,0.013332940638065338,-0.0004181435506325215,-0.010508225299417973
0.028480129316449165,0.0046870470978319645,-0.01806274801492691,0.01294256467372179,-0.0004440811462700367,-0.01063760556280613
0.028119686990976334,0.00505673186853528,-0.01867922954261303,0.013506426475942135,-0.000448548118583858,-0.010699727572500706
0.028915854170918465,0.004911354742944241,-0.01812986098229885,0.013874491676688194,-0.0004254947416484356,-0.010576168075203896
0.028540531173348427,0.005186324007809162,-0.018551187589764595,0.013718253001570702,-0.00046338068204931915,-0.010682294145226479
0.02778109908103943,0.0049878014251589775,-0.018317339941859245,0.014509458094835281,-0.0005036573274992406,-0.010536572895944118
0.026794686913490295,0.004789767786860466,-0.018066998571157455,0.014368180185556412,-0.0005280565237626433,-0.010574023239314556
0.027930663898587227,0.005207389127463102,-0.01877458207309246,0.014768729917705059,-0.000504275260027498,-0.010632527060806751
0.028660908341407776,0.0051343548111617565,-0.0194149911403656,0.014346903190016747,-0.0005171222728677094,-0.010395972989499569
0.028660908341407776,0.0051343548111617565,-0.0194149911403656,0.014346903190016747,-0.0005171222728677094,-0.010395972989499569
0.028179563581943512,0.004968961700797081,-0.018784623593091965,0.014901092275977135,-0.0004967760178260505,-0.01030011661350727
0.0282655768096447,0.005292806774377823,-0.019096823409199715,0.01448203343898058,-0.0006555289146490395,-0.010720119811594486
0.02836986631155014,0.004962008912116289,-0.018796855583786964,0.014211036264896393,-0.0005981234135106206,-0.010324615053832531
0.028125036507844925,0.005117337219417095,-0.0183135736733675,0.013679582625627518,-0.0006276603671722114,-0.010373108088970184
0.028424078598618507,0.005469639785587788,-0.018940310925245285,0.01389540545642376,-0.0006136316224001348,-0.010312165133655071
0.028275003656744957,0.005291643552482128,-0.01866723783314228,0.013893506489694118,-0.0005968440091237426,-0.010319209657609463
0.028516439720988274,0.005369321908801794,-0.019249584525823593,0.014263680204749107,-0.0005476286169141531,-0.010396053083240986
0.028763609007000923,0.005442045163363218,-0.019160253927111626,0.01453870628029108,-0.0005708442186005414,-0.01065676286816597
0.028740091249346733,0.004975376185029745,-0.018269822001457214,0.014653763733804226,-0.0005329385166987777,-0.010645189322531223
0.028841497376561165,0.00508045544847846,-0.019273672252893448,0.014400919899344444,-0.0005165297770872712,-0.010817253962159157
0.028576858341693878,0.004991107154637575,-0.0200804453343153,0.014417894184589386,-0.0005129798664711416,-0.011026537045836449
0.02875378355383873,0.005485869478434324,-0.01920853555202484,0.014461821876466274,-0.0005057743401266634,-0.01121397502720356
0.028997104614973068,0.005209691356867552,-0.018944695591926575,0.014599311165511608,-0.000521687266882509,-0.011374161578714848
0.028635617345571518,0.005020746961236,-0.01969875767827034,0.014673182740807533,-0.0004981709062121809,-0.011318428441882133
0.027576616033911705,0.005023503676056862,-0.019013671204447746,0.014369041658937931,-0.0005241713370196521,-0.009735110215842724
0.02923850528895855,0.004887144546955824,-0.018635645508766174,0.013840888626873493,-0.0004954315372742712,-0.010752714239060879
0.029735244810581207,0.005280314013361931,-0.019228527322411537,0.01374420989304781,-0.0005871396861039102,-0.010974341072142124
0.03022359125316143,0.005416150204837322,-0.01932510919868946,0.014112956821918488,-0.0006264433613978326,-0.011137119494378567
0.02933681197464466,0.005389392841607332,-0.01974581740796566,0.014302552677690983,-0.0006553850835189223,-0.01083517074584961
0.028361698612570763,0.005666141398251057,-0.019353453069925308,0.014463992789387703,-0.0006404767045751214,-0.010923448950052261
0.030004359781742096,0.005326564889401197,-0.019279126077890396,0.014670098200440407,-0.0006567000527866185,-0.010416909120976925
0.029224306344985962,0.005250217858701944,-0.01972290314733982,0.014444592408835888,-0.0006445097969844937,-0.010746462270617485
0.02928433008491993,0.005140181630849838,-0.019012292847037315,0.014525852166116238,-0.000622713181655854,-0.010896674357354641
0.030107898637652397,0.005452323239296675,-0.019460218027234077,0.014866081066429615,-0.0005443615955300629,-0.011617191135883331
0.030107898637652397,0.005452323239296675,-0.019460218027234077,0.014866081066429615,-0.0005443615955300629,-0.011617191135883331
0.02944372594356537,0.005141286179423332,-0.018652936443686485,0.014953362755477428,-0.0005550027708522975,-0.011488745920360088
0.029270756989717484,0.005014536436647177,-0.019025204703211784,0.014833561144769192,-0.0005271785776130855,-0.011100164614617825
0.029962044209241867,0.005657737143337727,-0.019077353179454803,0.015326280146837234,-0.0005387178971432149,-0.011005694046616554
0.02989196591079235,0.00550672085955739,-0.018590159714221954,0.015054244548082352,-0.000516046304255724,-0.01128686498850584
0.02989196591079235,0.00550672085955739,-0.018590159714221954,0.015054244548082352,-0.000516046304255724,-0.01128686498850584
0.03018299676477909,0.005826634354889393,-0.019225234165787697,0.015331335365772247,-0.0004886523820459843,-0.011383065953850746
0.030595773831009865,0.005159738007932901,-0.019692588597536087,0.014896132983267307,-0.0004491019353736192,-0.011833530850708485
0.030502885580062866,0.005245652049779892,-0.019077565521001816,0.015109283849596977,-0.00046874184045009315,-0.011459562927484512
0.030085643753409386,0.005659800488501787,-0.019615978002548218,0.014827600680291653,-0.0004483354277908802,-0.011587848886847496
0.03028036840260029,0.005359414033591747,-0.01976209133863449,0.015474854968488216,-0.00044858898036181927,-0.011910435743629932
0.03023741953074932,0.005877014249563217,-0.018906278535723686,0.015314080752432346,-0.00044741155579686165,-0.011812405660748482
0.03055597096681595,0.005598075222223997,-0.01945403590798378,0.01583358459174633,-0.00041960887028835714,-0.011739552952349186
0.030696429312229156,0.005046140868216753,-0.019724318757653236,0.015514681115746498,-0.00044211349450051785,-0.011467100121080875
0.03036712110042572,0.005191097967326641,-0.019076205790042877,0.015717850998044014,-0.00042279352783225477,-0.012034068815410137
0.030582858249545097,0.005566304083913565,-0.019328037276864052,0.015306541696190834,-0.0004676264070440084,-0.01213732361793518
0.030485818162560463,0.005675978027284145,-0.01945045404136181,0.014826670289039612,-0.00044511730084195733,-0.012131700292229652
0.030480630695819855,0.005633607506752014,-0.0189208947122097,0.01474988367408514,-0.00048190774396061897,-0.012131601572036743
0.030860282480716705,0.005343697499483824,-0.01933605782687664,0.01451848540455103,-0.00044701373553834856,-0.012634247541427612
0.030618242919445038,0.004944698419421911,-0.01934823952615261,0.014509093947708607,-0.00047253735829144716,-0.012486427091062069
0.030344335362315178,0.004794248845428228,-0.018796341493725777,0.01458663959056139,-0.0004471026186365634,-0.012473328039050102
0.030659254640340805,0.004925452172756195,-0.019219709560275078,0.014958621002733707,-0.0004695481329690665,-0.012155677191913128
0.031240329146385193,0.005332023371011019,-0.019418908283114433,0.015512500889599323,-0.0006090971291996539,-0.012271558865904808
0.03111434169113636,0.005041587632149458,-0.019301528111100197,0.015444817021489143,-0.0006190950516611338,-0.012284377589821815
0.031154567375779152,0.004587912932038307,-0.01945742592215538,0.01586017943918705,-0.000603062566369772,-0.012000711634755135
0.03094177134335041,0.005095176864415407,-0.01920143887400627,0.015973031520843506,-0.0006108244997449219,-0.012407973408699036
0.03146062046289444,0.004911874886602163,-0.019073549658060074,0.01666085608303547,-0.0005797061021439731,-0.01222553476691246
0.031332824379205704,0.004910437855869532,-0.01922583393752575,0.015903498977422714,-0.000539874832611531,-0.012200412340462208
0.03110792674124241,0.005316309630870819,-0.019171681255102158,0.015972502529621124,-0.0006179940537549555,-0.01213072333484888
0.03143758699297905,0.005469073541462421,-0.01930045336484909,0.01534565631300211,-0.0006050210213288665,-0.01241356786340475
0.03143758699297905,0.005469073541462421,-0.01930045336484909,0.01534565631300211,-0.0006050210213288665,-0.01241356786340475
0.031229514628648758,0.004864683840423822,-0.019358698278665543,0.015235289931297302,-0.0006085515487939119,-0.01234577689319849
0.031229514628648758,0.004864683840423822,-0.019358698278665543,0.015235289931297302,-0.0006085515487939119,-0.01234577689319849
0.0324922651052475,0.00530123570933938,-0.019634168595075607,0.015614592470228672,-0.0006236971239559352,-0.012852368876338005
0.032609254121780396,0.005175657570362091,-0.020011816173791885,0.015962466597557068,-0.0005914052599109709,-0.01243846956640482
0.03153388202190399,0.005188442766666412,-0.02079714834690094,0.016266070306301117,-0.000637888559140265,-0.012665484100580215
0.030861668288707733,0.004987138323485851,-0.020081399008631706,0.01655222848057747,-0.0006707450957037508,-0.012460747733712196
0.03223789483308792,0.0052115474827587605,-0.020299088209867477,0.01601891778409481,-0.0006092895055189729,-0.012746194377541542
0.03194171562790871,0.004885301925241947,-0.02015179768204689,0.016659481450915337,-0.0006330198375508189,-0.012558071874082088
0.0321023091673851,0.004846667405217886,-0.01964927278459072,0.01651696115732193,-0.0006409729830920696,-0.012556874193251133
0.03306835889816284,0.004926508758217096,-0.02005866728723049,0.01710594817996025,-0.0006060939631424844,-0.012814526446163654
0.031948018819093704,0.005143380258232355,-0.020415643230080605,0.016534743830561638,-0.0005647105281241238,-0.013079900294542313
0.03206361457705498,0.004996540490537882,-0.019878042861819267,0.015883145853877068,-0.0005783208762295544,-0.013005131855607033
0.03163137659430504,0.004648897796869278,-0.019742142409086227,0.016291987150907516,-0.0006063321488909423,-0.012800173833966255
0.03266186639666557,0.004908051807433367,-0.020658452063798904,0.015766119584441185,-0.0006008831551298499,-0.0130644291639328
0.032789383083581924,0.004822444636374712,-0.02030140347778797,0.016094978898763657,-0.0005859771627001464,-0.012960760854184628
0.03200126439332962,0.004783004522323608,-0.02053508348762989,0.01574673503637314,-0.0006099988822825253,-0.013380458578467369
0.033219579607248306,0.004885413683950901,-0.02049020677804947,0.01618572324514389,-0.000566786911804229,-0.013257340528070927
0.03285861387848854,0.005013521295040846,-0.02039891481399536,0.016790572553873062,-0.00061042420566082,-0.012768669053912163
0.03198860585689545,0.0048812865279614925,-0.019349776208400726,0.016625840216875076,-0.0006183319492265582,-0.01282134372740984
0.03198860585689545,0.0048812865279614925,-0.019349776208400726,0.016625840216875076,-0.0006183319492265582,-0.01282134372740984
0.03351331129670143,0.004315731581300497,-0.019864894449710846,0.015851188451051712,-0.0005862709367647767,-0.014421408995985985
0.032542966306209564,0.004854834172874689,-0.020571785047650337,0.016010111197829247,-0.0005724448128603399,-0.012906137853860855
0.0330803245306015,0.005059858784079552,-0.020881982520222664,0.015787538141012192,-0.0005970615893602371,-0.012817134149372578
0.03332294523715973,0.00478126248344779,-0.020273864269256592,0.016336027532815933,-0.000618784106336534,-0.012780146673321724
0.033129237592220306,0.004724623169749975,-0.020295022055506706,0.01628083921968937,-0.0005998278502374887,-0.013349895365536213
0.03294156491756439,0.004709125962108374,-0.02011648565530777,0.016608482226729393,-0.0006105448701418936,-0.013363516889512539
0.03316010534763336,0.00495938491076231,-0.020870942622423172,0.016584258526563644,-0.0005700401379726827,-0.013306289911270142
0.03486594930291176,0.004468221683055162,-0.020834792405366898,0.016109319403767586,-0.0005911582848057151,-0.013452203013002872
0.03456740826368332,0.005006595980376005,-0.02051456645131111,0.01631956733763218,-0.0005497114034369588,-0.013807239942252636
0.03233080729842186,0.004866067320108414,-0.0204485896974802,0.015904372557997704,-0.0005411774036474526,-0.013733834028244019
0.033013757318258286,0.0049001676961779594,-0.02057679556310177,0.01639409177005291,-0.000533039856236428,-0.013390639796853065
0.034311845898628235,0.004602944012731314,-0.020847206935286522,0.016328703612089157,-0.0005021954420953989,-0.013397714123129845
0.03394251689314842,0.004875181708484888,-0.02042015641927719,0.01651483215391636,-0.00049218611093238,-0.013612385839223862
0.03500547632575035,0.0049053034745156765,-0.0205586776137352,0.01675952598452568,-0.0004462728393264115,-0.013940331526100636
0.0347907580435276,0.004809981677681208,-0.020998477935791016,0.01675582118332386,-0.0004761128802783787,-0.013945251703262329
0.03397650644183159,0.004633089993149042,-0.02070000395178795,0.01695362664759159,-0.00048229540698230267,-0.01404159888625145
0.03299166262149811,0.004618790931999683,-0.020304158329963684,0.016335340216755867,-0.00047903560334816575,-0.013615217991173267
0.03502565622329712,0.004678864497691393,-0.02071414887905121,0.016496792435646057,-0.0004941776860505342,-0.013965765945613384
0.03494834527373314,0.004919765051454306,-0.020726364105939865,0.016362566500902176,-0.0004762439930345863,-0.01392349787056446
0.03402449190616608,0.004601770546287298,-0.02015632763504982,0.016481667757034302,-0.0005296058370731771,-0.013924289494752884
0.034360457211732864,0.004353220574557781,-0.02078896388411522,0.016742682084441185,-0.0004996640491299331,-0.013842844404280186
0.0338633768260479,0.004961318336427212,-0.020667532458901405,0.016674472019076347,-0.0005351250292733312,-0.013846729882061481
0.034891605377197266,0.004961335565894842,-0.02052062191069126,0.017233865335583687,-0.0005520118866115808,-0.013684929348528385
0.03468169644474983,0.0045551517978310585,-0.02050783671438694,0.016781195998191833,-0.0005612724926322699,-0.013783442787826061
0.0344863124191761,0.004442465957254171,-0.020740747451782227,0.016747592017054558,-0.0006003922899253666,-0.013732362538576126
0.03439290449023247,0.004603249952197075,-0.020460443571209908,0.01632055453956127,-0.000691496767103672,-0.013644129037857056
0.03439290449023247,0.004603249952197075,-0.020460443571209908,0.01632055453956127,-0.000691496767103672,-0.013644129037857056
0.03489552065730095,0.004768897779285908,-0.02107156813144684,0.01633702963590622,-0.0006416512187570333,-0.01373845525085926
0.03474362567067146,0.004452594555914402,-0.020839843899011612,0.016006385907530785,-0.0006642136722803116,-0.014275158755481243
0.0351119264960289,0.004039179999381304,-0.020755218341946602,0.016521837562322617,-0.0006061842432245612,-0.01439701672643423
0.03510403260588646,0.004149118438363075,-0.020608343183994293,0.01597386784851551,-0.0006266559357754886,-0.014497577212750912
0.034733016043901443,0.004105197731405497,-0.021321356296539307,0.01647387631237507,-0.0007117080967873335,-0.014426792971789837
0.03384990617632866,0.004790257662534714,-0.021467294543981552,0.01707351952791214,-0.0007429515244439244,-0.014182175509631634
0.03595221787691116,0.004413099493831396,-0.02094297669827938,0.016886325553059578,-0.0007204609573818743,-0.014195354655385017
0.03569705784320831,0.0045166038908064365,-0.02057170309126377,0.017766349017620087,-0.0006899660802446306,-0.014050318859517574
0.03494679555296898,0.004478126298636198,-0.020765382796525955,0.016932127997279167,-0.0006899196305312216,-0.014049296267330647
0.03528374806046486,0.0042904880829155445,-0.020736897364258766,0.01711401902139187,-0.0006480725714936852,-0.013888372108340263
0.03551967442035675,0.004386128857731819,-0.020929904654622078,0.016706768423318863,-0.0006363777793012559,-0.01405014656484127
0.035319432616233826,0.00459486385807395,-0.020970307290554047,0.016270127147436142,-0.0005926279700361192,-0.013991551473736763
0.035390663892030716,0.00465470040217042,-0.021127091720700264,0.016842035576701164,-0.0005762965301983058,-0.014126094989478588
0.03570599481463432,0.004508355166763067,-0.021349694579839706,0.017155932262539864,-0.000561534077860415,-0.014477580785751343
0.035773150622844696,0.004777311347424984,-0.02185191959142685,0.018115317448973656,-0.0005903804558329284,-0.014497820287942886
0.03559079393744469,0.00473872572183609,-0.021072255447506905,0.017971066758036613,-0.0005446549039334059,-0.014057803899049759
0.035036299377679825,0.004850561730563641,-0.02165834978222847,0.017431506887078285,-0.0005681798211298883,-0.013824256137013435
0.036437470465898514,0.004362898413091898,-0.021128708496689796,0.017990848049521446,-0.0005306435632519424,-0.014300820417702198
0.03700489178299904,0.004390225745737553,-0.020531203597784042,0.01765601895749569,-0.0005375808104872704,-0.014704239554703236
0.03507918864488602,0.004565062001347542,-0.021245092153549194,0.01830967515707016,-0.0005345002864487469,-0.014481616206467152
0.03435055539011955,0.00468952301889658,-0.022317728027701378,0.018277404829859734,-0.0005251303664408624,-0.014037120155990124
0.035775620490312576,0.0050292653031647205,-0.021384723484516144,0.01774383708834648,-0.00048110177158378065,-0.01396157220005989
0.03586467355489731,0.004502614960074425,-0.020989276468753815,0.017613956704735756,-0.0005102879949845374,-0.013563951477408409
0.03689125180244446,0.004192877560853958,-0.021434957161545753,0.017075760290026665,-0.000501795846503228,-0.013641031458973885
0.03539660945534706,0.004466359503567219,-0.020955141633749008,0.0176786370575428,-0.0005261226906441152,-0.014176987111568451
0.035020358860492706,0.004644100554287434,-0.020791519433259964,0.017325809225440025,-0.0005940090632066131,-0.014253408648073673
0.035020358860492706,0.004644100554287434,-0.020791519433259964,0.017325809225440025,-0.0005940090632066131,-0.014253408648073673
0.036714304238557816,0.004531084094196558,-0.021511975675821304,0.01780618354678154,-0.000604179862421006,-0.01444961130619049
0.03663979843258858,0.004357398021966219,-0.021521540358662605,0.017260167747735977,-0.000589819741435349,-0.014512402005493641
0.03612308204174042,0.0044191437773406506,-0.020703280344605446,0.017407990992069244,-0.0005985754542052746,-0.014512992464005947
0.036738235503435135,0.004537018947303295,-0.02124791592359543,0.017419327050447464,-0.000568983203265816,-0.014080224558711052
0.03640248626470566,0.004427382722496986,-0.021678632125258446,0.017117729410529137,-0.0005325125530362129,-0.014746710658073425
0.036437682807445526,0.004563623573631048,-0.02126997523009777,0.01760919764637947,-0.000616612785961479,-0.014870673418045044
0.03645965829491615,0.004176536574959755,-0.02097672037780285,0.01710294932126999,-0.0006535533466376364,-0.014984900131821632
0.03621746599674225,0.004310139920562506,-0.021716268733143806,0.01699770987033844,-0.0006612309371121228,-0.014843177981674671
0.03643922135233879,0.0044652121141552925,-0.021770527586340904,0.017158258706331253,-0.0006187268882058561,-0.015174915082752705
0.03601789474487305,0.004567817319184542,-0.021235400810837746,0.01683647558093071,-0.0006237788475118577,-0.015441283583641052
0.03625797480344772,0.004616382531821728,-0.021075338125228882,0.01714559644460678,-0.000590908108279109,-0.01521798875182867
0.03721925988793373,0.0046651181764900684,-0.021429356187582016,0.016854748129844666,-0.000591141520999372,-0.015367782674729824
0.03677844628691673,0.004927154630422592,-0.021587379276752472,0.017332416027784348,-0.0005626140628010035,-0.015305118635296822
0.035119980573654175,0.005113651975989342,-0.02125531993806362,0.01737884245812893,-0.0005958482506684959,-0.015391538850963116
0.035966239869594574,0.004911727737635374,-0.020811043679714203,0.01751243881881237,-0.0005422265385277569,-0.01535139698535204
0.036390941590070724,0.004724066238850355,-0.020975882187485695,0.018367726355791092,-0.0005693438579328358,-0.015589435584843159
0.036084000021219254,0.004736210219562054,-0.02110290713608265,0.017982281744480133,-0.0005631183739751577,-0.015586694702506065
0.037489764392375946,0.00491668563336134,-0.020732220262289047,0.017959319055080414,-0.0005532801151275635,-0.015476761385798454
0.03713236004114151,0.005242909304797649,-0.02123204804956913,0.017893390730023384,-0.0005693568964488804,-0.015447510406374931
0.03545265272259712,0.0049359858967363834,-0.0217197947204113,0.017548995092511177,-0.0006059863371774554,-0.015789950266480446
0.03629525750875473,0.004838700871914625,-0.021526258438825607,0.017748715355992317,-0.0005906230071559548,-0.015610309317708015
0.03736574947834015,0.00463696476072073,-0.021035311743617058,0.01822897046804428,-0.0006121603073552251,-0.015506978146731853
0.03748270869255066,0.0048951758071780205,-0.0208649393171072,0.018301697447896004,-0.0005675979773513973,-0.015267185866832733
0.037082042545080185,0.004576851148158312,-0.02134029194712639,0.018774908035993576,-0.0005495669902302325,-0.01597156934440136
0.03756500408053398,0.004682302009314299,-0.02075437270104885,0.018619677051901817,-0.0006112938863225281,-0.015967590734362602
0.03782997652888298,0.004983548540621996,-0.02135566994547844,0.01852654665708542,-0.0006061679450795054,-0.016029302030801773
0.03782997652888298,0.004983548540621996,-0.02135566994547844,0.01852654665708542,-0.0006061679450795054,-0.016029302030801773
0.03787040337920189,0.004905948415398598,-0.02182183787226677,0.01787097379565239,-0.0005884203710593283,-0.016021640971302986
0.03762930631637573,0.004714435897767544,-0.02223062515258789,0.017963428050279617,-0.0005984347080811858,-0.01614789478480816
0.03740699589252472,0.004687320441007614,-0.021319149062037468,0.018320424482226372,-0.0005649623926728964,-0.015505420975387096
0.03777628019452095,0.004738169256597757,-0.02180355414748192,0.018101409077644348,-0.000574100180529058,-0.015582290478050709
0.03845192864537239,0.0046861483715474606,-0.021879902109503746,0.018240325152873993,-0.000547391886357218,-0.01578463427722454
0.03823632374405861,0.005161460489034653,-0.021201537922024727,0.017727285623550415,-0.0005467563751153648,-0.01586197316646576
0.038432635366916656,0.004958893172442913,-0.021330654621124268,0.017631065100431442,-0.0005707184318453074,-0.015784863382577896
0.03901531547307968,0.00467157457023859,-0.022230427712202072,0.01844085566699505,-0.0006039986037649214,-0.015751367434859276
0.03861624002456665,0.004643502179533243,-0.021893931552767754,0.018463866785168648,-0.0005909915780648589,-0.016321608796715736
0.038316767662763596,0.005099247209727764,-0.02178032509982586,0.018595675006508827,-0.0006149274995550513,-0.016673702746629715
0.03840416669845581,0.005003353580832481,-0.021721594035625458,0.01905209943652153,-0.0008199274889193475,-0.016655663028359413
0.038915004581213,0.005296170245856047,-0.02223564311861992,0.018979493528604507,-0.0008623342728242278,-0.016510745510458946
0.038588158786296844,0.005468335002660751,-0.022090798243880272,0.01904744654893875,-0.0008694390999153256,-0.01631680130958557
0.03907248377799988,0.004963680636137724,-0.022286202758550644,0.019017446786165237,-0.0008514040964655578,-0.015994947403669357
0.039153046905994415,0.004819947760552168,-0.021094579249620438,0.01958666741847992,-0.0007836454315111041,-0.015417877584695816
0.038984160870313644,0.004743511788547039,-0.0213258508592844,0.020258143544197083,-0.0007870465633459389,-0.015880022197961807
0.039535485208034515,0.004696950316429138,-0.02156902104616165,0.020213082432746887,-0.0006831521168351173,-0.015985818579792976
0.039260171353816986,0.005077012814581394,-0.022259622812271118,0.01934940554201603,-0.0006800580304116011,-0.016588585451245308
0.039030689746141434,0.004880698397755623,-0.021734898909926414,0.018634434789419174,-0.0006272555328905582,-0.016618579626083374
0.039754368364810944,0.004641314502805471,-0.021686431020498276,0.019222436472773552,-0.0006505156052298844,-0.016392050310969353
0.03978550806641579,0.005093930754810572,-0.02246178314089775,0.019492600113153458,-0.0006241817609407008,-0.016272902488708496
0.03789680823683739,0.004989884793758392,-0.02179301530122757,0.019675428047776222,-0.0005813771858811378,-0.01681535504758358
0.039985738694667816,0.0049127028323709965,-0.021346118301153183,0.019124148413538933,-0.0006057725404389203,-0.017358260229229927
0.04027697071433067,0.005115170497447252,-0.02213369496166706,0.019048258662223816,-0.0006233167368918657,-0.017334384843707085
0.04027697071433067,0.005115170497447252,-0.02213369496166706,0.019048258662223816,-0.0006233167368918657,-0.017334384843707085
0.039988923817873,0.0049669756554067135,-0.022122107446193695,0.019957028329372406,-0.0006273880135267973,-0.016300702467560768
0.041405677795410156,0.004794678650796413,-0.02179170772433281,0.01973767578601837,-0.000612135510891676,-0.0163365937769413
0.03888968750834465,0.00522575993090868,-0.021481622010469437,0.018862085416913033,-0.0007033469737507403,-0.01598254404962063
0.039134785532951355,0.005083284806460142,-0.02208063378930092,0.018982289358973503,-0.0007443425129167736,-0.016725962981581688
0.040789443999528885,0.004464625846594572,-0.02223450504243374,0.017969293519854546,-0.0007650206098333001,-0.01709989458322525
0.040460143238306046,0.004452683497220278,-0.02201242558658123,0.018174340948462486,-0.0007550795562565327,-0.017781013622879982
0.03995700925588608,0.00447867764160037,-0.021721357479691505,0.019033541902899742,-0.0007243513246066868,-0.01677992008626461
0.04008108377456665,0.0045379456132650375,-0.022239957004785538,0.019032754004001617,-0.000665470608510077,-0.01660063862800598
0.04021928831934929,0.004618857055902481,-0.02282954752445221,0.020321009680628777,-0.0006881703156977892,-0.01687321625649929
0.040486231446266174,0.004656694363802671,-0.02326277457177639,0.019074982032179832,-0.0007156679639592767,-0.017318524420261383
0.040384192019701004,0.005051536951214075,-0.022501518949866295,0.01875252090394497,-0.0007301732548512518,-0.01726328209042549
0.04022450000047684,0.0049028536304831505,-0.022347010672092438,0.01918085291981697,-0.0006657922640442848,-0.017261525616049767
0.04181210324168205,0.004454214591532946,-0.02279258891940117,0.019499585032463074,-0.0006827457109466195,-0.017295027151703835
0.041257139295339584,0.004083263222128153,-0.022849082946777344,0.019378067925572395,-0.0007200891268439591,-0.017395589500665665
0.03921345993876457,0.004151576664298773,-0.023330947384238243,0.01933209039270878,-0.0006507873185910285,-0.0174888763576746
0.040558263659477234,0.004531566984951496,-0.022953009232878685,0.019458938390016556,-0.0006759885000064969,-0.017100919038057327
0.04068448394536972,0.004701925907284021,-0.02250237949192524,0.019021587446331978,-0.0006069506052881479,-0.017385315150022507
0.04157256707549095,0.004432212561368942,-0.022900035604834557,0.018867909908294678,-0.0006303329719230533,-0.017284054309129715
0.041417479515075684,0.004567523021250963,-0.02357668988406658,0.019342446699738503,-0.0006384749431163073,-0.017108086496591568
0.040438901633024216,0.004173307679593563,-0.02328607439994812,0.019023871049284935,-0.0006039292202331126,-0.017324967309832573
0.03994041681289673,0.0042156619019806385,-0.02318030782043934,0.019062215462327003,-0.0005930519546382129,-0.017600972205400467
0.041125062853097916,0.004603508859872818,-0.023935044184327126,0.019356325268745422,-0.0006214766763150692,-0.017104584723711014
0.041125062853097916,0.004603508859872818,-0.023935044184327126,0.019356325268745422,-0.0006214766763150692,-0.017104584723711014
0.04140915349125862,0.004535162355750799,-0.02340679056942463,0.020000210031867027,-0.0006280392408370972,-0.017595510929822922
0.041280511766672134,0.004539346322417259,-0.02290363609790802,0.01964632421731949,-0.0007679573027417064,-0.017623132094740868
0.042181167751550674,0.004199366085231304,-0.023215118795633316,0.019264409318566322,-0.0008329555857926607,-0.017594529315829277
0.04139494523406029,0.003890149062499404,-0.023887697607278824,0.019617456942796707,-0.000829002819955349,-0.01766268163919449
0.04139494523406029,0.003890149062499404,-0.023887697607278824,0.019617456942796707,-0.000829002819955349,-0.01766268163919449
0.04169386252760887,0.0042581213638186455,-0.023355633020401,0.019557232037186623,-0.0008096792153082788,-0.017728028818964958
0.04182891175150871,0.004494055639952421,-0.023521997034549713,0.01984853297472,-0.0007778199505992234,-0.017641182988882065
0.04259537160396576,0.004651041701436043,-0.024121057242155075,0.020706407725811005,-0.0008916052174754441,-0.01771235652267933
0.04228023812174797,0.004660040605813265,-0.024256614968180656,0.020293552428483963,-0.0008329597185365856,-0.01799963228404522
0.04221833497285843,0.0044930847361683846,-0.022934937849640846,0.01910015381872654,-0.0008378528873436153,-0.017732353881001472
0.04230120778083801,0.0043653761968016624,-0.023280547931790352,0.01962711289525032,-0.0008448715670965612,-0.017751356586813927
0.04219739884138107,0.004044561646878719,-0.02413197234272957,0.019862350076436996,-0.0008876161300577223,-0.018104644492268562
0.042723141610622406,0.00441083824262023,-0.02368614263832569,0.019170284271240234,-0.0008923957357183099,-0.017676565796136856
0.04280837997794151,0.004735519178211689,-0.023876043036580086,0.01988140679895878,-0.0008440547389909625,-0.017594745382666588
0.04304483160376549,0.004567640367895365,-0.024221146479249,0.020136350765824318,-0.0007934810128062963,-0.01786891184747219
0.04318074509501457,0.004494625609368086,-0.023954762145876884,0.019974688068032265,-0.0007947399863041937,-0.018088288605213165
0.043311238288879395,0.0043860371224582195,-0.02405097708106041,0.02004733495414257,-0.0007633674540556967,-0.018011316657066345
0.04340902343392372,0.004545541480183601,-0.02394452504813671,0.020668186247348785,-0.0006908008945174515,-0.017824696376919746
0.04424196109175682,0.004229183308780193,-0.02430199831724167,0.020914318040013313,-0.0007124398835003376,-0.017927847802639008
0.04296040162444115,0.004434173461049795,-0.024197740480303764,0.02061896212399006,-0.0007269115885719657,-0.018333949148654938
0.04328808933496475,0.00431949645280838,-0.02383141778409481,0.02073567546904087,-0.0007446635281667113,-0.018387015908956528
0.04335219785571098,0.00431473134085536,-0.023828525096178055,0.020381571725010872,-0.000858633778989315,-0.01800554245710373
0.0433788001537323,0.004876595456153154,-0.0241668950766325,0.01963121071457863,-0.0009559100726619363,-0.018240656703710556
0.04493245109915733,0.00443227170035243,-0.024549204856157303,0.01997186243534088,-0.0008930368931032717,-0.018536655232310295
0.04313268885016441,0.0040146964602172375,-0.02458229847252369,0.020510021597146988,-0.0008901410619728267,-0.018622063100337982
0.04233065992593765,0.0043699368834495544,-0.024685056880116463,0.020575886592268944,-0.0008057978702709079,-0.018647300079464912
0.04413345083594322,0.004245751071721315,-0.02423160709440708,0.020131045952439308,-0.0008090048213489354,-0.018704017624258995
0.044626347720623016,0.004467053338885307,-0.02419660985469818,0.02033032476902008,-0.0008126806351356208,-0.018310779705643654
0.04401664063334465,0.004694524221122265,-0.024412235245108604,0.020383041352033615,-0.0007323516765609384,-0.019645025953650475
0.04269663989543915,0.004739867988973856,-0.025028645992279053,0.02051684819161892,-0.0007374937413260341,-0.019493630155920982
0.044069159775972366,0.004252051934599876,-0.02488965541124344,0.020145142450928688,-0.0007324699545279145,-0.018812472000718117
