davideferrari95/blind_handover_controller/data/Test 135 - [2024-02-07 -- 17-20-54]/joint_states_data.csv
shoulder_pan_joint,shoulder_lift_joint,elbow_joint,wrist_1_joint,wrist_2_joint,wrist_3_joint
0.007505251094698906,-0.0009535362478345633,-0.013631679117679596,0.013621649704873562,-0.0,0.006895743776112795
0.007505251094698906,-0.0009535362478345633,-0.013631679117679596,0.013621649704873562,-0.0,0.006895743776112795
0.0068521760404109955,-0.0010631990153342485,-0.013429563492536545,0.013171365484595299,-0.0,0.006780568510293961
0.006556297652423382,-0.001805184525437653,-0.013756546191871166,0.0133326081559062,-0.0,0.006697945296764374
0.006823941133916378,-0.0020122993737459183,-0.013688516803085804,0.013322058133780956,-0.0,0.0065409522503614426
0.006523539312183857,-0.0025190692394971848,-0.0133588882163167,0.013538761995732784,-0.0,0.006633261684328318
0.007289458531886339,-0.0021457155235111713,-0.013853992335498333,0.01370585709810257,-0.0,0.006400260142982006
0.006698121316730976,-0.0017757375026121736,-0.013623397797346115,0.013471206650137901,-0.0,0.006434009876102209
0.006478594150394201,-0.0017583150183781981,-0.01399203110486269,0.013498063199222088,-0.0,0.005929381586611271
0.0064836828969419,-0.0015967119252309203,-0.013382814824581146,0.012973829172551632,-0.0,0.006714920047670603
0.006649255286902189,-0.001639209222048521,-0.014037013053894043,0.013441492803394794,-0.0,0.006354206707328558
0.006508935242891312,-0.0019612121395766735,-0.013459725305438042,0.01304576639086008,-0.0,0.005968403071165085
0.006122513208538294,-0.0010456243762746453,-0.013786466792225838,0.012736396864056587,-0.0,0.006649834103882313
0.006021606270223856,-0.0008022760739549994,-0.014240781776607037,0.013320190832018852,-0.0,0.006478313356637955
0.006368215661495924,-0.0006800639093853533,-0.013452370651066303,0.013207721523940563,-0.0,0.006471485365182161
0.006621993612498045,-0.0007069971179589629,-0.013987197540700436,0.013405858539044857,-0.0,0.006708986591547728
0.006621993612498045,-0.0007069971179589629,-0.013987197540700436,0.013405858539044857,-0.0,0.006708986591547728
0.006653757765889168,-0.0007264066953212023,-0.013848824426531792,0.013001781888306141,-0.0,0.00619654031470418
0.006147903390228748,-0.0006548488745465875,-0.014457249082624912,0.013189617544412613,-0.0,0.006061282474547625
0.00630313390865922,-0.0005932109197601676,-0.013891419395804405,0.013391694985330105,-0.0,0.006526755169034004
0.006707010790705681,-0.0005421453388407826,-0.014182773418724537,0.013701562769711018,-0.0,0.006728388834744692
0.006309065967798233,-0.0004991725436411798,-0.013353644870221615,0.013711780309677124,-0.0,0.007015108596533537
0.006259319372475147,-0.0005258332239463925,-0.014300957322120667,0.01285593118518591,-0.0,0.006575374398380518
0.006280933506786823,-0.0004923920496366918,-0.013717354275286198,0.012866336852312088,-0.0,0.006381117273122072
0.005992107093334198,-0.00046090432442724705,-0.01379797700792551,0.012270387262105942,-0.0,0.00636863661929965
0.0065217893570661545,-0.00043316875235177577,-0.013489918783307076,0.012997610494494438,-0.0,0.006427043583244085
0.006464284844696522,-0.0004085840773768723,-0.013867656700313091,0.012620928697288036,-0.0,0.006519458256661892
0.00596613809466362,-0.0003866409824695438,-0.01370881125330925,0.013127709738910198,-0.0,0.006382825318723917
0.005683818832039833,-0.00036693437141366303,-0.013387561775743961,0.01301360409706831,-0.0,0.006511428393423557
0.005699824076145887,-0.00034914008574560285,-0.014074566774070263,0.01271323673427105,-0.0,0.006503215525299311
0.006214768160134554,-0.00026527195586822927,-0.013653450645506382,0.013133632019162178,-0.0,0.006243050564080477
0.006266450043767691,-0.00021877436665818095,-0.013595778495073318,0.012979071587324142,-0.0,0.0062101916410028934
0.005893551278859377,-0.00020819903875235468,-0.012400785461068153,0.013072584755718708,-0.0,0.0060694217681884766
0.006041734013706446,-0.0001989867159863934,-0.014333423227071762,0.012623397633433342,-0.0,0.006839415989816189
0.005771092139184475,-0.00019055948359891772,-0.013716420158743858,0.012907655909657478,-0.0,0.006735600531101227
0.0060895588248968124,-0.00018281729717273265,-0.01422144379466772,0.012940319254994392,-0.0,0.006268919911235571
0.006074952427297831,-0.00020938868692610413,-0.013604405336081982,0.013472962193191051,-0.0,0.006190766114741564
0.006026471499353647,-0.0001955470652319491,-0.013881511054933071,0.012793930247426033,-0.0,0.006286053452640772
0.006026471499353647,-0.0001955470652319491,-0.013881511054933071,0.012793930247426033,-0.0,0.006286053452640772
0.006309228483587503,-0.00020936568034812808,-0.014674142003059387,0.012887165881693363,-0.0,0.00618230365216732
0.006131200585514307,-0.0002125864994013682,-0.013539469800889492,0.012607145123183727,-0.0,0.006076392717659473
0.006352209951728582,-0.00020578023395501077,-0.013879510574042797,0.0129551962018013,-0.0,0.0060865795239806175
0.005783245898783207,-0.00019927293760702014,-0.013338305056095123,0.012372621335089207,-0.0,0.006093030329793692
0.006067028269171715,-0.00019316334510222077,-0.01438431441783905,0.012714173644781113,-0.0,0.0063409325666725636
0.006341603584587574,-0.00021311143063940108,-0.013991858810186386,0.012649713084101677,-0.0,0.006544433068484068
0.005831627640873194,-0.0002079886762658134,-0.01463149581104517,0.013090761378407478,-0.0,0.006817798595875502
0.005865295417606831,-0.00020216235134284943,-0.013769857585430145,0.012898523360490799,-0.0,0.006408962421119213
0.00644425954669714,-0.0002588066563475877,-0.01427133847028017,0.01298195868730545,-0.0,0.006289993412792683
0.006428856868296862,-0.00024725121329538524,-0.013437885791063309,0.01320764608681202,-0.0,0.006464575417339802
0.006441893987357616,-0.00023440644145011902,-0.013817735016345978,0.012867910787463188,-0.0,0.006358291953802109
0.005992587190121412,-0.0002228006924269721,-0.013399433344602585,0.012858938425779343,-0.0,0.006226029712706804
0.005993083585053682,-0.00021228878176771104,-0.0138773825019598,0.012619738467037678,-0.0,0.006485596764832735
0.0060064466670155525,-0.00020272542315069586,-0.013795477338135242,0.013292280025780201,-0.0,0.006864967755973339
0.005684657488018274,-0.00019398560107219964,-0.014189505018293858,0.013361623510718346,-0.0,0.006528488360345364
0.006210372783243656,-0.0001859682670328766,-0.013588284142315388,0.013963505625724792,-0.0,0.0063704391941428185
0.006431943271309137,-0.0001785877684596926,-0.013474350795149803,0.013456786051392555,-0.0,0.0066826846450567245
0.006084223743528128,-0.00017177037079818547,-0.013499731197953224,0.01329182181507349,-0.0,0.006312124896794558
0.006177018396556377,-0.00019464068464003503,-0.013183306902647018,0.012694955803453922,-0.0,0.00615631602704525
0.005646205972880125,-0.0001914518215926364,-0.013693561777472496,0.013485017232596874,-0.0,0.006505230907350779
0.006121818441897631,-0.0001849462278187275,-0.01309230737388134,0.013620116747915745,-0.0,0.0066995276138186455
0.006845707539469004,-0.0001788208755897358,-0.013758576475083828,0.01323216874152422,-0.0,0.0063353050500154495
0.0062790121883153915,-0.00017308919632341713,-0.013060543686151505,0.013733023777604103,-0.0,0.006506959907710552
0.006020198576152325,-0.00018939741130452603,-0.012876700609922409,0.013424282893538475,-0.0,0.006423809099942446
0.006161857396364212,-0.00018421810818836093,-0.013571537099778652,0.01296964380890131,-0.0,0.006278794724494219
0.006162859965115786,-0.0001789890375221148,-0.013085786253213882,0.013646942563354969,-0.0,0.006292557809501886
0.006621253211051226,-0.00017404479149263352,-0.013471012935042381,0.012513061985373497,-0.0,0.0066589973866939545
0.005911476444453001,-0.00016936485189944506,-0.013354478403925896,0.014237592928111553,-0.0,0.0066574388183653355
0.006046095862984657,-0.0001881678035715595,-0.013285189867019653,0.012661457061767578,-0.0,0.006443191319704056
0.006802708841860294,-0.00018367920711170882,-0.01319874357432127,0.01288162637501955,-0.0,0.006529295817017555
0.0063041700050234795,-0.00017911531904246658,-0.012739401310682297,0.013400506228208542,-0.0,0.006766338367015123
0.006179605610668659,-0.000174767425050959,-0.013375348411500454,0.013730736449360847,-0.0,0.0067424955777823925
0.006179605610668659,-0.000174767425050959,-0.013375348411500454,0.013730736449360847,-0.0,0.0067424955777823925
0.006456606090068817,-0.0001706257025944069,-0.01288466528058052,0.013545005582273006,-0.0,0.006289896555244923
0.006061254534870386,-0.00016844940546434373,-0.013563795946538448,0.013392915949225426,-0.0,0.006379339843988419
0.0064421179704368114,-0.00016271963249891996,-0.013126738369464874,0.01340832095593214,-0.0,0.006764908786863089
0.006600060034543276,-0.00015704518591519445,-0.013555675745010376,0.013095896691083908,-0.0,0.006878478918224573
0.006811738014221191,-0.00015174906002357602,-0.013057718984782696,0.013646275736391544,-0.0,0.0065269386395812035
0.006274271756410599,-0.00014679906598757952,-0.013640280812978745,0.012836976908147335,-0.0,0.0065255602821707726
0.006475665606558323,-0.00014216112322174013,-0.01297677867114544,0.012939824722707272,-0.0,0.0068518370389938354
0.006371671799570322,-0.00013780749577563256,-0.013407742604613304,0.01288343034684658,-0.0,0.006956180557608604
0.006562098860740662,-0.00013371311069931835,-0.013293877243995667,0.013162842020392418,-0.0,0.006824239157140255
0.00615737633779645,-0.0001298542192671448,-0.013338189572095871,0.01287128683179617,-0.0,0.006020354572683573
0.006161214783787727,-0.00012621242785826325,-0.01340596191585064,0.012861780822277069,-0.0,0.006445763166993856
0.006509552709758282,-0.00014443865802604705,-0.013140595518052578,0.012850076891481876,-0.0,0.007099034730345011
0.006454397924244404,-0.0001433719153283164,-0.01356346346437931,0.012780829332768917,-0.0,0.007013371679931879
0.006106949876993895,-0.00013969975407235324,-0.012830995954573154,0.013231676071882248,-0.0,0.006622259970754385
0.00647882791236043,-0.0001361772883683443,-0.013477840460836887,0.012970124371349812,-0.0,0.006261967122554779
0.0069102211855351925,-0.00013282765576150268,-0.013051108457148075,0.013456540182232857,-0.0,0.0061584641225636005
0.006380584556609392,-0.00012659977073781192,-0.012985183857381344,0.01292380690574646,-0.0,0.0067238700576126575
0.006161229219287634,-0.00012369969044812024,-0.013616062700748444,0.012624306604266167,-0.0,0.006655021570622921
0.006466532591730356,-0.00012092955148546025,-0.013386240229010582,0.012812855653464794,-0.0,0.006676794961094856
0.006700205150991678,-0.00011828086280729622,-0.013724650256335735,0.012683595530688763,-0.0,0.006563165225088596
0.006471973843872547,-0.0001157457081717439,-0.014355119317770004,0.012795953080058098,-0.0,0.007276845630258322
0.006782743148505688,-0.00011331678251735866,-0.013792762532830238,0.012912488542497158,-0.0,0.006769804283976555
0.0059312134981155396,-0.00011098771938122809,-0.013693558052182198,0.01264244969934225,-0.0,0.006495561916381121
0.006025008857250214,-0.00010875261068576947,-0.013612947426736355,0.01261731144040823,-0.0,0.006864416878670454
0.006025008857250214,-0.00010875261068576947,-0.013612947426736355,0.01261731144040823,-0.0,0.006864416878670454
0.006729769986122847,-0.00010660580301191658,-0.013865855522453785,0.012150215916335583,-0.0,0.00795075111091137
0.006820970214903355,-0.00010454192670295015,-0.013125846162438393,0.012422377243638039,-0.0,0.0071235657669603825
0.006501041352748871,-0.00010255652159685269,-0.013658281415700912,0.012580337934195995,-0.0,0.006139637436717749
0.0061331079341471195,-0.00011719003668986261,-0.013152330182492733,0.012711630202829838,-0.0,0.0064352951012551785
0.006874004378914833,-0.00011526782327564433,-0.013931186869740486,0.013201822526752949,-0.0,0.006933149881660938
0.007015639450401068,-0.00011319974873913452,-0.013757851906120777,0.013266201131045818,-0.0,0.007391085848212242
0.007351221516728401,-0.00011120171257061884,-0.01408467534929514,0.013612008653581142,-0.0,0.007294447626918554
0.006588829681277275,-0.0001092730526579544,-0.013067304156720638,0.013201241381466389,-0.0,0.006358799524605274
0.006505857687443495,-0.00010741001460701227,-0.013898497447371483,0.01342856790870428,-0.0,0.006404942832887173
0.007024399936199188,-0.0001056094843079336,-0.013625442050397396,0.012683330103754997,-0.0,0.006882618181407452
0.00701496284455061,-0.00010386841313447803,-0.013934249989688396,0.012695644982159138,-0.0,0.007206975948065519
0.006821837741881609,-0.00010218372335657477,-0.0133904367685318,0.012281743809580803,-0.0,0.007209228817373514
0.006426315288990736,-0.00010055286838905886,-0.013841012492775917,0.012832263484597206,-0.0,0.007230554707348347
0.006793223321437836,-9.897319250740111e-05,-0.013627921231091022,0.012947635725140572,-0.0,0.007086531259119511
0.0066842809319496155,-9.744234557729214e-05,-0.013550547882914543,0.012753788381814957,-0.0,0.007321775425225496
0.006870378274470568,-9.595837036613375e-05,-0.0133607666939497,0.01249290443956852,-0.0,0.007555146235972643
0.0064494130201637745,-9.451874939259142e-05,-0.01380982343107462,0.012391312047839165,-0.0,0.007089060265570879
0.0072382595390081406,-0.00010589445446385071,-0.013798877596855164,0.01300376933068037,-0.0,0.006485281977802515
0.007043874356895685,-0.00010336900595575571,-0.013766963966190815,0.012777185998857021,-0.0,0.006879206746816635
0.0070817433297634125,-0.00010190601460635662,-0.013467125594615936,0.0129912244156003,-0.0,0.006979692727327347
0.00661000981926918,-0.0001004838413791731,-0.013711049221456051,0.013122575357556343,-0.0,0.0071841515600681305
0.007004724815487862,-9.910076187225059e-05,-0.012831490486860275,0.01290904264897108,-0.0,0.0073396204970777035
0.007004724815487862,-9.910076187225059e-05,-0.012831490486860275,0.01290904264897108,-0.0,0.0073396204970777035
0.006998042110353708,-9.775534272193909e-05,-0.013317478820681572,0.012674251571297646,-0.0,0.007281437981873751
0.007246676832437515,-9.644598321756348e-05,-0.01305634155869484,0.012822946533560753,-0.0,0.007402536924928427
0.0070614079013466835,-9.517113358015195e-05,-0.013545739464461803,0.012374636717140675,-0.0,0.007088515441864729
0.007683031726628542,-8.355730824405327e-05,-0.013162093237042427,0.01278789434581995,-0.0,0.007590653840452433
0.007129369769245386,-8.11484205769375e-05,-0.01353280059993267,0.012842725962400436,-0.0,0.006925543304532766
0.006956897210329771,-8.009884913917631e-05,-0.012910489924252033,0.012978615239262581,-0.0,0.006548801902681589
0.0066083939746022224,-7.909304258646443e-05,-0.013315411284565926,0.012916378676891327,-0.0,0.0068592894822359085
0.007226485293358564,-7.811236719135195e-05,-0.013447409495711327,0.012748890556395054,-0.0,0.007335437927395105
0.007286067120730877,-7.715585525147617e-05,-0.013460853137075901,0.012702766805887222,-0.0,0.007157924119383097
0.007124090101569891,-7.622234261361882e-05,-0.013557310216128826,0.01270558126270771,-0.0,0.006652591284364462
0.006997912190854549,-7.53111598896794e-05,-0.013105843216180801,0.012979110702872276,-0.0,0.006721076555550098
0.006986487656831741,-7.442158675985411e-05,-0.013398661278188229,0.013200844638049603,-0.0,0.006892745848745108
0.007391093298792839,-7.355275738518685e-05,-0.012567614205181599,0.01396781112998724,-0.0,0.007296440191566944
0.007547386921942234,-7.270398054970428e-05,-0.013419972732663155,0.013279711827635765,-0.0,0.007289341185241938
0.007023339159786701,-7.187455776147544e-05,-0.01277808379381895,0.013042091391980648,-0.0,0.007261014077812433
0.007931362837553024,-7.106384873623028e-05,-0.01331393513828516,0.01207403652369976,-0.0,0.007270464673638344
0.007880366407334805,-7.027117680991068e-05,-0.01333787851035595,0.011975831352174282,-0.0,0.007967756129801273
0.007693595252931118,-6.949602538952604e-05,-0.013264648616313934,0.012380186468362808,-0.0,0.007197238504886627
0.007184592075645924,-9.323779295300483e-07,-0.012789793312549591,0.012356010265648365,-0.0,0.007013082504272461
0.007282658945769072,-1.2509040026031926e-08,-0.01248156651854515,0.012551166117191315,-0.0,0.007203437853604555
0.007832115516066551,-1.678247402159272e-10,-0.012921884655952454,0.012289315462112427,-0.0,0.007547648623585701
0.007614223286509514,-2.2515830346014898e-12,-0.01243941392749548,0.012914879247546196,-0.0,0.0072463154792785645
0.007546996232122183,-4.052769955365681e-16,-0.012612714432179928,0.012474054470658302,-0.0,0.007109491154551506
0.00796232745051384,-5.437308388446348e-18,-0.012978032231330872,0.011654884554445744,-0.0,0.006967469118535519
0.0077815549448132515,-7.29484378355921e-20,-0.013102355413138866,0.01191463228315115,-0.0,0.006973887328058481
0.007421436719596386,-9.786964324212308e-22,-0.012824946083128452,0.012943204492330551,-0.0,0.007040851283818483
0.007421436719596386,-9.786964324212308e-22,-0.012824946083128452,0.012943204492330551,-0.0,0.007040851283818483
0.009106389246881008,-1.3130460394215285e-23,-0.012794550508260727,0.01251562312245369,-0.0,0.007496242877095938
0.008230907842516899,-1.76161884599585e-25,-0.012554123997688293,0.012938414700329304,-0.0,0.007800356484949589
0.0077494066208601,-2.3634365165058844e-27,-0.012970386072993279,0.01257981639355421,-0.0,0.007692015264183283
0.007825417444109917,-3.1708519632188065e-29,-0.01232548151165247,0.01270483247935772,-0.0,0.0071358587592840195
0.007946896366775036,-4.25410230068235e-31,-0.013087320141494274,0.012712091207504272,-0.0,0.007275529205799103
0.00812176987528801,-5.7074207005596545e-33,-0.011857355944812298,0.012537223286926746,-0.0,0.007774673402309418
0.007636584807187319,-7.657233338159989e-35,-0.012354584410786629,0.012947604060173035,-0.0,0.007309253793209791
0.00762392021715641,-1.0273156253769275e-36,-0.012649835087358952,0.012330425903201103,-0.0,0.00687912292778492
0.0077787176705896854,-1.378274990426114e-38,-0.012603146024048328,0.012579296715557575,-0.0,0.007296354044228792
0.00820358470082283,-1.849125427553742e-40,-0.012592891231179237,0.012262233532965183,-0.0,0.007670617196708918
0.008379107341170311,-2.4802982818549262e-42,-0.01230225246399641,0.012728884816169739,-0.0,0.007595281582325697
0.007909522391855717,-3.363116314379561e-44,-0.012907356023788452,0.012786711566150188,-0.0,0.007281051017343998
0.00818256102502346,-0.0,-0.012631954625248909,0.01343528088182211,-0.0,0.007159270811825991
0.008187303319573402,0.0,-0.012982881627976894,0.013455572538077831,-0.0,0.0073068635538220406
0.007938080467283726,0.0,-0.013027064502239227,0.01293493714183569,-0.0,0.007359841838479042
0.00822145864367485,0.0,-0.013075749389827251,0.01274917647242546,-0.0,0.007229453418403864
0.00814889557659626,0.0,-0.013109143823385239,0.012579764239490032,-0.0,0.006825253367424011
0.007668349891901016,0.0,-0.012844341807067394,0.013028942979872227,-0.0,0.007176972925662994
0.008005449548363686,0.0,-0.012609941884875298,0.01277204044163227,-6.615111658447859e-08,0.007143963128328323
0.008005449548363686,0.0,-0.012609941884875298,0.01277204044163227,-6.615111658447859e-08,0.007143963128328323
0.007832841947674751,0.0,-0.011458410881459713,0.01244269497692585,-2.8201260771076875e-10,0.007439777255058289
0.007832841947674751,0.0,-0.011458410881459713,0.01244269497692585,-2.8201260771076875e-10,0.007439777255058289
0.00828543584793806,0.0,-0.013605520129203796,0.012499884702265263,-1.841340795116775e-11,0.008009837009012699
0.008015161380171776,0.0,-0.013012975454330444,0.011912369169294834,-1.202263982813534e-12,0.008006980642676353
0.008095490746200085,0.0,-0.013326968066394329,0.012116648256778717,-7.849925272524275e-14,0.007483747322112322
0.007757715880870819,0.0,-0.013266906142234802,0.011769731529057026,-5.125439562516081e-15,0.008381105959415436
0.007896486669778824,0.0,-0.013854555785655975,0.012367536313831806,-3.3465459123783634e-16,0.0069632623344659805
0.008329986594617367,0.0,-0.013403712771832943,0.012795929796993732,-2.1850554907017013e-17,0.007013880182057619
0.00854535959661007,0.0,-0.013555306009948254,0.012915309518575668,-1.4266850347772395e-18,0.00759452860802412
0.007882537320256233,0.0,-0.013471091166138649,0.012868992984294891,-9.315233075954833e-20,0.007627930957823992
0.008158081211149693,0.0,-0.013156121596693993,0.012577825225889683,-6.082181899816769e-21,0.007513902150094509
0.008162418380379677,0.0,-0.013546622358262539,0.013344764709472656,-3.9712300527398074e-22,0.0072977496311068535
0.008364548906683922,0.0,-0.012930166907608509,0.012880348600447178,-2.592929313020652e-23,0.007320714648813009
0.008574874140322208,0.0,-0.013481938280165195,0.0129621597006917,-1.692997462876291e-24,0.007563322316855192
0.008125891909003258,0.0,-0.013039459474384785,0.012754454277455807,-1.1054063811019486e-25,0.0076006874442100525
0.00849021878093481,-1.2141891829742235e-06,-0.013259383849799633,0.012954787351191044,-7.217514140856519e-27,0.007872353307902813
0.007952083833515644,-1.628989743096554e-08,-0.01263592578470707,0.012994149699807167,-4.712520906769698e-28,0.007630740292370319
0.008951070718467236,-2.185497616213894e-10,-0.013156980276107788,0.013056539930403233,-3.0769397070852854e-29,0.008014587685465813
0.00874776765704155,-2.9321239446850056e-12,-0.01302111241966486,0.012903867289423943,-2.0090215963462965e-30,0.008109104819595814
0.008401977829635143,-3.9338185351322705e-14,-0.01339532621204853,0.012729061767458916,-1.31174754671819e-31,0.007921431213617325
0.008244884200394154,-5.277719886927288e-16,-0.01306961104273796,0.012990116141736507,-8.564773797630085e-33,0.007573279552161694
0.008387514390051365,-7.080733872264146e-18,-0.012844482436776161,0.012508370913565159,-5.592185244474119e-34,0.008015971630811691
0.008303160779178143,-9.49970921595579e-20,-0.013774518854916096,0.012777590192854404,-3.651297536252965e-35,0.008031735196709633
0.00811466109007597,-1.274507205462704e-21,-0.013242624700069427,0.012513051740825176,-2.3840362071623978e-36,0.00790468417108059
0.008780357427895069,-1.7099140722291674e-23,-0.01330565195530653,0.012552492320537567,-1.5566053820608309e-37,0.00814043078571558
0.008859703317284584,-2.2940676630267254e-25,-0.01264199335128069,0.01243545114994049,-1.016352107215386e-38,0.008269070647656918
0.008598724380135536,-4.129240745308628e-29,-0.01266107801347971,0.012815183028578758,-0.00014247298531699926,0.007760332431644201
0.008816399611532688,-5.53990363079258e-31,-0.013428779318928719,0.012589666992425919,-0.0001464423257857561,0.008296688087284565
0.008816399611532688,-5.53990363079258e-31,-0.013428779318928719,0.012589666992425919,-0.0001464423257857561,0.008296688087284565
0.0093900291249156,-7.432487680408147e-33,-0.013065910898149014,0.012845728546380997,-0.00014237119466997683,0.00859837792813778
0.008570697158575058,-9.971630186360413e-35,-0.01329782884567976,0.012486232444643974,-0.00013804022455587983,0.007932011038064957
0.008822712115943432,-1.3378213927113863e-36,-0.012955376878380775,0.01298127043992281,-0.00013393360131885856,0.008053382858633995
0.008719134144484997,-1.794858042575067e-38,-0.01314803957939148,0.012729007750749588,-0.00013006245717406273,0.00788486935198307
0.008767252787947655,-2.4080333200496954e-40,-0.01315806619822979,0.012974188663065434,-0.00013881910126656294,0.008077207952737808
0.009461326524615288,-3.2299929602687033e-42,-0.012898909859359264,0.012676231563091278,-0.0001467049733037129,0.008121294900774956
0.009104158729314804,-4.344025239406933e-44,-0.013126908801496029,0.012102058157324791,-0.00014356605242937803,0.007555500138550997
0.00881938450038433,-0.0,-0.012572729960083961,0.012195518240332603,-0.00013989619037602097,0.008472108282148838
0.008654076606035233,-0.0,-0.013258840888738632,0.01208964642137289,-0.00013636639050673693,0.008174482733011246
0.008937365375459194,0.0,-0.012210063636302948,0.012687435373663902,-0.00013300760474521667,0.008085384033620358
0.008892921730875969,0.0,-0.012476660311222076,0.012240872718393803,-0.00014044178533367813,0.008589273318648338
0.009499386884272099,0.0,-0.012668362818658352,0.011936015449464321,-0.00014445088163483888,0.007921474985778332
0.009499386884272099,0.0,-0.012668362818658352,0.011936015449464321,-0.00014445088163483888,0.007921474985778332
0.009118422865867615,0.0,-0.012554408051073551,0.011737117543816566,-0.00014125458255875856,0.008055032230913639
0.008720699697732925,0.0,-0.012129418551921844,0.013807897455990314,-0.00013815965212415904,0.00885691773146391
0.00926776509732008,0.0,-0.012908007949590683,0.011927859857678413,-0.0001532195892650634,0.008729474619030952
0.009767900221049786,0.0,-0.012777612544596195,0.011931294575333595,-0.00015117813018150628,0.008303580805659294
0.008465527556836605,0.0,-0.012848618440330029,0.011940731666982174,-0.00014814425958320498,0.008319775573909283
0.008765771985054016,0.0,-0.012876728549599648,0.012526782229542732,-0.00014516229566652328,0.008994796313345432
0.009485617280006409,0.0,-0.012905553914606571,0.013117027468979359,-0.00014229380758479238,0.008827915415167809
0.008939368650317192,0.0,-0.012823891825973988,0.013105383142828941,-0.00013953614688944072,0.008481213822960854
0.00874781608581543,0.0,-0.012602434493601322,0.012979621067643166,-0.00013688312901649624,0.00877462886273861
0.009662933647632599,0.0,-0.012784164398908615,0.012876776978373528,-0.00017352092254441231,0.008286293596029282
0.008801575750112534,0.0,-0.01335790567100048,0.0127389682456851,-0.0001677844556979835,0.008221975527703762
0.009022907353937626,0.0,-0.013036227785050869,0.0132777513936162,-0.000161798729095608,0.008307556621730328
0.008900798857212067,0.0,-0.013745584525167942,0.01309733372181654,-0.00015618553152307868,0.00871790200471878
0.008900798857212067,0.0,-0.013745584525167942,0.01309733372181654,-0.00015618553152307868,0.00871790200471878
0.008756060153245926,0.0,-0.013094933703541756,0.012710188515484333,-0.00016574407345615327,0.008546432480216026
0.009239539504051208,0.0,-0.013059583492577076,0.012126632034778595,-0.0001696802646620199,0.00840501394122839
0.009239539504051208,0.0,-0.013059583492577076,0.012126632034778595,-0.0001696802646620199,0.00840501394122839
0.008939827792346478,0.0,-0.013481647707521915,0.013003252446651459,-0.00016456781304441392,0.008832047693431377
0.00899058673530817,0.0,-0.013187299482524395,0.011993552558124065,-0.00015970437380019575,0.008898716419935226
0.009311474859714508,0.0,-0.01290122140198946,0.012399465776979923,-0.00017923138511832803,0.00872863456606865
0.008883589878678322,0.0,-0.013016902841627598,0.012563933618366718,-0.00017580231360625476,0.009030126966536045
0.009390104562044144,0.0,-0.012761836871504784,0.012747528962790966,-0.0001711292570689693,0.008428504690527916
0.00962026696652174,0.0,-0.013603192754089832,0.012620017863810062,-0.00016661023255437613,0.008625042624771595
0.009556558914482594,0.0,-0.012674610130488873,0.012423090636730194,-0.0001623174612177536,0.009072236716747284
0.009710979647934437,0.0,-0.0133016062900424,0.012931312434375286,-0.00015824026195332408,0.008968803100287914
0.0098774004727602,0.0,-0.012958203442394733,0.012470845133066177,-0.00017493874474894255,0.009742769412696362
0.00990629568696022,0.0,-0.013667830266058445,0.012779884971678257,-0.0001720990112517029,0.009203257970511913
0.009713743813335896,0.0,-0.013291450217366219,0.01217807549983263,-0.0001681669382378459,0.008038974367082119
0.010475710965692997,0.0,-0.013977095484733582,0.012467516586184502,-0.00016433405107818544,0.008038224652409554
0.009519064798951149,0.0,-0.013059788383543491,0.01258123479783535,-0.0001606671285117045,0.008480534888803959
0.009488003328442574,0.0,-0.013545704074203968,0.012389019131660461,-0.00015729204460512847,0.008737154304981232
0.010730600915849209,0.0,-0.013742913492023945,0.012470141053199768,-0.00019671465270221233,0.00892165768891573
0.00965963490307331,0.0,-0.013359823264181614,0.011936602182686329,-0.0001913747692015022,0.00911454763263464
0.009309716522693634,0.0,-0.013681133277714252,0.012885523028671741,-0.0001837562449509278,0.009304529055953026
0.010847510769963264,0.0,-0.013217918574810028,0.012265768833458424,-0.00017655799456406385,0.008764167316257954
0.009690449573099613,0.0,-0.013235348276793957,0.01251008827239275,-0.00019210419850423932,0.009247560985386372
0.010516717098653316,0.0,-0.014038619585335255,0.01263041328638792,-0.00018927137716673315,0.008863139897584915
0.009677176363766193,0.0,-0.01343824714422226,0.013097007758915424,-0.00018310769519302994,0.009186961688101292
0.009608590975403786,0.0,-0.01363526750355959,0.01247592642903328,-0.00019896842422895133,0.00901333149522543
0.009608590975403786,0.0,-0.01363526750355959,0.01247592642903328,-0.00019896842422895133,0.00901333149522543
0.010370559059083462,0.0,-0.013360878452658653,0.012703269720077515,-0.000199574715225026,0.009244072251021862
0.010049007833003998,0.0,-0.01420822273939848,0.012461771257221699,-0.00019388413056731224,0.009006638079881668
0.010379738174378872,0.0,-0.013805211521685123,0.013199716806411743,-0.00018812355119735003,0.009429998695850372
0.010045191273093224,0.0,-0.014105064794421196,0.012867686338722706,-0.00020701113680843264,0.00905058067291975
0.00984087772667408,0.0,-0.013735718093812466,0.013140881434082985,-0.00020276824943721294,0.008882728405296803
0.0111945029348135,0.0,-0.014653448946774006,0.012990925461053848,-0.00019731497741304338,0.009210062213242054
0.010571209713816643,0.0,-0.014385650865733624,0.012594088912010193,-0.00019205801072530448,0.009934082627296448
0.009978174231946468,0.0,-0.014663665555417538,0.012752237729728222,-0.00025610451120883226,0.009342099539935589
0.010364118963479996,0.0,-0.013595310039818287,0.01237560249865055,-0.000251864519668743,0.00950578786432743
0.0103730084374547,0.0,-0.014499256387352943,0.012761958874762058,-0.00023913597397040576,0.009441791102290154
0.010195428505539894,0.0,-0.013942536897957325,0.01235817652195692,-0.0002271066914545372,0.009678301401436329
0.01096390001475811,0.0,-0.01466395240277052,0.012625036761164665,-0.00024811242474243045,0.010101082734763622
0.010324395261704922,0.0,-0.013910734094679356,0.01292563695460558,-0.00024679882335476577,0.009270407259464264
0.009726905263960361,0.0,-0.014636645093560219,0.01257349457591772,-0.0002366374828852713,0.009114195592701435
0.010322611778974533,0.0,-0.014093916863203049,0.012916158884763718,-0.00022674178762827069,0.010037404485046864
0.010205961763858795,0.0,-0.014547917060554028,0.012346175499260426,-0.0002514058433007449,0.009414606727659702
0.01095440611243248,0.0,-0.013997126370668411,0.012975904159247875,-0.0002438764931866899,0.009474661201238632
0.010460129007697105,0.0,-0.01409362256526947,0.012447047978639603,-0.00023492514446843415,0.009718655608594418
0.009941477328538895,0.0,-0.014018205925822258,0.012935364618897438,-0.0002264879149151966,0.009825408458709717
0.010261837393045425,0.0,-0.014164013788104057,0.012422580271959305,-0.00021862747962586582,0.00981759000569582
0.010479516349732876,0.0,-0.013875974342226982,0.012238308787345886,-0.00021129404194653034,0.010283682495355606
0.010355262085795403,0.0,-0.014067084528505802,0.012246033176779747,-0.0002044366265181452,0.009779206477105618
0.010229747742414474,0.0,-0.013766978867352009,0.01230037771165371,-0.0001980105444090441,0.009676058776676655
0.009733466431498528,0.0,-0.014068787917494774,0.013001137413084507,-0.0002111218636855483,0.01051831804215908
0.01013859547674656,0.0,-0.013773133978247643,0.012826694175601006,-0.00020667984790634364,0.009908383712172508
0.010562467388808727,0.0,-0.014033780433237553,0.012587233446538448,-0.00020101512200199068,0.009775565005838871
0.010725965723395348,0.0,-0.013481909409165382,0.013003082945942879,-0.00019556160259526223,0.009836767800152302
0.010725965723395348,0.0,-0.013481909409165382,0.013003082945942879,-0.00019556160259526223,0.009836767800152302
0.010443564504384995,0.0,-0.013967707753181458,0.013174484483897686,-0.0001903906959341839,0.009887201711535454
0.0105094900354743,0.0,-0.013931711204349995,0.013447433710098267,-0.00018548530351836234,0.010613122954964638
0.010127371177077293,0.0001342828618362546,-0.01423146016895771,0.013322356157004833,-0.0001808267697924748,0.01022943202406168
0.010733488015830517,0.00017185417527798563,-0.01337356586009264,0.013210584409534931,-0.00017639629368204623,0.010075261816382408
0.010438059456646442,0.00016608487931080163,-0.013709694147109985,0.013520103879272938,-0.00017217779532074928,0.010881436057388783
0.010244634002447128,0.00016018054157029837,-0.013692567124962807,0.013527140021324158,-0.00016815638809930533,0.010661766864359379
0.010510960593819618,0.00015467510093003511,-0.014532897621393204,0.013263839296996593,-0.000164318538736552,0.010475563816726208
0.010671875439584255,0.0001495348842581734,-0.013767896220088005,0.012384208850562572,-0.00016065206727944314,0.010507307015359402
0.01143055409193039,0.00016373893595300615,-0.014297367073595524,0.012647433206439018,-0.00015714549226686358,0.01019184198230505
0.01138067152351141,0.00016812644025776535,-0.013775533065199852,0.01217970997095108,-0.00015378888929262757,0.010702257975935936
0.010316997766494751,0.00016317330300807953,-0.014316622167825699,0.012922166846692562,-0.00015087179781403393,0.009927449747920036
0.010667964816093445,0.000158388982526958,-0.013679927214980125,0.01257436815649271,-0.00013901246711611748,0.009427502751350403
0.010961317457258701,0.00017916692013386637,-0.01403042208403349,0.012111786752939224,-0.00013438984751701355,0.010000009089708328
0.01009865291416645,0.0001745433110045269,-0.013684483245015144,0.012645404785871506,-0.00013046250387560576,0.010491900146007538
0.010513450019061565,0.00016984186368063092,-0.014260141178965569,0.012473871931433678,-0.00012678452185355127,0.01050302293151617
0.010501768440008163,0.00018091493984684348,-0.013987519778311253,0.01272572111338377,-0.00012330999015830457,0.010179964825510979
0.010642771609127522,0.00018406657909508795,-0.014414737932384014,0.012495191767811775,-0.00012002077710349113,0.009959273971617222
0.01102521363645792,0.00017957990348804742,-0.01374110858887434,0.01266604382544756,-0.00011690279643516988,0.010322032496333122
0.010587196797132492,0.00017521134577691555,-0.014161772094666958,0.01264659222215414,-0.00011394254397600889,0.010457002557814121
0.010881436988711357,0.00017142480646725744,-0.013743746094405651,0.012773655354976654,-0.0001111284873331897,0.010280927643179893
0.01094527542591095,0.0002444390847813338,-0.01428243424743414,0.012789716944098473,-0.00010845010547200218,0.010210254229605198
0.010534347966313362,0.00023289390082936734,-0.01400112733244896,0.012765327468514442,-0.00010589785233605653,0.010465100407600403
0.01088691782206297,0.0002214469714090228,-0.01443384774029255,0.013052014634013176,-0.00011363448720658198,0.010704651474952698
0.010603406466543674,0.0002402797108516097,-0.013587191700935364,0.013054356910288334,-0.00011865243141073734,0.010376861318945885
0.010757162235677242,0.00023152805806603283,-0.013888757675886154,0.01271850522607565,-0.00011614125833148137,0.009788597002625465
0.010752907954156399,0.000257528736256063,-0.01445026881992817,0.013037273660302162,-0.00011369844287401065,0.010193086229264736
0.011249988339841366,0.00024878428666852415,-0.013965203426778316,0.013005527667701244,-0.00011135405657114461,0.010631044395267963
0.012594430707395077,0.0002730663400143385,-0.013689183630049229,0.012981265783309937,-0.00011804889800259843,0.010822301730513573
0.012594430707395077,0.0002730663400143385,-0.013689183630049229,0.012981265783309937,-0.00011804889800259843,0.010822301730513573
0.012735442258417606,0.00040795188397169113,-0.013591147027909756,0.013391945511102676,-0.00012230488937348127,0.010841439478099346
0.012525554746389389,0.00042366236448287964,-0.014063896611332893,0.013754415325820446,-0.00012001102004433051,0.01092296652495861
0.012484079226851463,0.0004147985018789768,-0.014031493104994297,0.013206932693719864,-0.0001177698140963912,0.010519403032958508
0.012484079226851463,0.0004147985018789768,-0.014031493104994297,0.013206932693719864,-0.0001177698140963912,0.010519403032958508
0.012533064931631088,0.00038549871533177793,-0.014032099395990372,0.013063893653452396,-0.00011560890561668202,0.010687537491321564
0.012801988050341606,0.00035981007385998964,-0.013612253591418266,0.012446601875126362,-0.00011352559522492811,0.010573743842542171
0.012958651408553123,0.0003927486250177026,-0.014163932763040066,0.013544094748795033,-0.00011935760994674638,0.010752012021839619
0.01250031590461731,0.0003703978727571666,-0.013571912422776222,0.013607913628220558,-0.00012470190995372832,0.01072146836668253
0.013026264496147633,0.0003991063858848065,-0.014054220169782639,0.013375218957662582,-0.00012305480777285993,0.010886050760746002
0.012689921073615551,0.0003804028674494475,-0.013567835092544556,0.013057621195912361,-0.00012101797619834542,0.011057596653699875
0.012943021953105927,0.0004363325424492359,-0.014074784703552723,0.013402911834418774,-0.0001190196126117371,0.01117955707013607
0.012908699922263622,0.00045090049388818443,-0.013472257182002068,0.013492107391357422,-0.00011708419333444908,0.011203169822692871
0.013485508039593697,0.00043933038250543177,-0.01406172476708889,0.012956383638083935,-0.0001152107652160339,0.010459767654538155
0.012693839147686958,0.00046618838678114116,-0.01351514458656311,0.01325156819075346,-0.0001267299085156992,0.010634254664182663
0.013201901689171791,0.00048220157623291016,-0.01378236711025238,0.01227478589862585,-0.00013571968884207308,0.011154607869684696
0.012710283510386944,0.00047085597179830074,-0.013732345774769783,0.01249883882701397,-0.0001325586490565911,0.011344391852617264
0.013106187805533409,0.0006339132669381797,-0.014790997840464115,0.012436682358384132,-0.00012881845759693533,0.011373661458492279
0.013000674545764923,0.0006708464352414012,-0.014271588996052742,0.01311468705534935,-0.00012523676559794694,0.011098301969468594
0.012968924827873707,0.0006005815812386572,-0.014751102775335312,0.01252638828009367,-0.00014457921497523785,0.010995875112712383
0.013233397156000137,0.0006267333519645035,-0.01373500656336546,0.01332160271704197,-0.00014225294580683112,0.011637664400041103
0.012565689161419868,0.0005731275305151939,-0.014627178199589252,0.013202634640038013,-0.0001386960211675614,0.011353462003171444
0.012885186821222305,0.0005559707060456276,-0.014513454400002956,0.013052484951913357,-0.00015353217895608395,0.011410566978156567
0.013078623451292515,0.0005734676378779113,-0.013713194988667965,0.012649280950427055,-0.00015021752915345132,0.011049367487430573
0.012794887647032738,0.000609974900726229,-0.014351945370435715,0.01313809584826231,-0.00014674085832666606,0.011641351506114006
0.013144019059836864,0.0006395393284037709,-0.014012226834893227,0.012934078462421894,-0.00016119594511110336,0.012596739456057549
0.01358230970799923,0.000661201192997396,-0.014746335335075855,0.013201448135077953,-0.00016006483929231763,0.01186559908092022
0.01321394369006157,0.0007989709265530109,-0.01418427936732769,0.012610690668225288,-0.00015674041060265154,0.010516851209104061
0.013857610523700714,0.0008554767700843513,-0.014593993313610554,0.01325346902012825,-0.00015341110702138394,0.01052111480385065
0.01352648064494133,0.0007787339272908866,-0.014156349003314972,0.01351282186806202,-0.00015049394278321415,0.011222357861697674
0.01352648064494133,0.0007787339272908866,-0.014156349003314972,0.01351282186806202,-0.00015049394278321415,0.011222357861697674
0.013736843131482601,0.000792817329056561,-0.01484869047999382,0.013853254728019238,-0.00025450039538554847,0.011552359908819199
0.014101036824285984,0.000793808838352561,-0.013980056159198284,0.013727818615734577,-0.0002720492775551975,0.011512038297951221
0.013677243143320084,0.0007368027581833303,-0.014646879397332668,0.013662047684192657,-0.00028076834860257804,0.011628628708422184
0.012832911685109138,0.0008465777500532568,-0.014338375069200993,0.013430970720946789,-0.0002683108323253691,0.011170587502419949
0.01352405920624733,0.0008651787647977471,-0.0147708710283041,0.013272318057715893,-0.0002953970106318593,0.011891510337591171
0.013440895825624466,0.0008751742425374687,-0.014254248701035976,0.013516235165297985,-0.00028464291244745255,0.012035148218274117
0.013423532247543335,0.0012788806343451142,-0.015025814063847065,0.013280672952532768,-0.0002724979422055185,0.011526145972311497
0.013351913541555405,0.0012103101471439004,-0.013984604738652706,0.013768288306891918,-0.0002959816192742437,0.011833990924060345
0.013543609529733658,0.0011595740215852857,-0.01451823953539133,0.0132944630458951,-0.00028647182625718415,0.011711285449564457
0.013464657589793205,0.0010932956356555223,-0.01413728203624487,0.013383212499320507,-0.00042731352732516825,0.011832097545266151
0.013692596927285194,0.0010365515481680632,-0.014774936251342297,0.013129128143191338,-0.0004503756354097277,0.01184428296983242
0.013979451730847359,0.0010133249452337623,-0.014301545917987823,0.013733810745179653,-0.0004503162926994264,0.01188916340470314
0.013363287784159184,0.0009970144601538777,-0.014637893065810204,0.013924571685492992,-0.00041790580144152045,0.012127603404223919
0.013924317434430122,0.0010185942519456148,-0.013959484174847603,0.01422096136957407,-0.00044813568820245564,0.011821976862847805
0.013720297254621983,0.0011559855192899704,-0.014371352270245552,0.013635762967169285,-0.0004220317932777107,0.01185193657875061
0.01389198936522007,0.0011545639717951417,-0.014014954678714275,0.013706167228519917,-0.00044836444430984557,0.012135827913880348
0.013616077601909637,0.0015340063255280256,-0.014515412971377373,0.013312377966940403,-0.0004253161605447531,0.012188420630991459
0.01426014956086874,0.0014523161808028817,-0.014016250148415565,0.01321413740515709,-0.0004548317228909582,0.01203541737049818
0.01398591697216034,0.0014446527929976583,-0.01390341017395258,0.013290212489664555,-0.0004210472106933594,0.012111946940422058
0.01398591697216034,0.0014446527929976583,-0.01390341017395258,0.013290212489664555,-0.0004210472106933594,0.012111946940422058
0.0146257309243083,0.0013008443638682365,-0.014205691404640675,0.013100256212055683,-0.0004254097875673324,0.012635400518774986
0.014070331119000912,0.0013901455095037818,-0.01489968691021204,0.0136437201872468,-0.00042650458635762334,0.012287762947380543
0.014371232129633427,0.0014585114549845457,-0.01440902054309845,0.01294206827878952,-0.00042681314516812563,0.012289514765143394
0.013717778027057648,0.0016486931126564741,-0.01497343648225069,0.013261967338621616,-0.000401512865209952,0.012325586751103401
0.013717778027057648,0.0016486931126564741,-0.01497343648225069,0.013261967338621616,-0.000401512865209952,0.012325586751103401
0.014257700182497501,0.0016901569906622171,-0.014248373918235302,0.013126930221915245,-0.00042420485988259315,0.012218073941767216
0.013888278976082802,0.0016002049669623375,-0.014880719594657421,0.013672938570380211,-0.0004069101414643228,0.012376563623547554
0.014347433112561703,0.0017031667521223426,-0.014042777940630913,0.013234804384410381,-0.0004429207765497267,0.01217822078615427
0.014010702259838581,0.0015993454726412892,-0.014645581133663654,0.013845497742295265,-0.0004675311502069235,0.012467831373214722
0.014199396595358849,0.0017831854056566954,-0.014321771450340748,0.013464451767504215,-0.00044755503768101335,0.012333596125245094
0.013867178000509739,0.0016567364800721407,-0.015179388225078583,0.013101634569466114,-0.0004786117351613939,0.012203322723507881
0.014170882292091846,0.0017210872611030936,-0.014128023758530617,0.012964262627065182,-0.0004959215875715017,0.012262684293091297
0.014073689468204975,0.001744317589327693,-0.014282641001045704,0.012695868499577045,-0.000477944704471156,0.012311172671616077
0.014453637413680553,0.0020659994333982468,-0.01380792073905468,0.013087039813399315,-0.0006310352473519742,0.012796230614185333
0.014098625630140305,0.0018535023555159569,-0.014644870534539223,0.012814763933420181,-0.0006627036491408944,0.012106395326554775
0.01449858769774437,0.0018292326712980866,-0.014165029861032963,0.01303885318338871,-0.0006147619569674134,0.012519730255007744
0.014367124997079372,0.0018248915439471602,-0.014576424844563007,0.012724942527711391,-0.000632822688203305,0.013431201688945293
0.014417785219848156,0.0018467126647010446,-0.013859184458851814,0.013364840298891068,-0.000584893103223294,0.012451247312128544
0.014330729842185974,0.0018794162897393107,-0.014898886904120445,0.013568589463829994,-0.0005728128599002957,0.012567806988954544
0.01479650940746069,0.002150262938812375,-0.014314310625195503,0.013657791540026665,-0.0005617808783426881,0.012790101580321789
0.01431075669825077,0.0019630659371614456,-0.01458040066063404,0.012872717343270779,-0.0005233438569121063,0.013156836852431297
0.014488481916487217,0.002024542074650526,-0.0142305763438344,0.013044831342995167,-0.0005183856119401753,0.01315762847661972
0.01457870751619339,0.0018989924574270844,-0.014702655375003815,0.013456257991492748,-0.0004680439305957407,0.013182044960558414
0.014982840046286583,0.0020373628940433264,-0.01399939600378275,0.013395668007433414,-0.00046501020551659167,0.013089064508676529
0.014456246048212051,0.0025906828232109547,-0.014840341173112392,0.013587621040642262,-0.0004621995612978935,0.013682994060218334
0.014815851114690304,0.0025537866167724133,-0.01396438479423523,0.012805504724383354,-0.0004279714485164732,0.013304821215569973
0.014940292574465275,0.0023355961311608553,-0.013904087245464325,0.012836742214858532,-0.0004288792551960796,0.013373121619224548
0.014562036842107773,0.0021706719417124987,-0.014152531512081623,0.013587095774710178,-0.0004033300210721791,0.013292741030454636
0.015105115249752998,0.002007900271564722,-0.013878586702048779,0.012747964821755886,-0.00037916918518021703,0.012837251648306847
0.014787189662456512,0.00244629243388772,-0.014990922063589096,0.013475904241204262,-0.00039529602508991957,0.013029015623033047
0.015023700892925262,0.003208399983122945,-0.014533968642354012,0.01267055794596672,-0.00038589249015785754,0.013343011029064655
0.015023700892925262,0.003208399983122945,-0.014533968642354012,0.01267055794596672,-0.00038589249015785754,0.013343011029064655
0.015147337689995766,0.0032207369804382324,-0.014748639427125454,0.01254553347826004,-0.00036698911571875215,0.013685203157365322
0.01536994893103838,0.0027259099297225475,-0.014781841076910496,0.013295285403728485,-0.00034923310158774257,0.014032122679054737
0.015243297442793846,0.0026246043853461742,-0.014826073311269283,0.012954553589224815,-0.0003330768086016178,0.013839674182236195
0.0154051398858428,0.0027339765802025795,-0.014381872490048409,0.013430630788207054,-0.0003183461958542466,0.013801125809550285
0.01505193393677473,0.0029538606759160757,-0.015419515781104565,0.012787086889147758,-0.0002951509377453476,0.01340445689857006
0.01548454537987709,0.0028727264143526554,-0.015010281465947628,0.013683372177183628,-0.00026934061315841973,0.013812731020152569
0.015220276080071926,0.0030406666919589043,-0.015465269796550274,0.013750486075878143,-0.0002536206447985023,0.013515078462660313
0.0152888223528862,0.0029161139391362667,-0.015217925421893597,0.014109103940427303,-0.00024005047453101724,0.013869688846170902
0.015354416333138943,0.0027800248935818672,-0.015155109576880932,0.01367237325757742,-0.00022788773640058935,0.013997363857924938
0.015287486836314201,0.002857416868209839,-0.014323823153972626,0.01372989360243082,-0.0002169000799767673,0.014238598756492138
0.015278811566531658,0.003000045195221901,-0.015403486788272858,0.013329646550118923,-0.00020692340331152081,0.01391551736742258
0.015150497667491436,0.0031921998597681522,-0.015023301355540752,0.01346075814217329,-0.00019782429444603622,0.013912257738411427
0.015172756277024746,0.002992820693179965,-0.01600482128560543,0.013117797672748566,-0.0001894923479994759,0.013911660760641098
0.014825143851339817,0.002798123750835657,-0.015085960738360882,0.013308071531355381,-0.00018183367501478642,0.01366049237549305
0.015563632361590862,0.002828433644026518,-0.015078000724315643,0.013189561665058136,-0.00017477036453783512,0.013637039810419083
0.015028243884444237,0.0029116105288267136,-0.014924549497663975,0.013323700986802578,-0.00016823553596623242,0.01387242041528225
0.01608668640255928,0.0031544954981654882,-0.015642864629626274,0.013466653414070606,-0.00019240881374571472,0.013905045576393604
0.016226544976234436,0.003511937567964196,-0.01522433664649725,0.0132598876953125,-0.00018769197049550712,0.014205854386091232
0.016237186267971992,0.003288181032985449,-0.014663564041256905,0.013649260625243187,-0.00018151152471546084,0.014330748468637466
0.016332995146512985,0.003497600555419922,-0.015088804997503757,0.01360159832984209,-0.00017561610729899257,0.014300426468253136
0.015945609658956528,0.003283449914306402,-0.015092354267835617,0.013815544545650482,-0.00017008469149004668,0.014472641982138157
0.015697935596108437,0.0034241352695971727,-0.01574726402759552,0.013367755338549614,-0.0001648903707973659,0.013350949622690678
0.015952831134200096,0.0030931183136999607,-0.015017307363450527,0.013638465665280819,-0.00018314852786716074,0.01353118009865284
0.016102047637104988,0.0030154201667755842,-0.014524946920573711,0.013823575340211391,-0.00017621238657739013,0.014239571057260036
0.015415665693581104,0.003230358473956585,-0.015333048067986965,0.013341829180717468,-0.00017143081640824676,0.014450972899794579
0.015415665693581104,0.003230358473956585,-0.015333048067986965,0.013341829180717468,-0.00017143081640824676,0.014450972899794579
0.01657978817820549,0.0031453948467969894,-0.014928353019058704,0.013312985189259052,-0.00016689002222847193,0.0144423209130764
0.017211822792887688,0.002891295123845339,-0.015170987695455551,0.013024190440773964,-0.000162582888151519,0.014422912150621414
0.01644269749522209,0.0029251952655613422,-0.014710337854921818,0.01302203070372343,-0.00015849243209231645,0.014464890584349632
0.01597793772816658,0.0029616975225508213,-0.015551544725894928,0.013366887345910072,-0.00017378258053213358,0.014707962051033974
0.016398651525378227,0.0030462387949228287,-0.014884022995829582,0.013835637830197811,-0.00017226678028237075,0.014859311282634735
0.016652559861540794,0.0028322292491793633,-0.015015755780041218,0.013974612578749657,-0.00016840996977407485,0.014600084163248539
0.017183473333716393,0.002758465241640806,-0.014744487591087818,0.013272079639136791,-0.0001645715965423733,0.014634277671575546
0.017075052484869957,0.0020773927681148052,-0.015378333628177643,0.013462631963193417,-0.00016089466225821525,0.014936876483261585
0.0169187281280756,0.0014296991284936666,-0.014865690842270851,0.013463514856994152,-0.0001573777262819931,0.015258674509823322
0.017485668882727623,0.0008708493551239371,-0.015146689489483833,0.01379017997533083,-0.0001540112862130627,0.01484851073473692
0.01687876507639885,0.0003122343623545021,-0.01486310176551342,0.01354591641575098,-0.00014139748236630112,0.014514096081256866
0.01747061312198639,0.0005155701655894518,-0.01488505955785513,0.014175507239997387,-0.00013597369252238423,0.014646187424659729
0.017499340698122978,0.0006538384477607906,-0.015260361135005951,0.013910302892327309,-0.00013191229663789272,0.015222274698317051
0.017044976353645325,0.0017331467242911458,-0.01490531675517559,0.01426592655479908,-0.00012815049558412284,0.015390978194773197
0.017799455672502518,0.001615883782505989,-0.015161481685936451,0.013625022023916245,-0.00012460160360205919,0.01507304236292839
0.017581086605787277,0.001676792511716485,-0.01499918382614851,0.013828445225954056,-0.00013315113028511405,0.015083775855600834
0.01754947006702423,0.0013445826480165124,-0.01508347038179636,0.01330086961388588,-0.00014086952432990074,0.014861260540783405
0.017497926950454712,0.001247991225682199,-0.014913972467184067,0.013552223332226276,-0.00013800057058688253,0.014927558600902557
0.017179977148771286,0.0011434236075729132,-0.01546911895275116,0.013341373763978481,-0.0001346080971416086,0.01487466599792242
0.017664391547441483,0.0010252344654873013,-0.015321112237870693,0.013721324503421783,-0.00013133724860381335,0.015370234847068787
0.017542995512485504,0.0007595577626489103,-0.015724940225481987,0.013491516932845116,-0.00012821867130696774,0.01532914862036705
0.017477761954069138,0.0008562577422708273,-0.014692333526909351,0.01348140649497509,-0.00014337481115944684,0.015920259058475494
0.017971621826291084,0.0008976681274361908,-0.015280046500265598,0.013540777377784252,-0.00014262748300097883,0.015666017308831215
0.018146580085158348,0.00130449456628412,-0.015740951523184776,0.013564943335950375,-0.00013661221601068974,0.015331265516579151
0.017640043050050735,0.0012692445889115334,-0.01528776902705431,0.013393539004027843,-0.0001503077073721215,0.014877323992550373
0.01816166192293167,0.0014169354690238833,-0.015485340729355812,0.013831544667482376,-0.00014947543968446553,0.014856690540909767
0.01822136715054512,0.0013264623703435063,-0.015168149955570698,0.014556391164660454,-0.0001465817476855591,0.015973057597875595
0.017939040437340736,0.0012518884614109993,-0.015302315354347229,0.014028615318238735,-0.00014400770305655897,0.015365282073616982
0.018238147720694542,0.0012425597524270415,-0.014970875345170498,0.013314825482666492,-0.00022333694505505264,0.015714988112449646
0.01807418465614319,0.001347720972262323,-0.0155149782076478,0.014214827679097652,-0.00021816122171003371,0.016129255294799805
0.01807418465614319,0.001347720972262323,-0.0155149782076478,0.014214827679097652,-0.00021816122171003371,0.016129255294799805
0.017882004380226135,0.0017795878229662776,-0.015852974727749825,0.013820473104715347,-0.00024725927505642176,0.015430478379130363
0.018371600657701492,0.0018316511996090412,-0.015382117591798306,0.014041709713637829,-0.00023887609131634235,0.01607608050107956
0.0184357687830925,0.002002520952373743,-0.015333698131144047,0.01365558709949255,-0.00025710821500979364,0.01609138771891594
0.018169373273849487,0.0019732657819986343,-0.014728095382452011,0.014460728503763676,-0.00025556597393006086,0.016488101333379745
0.01862742379307747,0.001698389183729887,-0.015328699722886086,0.01413743942975998,-0.0002721646742429584,0.01644236408174038
0.018091334030032158,0.001732354867272079,-0.01493066642433405,0.014302844181656837,-0.0002701886114664376,0.015887757763266563
0.018443215638399124,0.0016157219652086496,-0.015754319727420807,0.013555780053138733,-0.00026203045854344964,0.016072120517492294
0.018928879871964455,0.0018476232653483748,-0.015169424936175346,0.013934807851910591,-0.0004356727877166122,0.016049843281507492
0.01876976154744625,0.0022317918483167887,-0.015782516449689865,0.01418792363256216,-0.0004691710928454995,0.015762440860271454
0.019130390137434006,0.0022256863303482533,-0.01499375980347395,0.01441306620836258,-0.00044950819574296474,0.015496372245252132
0.019410492852330208,0.0022718114778399467,-0.015377583913505077,0.01422972697764635,-0.00046704657142981887,0.016271818429231644
0.018569521605968475,0.002193627879023552,-0.015427074395120144,0.014559228904545307,-0.00044959745719097555,0.01628623530268669
0.01858619414269924,0.0022099269554018974,-0.015914693474769592,0.013621524907648563,-0.0004764986224472523,0.01727301813662052
0.01890716888010502,0.00199079979211092,-0.015448208898305893,0.014022210612893105,-0.0005394629552029073,0.01708952896296978
0.018405530601739883,0.002019096165895462,-0.015415062196552753,0.013550295494496822,-0.0005582187441177666,0.016919150948524475
0.01935677044093609,0.002062829677015543,-0.015908196568489075,0.01361607015132904,-0.000587809132412076,0.01690550521016121
0.01935860514640808,0.002275799633935094,-0.01593603938817978,0.0135376350954175,-0.0005843831459060311,0.016364451497793198
0.018841581419110298,0.002335468539968133,-0.01705891266465187,0.013681287877261639,-0.0005713352584280074,0.016499895602464676
0.01962876506149769,0.002199971117079258,-0.015607446432113647,0.013897005468606949,-0.00059783790493384,0.016749802976846695
0.019693663343787193,0.002108566230162978,-0.015194663777947426,0.014500058256089687,-0.0008476939983665943,0.016824914142489433
0.019548606127500534,0.0023635372053831816,-0.01598484255373478,0.013961108401417732,-0.0008570025092922151,0.016576992347836494
0.01950542815029621,0.0024510491639375687,-0.01607850007712841,0.013584312982857227,-0.0007905096863396466,0.016722019761800766
0.01943918690085411,0.002387439366430044,-0.01632721535861492,0.01350817084312439,-0.0009142458438873291,0.016702566295862198
0.01948057860136032,0.0026598451659083366,-0.01645674556493759,0.014487368054687977,-0.0008871642639860511,0.01713692955672741
0.019647842273116112,0.002551920944824815,-0.016301726922392845,0.014426108449697495,-0.0007916178437881172,0.016937686130404472
0.020361628383398056,0.0024512168020009995,-0.016347743570804596,0.01491102110594511,-0.0007910719723440707,0.01686576008796692
0.020157216116786003,0.0026420296635478735,-0.015436935238540173,0.01433151587843895,-0.0007637209491804242,0.018026204779744148
0.020202012732625008,0.0028263672720640898,-0.016376357525587082,0.014420771040022373,-0.0007308923522941768,0.01614484377205372
0.02027379907667637,0.0029165521264076233,-0.016275908797979355,0.013547052629292011,-0.0006623786175623536,0.016160544008016586
0.01984269544482231,0.0028088523540645838,-0.01672101765871048,0.014247084967792034,-0.0005808419664390385,0.016463812440633774
0.01984269544482231,0.0028088523540645838,-0.01672101765871048,0.014247084967792034,-0.0005808419664390385,0.016463812440633774
0.020428813993930817,0.0029505733400583267,-0.016618937253952026,0.013722816482186317,-0.0005895625217817724,0.01711992174386978
0.020282650366425514,0.0029139488469809294,-0.016019796952605247,0.014190947636961937,-0.0005521971033886075,0.017369907349348068
0.01998845487833023,0.002885633846744895,-0.016527270898222923,0.013925316743552685,-0.0005743875517509878,0.0174087043851614
0.020643537864089012,0.0028662870172411203,-0.015665391460061073,0.014058993197977543,-0.00053542444948107,0.017287829890847206
0.02057432197034359,0.0029226618353277445,-0.017456024885177612,0.013846592977643013,-0.0005282289930619299,0.01689278706908226
0.02027152292430401,0.003160095540806651,-0.01554848626255989,0.014603773131966591,-0.0005212051910348237,0.017311133444309235
0.0202624648809433,0.003108635311946273,-0.015748055651783943,0.013999097049236298,-0.0004918884951621294,0.01728607900440693
0.020856885239481926,0.002922766376286745,-0.01630895957350731,0.014578552916646004,-0.00047989352606236935,0.017561614513397217
0.021028626710176468,0.002623598789796233,-0.016429800540208817,0.014232918620109558,-0.00043600628850981593,0.017675427719950676
0.020397363230586052,0.002624824410304427,-0.016317514702677727,0.015391061082482338,-0.00047143740812316537,0.017073458060622215
0.021087538450956345,0.0031535194721072912,-0.016092266887426376,0.014925559051334858,-0.0004379994934424758,0.01752934418618679
0.021139364689588547,0.0031429638620465994,-0.016700126230716705,0.01504119299352169,-0.00040540489135310054,0.017746299505233765
0.020834295079112053,0.002860040869563818,-0.015965234488248825,0.014319286681711674,-0.0003770948969759047,0.017253603786230087
0.020915506407618523,0.0027411768678575754,-0.0162577535957098,0.01485056709498167,-0.00035246805055066943,0.01763230189681053
0.020907295867800713,0.002589384326711297,-0.015535139478743076,0.014445255510509014,-0.0003821681020781398,0.017703335732221603
0.021207502111792564,0.002822180977091193,-0.01617942377924919,0.014059708453714848,-0.00034383247839286923,0.01785285584628582
0.02126847207546234,0.002942190505564213,-0.016719497740268707,0.014326957985758781,-0.0003260458179283887,0.017586149275302887
0.021158890798687935,0.0028436235152184963,-0.016776086762547493,0.013779304921627045,-0.0003099982859566808,0.017834320664405823
0.021283863112330437,0.0027591774705797434,-0.01605788990855217,0.014835348352789879,-0.0003320118994452059,0.018202174454927444
0.02105521596968174,0.0027957225684076548,-0.01656028814613819,0.013739350251853466,-0.00032216435647569597,0.018295474350452423
0.021233947947621346,0.002909088972955942,-0.015940364450216293,0.013766411691904068,-0.00030867743771523237,0.0185250211507082
0.02151408977806568,0.003217908786609769,-0.0163374412804842,0.013629530556499958,-0.0002960060373879969,0.01839555986225605
0.020677998661994934,0.003141552209854126,-0.016383245587348938,0.01411708164960146,-0.00028431639657355845,0.018064992502331734
0.020677998661994934,0.003141552209854126,-0.016383245587348938,0.01411708164960146,-0.00028431639657355845,0.018064992502331734
0.02095814421772957,0.0028367131017148495,-0.01664874143898487,0.013838312588632107,-0.0002529817575123161,0.01832219399511814
0.02138507552444935,0.0030411817133426666,-0.01638963632285595,0.014229974709451199,-0.0002372322924202308,0.01833243854343891
0.02219848334789276,0.003066744189709425,-0.01579592190682888,0.013949623331427574,-0.0002251985133625567,0.01863287016749382
0.02119462378323078,0.0035113149788230658,-0.016373034566640854,0.014364135451614857,-0.00021445279708132148,0.018982816487550735
0.021237453445792198,0.003270321059972048,-0.01590227521955967,0.013783261179924011,-0.0002401580277364701,0.017541494220495224
0.021219614893198013,0.0030245634261518717,-0.016520226374268532,0.014422773383557796,-0.0002345860266359523,0.017784083262085915
0.02136840485036373,0.0028963505756109953,-0.01631435751914978,0.013815740123391151,-0.00022512261057272553,0.01850905828177929
0.022074207663536072,0.0032217809930443764,-0.016287749633193016,0.014321420341730118,-0.0002427602739771828,0.018525274470448494
0.02163938246667385,0.003298503113910556,-0.016164645552635193,0.014105245471000671,-0.00024183558707591146,0.018799584358930588
0.02136840671300888,0.003493823576718569,-0.016147863119840622,0.013874273747205734,-0.00023342289205174893,0.018828608095645905
0.022079776972532272,0.003215620992705226,-0.016653258353471756,0.01380985602736473,-0.0002489090256858617,0.01882168836891651
0.02188318595290184,0.00302012637257576,-0.016395164653658867,0.014529055915772915,-0.00024785532150417566,0.019112613052129745
0.02200334146618843,0.0031416958663612604,-0.016604024916887283,0.014500698074698448,-0.00024008094624150544,0.018833007663488388
0.021915553137660027,0.0034000708255916834,-0.015776842832565308,0.015153004787862301,-0.00027863492141477764,0.018035845831036568
0.022165246307849884,0.0033347452990710735,-0.01627238094806671,0.014673962257802486,-0.00030401325784623623,0.018141871318221092
0.02153453789651394,0.003165645757690072,-0.016526231542229652,0.014923222362995148,-0.00031545606907457113,0.018436109647154808
0.02141677215695381,0.0032909626606851816,-0.01623692363500595,0.014349263161420822,-0.00032253871904686093,0.01920132525265217
0.022088414058089256,0.003199082100763917,-0.016527514904737473,0.014510526321828365,-0.0003059555310755968,0.01953587681055069
0.022758793085813522,0.003265097038820386,-0.016484593972563744,0.01440383493900299,-0.0003202990919817239,0.018928874284029007
0.02252395637333393,0.003281382145360112,-0.01617051661014557,0.014504418708384037,-0.00034290700568817556,0.01889631524682045
0.02210119366645813,0.0033924065064638853,-0.016393650323152542,0.01499126199632883,-0.00033349788282066584,0.018891502171754837
0.022110646590590477,0.003327533369883895,-0.016313934698700905,0.014518842101097107,-0.000480454444186762,0.01931040547788143
0.022220812737941742,0.003163941903039813,-0.01682550646364689,0.014802495948970318,-0.00048786387196742,0.019005944952368736
0.022705236449837685,0.0032829302363097668,-0.016341300681233406,0.014468382112681866,-0.00048367472481913865,0.018331944942474365
0.022685615345835686,0.0031540077179670334,-0.015560365281999111,0.014847880229353905,-0.0004462662327568978,0.01863131858408451
0.02246727980673313,0.0029931587632745504,-0.016196656972169876,0.014758719131350517,-0.00047619501128792763,0.01876162551343441
0.02246727980673313,0.0029931587632745504,-0.016196656972169876,0.014758719131350517,-0.00047619501128792763,0.01876162551343441
0.02278320863842964,0.0030371369794011116,-0.01598743163049221,0.015840068459510803,-0.00044659682316705585,0.018873468041419983
0.022855855524539948,0.0032007074914872646,-0.016868360340595245,0.015115087851881981,-0.00041727256029844284,0.01980237290263176
0.023003488779067993,0.003080447670072317,-0.01660279743373394,0.01513747964054346,-0.0004433698777575046,0.020077960565686226
0.023221926763653755,0.003031622851267457,-0.016165873035788536,0.014824612066149712,-0.00042108100024051964,0.01983298361301422
0.022992435842752457,0.0029062663670629263,-0.016508622094988823,0.01528526097536087,-0.0004493618616834283,0.019831104204058647
0.023315509781241417,0.003070345614105463,-0.016496308147907257,0.014507793821394444,-0.00048389146104454994,0.019696934148669243
0.023072456941008568,0.0032447425182908773,-0.017621805891394615,0.014532473869621754,-0.0005184531328268349,0.01963050290942192
0.023349612951278687,0.003535493277013302,-0.01684700883924961,0.014200515113770962,-0.0004878154140897095,0.02015436254441738
0.023330479860305786,0.0033441490959376097,-0.016577064990997314,0.014917092397809029,-0.0005135227693244815,0.01935943216085434
0.023190300911664963,0.0031076914165169,-0.016849542036652565,0.015463775023818016,-0.0006923459586687386,0.019554028287529945
0.023301726207137108,0.0029203917365521193,-0.01634247414767742,0.015099091455340385,-0.0007248879410326481,0.01948920451104641
0.024062614887952805,0.0030057334806770086,-0.016391919925808907,0.01453974936157465,-0.0006922906613908708,0.01958484575152397
0.023857202380895615,0.0032168664038181305,-0.016160255298018456,0.014465115033090115,-0.0006170295528136194,0.019572531804442406
0.02355829067528248,0.0035404074005782604,-0.01683872938156128,0.01456767600029707,-0.000639494915958494,0.019849946722388268
0.023443056270480156,0.0037453044205904007,-0.016518479213118553,0.014778350479900837,-0.000625970249529928,0.019903751090168953
0.023719003424048424,0.0034308864269405603,-0.016645483672618866,0.014993143267929554,-0.0006098330486565828,0.019773559644818306
0.0239372868090868,0.003453407436609268,-0.016437740996479988,0.015209276229143143,-0.0005870096501894295,0.019932527095079422
0.024142151698470116,0.0028491420671343803,-0.016673536971211433,0.01494950708001852,-0.0005691932747140527,0.019982099533081055
0.024091824889183044,0.0025480291806161404,-0.016157086938619614,0.015019193291664124,-0.0005252044647932053,0.019754253327846527
0.02379399538040161,0.0025724307633936405,-0.016789311543107033,0.014740193262696266,-0.0005481166881509125,0.020054325461387634
0.02379399538040161,0.0025724307633936405,-0.016789311543107033,0.014740193262696266,-0.0005481166881509125,0.020054325461387634
0.024585355073213577,0.002699080156162381,-0.016180962324142456,0.014861982315778732,-0.0005401685484685004,0.019784562289714813
0.024585355073213577,0.002699080156162381,-0.016180962324142456,0.014861982315778732,-0.0005401685484685004,0.019784562289714813
0.024827346205711365,0.0031729768961668015,-0.01628515124320984,0.015009764581918716,-0.0005973519873805344,0.0197752732783556
0.025040611624717712,0.003093959763646126,-0.01692907139658928,0.01469108834862709,-0.0006102185579948127,0.01983734406530857
0.024608362466096878,0.0028225460555404425,-0.017237769439816475,0.015440684743225574,-0.0006407291512005031,0.020410602912306786
0.02454100176692009,0.0029399623163044453,-0.016322823241353035,0.016188999637961388,-0.0006233903695829213,0.020635178312659264
0.023348815739154816,0.0029774955473840237,-0.01664988324046135,0.01491549238562584,-0.0006401243736036122,0.020105665549635887
0.024071674793958664,0.0029541931580752134,-0.016275713220238686,0.014052792452275753,-0.0005967628094367683,0.01967223733663559
0.02508998103439808,0.002839453052729368,-0.016803883016109467,0.014853140339255333,-0.0006602124194614589,0.019821036607027054
0.02465035207569599,0.0028517344035208225,-0.016944047063589096,0.014355444349348545,-0.0006674158503301442,0.020174961537122726
0.024075692519545555,0.0028117001056671143,-0.01657596230506897,0.014682885259389877,-0.0006421255529858172,0.02038005366921425
0.02467132732272148,0.0028248061425983906,-0.017284510657191277,0.014167588204145432,-0.0006472099339589477,0.02095908857882023
0.025095650926232338,0.0027140267193317413,-0.016494130715727806,0.01495671272277832,-0.000606626330409199,0.020744724199175835
0.02441742829978466,0.0028768235351890326,-0.016654642298817635,0.015103565528988838,-0.0006281690439209342,0.020622890442609787
0.024592867121100426,0.0028961512725800276,-0.01638222299516201,0.014997373335063457,-0.0005822256207466125,0.020498070865869522
0.024538127705454826,0.0028205998241901398,-0.01689823530614376,0.01431193482130766,-0.0005675036227330565,0.021049102768301964
0.024337386712431908,0.0026380950585007668,-0.01734057627618313,0.014510068111121655,-0.0005293064168654382,0.020870110020041466
0.02477360889315605,0.0029729839880019426,-0.016448531299829483,0.01429059263318777,-0.0004752082168124616,0.02048642560839653
0.025175737217068672,0.003149050986394286,-0.016622671857476234,0.015072982758283615,-0.00042987061897292733,0.020164810121059418
0.024495743215084076,0.0032966709695756435,-0.016297852620482445,0.014722127467393875,-0.0004498524940572679,0.02156902849674225
0.024922505021095276,0.0027391575276851654,-0.016709595918655396,0.015130659565329552,-0.0004316599224694073,0.020738616585731506
0.025316797196865082,0.0027545448392629623,-0.017150571569800377,0.014714241027832031,-0.00045843617408536375,0.02038220688700676
0.025457605719566345,0.0030336438212543726,-0.016603810712695122,0.014956972561776638,-0.00043472484685480595,0.02073822170495987
0.025133183225989342,0.0032841593492776155,-0.016332698985934258,0.015340663492679596,-0.000422676675952971,0.020617740228772163
0.02513173036277294,0.002969348570331931,-0.01702592521905899,0.015106248669326305,-0.00041111279278993607,0.020653726533055305
0.02490464597940445,0.002914614509791136,-0.01636231131851673,0.01501829456537962,-0.00039418262895196676,0.021096330136060715
0.02490464597940445,0.002914614509791136,-0.01636231131851673,0.01501829456537962,-0.00039418262895196676,0.021096330136060715
0.024583131074905396,0.003049814375117421,-0.016607820987701416,0.01541487779468298,-0.0003680710797198117,0.021282946690917015
0.024819156154990196,0.0031668043229728937,-0.016963142901659012,0.014943514950573444,-0.0003736081416718662,0.021401943638920784
0.02496739663183689,0.0033394836355000734,-0.016704512760043144,0.015330994501709938,-0.00040594636811874807,0.02130100131034851
0.025509022176265717,0.0030488106422126293,-0.016238370910286903,0.015675492584705353,-0.0003880432923324406,0.021578533574938774
0.025509022176265717,0.0030488106422126293,-0.016238370910286903,0.015675492584705353,-0.0003880432923324406,0.021578533574938774
0.0253299530595541,0.0032851595897227526,-0.016906259581446648,0.015506950207054615,-0.00039506415487267077,0.02109634317457676
0.0253299530595541,0.0032851595897227526,-0.016906259581446648,0.015506950207054615,-0.00039506415487267077,0.02109634317457676
0.02564600482583046,0.0034012675751000643,-0.016772817820310593,0.015288294292986393,-0.0005269793327897787,0.021551204845309258
0.02532443217933178,0.0034552374854683876,-0.0166743453592062,0.015530189499258995,-0.000564577232580632,0.021630022674798965
0.02501283772289753,0.0031772286165505648,-0.016516543924808502,0.015177273191511631,-0.0005325109232217073,0.021201636642217636
0.025296881794929504,0.003422095673158765,-0.017736496403813362,0.01571829803287983,-0.0005251931142993271,0.021403642371296883
0.024912280961871147,0.003214148571714759,-0.018147239461541176,0.015551186166703701,-0.0005175881669856608,0.02188299037516117
0.025419900193810463,0.0032822228968143463,-0.017778871580958366,0.015580467879772186,-0.0005308373947627842,0.02173459157347679
0.02662567049264908,0.0033512369263917208,-0.01814386248588562,0.015774469822645187,-0.0005090986378490925,0.02176934853196144
0.025922229513525963,0.0033578795846551657,-0.017730502411723137,0.015605764463543892,-0.00047838830505497754,0.021933740004897118
0.02611171081662178,0.003591545158997178,-0.017650699242949486,0.016123708337545395,-0.0005113283987157047,0.021646713837981224
0.02418411895632744,0.0034217501524835825,-0.01754392310976982,0.015598570927977562,-0.0005089674377813935,0.022004766389727592
0.025449879467487335,0.0035196165554225445,-0.017487267032265663,0.01551723014563322,-0.0005022194818593562,0.02193373069167137
0.025979500263929367,0.0032042106613516808,-0.018318967893719673,0.015359141863882542,-0.000461892515886575,0.021678706631064415
0.02561030723154545,0.00340223778039217,-0.01799992471933365,0.01608733832836151,-0.00048682469059713185,0.021660078316926956
0.025966687127947807,0.0037140173371881247,-0.01760592870414257,0.015477334149181843,-0.00045963242882862687,0.02175513282418251
0.02676808461546898,0.0033128815703094006,-0.01770644634962082,0.015580853447318077,-0.00045686267549172044,0.0215799268335104
0.026592610403895378,0.003212693380191922,-0.01856859214603901,0.016147928312420845,-0.00046651033335365355,0.022000033408403397
0.026592610403895378,0.003212693380191922,-0.01856859214603901,0.016147928312420845,-0.00046651033335365355,0.022000033408403397
0.02585829421877861,0.0034647441934794188,-0.018330834805965424,0.016466254368424416,-0.0004537815984804183,0.022196954116225243
0.02622832916676998,0.0036828310694545507,-0.017624057829380035,0.015945103019475937,-0.000491142098326236,0.022366685792803764
0.02644595131278038,0.003744762158021331,-0.018311405554413795,0.01649770885705948,-0.0004549053846858442,0.02212960459291935
0.026963403448462486,0.0033244944643229246,-0.017337678000330925,0.015560596249997616,-0.0004802198673132807,0.022375991567969322
0.026723993942141533,0.003536743111908436,-0.01780240423977375,0.0157155878841877,-0.0005099116242490709,0.02286164090037346
0.026919586583971977,0.003359398106113076,-0.018018148839473724,0.015051907859742641,-0.00048597296699881554,0.022719010710716248
0.026667222380638123,0.003570772707462311,-0.01753476820886135,0.015729447826743126,-0.0006091998657211661,0.022667761892080307
0.026937661692500114,0.003630012506619096,-0.018456434831023216,0.016007928177714348,-0.0006490172818303108,0.02323298156261444
0.02710813283920288,0.003648288082331419,-0.017868326976895332,0.01655966229736805,-0.0006572970887646079,0.022431427612900734
0.027050510048866272,0.0036702165380120277,-0.0177147276699543,0.01618872955441475,-0.0006154071306809783,0.021953171119093895
0.027222827076911926,0.0032171152997761965,-0.018085902556777,0.015562260523438454,-0.0006006898474879563,0.022664979100227356
0.027937978506088257,0.003101430833339691,-0.017715390771627426,0.01565922610461712,-0.0005869493470527232,0.023034481331706047
0.027360888198018074,0.003324440447613597,-0.017767086625099182,0.015764422714710236,-0.0005926539888605475,0.02318432740867138
0.027503112331032753,0.0036980905570089817,-0.017864996567368507,0.01605529896914959,-0.0005682541523128748,0.021967638283967972
0.027522848919034004,0.003449010197073221,-0.01759173534810543,0.01547833438962698,-0.0005561017314903438,0.02146214246749878
0.027514202520251274,0.0035904627293348312,-0.01807866431772709,0.01592106558382511,-0.0005438794614747167,0.022198190912604332
0.027486873790621758,0.0036647915840148926,-0.017858581617474556,0.015466607175767422,-0.000568007177207619,0.023447362706065178
0.027872776612639427,0.0038406632374972105,-0.017906589433550835,0.01592211239039898,-0.0005300597404129803,0.023243777453899384
0.02827070653438568,0.003575823735445738,-0.01807878352701664,0.01602918840944767,-0.0005498264217749238,0.023153692483901978
0.027589576318860054,0.0034468574449419975,-0.017326828092336655,0.015249164775013924,-0.0005184751935303211,0.02363322302699089
0.027589576318860054,0.0034468574449419975,-0.017326828092336655,0.015249164775013924,-0.0005184751935303211,0.02363322302699089
0.028481194749474525,0.003119474044069648,-0.017894063144922256,0.015407217666506767,-0.0004971248563379049,0.023796459659934044
0.02832711488008499,0.003650020807981491,-0.01798720471560955,0.015741072595119476,-0.00048769472050480545,0.022621463984251022
0.02832711488008499,0.003650020807981491,-0.01798720471560955,0.015741072595119476,-0.00048769472050480545,0.022621463984251022
0.028684478253126144,0.003534170100465417,-0.01797710917890072,0.015668317675590515,-0.00048588283243589103,0.023751962929964066
0.028767375275492668,0.003409347729757428,-0.018058273941278458,0.015357031486928463,-0.00048186848289333284,0.02453719452023506
0.02902238629758358,0.003666578559204936,-0.01818748190999031,0.016233861446380615,-0.0005093683721497655,0.024258293211460114
0.029118617996573448,0.0034406380727887154,-0.01754654198884964,0.015850568190217018,-0.0004794713750015944,0.023812614381313324
0.02907058596611023,0.003508311463519931,-0.018083959817886353,0.015949953347444534,-0.0005232506664469838,0.023824727162718773
0.029247907921671867,0.003659088397398591,-0.018195392563939095,0.015689898282289505,-0.0004918588092550635,0.023742178454995155
0.029287735000252724,0.0032708279322832823,-0.017594512552022934,0.016155704855918884,-0.0005214476841501892,0.02393745258450508
0.029450371861457825,0.003234575502574444,-0.01814771443605423,0.016108110547065735,-0.0004850713303312659,0.02383039891719818
0.02994302287697792,0.003275775583460927,-0.017709942534565926,0.015738021582365036,-0.00044568636803887784,0.023644644767045975
0.030906621366739273,0.0032253842800855637,-0.018077850341796875,0.0157792828977108,-0.0004621079424396157,0.02386382967233658
0.02965817041695118,0.003459151368588209,-0.018112896010279655,0.016023047268390656,-0.00044509931467473507,0.02387940138578415
0.028689563274383545,0.003705984214320779,-0.017581580206751823,0.01636100932955742,-0.00046047018258832395,0.023999840021133423
0.030200401321053505,0.0037491002585738897,-0.01804725080728531,0.015932884067296982,-0.0004490549035836011,0.024292364716529846
0.03063165955245495,0.003651184495538473,-0.018294507637619972,0.01614793948829174,-0.00047088562860153615,0.0241612009704113
0.02984384074807167,0.003603812539950013,-0.01796242594718933,0.0163775272667408,-0.0004933573072776198,0.024040061980485916
0.03092442825436592,0.0032870264258235693,-0.018253540620207787,0.016606895253062248,-0.0004701047146227211,0.024194538593292236
0.0315806120634079,0.003468469250947237,-0.017720161005854607,0.016575369983911514,-0.000495965767186135,0.024489445611834526
0.0305922944098711,0.0040517463348805904,-0.01815466210246086,0.016203375533223152,-0.0005001367535442114,0.024319084361195564
0.02951015532016754,0.004237870220094919,-0.01852414570748806,0.016614491119980812,-0.000495905231218785,0.024524297565221786
0.03023095428943634,0.004120483994483948,-0.01816515251994133,0.015926185995340347,-0.0005471737822517753,0.024781031534075737
0.03092941828072071,0.004005632363259792,-0.018766988068819046,0.015868304297327995,-0.0005578492418862879,0.024502310901880264
0.030705144628882408,0.0034402168821543455,-0.01871057227253914,0.016089804470539093,-0.0005869689048267901,0.024190623313188553
0.030772313475608826,0.003522263839840889,-0.01828121580183506,0.016433704644441605,-0.0005401927046477795,0.024061981588602066
0.030715906992554665,0.003675271989777684,-0.01834266074001789,0.017059631645679474,-0.0005623286706395447,0.024300437420606613
0.030476219952106476,0.004273760598152876,-0.018090320751070976,0.016553055495023727,-0.0005613933317363262,0.024787751957774162
0.030949153006076813,0.0035333503037691116,-0.019183769822120667,0.01563222147524357,-0.0006124017527326941,0.024768801406025887
0.03099307417869568,0.004067530855536461,-0.01877828687429428,0.015623604878783226,-0.0006345250876620412,0.02393409051001072
0.03093094937503338,0.004275330808013678,-0.017927728593349457,0.015371627174317837,-0.0006382211577147245,0.02372119389474392
0.03119942732155323,0.004009881056845188,-0.018901845440268517,0.015733202919363976,-0.0006625119713135064,0.024683993309736252
0.0311149749904871,0.004130813758820295,-0.018761487677693367,0.01570497266948223,-0.0006447373307310045,0.02507086843252182
0.030950358137488365,0.004206397105008364,-0.01923597976565361,0.016143403947353363,-0.000765231263358146,0.02505733259022236
0.03167762979865074,0.004095974378287792,-0.01920957677066326,0.016389090567827225,-0.0006788193131797016,0.02538076974451542
0.03167762979865074,0.004095974378287792,-0.01920957677066326,0.016389090567827225,-0.0006788193131797016,0.02538076974451542
0.03114311210811138,0.003651463659480214,-0.018208317458629608,0.015885882079601288,-0.0007007012027315795,0.02540106326341629
0.03017572872340679,0.00397492153570056,-0.018953785300254822,0.016312116757035255,-0.0007026986568234861,0.025036301463842392
0.031356215476989746,0.004131409339606762,-0.018974410369992256,0.015621616505086422,-0.0006535052671097219,0.024412382394075394
0.03187919780611992,0.0043951100669801235,-0.01801779866218567,0.01655123010277748,-0.0006721125682815909,0.023887477815151215
0.03218342363834381,0.0045418692752718925,-0.019041117280721664,0.016536246985197067,-0.0006496289861388505,0.024674203246831894
0.031108561903238297,0.004179683979600668,-0.019709398970007896,0.016487957909703255,-0.0005986038595438004,0.025975018739700317
0.03050495870411396,0.003996805753558874,-0.018790539354085922,0.01624712534248829,-0.0006075393757782876,0.02610243484377861
0.03177040442824364,0.003911146428436041,-0.018811820074915886,0.016251951456069946,-0.0006130196852609515,0.02581399492919445
0.03182699531316757,0.00437548803165555,-0.019127005711197853,0.01648351177573204,-0.0006387819303199649,0.025455359369516373
0.031258437782526016,0.004761414136737585,-0.018645646050572395,0.01603252999484539,-0.0006236237240955234,0.025561686605215073
0.032464057207107544,0.004398059099912643,-0.01907169073820114,0.01637878455221653,-0.0007184366113506258,0.025808244943618774
0.03225545957684517,0.004275363404303789,-0.019274640828371048,0.01608295738697052,-0.0007587221916764975,0.02603517472743988
0.03137699142098427,0.004001004155725241,-0.018938440829515457,0.017242971807718277,-0.0007696225657127798,0.026044605299830437
0.030796976760029793,0.0038488295394927263,-0.01918448507785797,0.016988076269626617,-0.0007707041222602129,0.02574056200683117
0.03130931034684181,0.0042570969089865685,-0.019204551354050636,0.016558246687054634,-0.0007233616779558361,0.02563931606709957
0.032049085944890976,0.0040571559220552444,-0.018911058083176613,0.01642947643995285,-0.000778209010604769,0.02609246037900448
0.03225969150662422,0.004283113405108452,-0.019151490181684494,0.01599985919892788,-0.0006734264316037297,0.026353897526860237
0.03193911164999008,0.004337979014962912,-0.018988531082868576,0.016409115865826607,-0.000694675778504461,0.026054613292217255
0.03196713328361511,0.004049661103636026,-0.0186996478587389,0.015942778438329697,-0.0006217038026079535,0.02722245454788208
0.031773004680871964,0.004324256908148527,-0.019165022298693657,0.016202393919229507,-0.000644044834189117,0.025900784879922867
0.03211396187543869,0.004168468527495861,-0.01941772922873497,0.015972577035427094,-0.0005893873749300838,0.025649387389421463
0.03221457451581955,0.004161158576607704,-0.019223937764763832,0.01623319648206234,-0.0005669841775670648,0.02591528743505478
0.03207210451364517,0.00446094898506999,-0.019320691004395485,0.01586940884590149,-0.0005154137033969164,0.026413440704345703
0.03246475011110306,0.004837675951421261,-0.019317124038934708,0.016285216435790062,-0.0004983886610716581,0.026583250612020493
0.03313970938324928,0.004820265807211399,-0.019795864820480347,0.016222188249230385,-0.0004917904152534902,0.026635348796844482
0.03313970938324928,0.004820265807211399,-0.019795864820480347,0.016222188249230385,-0.0004917904152534902,0.026635348796844482
0.031580984592437744,0.004321091342717409,-0.019690003246068954,0.016404787078499794,-0.0005084337899461389,0.02650056965649128
0.033077821135520935,0.0039800433441996574,-0.01880289427936077,0.01595149002969265,-0.0004864725924562663,0.02669255994260311
0.03296790271997452,0.004062693100422621,-0.019119495525956154,0.01670669950544834,-0.0005127568729221821,0.026577649638056755
0.032599713653326035,0.003998043015599251,-0.019206954166293144,0.01661425270140171,-0.0005932000349275768,0.026569422334432602
0.03279108926653862,0.003863181220367551,-0.01943405158817768,0.01604173704981804,-0.0006758238887414336,0.026701124384999275
0.0329304076731205,0.004308641422539949,-0.01991334743797779,0.016121413558721542,-0.0006534747662954032,0.02679826319217682
0.032995954155921936,0.004453121218830347,-0.019596949219703674,0.016211295500397682,-0.0006703499821014702,0.026266062632203102
0.0332663469016552,0.004239918198436499,-0.019384747371077538,0.01713581569492817,-0.0006808183970861137,0.026246337220072746
0.033725474029779434,0.0040155574679374695,-0.019964316859841347,0.016544198617339134,-0.0006443220772780478,0.026420578360557556
0.033360857516527176,0.00423069205135107,-0.019900089129805565,0.016691887751221657,-0.0007125044357962906,0.026624126359820366
0.0337316133081913,0.004303670953959227,-0.019508274272084236,0.01670784316956997,-0.000684252183418721,0.02742275409400463
0.034054603427648544,0.004070177674293518,-0.019844477996230125,0.01669301837682724,-0.0006545605137944221,0.027369588613510132
0.03398960828781128,0.004330117255449295,-0.01993456855416298,0.017154330387711525,-0.0005868335138075054,0.026463985443115234
0.03376335650682449,0.004517727997153997,-0.019120046868920326,0.016687631607055664,-0.0006112897535786033,0.026213383302092552
0.033738553524017334,0.004605195950716734,-0.01984798163175583,0.017128851264715195,-0.0006008547497913241,0.02683539129793644
0.03439239040017128,0.004187476355582476,-0.020262856036424637,0.017238261178135872,-0.0005873494083061814,0.02732083387672901
0.03527866676449776,0.0043866392225027084,-0.02035672403872013,0.01729651540517807,-0.0005451760371215641,0.027326416224241257
0.03461860492825508,0.004506891127675772,-0.019932642579078674,0.0175834558904171,-0.0005052900523878634,0.02842145785689354
0.03378233686089516,0.004699264653027058,-0.020391659811139107,0.01743580773472786,-0.0005230520037002861,0.028830036520957947
0.03509678319096565,0.004240355454385281,-0.020251765847206116,0.017660755664110184,-0.0005563633167184889,0.028113998472690582
0.034325458109378815,0.004406617488712072,-0.019523177295923233,0.017490724101662636,-0.0005852934555150568,0.026415394619107246
0.035174284130334854,0.004096008837223053,-0.02011152356863022,0.017046688124537468,-0.0005631709354929626,0.027585512027144432
0.03586127609014511,0.004350751172751188,-0.02061622031033039,0.017185667529702187,-0.000814155675470829,0.028178473934531212
0.03484904021024704,0.004316671285778284,-0.020472677424550056,0.016638483852148056,-0.0008402962703257799,0.02818707376718521
0.03437244892120361,0.004218878224492073,-0.01905566081404686,0.017718233168125153,-0.0007941790972836316,0.027631400153040886
0.03597040846943855,0.004681523889303207,-0.020660046488046646,0.01702350378036499,-0.0007208290626294911,0.027652835473418236
0.03417497128248215,0.004688822198659182,-0.021428348496556282,0.01747111603617668,-0.0006931922980584204,0.027714956551790237
0.036347199231386185,0.004298689309507608,-0.02022949978709221,0.017389018088579178,-0.0006415262469090521,0.02761925384402275
0.03613666817545891,0.004421497229486704,-0.020391862839460373,0.017947975546121597,-0.0006196910399012268,0.027406800538301468
0.0353078618645668,0.0044508520513772964,-0.020425302907824516,0.017378628253936768,-0.000647509063128382,0.027611061930656433
0.0353078618645668,0.0044508520513772964,-0.020425302907824516,0.017378628253936768,-0.000647509063128382,0.027611061930656433
0.036477867513895035,0.0045439694076776505,-0.02019694820046425,0.017267484217882156,-0.0006727228756062686,0.027828920632600784
0.03621366620063782,0.004662336315959692,-0.02024753950536251,0.01775222457945347,-0.0006538783200085163,0.02795555628836155
0.0356464646756649,0.004712781868875027,-0.02039477601647377,0.017252637073397636,-0.0007819491438567638,0.028334414586424828
0.03620943799614906,0.0045668575912714005,-0.020449699833989143,0.017548466101288795,-0.0008195893606171012,0.028052831068634987
0.03680860251188278,0.004627726506441832,-0.020836586132645607,0.01792866550385952,-0.0007777101709507406,0.02832360751926899
0.03654397279024124,0.0046065375208854675,-0.020769448950886726,0.017737196758389473,-0.000737937050871551,0.028133876621723175
0.03614138811826706,0.004359067417681217,-0.02009599097073078,0.01788240298628807,-0.0007513867458328605,0.028452381491661072
0.037089306861162186,0.004381903912872076,-0.020298385992646217,0.017068203538656235,-0.0007666657911613584,0.028433021157979965
0.03750285506248474,0.004645266570150852,-0.02070526033639908,0.017217662185430527,-0.0007836870499886572,0.029128948226571083
0.03534756228327751,0.00464804470539093,-0.02034924551844597,0.017540471628308296,-0.0006986279622651637,0.029187316074967384
0.03558516129851341,0.0046494523994624615,-0.02017199620604515,0.01731012761592865,-0.0007150409510359168,0.028916826471686363
0.037044212222099304,0.004295078571885824,-0.02052297070622444,0.01718023233115673,-0.0007153933402150869,0.028351252898573875
0.03672255575656891,0.004251295235008001,-0.020518291741609573,0.017087748274207115,-0.0006699819350615144,0.028882872313261032
0.0375794991850853,0.004782490897923708,-0.02031870372593403,0.017612449824810028,-0.000668967142701149,0.030044959858059883
0.03725565969944,0.004837340675294399,-0.02079886943101883,0.018237372860312462,-0.0007020760094746947,0.02957502193748951
0.036190494894981384,0.004922715947031975,-0.020941846072673798,0.017707224935293198,-0.000775484018959105,0.02860163152217865
0.036148447543382645,0.004358702339231968,-0.019942471757531166,0.01751895248889923,-0.000968936481513083,0.028162550181150436
0.03740423917770386,0.004309197887778282,-0.020300915464758873,0.017268719151616096,-0.0011390220606699586,0.029054636135697365
0.03704502433538437,0.004576527047902346,-0.020826106891036034,0.01702057011425495,-0.0011083389399573207,0.028890689834952354
0.03679993003606796,0.0051717315800487995,-0.02060096524655819,0.01746085286140442,-0.0010250116465613246,0.02895663119852543
0.036906883120536804,0.0048522972501814365,-0.01990848034620285,0.017107371240854263,-0.0009482426685281098,0.030101485550403595
0.03744954615831375,0.0048520746640861034,-0.020632771775126457,0.017937256023287773,-0.0007361042080447078,0.029111012816429138
0.037227813154459,0.0044310386292636395,-0.02009030058979988,0.017164070159196854,-0.0007259310223162174,0.028860630467534065
0.0369543582201004,0.004585449583828449,-0.020435908809304237,0.017598677426576614,-0.000745316268876195,0.028984451666474342
0.037500035017728806,0.004708241205662489,-0.020659487694501877,0.017932837828993797,-0.0007375658606179059,0.03028392791748047
0.03800773248076439,0.004775358829647303,-0.020347444340586662,0.018882693722844124,-0.000709178508259356,0.03035491146147251
0.03764186054468155,0.00472827535122633,-0.020425263792276382,0.01859862171113491,-0.000748997728805989,0.02980552241206169
0.03756701573729515,0.0047273412346839905,-0.020513245835900307,0.018138699233531952,-0.0007801780593581498,0.029848245903849602
0.03817126899957657,0.005043448880314827,-0.020626895129680634,0.018535621464252472,-0.000744542689062655,0.029656151309609413
0.03817126899957657,0.005043448880314827,-0.020626895129680634,0.018535621464252472,-0.000744542689062655,0.029656151309609413
0.037712667137384415,0.00487447390332818,-0.02003650926053524,0.01812336966395378,-0.0007099580834619701,0.029508627951145172
0.03788265585899353,0.0049964957870543,-0.020259706303477287,0.017673727124929428,-0.0007078144699335098,0.03001425974071026
0.03882669284939766,0.004939467646181583,-0.020808681845664978,0.01779896579682827,-0.0006688526482321322,0.03043823502957821
0.038273293524980545,0.005178495310246944,-0.02081228792667389,0.01820504292845726,-0.000741672411095351,0.03022153116762638
0.0381416454911232,0.005421164445579052,-0.020952921360731125,0.018513012677431107,-0.0007085295510478318,0.030447199940681458
0.038225460797548294,0.005514213349670172,-0.021049443632364273,0.018817255273461342,-0.0006802942953072488,0.0303775854408741
0.03832186758518219,0.004632262978702784,-0.020390454679727554,0.018275126814842224,-0.0006547744269482791,0.030038587749004364
0.03844617307186127,0.004662485793232918,-0.02016274817287922,0.017916088923811913,-0.0006690569571219385,0.03065953403711319
0.03849327936768532,0.005084276665002108,-0.020963123068213463,0.017933882772922516,-0.0006214135210029781,0.03061555325984955
0.0378849059343338,0.005519199650734663,-0.020987095311284065,0.017988000065088272,-0.0006362271960824728,0.03056536242365837
0.038107894361019135,0.005257084034383297,-0.020677413791418076,0.018488934263586998,-0.0005677749286405742,0.030742106959223747
0.03856866806745529,0.0051149665378034115,-0.020096221938729286,0.01830008067190647,-0.000591468415223062,0.030897261574864388
0.039948925375938416,0.00488701369613409,-0.02088594250380993,0.018418636173009872,-0.0006099773454479873,0.030885357409715652
0.039041172713041306,0.005219154059886932,-0.021594442427158356,0.01857529953122139,-0.0006357646780088544,0.030921125784516335
0.03793719783425331,0.005387177690863609,-0.02088303305208683,0.01844090223312378,-0.0006025565671734512,0.031134329736232758
0.038866303861141205,0.005136428400874138,-0.02077268809080124,0.018309185281395912,-0.0006511808023788035,0.03058461844921112
0.038808368146419525,0.004848816432058811,-0.020991604775190353,0.018555987626314163,-0.0006831947830505669,0.031124364584684372
0.040108006447553635,0.005048331804573536,-0.020341036841273308,0.01822781004011631,-0.0006689028814435005,0.031615786254405975
0.0401390939950943,0.004706894513219595,-0.0202186182141304,0.018627924844622612,-0.0006456019473262131,0.03168213367462158
0.03863304853439331,0.005068065132945776,-0.020594602450728416,0.01800716295838356,-0.0006662432570010424,0.032683536410331726
0.03996537625789642,0.005562006030231714,-0.021229611709713936,0.018586086109280586,-0.0007927187834866345,0.030901266261935234
0.040015093982219696,0.0055402908474206924,-0.020849689841270447,0.019131600856781006,-0.0008075603400357068,0.030662210658192635
0.03964371234178543,0.004962404724210501,-0.020877370610833168,0.018990740180015564,-0.000811185862403363,0.03189633786678314
0.03965320810675621,0.004947061184793711,-0.021475452929735184,0.019062209874391556,-0.000740199233405292,0.03199876472353935
0.03932720422744751,0.0052811820060014725,-0.02091028168797493,0.018143629655241966,-0.0007908454281277955,0.032142769545316696
0.04012458026409149,0.00519495690241456,-0.021037979051470757,0.01764867827296257,-0.0008095190278254449,0.033135075122117996
0.0396072082221508,0.005560309160500765,-0.0214607622474432,0.018518347293138504,-0.0008217214490287006,0.032891638576984406
0.0396072082221508,0.005560309160500765,-0.0214607622474432,0.018518347293138504,-0.0008217214490287006,0.032891638576984406
0.03981112316250801,0.005262123420834541,-0.021319016814231873,0.01832849159836769,-0.0008309406694024801,0.031422216445207596
0.039749227464199066,0.005000813864171505,-0.02067229337990284,0.01879250258207321,-0.0007635390502400696,0.03091610036790371
0.040078055113554,0.005391043145209551,-0.021114785224199295,0.018580306321382523,-0.0008702452178113163,0.03237480670213699
0.04081087186932564,0.005193445365875959,-0.021793929859995842,0.018100211396813393,-0.0008805000106804073,0.032758936285972595
0.04053891450166702,0.005902987904846668,-0.021754635497927666,0.018875697627663612,-0.0008268686942756176,0.032644808292388916
0.03897815942764282,0.005685802083462477,-0.020938478410243988,0.019058121368288994,-0.0008315899758599699,0.032423701137304306
0.039917368441820145,0.005612470209598541,-0.021327966824173927,0.01875290460884571,-0.0009716923232190311,0.03216143324971199
0.04001356288790703,0.005044098477810621,-0.021656714379787445,0.018743420019745827,-0.000907290552277118,0.031979724764823914
0.04157156124711037,0.005165573209524155,-0.02162376046180725,0.018999697640538216,-0.0009645206155255437,0.0325273759663105
0.04071339964866638,0.00542789651080966,-0.02100418135523796,0.018403230234980583,-0.0009172625723294914,0.03239636495709419
0.03894606977701187,0.005614119581878185,-0.022007282823324203,0.018422380089759827,-0.0010808822698891163,0.032297492027282715
0.04051734507083893,0.00541173480451107,-0.02288164757192135,0.01860700733959675,-0.0010813095141202211,0.0324014350771904
0.0408620685338974,0.004983586259186268,-0.02211594022810459,0.01902790181338787,-0.0010562047827988863,0.032628580927848816
0.0405474416911602,0.005323697812855244,-0.021548084914684296,0.019932974129915237,-0.001022077165544033,0.03285451978445053
0.04079170525074005,0.005181154236197472,-0.022050047293305397,0.019999230280518532,-0.0009918615687638521,0.03229443356394768
0.0409051775932312,0.005765825044363737,-0.022388994693756104,0.019614335149526596,-0.0009761115652509034,0.03389974683523178
0.041078634560108185,0.005821720696985722,-0.022351952269673347,0.01996116153895855,-0.0009651972213760018,0.03343453258275986
0.0412917286157608,0.005549282766878605,-0.021892167627811432,0.019702894613146782,-0.0009127015364356339,0.03302600234746933
0.04118375480175018,0.005294291768223047,-0.022266652435064316,0.019383132457733154,-0.0010017878375947475,0.03314340114593506
0.041363589465618134,0.005399744026362896,-0.022239577025175095,0.019331201910972595,-0.0009977467125281692,0.032643191516399384
0.041823744773864746,0.005715469364076853,-0.022353462874889374,0.019284477457404137,-0.0010993877658620477,0.03293881192803383
0.0415886752307415,0.005354294553399086,-0.02251453697681427,0.019477257505059242,-0.0010715635726228356,0.03463791310787201
0.04220055416226387,0.005129969213157892,-0.022571498528122902,0.019874075427651405,-0.0009851740906015038,0.03447796031832695
0.04202314838767052,0.005397038068622351,-0.02271132357418537,0.019608426839113235,-0.0009071148815564811,0.03283488750457764
0.04202314838767052,0.005397038068622351,-0.02271132357418537,0.019608426839113235,-0.0009071148815564811,0.03283488750457764
0.041883330792188644,0.005135997198522091,-0.0227336548268795,0.01974564976990223,-0.0008939662366174161,0.032794542610645294
0.04216298460960388,0.0051767765544354916,-0.022381046786904335,0.02000897005200386,-0.0007927485858090222,0.03421128913760185
0.04184625297784805,0.005465070717036724,-0.022359337657690048,0.01959560438990593,-0.0007924319943413138,0.03423890098929405
0.04242561012506485,0.00544440932571888,-0.02312745712697506,0.019306130707263947,-0.000805403629783541,0.03532136231660843
0.04237241670489311,0.005040694493800402,-0.02348686382174492,0.019388703629374504,-0.0008279959438368678,0.03493022918701172
0.04241813346743584,0.004842590540647507,-0.02250887081027031,0.019117841497063637,-0.0011600450379773974,0.03383401781320572
0.042284343391656876,0.005118109285831451,-0.021693045273423195,0.019222190603613853,-0.0011550807394087315,0.03278717026114464
0.0430658794939518,0.005138890352100134,-0.022232769057154655,0.019399013370275497,-0.0011174337705597281,0.034029241651296616
0.04265700280666351,0.00579639058560133,-0.023008601740002632,0.01899002119898796,-0.0011050929315388203,0.034918155521154404
0.042239971458911896,0.005386011209338903,-0.02303847298026085,0.01917123608291149,-0.0010633020428940654,0.03418770059943199
0.04341014102101326,0.005004337523132563,-0.022181209176778793,0.019427062943577766,-0.0009968308731913567,0.03519159182906151
0.044256918132305145,0.005187637638300657,-0.022796092554926872,0.01907581090927124,-0.0009174973820336163,0.035290755331516266
0.04191569611430168,0.005136029329150915,-0.023701002821326256,0.01910262741148472,-0.0009029622888192534,0.03470509126782417
0.042423833161592484,0.005730228032916784,-0.022996241226792336,0.019726991653442383,-0.0008142708684317768,0.03474736958742142
