davideferrari95/blind_handover_controller/data/Test 4 - [2024-02-07 -- 12-55-40]/joint_states_data.csv
shoulder_pan_joint,shoulder_lift_joint,elbow_joint,wrist_1_joint,wrist_2_joint,wrist_3_joint
0.0018209735862910748,-0.02269952930510044,0.005549728870391846,0.016891323029994965,-0.0,0.0010571755701676011
0.0018209735862910748,-0.02269952930510044,0.005549728870391846,0.016891323029994965,-0.0,0.0010571755701676011
0.0017156574176624417,-0.02247057855129242,0.005228230729699135,0.016901642084121704,-0.0,0.0009750662138685584
0.001904302858747542,-0.023177996277809143,0.005382385570555925,0.01704080030322075,-0.0,0.0008462772821076214
0.0020313821732997894,-0.023301780223846436,0.005688833072781563,0.017046459019184113,-0.0,0.0008372468291781843
0.002274212194606662,-0.02354293130338192,0.005649516358971596,0.017452532425522804,-0.0,0.0008446728461422026
0.0021220040507614613,-0.023466836661100388,0.004965649917721748,0.017493896186351776,-0.0,0.0009110755636356771
0.002009302144870162,-0.023548180237412453,0.005522533785551786,0.017952758818864822,-0.0,0.0010245468001812696
0.0020231944508850574,-0.02398718148469925,0.005453926976770163,0.01761377975344658,-0.0,0.001013537752442062
0.00202817190438509,-0.024275392293930054,0.005773722659796476,0.01779048889875412,-0.0,0.0010853455169126391
0.002026051515713334,-0.024317951872944832,0.005306508392095566,0.01740109547972679,-0.0,0.0011395271867513657
0.002145836828276515,-0.024528518319129944,0.005710649769753218,0.017339078709483147,-0.0,0.0009838035330176353
0.0021070698276162148,-0.024388190358877182,0.005391437094658613,0.017857471480965614,-0.0,0.0009630084387026727
0.0021070698276162148,-0.024388190358877182,0.005391437094658613,0.017857471480965614,-0.0,0.0009630084387026727
0.002006538910791278,-0.02424561232328415,0.005473395809531212,0.01798953115940094,-0.0,0.000929978967178613
0.0017904896521940827,-0.0243090707808733,0.005656672175973654,0.018274899572134018,-0.0,0.0008474815404042602
0.001425818889401853,-0.024619057774543762,0.005254168529063463,0.017364852130413055,-0.0,0.0007461152854375541
0.0014882556861266494,-0.024866411462426186,0.005134482402354479,0.018448034301400185,-0.0,0.0007512129959650338
0.0016445385990664363,-0.02446935512125492,0.004942701198160648,0.019742894917726517,-0.0,0.0007686706958338618
0.0017177955014631152,-0.02444581314921379,0.005208070855587721,0.019220374524593353,-0.0,0.0007702337461523712
0.0016560370568186045,-0.02413324825465679,0.004989078734070063,0.018105516210198402,-0.0,0.0007167168660089374
0.0018914336105808616,-0.02379499562084675,0.004975938703864813,0.01837777905166149,-0.0,0.0007421307964250445
0.0017772282008081675,-0.02401641383767128,0.00570876756682992,0.01761913299560547,-0.0,0.0006668019341304898
0.0019320668652653694,-0.023702261969447136,0.005256034899502993,0.017587296664714813,7.822418410796672e-05,0.000667251122649759
0.0017608681228011847,-0.0245232954621315,0.005215611308813095,0.01741882413625717,0.0001253593945875764,0.0006168616819195449
0.001740356907248497,-0.023841101676225662,0.005554197821766138,0.017427939921617508,0.00012509437510743737,0.0005995722603984177
0.0017580935964360833,-0.02368641085922718,0.006011804100126028,0.01809973083436489,0.00012191540008643642,0.0005841199890710413
0.002110397908836603,-0.023468058556318283,0.005511539522558451,0.017986081540584564,0.00011871306924149394,0.00059318239800632
0.0019243772840127349,-0.02325403317809105,0.005734845530241728,0.017650816589593887,0.0001156622965936549,0.0005642483592964709
0.0020690474193543196,-0.023700345307588577,0.005311001557856798,0.017810482531785965,0.00011276407894911245,0.0005348254926502705
0.0018835071241483092,-0.023918895050883293,0.005921491421759129,0.017057443037629128,0.00011000712402164936,0.000530178309418261
0.001980739878490567,-0.02355627901852131,0.0054627880454063416,0.017300114035606384,0.00010738211858551949,0.0005211700918152928
0.0018194769509136677,-0.023558247834444046,0.005899113602936268,0.01717679388821125,0.00010487921099411324,0.000551744073163718
0.0020013637840747833,-0.023241892457008362,0.005492898635566235,0.01685711182653904,0.000102490303106606,0.0005655753775499761
0.0018197294557467103,-0.023512165993452072,0.0052980296313762665,0.017028331756591797,0.00010020814806921408,0.0005400967784225941
0.001787512213923037,-0.02411731332540512,0.005460257641971111,0.01632452756166458,9.802514250623062e-05,0.0006714349729008973
0.0017898186342790723,-0.02346864715218544,0.005160683300346136,0.01669788919389248,9.59352619247511e-05,0.0006079605664126575
0.0018357826629653573,-0.023031799122691154,0.005377939902245998,0.01679251901805401,9.201208740705624e-05,0.0005687435623258352
0.0018732094904407859,-0.023266684263944626,0.0054529765620827675,0.016984514892101288,9.016819967655465e-05,0.0005197555874474347
0.0018541093450039625,-0.02338837832212448,0.004889363888651133,0.017138347029685974,8.839704241836444e-05,0.0004744209290947765
0.001836632494814694,-0.022836094722151756,0.004825403913855553,0.01764845848083496,8.669390808790922e-05,0.0004894192097708583
0.0018309250008314848,-0.02281699702143669,0.005423787981271744,0.016712533310055733,8.505528967361897e-05,0.00046946617658250034
0.0019031916745007038,-0.02227974496781826,0.005199543200433254,0.01682608388364315,8.347750554094091e-05,0.0004378979210741818
0.0019031916745007038,-0.02227974496781826,0.005199543200433254,0.01682608388364315,8.347750554094091e-05,0.0004378979210741818
0.0019451326224952936,-0.02250487171113491,0.005161393899470568,0.017095288261771202,8.195704140234739e-05,0.000409488013247028
0.0022452231496572495,-0.02258511818945408,0.0048579988069832325,0.017058590427041054,8.049120515352115e-05,0.00038448802661150694
0.0021172044798731804,-0.02288041263818741,0.005122906994074583,0.01705961860716343,7.907673716545105e-05,0.0003623633529059589
0.0022804520558565855,-0.02289205975830555,0.005557710770517588,0.016603954136371613,7.771107630105689e-05,0.0003426464390940964
0.002175705973058939,-0.022554438561201096,0.005198451690375805,0.017079096287488937,7.639184332219884e-05,0.0003249659202992916
0.002143362071365118,-0.021886726841330528,0.005142875015735626,0.017093375325202942,7.511665899073705e-05,0.0003472459502518177
0.002384129911661148,-0.021896064281463623,0.005497797857969999,0.01705111190676689,7.388336962321773e-05,0.0003362618444953114
0.002329316223040223,-0.02113165706396103,0.005149154458194971,0.017456477507948875,7.26899306755513e-05,0.0003215825418010354
0.002468985505402088,-0.021223660558462143,0.005184067413210869,0.01693238876760006,7.153439219109714e-05,0.0003078515001107007
0.002648575697094202,-0.022137749940156937,0.00531771220266819,0.017055945470929146,7.041501521598548e-05,0.0002952272188849747
0.00244254432618618,-0.022368652746081352,0.005650145001709461,0.01682502031326294,6.933021359145641e-05,0.0002835965424310416
0.0025950418785214424,-0.021495606750249863,0.005298638716340065,0.01703708805143833,6.827821198385209e-05,0.00027284782845526934
0.002662083599716425,-0.021619128063321114,0.005118847358971834,0.016871316358447075,6.725773710059002e-05,0.0002628839574754238
0.002712446264922619,-0.02288958802819252,0.005332850385457277,0.01673021726310253,6.626730464631692e-05,0.0002536224783398211
0.0025416999123990536,-0.022271331399679184,0.005436629988253117,0.01700766757130623,7.666104647796601e-05,0.0002449913590680808
0.0026064834091812372,-0.020956862717866898,0.0057981605641543865,0.016486935317516327,7.713439845247194e-05,0.00023692841932643205
0.0027105852495878935,-0.021044738590717316,0.005313096102327108,0.01686920039355755,7.614908099640161e-05,0.00022937936591915786
0.002606909489259124,-0.021289698779582977,0.005267871543765068,0.016607390716671944,7.509681017836556e-05,0.0002222966286353767
0.002984939608722925,-0.021370654925704002,0.004976226948201656,0.016386395320296288,7.406717486446723e-05,0.00021563829795923084
0.002977981697767973,-0.02137906663119793,0.005124285817146301,0.016866235062479973,7.306507905013859e-05,0.0002093671791953966
0.002893484430387616,-0.021490149199962616,0.00586119806393981,0.016550330445170403,7.208964962046593e-05,0.0002034505014307797
0.002642036182805896,-0.021563934162259102,0.00534643791615963,0.01688939332962036,7.114002073649317e-05,0.0001978592772502452
0.0026262751780450344,-0.021376293152570724,0.005281984806060791,0.015518469735980034,7.021492638159543e-05,0.0001925670076161623
0.002712194574996829,-0.02127794176340103,0.005133808124810457,0.016357215121388435,6.931366078788415e-05,0.00017603520245756954
0.003208698006346822,-0.02093925140798092,0.00483492249622941,0.0165996253490448,6.843532173661515e-05,0.00016071928257588297
0.0029252253007143736,-0.021221084520220757,0.0051656123250722885,0.016252806410193443,6.757882511010394e-05,0.00015603110659867525
0.0026274938136339188,-0.02087780088186264,0.005760228727012873,0.015858277678489685,6.592871068278328e-05,0.00014862087846267968
0.0026274938136339188,-0.02087780088186264,0.005760228727012873,0.015858277678489685,6.592871068278328e-05,0.00014862087846267968
0.002765077166259289,-0.021211259067058563,0.00475901598110795,0.015832673758268356,6.435730028897524e-05,0.00014192440721672028
0.002818603999912739,-0.020882824435830116,0.004862865898758173,0.01615333743393421,6.359932012856007e-05,0.00013907073298469186
0.002818603999912739,-0.020882824435830116,0.004862865898758173,0.01615333743393421,6.359932012856007e-05,0.00013907073298469186
0.0029219873249530792,-0.020414168015122414,0.00550181744620204,0.016425374895334244,6.285898416535929e-05,5.05556381540373e-05
0.002953639719635248,-0.02089071273803711,0.005157098174095154,0.016936590895056725,6.213569577084854e-05,4.377838922664523e-05
0.0029914441984146833,-0.021247614175081253,0.005251222290098667,0.01707046665251255,6.142889469629154e-05,4.2384988773847e-05
0.0031387382186949253,-0.020563678815960884,0.005218250211328268,0.016717052087187767,6.073799158912152e-05,2.6043115212814882e-05
0.003110205754637718,-0.02159622311592102,0.004891435615718365,0.016824929043650627,6.006241892464459e-05,2.05768046726007e-05
0.0034309127368032932,-0.021526241675019264,0.004791298881173134,0.016198905184864998,1.5262545275618322e-05,1.9805611373158172e-05
0.0032031459268182516,-0.02117324434220791,0.004808989819139242,0.016606492921710014,9.96535163722001e-07,1.2931649280290003e-06
0.003001501550897956,-0.01994294859468937,0.005124096293002367,0.017168283462524414,6.50666223123153e-08,8.443442567340753e-08
0.003116460982710123,-0.020608294755220413,0.00571192242205143,0.01704399846494198,4.248386087368772e-09,5.512964751375193e-09
0.0033883764408528805,-0.021121738478541374,0.005383452400565147,0.01704232580959797,2.7738922270259536e-10,3.5995717517778303e-10
0.003400020767003298,-0.020820800215005875,0.004715375602245331,0.016116738319396973,1.8111534841325216e-11,2.350263039740952e-11
0.0035499699879437685,-0.019996872171759605,0.004887854680418968,0.01609606109559536,1.1825537294188337e-12,1.5345537340838433e-12
0.003458303865045309,-0.020385636016726494,0.005516861565411091,0.015647761523723602,7.721231152276603e-14,1.0019538502917605e-13
0.0034816868137568235,-0.020917830988764763,0.0055075339041650295,0.01600935496389866,5.04141220008256e-15,6.542042450976117e-15
0.003636474022641778,-0.020761536434292793,0.005208112765103579,0.016576604917645454,3.2916825295935183e-16,4.271486303143154e-16
0.0036340595688670874,-0.020506486296653748,0.0048089707270264626,0.016330676153302193,2.1492334416583574e-17,-0.0007086714613251388
0.003638701979070902,-0.020485755056142807,0.004702249076217413,0.016689574345946312,1.4032958825718432e-18,-0.0008809731807559729
0.003656707238405943,-0.019823860377073288,0.005132149439305067,0.015732526779174805,9.162519379006205e-20,-0.0008929892792366445
0.003650395665317774,-0.020110687240958214,0.005107283126562834,0.016211556270718575,5.9824706891904e-21,-0.000903892214410007
0.0036694444715976715,-0.02054278738796711,0.004819199442863464,0.015943512320518494,3.906125930211769e-22,-0.0011339994380250573
0.004159540869295597,-0.02082892507314682,0.004715003073215485,0.016205523163080215,2.5504212275984557e-23,-0.0012063488829880953
0.004152245353907347,-0.020292213186621666,0.004765497054904699,0.015707094222307205,1.665242772432674e-24,-0.0012882890878245234
0.0039601572789251804,-0.019992422312498093,0.004838232416659594,0.01567268557846546,1.0872846437353082e-25,-0.0014602122828364372
0.0037747793830931187,-0.020137595012784004,0.004581144545227289,0.01594632677733898,7.099191938421167e-27,-0.0014097429811954498
0.003788039553910494,-0.01995137706398964,0.004443869926035404,0.016266878694295883,4.635265115945521e-28,-0.0013470257399603724
0.004062384832650423,-0.020160039886832237,0.004916063509881496,0.015844523906707764,1.9760863135063135e-30,-0.0017324393847957253
0.0038818069733679295,-0.020030492916703224,0.004983356688171625,0.01623574085533619,1.2902431706136822e-31,-0.0020405061077326536
0.004245294723659754,-0.019942443817853928,0.004870679695159197,0.01570923440158367,8.424365405528178e-33,-0.003108273958787322
0.004245294723659754,-0.019942443817853928,0.004870679695159197,0.01570923440158367,8.424365405528178e-33,-0.003108273958787322
0.004520108923316002,-0.020137475803494453,0.004707382060587406,0.016597364097833633,5.500508623724481e-34,-0.0035241353325545788
0.004245970398187637,-0.019877780228853226,0.004379284102469683,0.016294486820697784,3.5914388728712607e-35,-0.0033579852897673845
0.003980219829827547,-0.019689301028847694,0.004598565865308046,0.01608138531446457,2.3449528495328317e-36,-0.0030356082133948803
0.0043067317456007,-0.019900456070899963,0.004582343157380819,0.01623349077999592,1.5310865038828273e-37,-0.0029102573171257973
0.004137515090405941,-0.020180363208055496,0.004656180273741484,0.01564401388168335,9.996901079551782e-39,-0.002788303419947624
0.003873043227940798,-0.020103950053453445,0.004798514302819967,0.01554949302226305,6.527262259809641e-40,-0.0030596109572798014
0.0041089789010584354,-0.020124755799770355,0.004751482978463173,0.015069904737174511,4.261769019551066e-41,-0.0030874544754624367
0.004591596312820911,-0.02062940038740635,0.004237266257405281,0.015841325744986534,2.7829787501490867e-42,-0.002981757279485464
0.004592315759509802,-0.020224306732416153,0.004150746390223503,0.015808532014489174,1.821688003622262e-43,-0.0031357749830931425
0.004316114354878664,-0.020172331482172012,0.004767933860421181,0.016642095521092415,1.1210387714598537e-44,-0.003287537954747677
0.004394207149744034,-0.020479267463088036,0.004904826637357473,0.016352979466319084,1.401298464324817e-45,-0.0034068389795720577
0.004352448508143425,-0.02016628161072731,0.004779127426445484,0.015749484300613403,0.0,-0.00403691828250885
0.004412913229316473,-0.019875695928931236,0.004325971007347107,0.016826432198286057,0.0,-0.004134800285100937
0.005354879889637232,-0.020619206130504608,0.004412028472870588,0.016330499202013016,0.0,-0.004286113195121288
0.004989661276340485,-0.02066323161125183,0.004562385845929384,0.016113732010126114,0.0,-0.004337386228144169
0.00471716932952404,-0.0200901310890913,0.004124791827052832,0.015223908238112926,0.0,-0.0040732151828706264
0.0044303471222519875,-0.01992904022336006,0.003934516571462154,0.015920773148536682,0.0,-0.0039211781695485115
0.004547179210931063,-0.02025049738585949,0.004379231482744217,0.015562120825052261,0.0,-0.004327747039496899
0.004588184412568808,-0.0205143541097641,0.004652237519621849,0.01592237874865532,0.0,-0.004601838067173958
0.0046164533123373985,-0.019938413053750992,0.004501002375036478,0.015364845283329487,0.0,-0.0048409439623355865
0.004733245819807053,-0.020080585032701492,0.004067333415150642,0.015844522044062614,0.0,-0.005303117912262678
0.005013692658394575,-0.020056020468473434,0.003720850683748722,0.015439517796039581,0.0,-0.004838958382606506
0.004940396174788475,-0.020071472972631454,0.0037613315507769585,0.01551507692784071,0.0,-0.004471902269870043
0.004817210603505373,-0.020519161596894264,0.0044985199347138405,0.015569955110549927,0.0,-0.004878228064626455
0.004670680966228247,-0.020631080493330956,0.0042864312417805195,0.015181262046098709,0.0,-0.005406145937740803
0.004948487505316734,-0.020263222977519035,0.003963505383580923,0.015006549656391144,0.0,-0.0055885580368340015
0.004951056092977524,-0.020268194377422333,0.0043386975303292274,0.01473065372556448,0.0,-0.0055349464528262615
0.005296881310641766,-0.02089657634496689,0.004129083827137947,0.015077166259288788,0.0,-0.005558854900300503
0.005064491182565689,-0.02056284248828888,0.004004552960395813,0.01614554040133953,0.0,-0.0051723564974963665
0.005454891826957464,-0.020077252760529518,0.004014289937913418,0.015600658021867275,0.0,-0.0058364360593259335
0.005363122560083866,-0.020469531416893005,0.003912939690053463,0.016130810603499413,0.0,-0.006344678811728954
0.005363122560083866,-0.020469531416893005,0.003912939690053463,0.016130810603499413,0.0,-0.006344678811728954
0.005125151481479406,-0.02047058939933777,0.0037886807695031166,0.015651799738407135,0.0,-0.006307059433311224
0.005245912354439497,-0.02023952826857567,0.0037350577767938375,0.015510044060647488,0.0,-0.005889269523322582
0.005352777894586325,-0.02048664540052414,0.0042104218155145645,0.01553203072398901,0.0,-0.005698535591363907
0.005524785257875919,-0.019986648112535477,0.004102407023310661,0.015825962647795677,0.0,-0.006138443946838379
0.005212379619479179,-0.020066723227500916,0.00362135237082839,0.01601862907409668,0.0,-0.006983612664043903
0.005817750934511423,-0.02014833688735962,0.0035041803494095802,0.015654439106583595,0.0,-0.007113589905202389
0.005836416035890579,-0.019853679463267326,0.003633856773376465,0.015897303819656372,0.0,-0.00661445502191782
0.005512631963938475,-0.019841676577925682,0.003741211723536253,0.015291320160031319,0.0,-0.005881591234356165
0.005477739963680506,-0.019947092980146408,0.004183949902653694,0.015863345935940742,0.0,-0.006331978365778923
0.00559149868786335,-0.019572775810956955,0.0036056595854461193,0.015841584652662277,0.0,-0.00670483848080039
0.005676768254488707,-0.018996071070432663,0.00364867364987731,0.016507640480995178,0.0,-0.007103899959474802
0.006164824590086937,-0.019163282588124275,0.0033511596266180277,0.015921372920274734,0.0,-0.006623418070375919
0.005643379408866167,-0.019919632002711296,0.003476506331935525,0.015601656399667263,0.0,-0.006462229415774345
0.005906776990741491,-0.019615447148680687,0.0033140690065920353,0.015706567093729973,0.0,-0.007285025902092457
0.005569835193455219,-0.019636064767837524,0.003317604772746563,0.015372337773442268,0.0,-0.0071418448351323605
0.005685037467628717,-0.01928848773241043,0.0033239834010601044,0.015349444933235645,4.1737321225809865e-06,-0.006957844831049442
0.00609235605224967,-0.0191204771399498,0.0033085565082728863,0.014735478907823563,2.725148817717127e-07,-0.006574250757694244
0.005894606467336416,-0.018833070993423462,0.0031694904901087284,0.015291621908545494,1.7793274409427795e-08,-0.006871390622109175
0.006181880831718445,-0.019624266773462296,0.003082982962951064,0.015099971555173397,1.1617735662383666e-09,-0.007225992623716593
0.005909598898142576,-0.019032564014196396,0.003020121715962887,0.01541042048484087,7.585550937383445e-11,-0.007287266198545694
0.005859414581209421,-0.01965886354446411,0.0030797068029642105,0.015131721273064613,4.952822440368321e-12,-0.0070996941067278385
0.006222439464181662,-0.019591394811868668,0.003171789227053523,0.015425147488713264,3.2338392489013323e-13,-0.007288005203008652
0.006050079595297575,-0.01876276545226574,0.0030880782287567854,0.014844328165054321,2.111465773817038e-14,-0.007767372764647007
0.006239888723939657,-0.018985174596309662,0.002919448772445321,0.015350150875747204,1.378636224786138e-15,-0.0077912891283631325
0.006164164748042822,-0.01941814087331295,0.003146394621580839,0.01560461986809969,9.001509127722095e-17,-0.00859789177775383
0.006447360850870609,-0.019017601385712624,0.0030768527649343014,0.015712890774011612,-0.0002987713669426739,-0.007547503802925348
0.006481192074716091,-0.01924270950257778,0.0026730799581855536,0.015767717733979225,-0.00046679924707859755,-0.007867494598031044
0.006481192074716091,-0.01924270950257778,0.0026730799581855536,0.015767717733979225,-0.00046679924707859755,-0.007867494598031044
0.006241423077881336,-0.018695568665862083,0.0023387898690998554,0.015448749996721745,-0.0004985682317055762,-0.008376788347959518
0.00662823673337698,-0.019120624288916588,0.002547577954828739,0.01634436473250389,-0.0007171801407821476,-0.008376647718250751
0.0067172544077038765,-0.018838126212358475,0.0025351219810545444,0.015700004994869232,-0.0008116774843074381,-0.008797372691333294
0.0067172544077038765,-0.018838126212358475,0.0025351219810545444,0.015700004994869232,-0.0008116774843074381,-0.008797372691333294
0.006694371812045574,-0.019176766276359558,0.002539877314120531,0.015564342960715294,-0.0008294068975374103,-0.009263995103538036
0.006458754651248455,-0.019530225545167923,0.002449118997901678,0.015182238072156906,-0.0007847660453990102,-0.008323471061885357
0.006312871817499399,-0.019127588719129562,0.0023222588934004307,0.015636026859283447,-0.0007437784806825221,-0.008557618595659733
0.006491656880825758,-0.019058220088481903,0.0024171762634068727,0.015093217603862286,-0.0007379017188213766,-0.009089021943509579
0.0064260996878147125,-0.019293196499347687,0.0021884615998715162,0.015326986089348793,-0.000694260757882148,-0.008768978528678417
0.00640746857970953,-0.018861809745430946,0.002248683711513877,0.015137583017349243,-0.0006376280798576772,-0.009159313514828682
0.006467774976044893,-0.018952369689941406,0.0020641041919589043,0.015050926245748997,-0.0006645905086770654,-0.00903517846018076
0.006383792031556368,-0.01890120655298233,0.0020062800031155348,0.014747919514775276,-0.0006835413514636457,-0.009378064423799515
0.006922890432178974,-0.0188852921128273,0.001871018554084003,0.014692561700940132,-0.0007107136771082878,-0.00908635649830103
0.006744413636624813,-0.01904328353703022,0.0020363691728562117,0.014353866688907146,-0.0006532868137583137,-0.009898031130433083
0.006771149579435587,-0.01872307062149048,0.002129693515598774,0.014479407109320164,-0.000746755744330585,-0.009982691146433353
0.007286180276423693,-0.01882920041680336,0.002061016159132123,0.014719783328473568,-0.000772373634390533,-0.010497253388166428
0.007097911089658737,-0.019788751378655434,0.0017899168888106942,0.015208853408694267,-0.0007887088577263057,-0.010281724855303764
0.007257905788719654,-0.01952136680483818,0.0018156473524868488,0.015627993270754814,-0.0008020931854844093,-0.010049276985228062
0.007642416283488274,-0.01832732744514942,0.0018159166211262345,0.015591706149280071,-0.0010116967605426908,-0.011037914082407951
0.0067335437051951885,-0.018825065344572067,0.0018724960973486304,0.015446077100932598,-0.0010442889761179686,-0.009390412829816341
0.007058179005980492,-0.018832992762327194,0.0018707301933318377,0.015110179781913757,-0.0010438490426167846,-0.009492014534771442
0.007006495259702206,-0.018059374764561653,0.0018508833600208163,0.015653256326913834,-0.0012556586880236864,-0.010606253519654274
0.007196627091616392,-0.018710019066929817,0.0016845521749928594,0.015302990563213825,-0.0012644508387893438,-0.010408710688352585
0.007268346380442381,-0.01815863884985447,0.001617365749552846,0.015341250225901604,-0.001227084780111909,-0.010618562810122967
0.007365955039858818,-0.018195634707808495,0.0015184610383585095,0.014889610931277275,-0.0013511809520423412,-0.010289005935192108
0.007572971750050783,-0.01870637573301792,0.0015646799001842737,0.01564246416091919,-0.001331369741819799,-0.010301412083208561
0.007351402193307877,-0.01735880598425865,0.0016226747538894415,0.015575338155031204,-0.001462688553147018,-0.010412976145744324
0.0072090099565684795,-0.018682794645428658,0.00162378023378551,0.015694672241806984,-0.0015723247779533267,-0.010827376507222652
0.00751130748540163,-0.01801673322916031,0.0016758136916905642,0.015826290473341942,-0.0018611658597365022,-0.011108415201306343
0.00751130748540163,-0.01801673322916031,0.0016758136916905642,0.015826290473341942,-0.0018611658597365022,-0.011108415201306343
0.007394213695079088,-0.01832336187362671,0.002086821710690856,0.015576287172734737,-0.001798961660824716,-0.011370675638318062
0.007192122284322977,-0.018016774207353592,0.0018482981249690056,0.01565968431532383,-0.0019251175690442324,-0.011524967849254608
0.007899167947471142,-0.017250612378120422,0.0015416210517287254,0.015680817887187004,-0.00179620913695544,-0.010691776871681213
0.008326111361384392,-0.01741609536111355,0.0015347151784226298,0.015217086300253868,-0.0017280804459005594,-0.011724940501153469
0.008385415188968182,-0.017391303554177284,0.0014493778580799699,0.015460477210581303,-0.0016741828294470906,-0.011583040468394756
0.008016147650778294,-0.01757923886179924,0.0015096836723387241,0.01520647294819355,-0.0017345416126772761,-0.011915653012692928
0.007820526137948036,-0.017603321000933647,0.0015307452995330095,0.015567074529826641,-0.0016681607812643051,-0.01217576302587986
0.008189785294234753,-0.017149124294519424,0.0017676148563623428,0.015008357353508472,-0.001558945281431079,-0.011932873167097569
0.00805522408336401,-0.017470678314566612,0.0016541144577786326,0.01542621199041605,-0.0015666707186028361,-0.012342646718025208
0.00764725124463439,-0.016846340149641037,0.0014973008073866367,0.015215018764138222,-0.0014397192280739546,-0.011974509805440903
0.008757056668400764,-0.01706649363040924,0.0012731562601402402,0.015415138565003872,-0.001358323497697711,-0.011960073374211788
0.008133063092827797,-0.01676335744559765,0.0013218093663454056,0.015285239554941654,-0.0012997598387300968,-0.01247902400791645
0.007852572947740555,-0.016301939263939857,0.001284659025259316,0.015576287172734737,-0.0012463711900636554,-0.012390746735036373
0.008179346099495888,-0.016292670741677284,0.0012211832217872143,0.01576092280447483,-0.0012218995252624154,-0.012505528517067432
0.008472125977277756,-0.016257520765066147,0.0012932242825627327,0.015592578798532486,-0.0013364641927182674,-0.012115943245589733
0.008301075547933578,-0.016880055889487267,0.0012620064662769437,0.015432636253535748,-0.0013591056922450662,-0.012039820663630962
0.008170466870069504,-0.01633499190211296,0.0012487173080444336,0.015093264169991016,-0.001233474351465702,-0.012111450545489788
0.00848191324621439,-0.016473133116960526,0.0011895493371412158,0.015248357318341732,-0.0012302971445024014,-0.012536995112895966
0.00878677237778902,-0.01639065146446228,0.0011235547717660666,0.01491479016840458,-0.0012141423067077994,-0.01232174877077341
0.008141124621033669,-0.016495760530233383,0.0010574033949524164,0.014450101181864738,-0.0011646427446976304,-0.01215431746095419
0.008407136425375938,-0.016605619341135025,0.000999210518784821,0.015042511746287346,-0.001075556967407465,-0.01230153813958168
0.00921209529042244,-0.016099799424409866,0.0009984815260395408,0.015552988275885582,-0.0010466675739735365,-0.012272142805159092
0.008232995867729187,-0.016506293788552284,0.0009831604547798634,0.015186130069196224,-0.0010423344792798162,-0.012690999545156956
0.008110632188618183,-0.016173698008060455,0.0009718295186758041,0.01567091979086399,-0.001022959710098803,-0.01280833501368761
0.00835513137280941,-0.016573555767536163,0.0010355963604524732,0.015104344114661217,-0.0011736376909539104,-0.012863105162978172
0.008783628232777119,-0.01637898199260235,0.0010277755791321397,0.015157737769186497,-0.0011898860102519393,-0.013126852922141552
0.00848324503749609,-0.01658712327480316,0.0008690034155733883,0.014984135515987873,-0.0011661347234621644,-0.01303830835968256
0.009124755859375,-0.016569294035434723,0.0007667766767553985,0.016127662733197212,-0.0012379299150779843,-0.013262694701552391
0.009471824392676353,-0.017073452472686768,0.0007770440424792469,0.016392823308706284,-0.0012196394382044673,-0.013758281245827675
0.009471824392676353,-0.017073452472686768,0.0007770440424792469,0.016392823308706284,-0.0012196394382044673,-0.013758281245827675
0.009925436228513718,-0.016811756417155266,0.0006022810121066868,0.01525112334638834,-0.0012618437176570296,-0.013606521300971508
0.009075245819985867,-0.016901977360248566,0.0005993007798679173,0.015127901919186115,-0.0012458341661840677,-0.013632632791996002
0.009075245819985867,-0.016901977360248566,0.0005993007798679173,0.015127901919186115,-0.0012458341661840677,-0.013632632791996002
0.00988661590963602,-0.01653730683028698,0.0005688465316779912,0.014471495524048805,-0.0010968850692734122,-0.013914820738136768
0.009292274713516235,-0.01711314171552658,0.0005995733081363142,0.014504634775221348,-0.0010187559528276324,-0.01404921617358923
0.009637890383601189,-0.016646254807710648,0.0005485012661665678,0.0137633690610528,-0.0008392294403165579,-0.01434191595762968
0.009290819056332111,-0.016858771443367004,0.0003226489352528006,0.014190761372447014,-0.0008379334467463195,-0.01429304014891386
0.009838643483817577,-0.01669299043715,0.00026858324417844415,0.014646477997303009,-0.0008212600951083004,-0.014308372512459755
0.009400112554430962,-0.0167857613414526,0.00023360476188827306,0.015603803098201752,-0.000750736566260457,-0.014215903356671333
0.009064901620149612,-0.01748414896428585,0.00030566437635570765,0.01520442496985197,-0.0007613346097059548,-0.014093314297497272
0.009948177263140678,-0.016321219503879547,0.00027809679158963263,0.01569770649075508,-0.0006721421959809959,-0.014264929108321667
0.009757334366440773,-0.016809411346912384,0.00025216524954885244,0.015111763961613178,-0.000682443380355835,-0.014983555302023888
0.009622215293347836,-0.01654632017016411,-5.5913101277837995e-06,0.015626970678567886,-0.000762535841204226,-0.01509317196905613
0.00954508688300848,-0.016827424988150597,-0.0001141317407018505,0.015154547989368439,-0.0009864920284599066,-0.015062719583511353
0.009625762701034546,-0.016561059281229973,-4.400852958497126e-06,0.015310379676520824,-0.0011749697150662541,-0.014894900843501091
0.009538433514535427,-0.016361543908715248,-5.904306021875527e-08,0.014794311486184597,-0.0012279157526791096,-0.015190436504781246
0.010280132293701172,-0.01645253412425518,-7.921380218434138e-10,0.015507225878536701,-0.0012417087564244866,-0.01532641053199768
0.01023910567164421,-0.01614639349281788,-1.0627543116370486e-11,0.014568534679710865,-0.0012375410879030824,-0.015398395247757435
0.009157191030681133,-0.016738681122660637,-1.4258204534579877e-13,0.014504488557577133,-0.0011999550042673945,-0.015355884097516537
0.009696032851934433,-0.016288261860609055,-1.912919938079562e-15,0.014316624030470848,-0.0011797366896644235,-0.014938819222152233
0.01072221715003252,-0.016432609409093857,-2.5664261195025397e-17,0.01502883993089199,-0.0012556585716083646,-0.015164266340434551
0.00946053396910429,-0.016078930348157883,-3.4431881551069066e-19,0.01574600487947464,-0.0012184011284261942,-0.015768777579069138
0.009700382128357887,-0.015882091596722603,-4.619476564714046e-21,0.015700753778219223,-0.0011779593769460917,-0.015666477382183075
0.009620201773941517,-0.01625637710094452,-0.0007719613495282829,0.015419973991811275,-0.0011196080595254898,-0.01583094894886017
0.010115873999893665,-0.016355574131011963,-0.0005235194694250822,0.015120218507945538,-0.0010534253669902682,-0.015767717733979225
0.010115873999893665,-0.016355574131011963,-0.0005235194694250822,0.015120218507945538,-0.0010534253669902682,-0.015767717733979225
0.010036246851086617,-0.015719687566161156,-0.000383695907657966,0.015055399388074875,-0.0010377141879871488,-0.016091952100396156
0.00970123615115881,-0.015994897112250328,-0.0003375214582774788,0.015186009928584099,-0.0011022675316780806,-0.016540996730327606
0.010574756190180779,-0.015496943145990372,-0.00016246906307060272,0.014266160316765308,-0.0010937564074993134,-0.016879647970199585
0.010097214952111244,-0.015401497483253479,-0.0002646091452334076,0.01395996380597353,-0.00108411256223917,-0.01659286767244339
0.00965320784598589,-0.01525389589369297,-0.00034648331347852945,0.013761631213128567,-0.0013181203976273537,-0.0163760706782341
0.009888843633234501,-0.015373755246400833,-0.0003084494674112648,0.01478678546845913,-0.001375785213895142,-0.015634045004844666
0.010126760229468346,-0.01574872061610222,-0.0002768260892480612,0.015193882398307323,-0.00136956840287894,-0.015823835507035255
0.009610570967197418,-0.01568855717778206,-0.0002510752819944173,0.015837255865335464,-0.0013801057357341051,-0.016072191298007965
0.010550906881690025,-0.015908388420939445,-0.0002297050377819687,0.015035254880785942,-0.0012752909678965807,-0.016360556706786156
0.009770110249519348,-0.015467580407857895,-0.00021169084357097745,0.015259641222655773,-0.001078676083125174,-0.0169350765645504
0.009697536006569862,-0.015643902122974396,-0.00023904262343421578,0.014979848638176918,-0.00104334088973701,-0.017009759321808815
0.010309334844350815,-0.01538581307977438,-0.0002436794457025826,0.015614138916134834,-0.0008930640178732574,-0.016763906925916672
0.00972657185047865,-0.015602676197886467,-0.00022849197557661682,0.014886550605297089,-0.0008054531062953174,-0.01696322299540043
0.009532644413411617,-0.015059215947985649,-0.00037865026388317347,0.015100734308362007,-0.0008443808765150607,-0.01725141517817974
0.010469711385667324,-0.01541233342140913,-0.00035538195515982807,0.014722864143550396,-0.0008724541403353214,-0.018082985654473305
0.00981278158724308,-0.01484640408307314,-0.00039438391104340553,0.013525396585464478,-0.0012352000921964645,-0.01806657202541828
0.010084633715450764,-0.015448302030563354,-0.0003683521063067019,0.014710688032209873,-0.0013572886819019914,-0.017517345026135445
0.010179894976317883,-0.015231212601065636,-0.0004014856822323054,0.015229486860334873,-0.0016475472366437316,-0.017440803349018097
0.009844141080975533,-0.015151331201195717,-0.00041349747334606946,0.01518902089446783,-0.0017100268742069602,-0.017496449872851372
0.011064432561397552,-0.01537154708057642,-0.00040745228761807084,0.015376744791865349,-0.0015917759155854583,-0.017713217064738274
0.010956178419291973,-0.01387050375342369,-0.0005523471045307815,0.015653302893042564,-0.001491506933234632,-0.017881447449326515
0.010510163381695747,-0.015071891248226166,-0.0006014968967065215,0.015414608642458916,-0.0014724754728376865,-0.018294114619493484
0.0111424895003438,-0.015089372172951698,-0.0006112737464718521,0.015553412027657032,-0.0013584104599431157,-0.01884174533188343
0.011477021500468254,-0.015023356303572655,-0.0005834521143697202,0.015207099728286266,-0.0013896920718252659,-0.0187710989266634
0.010371171869337559,-0.01424691267311573,-0.0005343336379155517,0.015238997526466846,-0.001359647256322205,-0.01858491264283657
0.010687442496418953,-0.014809760265052319,-0.0005618896684609354,0.0148093793541193,-0.0014640140580013394,-0.018373964354395866
0.010874095372855663,-0.015407823957502842,-0.0006816649110987782,0.014649514108896255,-0.0015395371010527015,-0.017887132242321968
0.011446108110249043,-0.01501669641584158,-0.0006386362365446985,0.015388750471174717,-0.0015046281041577458,-0.01766403764486313
0.011467828415334225,-0.01497215311974287,-0.0006653401651419699,0.01514135580509901,-0.0015361589612439275,-0.018006714060902596
0.011467828415334225,-0.01497215311974287,-0.0006653401651419699,0.01514135580509901,-0.0015361589612439275,-0.018006714060902596
0.01393476128578186,-0.014474603347480297,-0.000659002223983407,0.015332082286477089,-0.0014064190909266472,-0.018585728481411934
0.013945644721388817,-0.01518513448536396,-0.000628451001830399,0.014730977825820446,-0.0013178796507418156,-0.01883081905543804
0.013582016341388226,-0.014760096557438374,-0.0008146503823809326,0.014967630617320538,-0.001319916802458465,-0.018930939957499504
0.01318018976598978,-0.01516457088291645,-0.0008615917759016156,0.014728846959769726,-0.001244351384229958,-0.018768148496747017
0.013518090359866619,-0.014912440441548824,-0.0008668049122206867,0.015544065274298191,-0.001313426997512579,-0.01932743936777115
0.013596680015325546,-0.015441644005477428,-0.0011370716383680701,0.015225296840071678,-0.001299922470934689,-0.01988217793405056
0.013958979398012161,-0.014532322064042091,-0.001254713162779808,0.015164649114012718,-0.0016634438652545214,-0.020410221070051193
0.013740851543843746,-0.015154927968978882,-0.0011955122463405132,0.014976336620748043,-0.0017047597793862224,-0.018948331475257874
0.014168168418109417,-0.014536225236952305,-0.0012236194452270865,0.014928655698895454,-0.0015054752584546804,-0.018764343112707138
0.014093014411628246,-0.01486537978053093,-0.0012260416988283396,0.014529119245707989,-0.0013213349739089608,-0.01970875822007656
0.014239738695323467,-0.014504605904221535,-0.0012788176536560059,0.014622685499489307,-0.001140488893724978,-0.019422495737671852
0.014292402192950249,-0.014903457835316658,-0.0013852197444066405,0.014679637737572193,-0.0010805074125528336,-0.019715087488293648
0.01422346942126751,-0.015080301091074944,-0.0014438543003052473,0.014483528211712837,-0.0010347258066758513,-0.020775064826011658
0.01459390576928854,-0.014962748624384403,-0.0014109495095908642,0.014793602749705315,-0.0009385526063852012,-0.022175736725330353
0.014379991218447685,-0.014566252008080482,-0.0017479624366387725,0.014957400038838387,-0.000861196662299335,-0.020155342295765877
0.014514993876218796,-0.0149148004129529,-0.0020038315560668707,0.01482864934951067,-0.0008788591949269176,-0.02019733563065529
0.014078975655138493,-0.014754533767700195,-0.0020882252138108015,0.014739496633410454,-0.0009023224120028317,-0.02111605368554592
0.014484943822026253,-0.01490054465830326,-0.001979656983166933,0.015010635368525982,-0.0014346999814733863,-0.021638311445713043
0.014226467348635197,-0.014503303915262222,-0.00196828437037766,0.015191004611551762,-0.0014802840305492282,-0.021096210926771164
0.014399752952158451,-0.014666767790913582,-0.0018724295077845454,0.01579323783516884,-0.001978495391085744,-0.020814556628465652
0.014322739094495773,-0.014392787590622902,-0.0018982491455972195,0.015292515978217125,-0.0021748202852904797,-0.020442651584744453
0.014678187668323517,-0.014380235224962234,-0.002287051873281598,0.015585169196128845,-0.0021938199643045664,-0.02103681117296219
0.014479188248515129,-0.014378061518073082,-0.002724217949435115,0.015080324374139309,-0.002113042864948511,-0.021846497431397438
0.014910124242305756,-0.014263944700360298,-0.0029621331486850977,0.015292680822312832,-0.0019120782380923629,-0.02226131781935692
0.014596814289689064,-0.014280659146606922,-0.00296616367995739,0.015692073851823807,-0.0014846187550574541,-0.02225458435714245
0.014771798625588417,-0.014269400388002396,-0.002976123010739684,0.015650004148483276,-0.001379099558107555,-0.02200337126851082
0.015045346692204475,-0.01415374968200922,-0.0027805003337562084,0.015624879859387875,-0.0013155610067769885,-0.022311287000775337
0.015100734308362007,-0.013566207140684128,-0.0030563443433493376,0.015252644196152687,-0.001267463550902903,-0.022731151431798935
0.015163742937147617,-0.01375210378319025,-0.003433313686400652,0.015038052573800087,-0.001221486134454608,-0.022584352642297745
0.015174934640526772,-0.013938600197434425,-0.0036989697255194187,0.01513044536113739,-0.0013368329964578152,-0.022759776562452316
0.015174934640526772,-0.013938600197434425,-0.0036989697255194187,0.01513044536113739,-0.0013368329964578152,-0.022759776562452316
0.015109865926206112,-0.014013481326401234,-0.003315339330583811,0.015414797700941563,-0.0013631898909807205,-0.02317347191274166
0.015375505201518536,-0.013868379406630993,-0.0033949664793908596,0.015817631036043167,-0.0013762800954282284,-0.023053258657455444
0.014916817657649517,-0.014280817471444607,-0.003269781591370702,0.01575111225247383,-0.0013703653821721673,-0.023200828582048416
0.015317851677536964,-0.01385823730379343,-0.00356688117608428,0.015881676226854324,-0.0014669668162241578,-0.023454589769244194
0.01512958388775587,-0.014152499847114086,-0.003687618998810649,0.015256975777447224,-0.0016222590347751975,-0.023804055526852608
0.015594085678458214,-0.013770117424428463,-0.003661653259769082,0.015580271370708942,-0.0017454989720135927,-0.02348282001912594
0.01556238904595375,-0.013921019621193409,-0.0042284512892365456,0.015400108881294727,-0.0016727237962186337,-0.023382002487778664
0.015896786004304886,-0.013513116165995598,-0.0036361597012728453,0.015947846695780754,-0.0018183125648647547,-0.023743487894535065
0.01587717793881893,-0.014153334312140942,-0.003567475127056241,0.015015949495136738,-0.0017337721074,-0.02422705478966236
0.015810081735253334,-0.013734151609241962,-0.0037171209696680307,0.016186270862817764,-0.001959624234586954,-0.024193905293941498
0.015550521202385426,-0.013938571326434612,-0.004420311655849218,0.01629270426928997,-0.0020700430031865835,-0.023738298565149307
0.015821142122149467,-0.013733170926570892,-0.004593303427100182,0.015817632898688316,-0.0023104879073798656,-0.023324716836214066
0.015522335655987263,-0.01371657382696867,-0.0041768550872802734,0.01570255495607853,-0.002204189309850335,-0.023971714079380035
0.01561210211366415,-0.013481276109814644,-0.004278370179235935,0.015335145406425,-0.002103029517456889,-0.024813061580061913
0.016376037150621414,-0.014206841588020325,-0.004730341024696827,0.015746479853987694,-0.0017909486778080463,-0.02515777200460434
0.016106970608234406,-0.013571200892329216,-0.004701007157564163,0.015736378729343414,-0.0014368401607498527,-0.024906866252422333
0.016922637820243835,-0.013853006064891815,-0.004850130062550306,0.01583155058324337,-0.0013581629609689116,-0.024748852476477623
0.016535885632038116,-0.013892581686377525,-0.004867921583354473,0.015226142480969429,-0.0013035049196332693,-0.02492685616016388
0.01672692969441414,-0.013813181780278683,-0.005146249663084745,0.015277954749763012,-0.0012882406590506434,-0.02500566653907299
0.01709120161831379,-0.013125387020409107,-0.005003330297768116,0.015012814663350582,-0.001416464801877737,-0.025263598188757896
0.016964009031653404,-0.013502243906259537,-0.005273348186165094,0.015430622734129429,-0.0020705931819975376,-0.025540035218000412
0.01756977289915085,-0.013830850832164288,-0.005585880018770695,0.015367100946605206,-0.00206101406365633,-0.02578236162662506
0.017438791692256927,-0.013029740191996098,-0.005655795801430941,0.015409400686621666,-0.0020385487005114555,-0.025977199897170067
0.01760581135749817,-0.01348600722849369,-0.005726175848394632,0.0155492527410388,-0.0018527593929320574,-0.026245806366205215
0.01734757609665394,-0.013218746520578861,-0.006019787397235632,0.015517440624535084,-0.0017044303240254521,-0.026164019480347633
0.016945965588092804,-0.013906764797866344,-0.005944113712757826,0.01597778871655464,-0.0017204690957441926,-0.026088856160640717
0.017059478908777237,-0.013663914985954762,-0.006599937565624714,0.015727238729596138,-0.0020176207181066275,-0.026485184207558632
0.01736782304942608,-0.01296077761799097,-0.0065619321539998055,0.015257393941283226,-0.0023878049105405807,-0.026149004697799683
0.01814180240035057,-0.013203228823840618,-0.006394580006599426,0.015566336922347546,-0.0023234665859490633,-0.026270465925335884
0.017201386392116547,-0.01317085511982441,-0.006667896639555693,0.01519711408764124,-0.002197804395109415,-0.026439594104886055
0.017201386392116547,-0.01317085511982441,-0.006667896639555693,0.01519711408764124,-0.002197804395109415,-0.026439594104886055
0.017458101734519005,-0.0127761485055089,-0.00707893306389451,0.015772825106978416,-0.0020324166398495436,-0.026537569239735603
0.01780015230178833,-0.012697295285761356,-0.007689426653087139,0.015393592417240143,-0.002034870907664299,-0.026783069595694542
0.017925921827554703,-0.012819197028875351,-0.007091735489666462,0.01577926240861416,-0.002074094023555517,-0.027015719562768936
0.018004199489951134,-0.013118302449584007,-0.006994370371103287,0.015613111667335033,-0.0019550679717212915,-0.026896584779024124
0.017867116257548332,-0.01306634396314621,-0.007106864359229803,0.015549902804195881,-0.0018610649276524782,-0.026629291474819183
0.018276497721672058,-0.012958023697137833,-0.008755845949053764,0.01556707639247179,-0.0018507897621020675,-0.028566889464855194
0.018292421475052834,-0.012407151982188225,-0.008008369244635105,0.015669476240873337,-0.0019171393942087889,-0.027957353740930557
0.018172061070799828,-0.012639345601201057,-0.007640289608389139,0.015981199219822884,-0.0019938284531235695,-0.02780594490468502
0.018549416214227676,-0.012505048885941505,-0.008257261477410793,0.015524374321103096,-0.0021379978861659765,-0.0275861956179142
0.018492095172405243,-0.012591722421348095,-0.009428268298506737,0.015267360024154186,-0.0020755287259817123,-0.02719873934984207
0.01858845353126526,-0.012765411287546158,-0.00811021775007248,0.01467047818005085,-0.0021799260284751654,-0.027673661708831787
0.018736638128757477,-0.012211533263325691,-0.008130940608680248,0.015286174602806568,-0.0020062485709786415,-0.028579169884324074
0.018695123493671417,-0.012690928764641285,-0.009038359858095646,0.015104586258530617,-0.0020947454031556845,-0.028474152088165283
0.018656589090824127,-0.01228087954223156,-0.00870378315448761,0.015366319566965103,-0.001931737526319921,-0.028678029775619507
0.01898798905313015,-0.012593110091984272,-0.008663794957101345,0.01537579856812954,-0.001985254930332303,-0.03011651523411274
0.018902063369750977,-0.012359720654785633,-0.009431259706616402,0.015589478425681591,-0.0018839749973267317,-0.028746822848916054
0.0188500564545393,-0.012442545965313911,-0.009475491009652615,0.015174332074820995,-0.0021046900656074286,-0.028117014095187187
0.019063003361225128,-0.012225196696817875,-0.00935322605073452,0.015350792557001114,-0.002311298158019781,-0.028322044759988785
0.019178271293640137,-0.012086847797036171,-0.00865237694233656,0.015283253975212574,-0.0022977925837039948,-0.029178690165281296
0.019309908151626587,-0.012455922551453114,-0.010079358704388142,0.015222915448248386,-0.0023652021773159504,-0.02981102652847767
0.019147230312228203,-0.012389570474624634,-0.009576113894581795,0.015153809450566769,-0.0023372566793113947,-0.02996724471449852
0.018715938553214073,-0.012556918896734715,-0.009396553970873356,0.015324889682233334,-0.0022958421614021063,-0.029183344915509224
0.01913485676050186,-0.012265197932720184,-0.009882936254143715,0.015546961687505245,-0.002272426150739193,-0.02916673943400383
0.019311001524329185,-0.012545335106551647,-0.010369103401899338,0.015791630372405052,-0.002490103943273425,-0.02959599904716015
0.01967211253941059,-0.012079045176506042,-0.010195737704634666,0.015303259715437889,-0.002398318611085415,-0.03037256747484207
0.01967211253941059,-0.012079045176506042,-0.010195737704634666,0.015303259715437889,-0.002398318611085415,-0.03037256747484207
0.01950114779174328,-0.012394266203045845,-0.010285275988280773,0.015917666256427765,-0.002366178436204791,-0.029896821826696396
0.01950114779174328,-0.012394266203045845,-0.010285275988280773,0.015917666256427765,-0.002366178436204791,-0.029896821826696396
0.01970803551375866,-0.01260578352957964,-0.010574620217084885,0.016579007729887962,-0.0022773160599172115,-0.031141871586441994
0.01946035400032997,-0.012688284739851952,-0.010579824447631836,0.016075795516371727,-0.002320951083675027,-0.030651487410068512
0.02007412351667881,-0.01217093225568533,-0.010281178168952465,0.015765072777867317,-0.0024756963830441236,-0.03029044345021248
0.020066959783434868,-0.012130978517234325,-0.010595620609819889,0.015314551070332527,-0.0024628753308206797,-0.030038857832551003
0.020876441150903702,-0.01227821409702301,-0.01023043505847454,0.015337762422859669,-0.0027506928890943527,-0.030960584059357643
0.020148620009422302,-0.012234495021402836,-0.010683290660381317,0.015523751266300678,-0.002681101905182004,-0.031056957319378853
0.020159365609288216,-0.011680042371153831,-0.010906233452260494,0.013708265498280525,-0.0024470286443829536,-0.030792005360126495
0.020070482045412064,-0.011855823919177055,-0.01017846167087555,0.015217473730444908,-0.0023546372540295124,-0.032145462930202484
0.019967341795563698,-0.011588984169065952,-0.010972993448376656,0.015540441498160362,-0.002288235118612647,-0.03189884498715401
0.020981503650546074,-0.011671224609017372,-0.01091175526380539,0.016148943454027176,-0.0024226075038313866,-0.030763914808630943
0.02074112929403782,-0.011972490698099136,-0.010775133036077023,0.0150687200948596,-0.0025639787781983614,-0.030779153108596802
0.020613113418221474,-0.011544307693839073,-0.01108519360423088,0.01523760799318552,-0.0027095722034573555,-0.03209415078163147
0.020532919093966484,-0.011990056373178959,-0.011025892570614815,0.015371774323284626,-0.002617547055706382,-0.032956674695014954
0.020628593862056732,-0.011729744262993336,-0.010441245511174202,0.01573517732322216,-0.0025941634085029364,-0.03256405144929886
0.020852787420153618,-0.01165202260017395,-0.008257688954472542,0.01498535554856062,-0.002632870338857174,-0.03188328072428703
0.020903240889310837,-0.012314805760979652,-0.008699659258127213,0.015126422047615051,-0.002455913694575429,-0.031590282917022705
0.020723512396216393,-0.011342360638082027,-0.00935074407607317,0.014958178624510765,-0.0025712347123771906,-0.03177986666560173
0.020353276282548904,-0.011638494208455086,-0.009838191792368889,0.014952699653804302,-0.0026990538462996483,-0.0321534089744091
0.020421581342816353,-0.011533536948263645,-0.009208078496158123,0.014863107353448868,-0.002529061632230878,-0.031821366399526596
0.020598048344254494,-0.011361544951796532,-0.0090649938210845,0.015295094810426235,-0.002291493583470583,-0.03229666128754616
0.020895058289170265,-0.011830665171146393,-0.0095924511551857,0.015813294798135757,-0.002169326413422823,-0.032995861023664474
0.021645592525601387,-0.011679742485284805,-0.00962899811565876,0.015903403982520103,-0.002374901669099927,-0.03290561959147453
0.021841034293174744,-0.011755019426345825,-0.009456071071326733,0.016315963119268417,-0.002504788339138031,-0.03293390944600105
0.02164863608777523,-0.011193226091563702,-0.009738962166011333,0.01609092950820923,-0.0024672946892678738,-0.03300444781780243
0.021258674561977386,-0.011279198341071606,-0.009525618515908718,0.016446281224489212,-0.0025134144816547632,-0.03284674510359764
0.021526828408241272,-0.011784088797867298,-0.009296374395489693,0.016269324347376823,-0.0025242262054234743,-0.03356095030903816
0.021837502717971802,-0.011553694494068623,-0.00997360423207283,0.01599821075797081,-0.0025575680192559958,-0.03370502591133118
0.02145201899111271,-0.011006512679159641,-0.010757388547062874,0.01604529842734337,-0.0026665173936635256,-0.033539995551109314
0.02145201899111271,-0.011006512679159641,-0.010757388547062874,0.01604529842734337,-0.0026665173936635256,-0.033539995551109314
0.021956758573651314,-0.010751594789326191,-0.010231203399598598,0.01657917909324169,-0.002580569591373205,-0.03420804813504219
0.022307679057121277,-0.011022152379155159,-0.009665986523032188,0.016010433435440063,-0.0025514487642794847,-0.03441387787461281
0.02251128852367401,-0.010509058833122253,-0.010120637714862823,0.015923084691166878,-0.002333639655262232,-0.034451715648174286
0.022098125889897346,-0.010887909680604935,-0.010688414797186852,0.015085327439010143,-0.002419230993837118,-0.03486724570393562
0.022411195561289787,-0.010864135809242725,-0.010744364000856876,0.015564431436359882,-0.0026081036776304245,-0.035185232758522034
0.022998245432972908,-0.010521850548684597,-0.010456420481204987,0.015579580329358578,-0.002749876817688346,-0.035341776907444
0.022859537973999977,-0.011045588180422783,-0.010711997747421265,0.015696069225668907,-0.0026432040613144636,-0.03521678224205971
0.021979758515954018,-0.010882222093641758,-0.010593929328024387,0.016021979972720146,-0.002532068407163024,-0.0349903330206871
0.022442258894443512,-0.011019531637430191,-0.011129971593618393,0.01580219529569149,-0.002273651072755456,-0.03532752767205238
0.02292858436703682,-0.011138061061501503,-0.01076809223741293,0.016010480001568794,-0.0022357285488396883,-0.0353216826915741
0.023069679737091064,-0.01107789110392332,-0.010467944666743279,0.015812033787369728,-0.002422870136797428,-0.035504963248968124
0.023390404880046844,-0.010490293614566326,-0.011589244939386845,0.016004150733351707,-0.0025301987770944834,-0.03634558618068695
0.023355260491371155,-0.010663844645023346,-0.010812420397996902,0.015465264208614826,-0.0029193314258009195,-0.0356835201382637
0.023121416568756104,-0.01064627431333065,-0.010892672464251518,0.01562732458114624,-0.002961359452456236,-0.036734577268362045
0.0237971730530262,-0.011034608818590641,-0.011267418041825294,0.015142821706831455,-0.002901132218539715,-0.037878379225730896
0.02427392452955246,-0.01086913701146841,-0.010937551036477089,0.01577191799879074,-0.0027629248797893524,-0.03720340505242348
0.02460426650941372,-0.010179731994867325,-0.01193948183208704,0.015666982159018517,-0.0028268483001738787,-0.03561544790863991
0.02428954280912876,-0.010585967451334,-0.011277864687144756,0.015976933762431145,-0.0030540209263563156,-0.03663647174835205
0.024041010066866875,-0.010354655794799328,-0.011310631409287453,0.015981169417500496,-0.0028031228575855494,-0.037483006715774536
0.02445315197110176,-0.010456475429236889,-0.011808175593614578,0.016547491773962975,-0.002627815119922161,-0.03821588307619095
0.024364111945033073,-0.010277562774717808,-0.011187655851244926,0.016985099762678146,-0.002620701678097248,-0.03863557428121567
0.024455146864056587,-0.010237582959234715,-0.01198288518935442,0.017022430896759033,-0.0024115699343383312,-0.03702922910451889
0.023901712149381638,-0.010442097671329975,-0.011710145510733128,0.01714213937520981,-0.0023655060213059187,-0.036916688084602356
0.02502579428255558,-0.010667592287063599,-0.011407962068915367,0.01628434844315052,-0.0026377143803983927,-0.03813239932060242
0.025707442313432693,-0.009269810281693935,-0.01179675292223692,0.01659153774380684,-0.0028797949198633432,-0.03850417584180832
0.025493912398815155,-0.009403280913829803,-0.011283235624432564,0.01628296636044979,-0.0026458536740392447,-0.0385282002389431
0.025160450488328934,-0.010044465772807598,-0.011886169202625751,0.015888214111328125,-0.0026005241088569164,-0.03824777901172638
0.02533571794629097,-0.009666011668741703,-0.0117409098893404,0.016263721510767937,-0.002474619308486581,-0.03836431726813316
0.024381857365369797,-0.009838946163654327,-0.011264709755778313,0.016291558742523193,-0.0024176710285246372,-0.03903500363230705
0.026130182668566704,-0.009512209333479404,-0.011177531443536282,0.016884250566363335,-0.0028059943579137325,-0.03880593925714493
0.025554435327649117,-0.009848183020949364,-0.011400350369513035,0.01712019369006157,-0.002464745659381151,-0.038970138877630234
0.025554435327649117,-0.009848183020949364,-0.011400350369513035,0.01712019369006157,-0.002464745659381151,-0.038970138877630234
0.025291673839092255,-0.00963273923844099,-0.011568227782845497,0.017204176634550095,-0.0022699388209730387,-0.03971869871020317
0.026174411177635193,-0.009013033472001553,-0.011196569539606571,0.016770951449871063,-0.0024624960497021675,-0.04029114544391632
0.02626676857471466,-0.010049527511000633,-0.011801082640886307,0.017279591411352158,-0.0026371118146926165,-0.038604866713285446
0.02541501633822918,-0.010026802308857441,-0.011618874035775661,0.016957003623247147,-0.0028762880247086287,-0.03940128535032272
0.025546815246343613,-0.009045879356563091,-0.012634933926165104,0.017056016251444817,-0.003137124702334404,-0.03969869390130043
0.025953080505132675,-0.00912594422698021,-0.011752588674426079,0.0170682854950428,-0.003082939190790057,-0.04103406146168709
0.02578880824148655,-0.009222130291163921,-0.01152188703417778,0.016353365033864975,-0.0030783170368522406,-0.04104972630739212
0.026369856670498848,-0.008797514252364635,-0.012498590163886547,0.01621505804359913,-0.003182050073519349,-0.03903907909989357
0.02663152478635311,-0.009239805862307549,-0.01217285729944706,0.014796650968492031,-0.0029399553313851357,-0.03928758576512337
0.026616984978318214,-0.008988735266029835,-0.011994591914117336,0.01607554592192173,-0.0028323379810899496,-0.040662046521902084
0.02666766569018364,-0.009429851546883583,-0.011695411056280136,0.0161358043551445,-0.0026244609616696835,-0.04079299047589302
0.026969894766807556,-0.008669106289744377,-0.011596828699111938,0.016717063263058662,-0.0025303629226982594,-0.04060499742627144
0.026770256459712982,-0.009297911077737808,-0.01240676362067461,0.016820989549160004,-0.002815895713865757,-0.0410044863820076
0.027001947164535522,-0.0088614197447896,-0.011973168700933456,0.016967840492725372,-0.0028864433988928795,-0.04106733202934265
0.026737168431282043,-0.008658532984554768,-0.012659934349358082,0.01734062470495701,-0.003106655552983284,-0.0411955863237381
0.026944860816001892,-0.009020309895277023,-0.012370411306619644,0.017081771045923233,-0.003217806341126561,-0.04139082506299019
0.026848698034882545,-0.008678087964653969,-0.012932462617754936,0.017416097223758698,-0.0029869999270886183,-0.041232746094465256
0.026871854439377785,-0.008974751457571983,-0.011753849685192108,0.01736760325729847,-0.003097510663792491,-0.04148939996957779
0.026563748717308044,-0.008819245733320713,-0.011922228150069714,0.016923822462558746,-0.0029691935051232576,-0.041659049689769745
0.02706172689795494,-0.00898001529276371,-0.01277382206171751,0.01701679453253746,-0.00291537051089108,-0.04182727634906769
0.027007272467017174,-0.00889218132942915,-0.0121450899168849,0.01638963632285595,-0.0028088015969842672,-0.042416803538799286
0.026619207113981247,-0.008553223684430122,-0.012903549708425999,0.016900725662708282,-0.003049555467441678,-0.04243860021233559
0.028151290491223335,-0.010002096183598042,-0.012252508662641048,0.01643342338502407,-0.0032991566695272923,-0.042361628264188766
0.027911007404327393,-0.008752441965043545,-0.012613406404852867,0.016706133261322975,-0.0031700676772743464,-0.042897336184978485
0.02763977460563183,-0.008487026207149029,-0.012616072781383991,0.01669011451303959,-0.003162815934047103,-0.043390754610300064
0.02788599394261837,-0.00898757204413414,-0.012576406821608543,0.01654934324324131,-0.002895866986364126,-0.043406348675489426
0.028070086613297462,-0.007927294820547104,-0.012576189823448658,0.01630927249789238,-0.0032827372197061777,-0.04387795180082321
0.02935325913131237,-0.008872903883457184,-0.012855286709964275,0.016773533076047897,-0.0034603553358465433,-0.044629551470279694
0.02935325913131237,-0.008872903883457184,-0.012855286709964275,0.016773533076047897,-0.0034603553358465433,-0.044629551470279694
0.029197145253419876,-0.008510221727192402,-0.012395733967423439,0.01626247726380825,-0.003200904466211796,-0.04463716223835945
0.028082001954317093,-0.008490053005516529,-0.012968898750841618,0.016114482656121254,-0.00303918425925076,-0.04317126423120499
0.027886107563972473,-0.008429283276200294,-0.012694278731942177,0.01618482917547226,-0.0027595958672463894,-0.04432857781648636
0.028899308294057846,-0.008490314707159996,-0.013211316429078579,0.016240013763308525,-0.002828911878168583,-0.04599887505173683
0.029233912006020546,-0.008785253390669823,-0.012798946350812912,0.01649181917309761,-0.003208267269656062,-0.04625789076089859
0.028810648247599602,-0.008601505309343338,-0.0129488380625844,0.01605520397424698,-0.0033305578399449587,-0.04374055564403534
0.029213912785053253,-0.008668491616845131,-0.013100536540150642,0.016514090821146965,-0.0031034669373184443,-0.04445686936378479
0.02980094589293003,-0.008306191302835941,-0.013037366792559624,0.016283642500638962,-0.002881164662539959,-0.044948019087314606
0.030126208439469337,-0.008489548228681087,-0.013438724912703037,0.01666407845914364,-0.003208896378055215,-0.04674975574016571
0.02906525321304798,-0.008365361951291561,-0.012724567204713821,0.016333919018507004,-0.003418777836486697,-0.046079523861408234
0.029136275872588158,-0.008600111119449139,-0.01324643474072218,0.016604406759142876,-0.0034378631971776485,-0.04408368840813637
0.029695799574255943,-0.008615106344223022,-0.012852965854108334,0.016899557784199715,-0.003374414285644889,-0.045319341123104095
0.029901033267378807,-0.00830793846398592,-0.013416064903140068,0.016931815072894096,-0.003373142797499895,-0.04647542163729668
0.030151674523949623,-0.008418521843850613,-0.013147100806236267,0.017444506287574768,-0.003148962277919054,-0.046799637377262115
0.03004494309425354,-0.008313024416565895,-0.013771758414804935,0.017476597800850868,-0.0034532712306827307,-0.046340443193912506
0.02992328256368637,-0.008158262819051743,-0.013457981869578362,0.01740242727100849,-0.00319836288690567,-0.046655137091875076
0.02990739233791828,-0.007721989415585995,-0.013793659396469593,0.01780370995402336,-0.0031196102499961853,-0.04640242084860802
0.0289120115339756,-0.008790143765509129,-0.01341733243316412,0.01766298897564411,-0.0033528448548167944,-0.046900972723960876
0.03034513257443905,-0.008301555179059505,-0.013170945458114147,0.017999811097979546,-0.0037203344982117414,-0.04597829654812813
0.03056453913450241,-0.007791177369654179,-0.013478728011250496,0.017811095342040062,-0.0038062972016632557,-0.04696127399802208
0.03087140992283821,-0.007955542765557766,-0.013435333967208862,0.01732453890144825,-0.0033837677910923958,-0.04876695200800896
0.030686145648360252,-0.008363060653209686,-0.013662016950547695,0.01741057261824608,-0.0030784483533352613,-0.046239521354436874
0.030429024249315262,-0.00843239389359951,-0.01318206638097763,0.01749422214925289,-0.0029300355818122625,-0.04573230817914009
0.03070417232811451,-0.00772109953686595,-0.014046072959899902,0.01770273968577385,-0.0030232295393943787,-0.04714636132121086
0.03131330758333206,-0.007726812269538641,-0.013508942909538746,0.018192529678344727,-0.003387430217117071,-0.04929530248045921
0.03192614018917084,-0.008233943022787571,-0.014224705286324024,0.01728968881070614,-0.003413081169128418,-0.049212731420993805
0.031660888344049454,-0.007593634072691202,-0.013517173938453197,0.016743313521146774,-0.003514472395181656,-0.04734896495938301
0.03194834291934967,-0.007646896876394749,-0.013700064271688461,0.017004137858748436,-0.0034279292449355125,-0.04939047247171402
0.0321657732129097,-0.008337459526956081,-0.014612936414778233,0.01716376282274723,-0.003587370738387108,-0.04913162812590599
0.03200581669807434,-0.007675188593566418,-0.01404907088726759,0.0169375017285347,-0.0033684931695461273,-0.048782773315906525
0.032250192016363144,-0.008073907345533371,-0.014434796757996082,0.017309822142124176,-0.0034170753788203,-0.05030068755149841
0.032616324722766876,-0.007799080107361078,-0.013753537088632584,0.01697334460914135,-0.003242174396291375,-0.05043464154005051
0.032616324722766876,-0.007799080107361078,-0.013753537088632584,0.01697334460914135,-0.003242174396291375,-0.05043464154005051
0.033009689301252365,-0.007587458938360214,-0.014624000526964664,0.017518820241093636,-0.003294970840215683,-0.04992777854204178
0.03356820344924927,-0.007414296269416809,-0.014133308082818985,0.017945853993296623,-0.0034118613693863153,-0.05025815963745117
0.03313180059194565,-0.007521808613091707,-0.014603803865611553,0.017889533191919327,-0.003362663323059678,-0.05003891512751579
0.03340631350874901,-0.007551050279289484,-0.014202953316271305,0.017750881612300873,-0.0035739310551434755,-0.05080303177237511
0.033679816871881485,-0.007438306696712971,-0.014956139028072357,0.017001722007989883,-0.003752210410311818,-0.0509243868291378
0.03482087701559067,-0.007219614461064339,-0.014368909411132336,0.01695922762155533,-0.0037688561715185642,-0.05094427242875099
0.034044262021780014,-0.007404368836432695,-0.014717094600200653,0.016886090859770775,-0.003386454423889518,-0.05101655423641205
0.033311158418655396,-0.007604049518704414,-0.014144019223749638,0.016532402485609055,-0.0034891816321760416,-0.05170824006199837
0.035015467554330826,-0.007579457480460405,-0.015179258771240711,0.01694534718990326,-0.0034697975497692823,-0.05161763355135918
0.03433191776275635,-0.00695244874805212,-0.015192161314189434,0.017002351582050323,-0.0034005127381533384,-0.05191032588481903
0.034336723387241364,-0.0068860407918691635,-0.01561303436756134,0.01760121062397957,-0.0032239232677966356,-0.052025314420461655
0.0354434959590435,-0.00688414741307497,-0.015096901915967464,0.017822861671447754,-0.0032358618918806314,-0.051500353962183
0.03551425784826279,-0.00705103762447834,-0.015598520636558533,0.017606468871235847,-0.00402702484279871,-0.05247127264738083
0.03373423218727112,-0.006750243250280619,-0.01575438119471073,0.017756691202521324,-0.004160289186984301,-0.0542588010430336
0.03458352014422417,-0.006781283766031265,-0.01617322489619255,0.017519891262054443,-0.0039436789229512215,-0.05174405500292778
0.03537913039326668,-0.0072697363793849945,-0.015978671610355377,0.01757332868874073,-0.003527846187353134,-0.051316335797309875
0.0355934239923954,-0.007641820702701807,-0.01553796511143446,0.01749916933476925,-0.0032966574653983116,-0.053198300302028656
0.03565949574112892,-0.006981246639043093,-0.016502821817994118,0.01705687865614891,-0.0031993105076253414,-0.05597411096096039
0.03524554893374443,-0.006221173796802759,-0.015950947999954224,0.0175387654453516,-0.003285071114078164,-0.05334530398249626
0.035565201193094254,-0.0064506083726882935,-0.016211012378335,0.016924256458878517,-0.0033485693857073784,-0.053337372839450836
0.03605911508202553,-0.006876986939460039,-0.016257120296359062,0.017571425065398216,-0.0036120733711868525,-0.053994741290807724
0.03572647273540497,-0.006440946366637945,-0.016372010111808777,0.01729043945670128,-0.0042277174070477486,-0.054408200085163116
0.03572647273540497,-0.006440946366637945,-0.016372010111808777,0.01729043945670128,-0.0042277174070477486,-0.054408200085163116
0.03609677404165268,-0.0066869077272713184,-0.016999559476971626,0.017479438334703445,-0.003967116586863995,-0.0550081692636013
0.03609677404165268,-0.0066869077272713184,-0.016999559476971626,0.017479438334703445,-0.003967116586863995,-0.0550081692636013
0.03647882118821144,-0.006742213852703571,-0.01691553369164467,0.01766176149249077,-0.004155558999627829,-0.05491601675748825
0.036175262182950974,-0.007130555808544159,-0.01753172092139721,0.018244462087750435,-0.003939994610846043,-0.054883457720279694
0.0344700813293457,-0.006458481773734093,-0.01678081788122654,0.018073424696922302,-0.00371121009811759,-0.0560288280248642
0.03717207908630371,-0.006540840957313776,-0.01691971905529499,0.017686761915683746,-0.003473646007478237,-0.05765856057405472
0.03818797692656517,-0.00669063301756978,-0.017220741137862206,0.0178208164870739,-0.0035221430007368326,-0.054949261248111725
0.037565115839242935,-0.006678225472569466,-0.016770873218774796,0.01753494143486023,-0.0037285489961504936,-0.055055052042007446
0.035938113927841187,-0.006258098408579826,-0.01694181002676487,0.018138013780117035,-0.003998135216534138,-0.05791861563920975
0.03726835176348686,-0.006354586686939001,-0.01662684604525566,0.017839137464761734,-0.004042015876621008,-0.05796229466795921
0.03720340132713318,-0.0067477175034582615,-0.017441876232624054,0.01777348853647709,-0.003696376457810402,-0.05530620366334915
0.03726944699883461,-0.005999869666993618,-0.01760142110288143,0.017557842656970024,-0.003498323494568467,-0.05663110688328743
0.03812946379184723,-0.005943717435002327,-0.017149120569229126,0.017932148650288582,-0.0036486019380390644,-0.057497020810842514
0.038042373955249786,-0.005653745029121637,-0.017930403351783752,0.01869390346109867,-0.0038342156913131475,-0.05690799281001091
0.03699576109647751,-0.005866057705134153,-0.01767275109887123,0.01946021430194378,-0.003936310764402151,-0.057299062609672546
0.037893395870923996,-0.0064940438605844975,-0.018402578309178352,0.019000524654984474,-0.003516266355291009,-0.05800251290202141
0.03783418610692024,-0.006237028632313013,-0.01802939921617508,0.018698371946811676,-0.00358140398748219,-0.05765911191701889
0.038037050515413284,-0.00607846537604928,-0.017258159816265106,0.018016407266259193,-0.004095052368938923,-0.05782252177596092
0.03827503323554993,-0.005892608314752579,-0.01840699277818203,0.01751122623682022,-0.004186945967376232,-0.05814968794584274
0.03793078660964966,-0.005845041945576668,-0.017746098339557648,0.01811889559030533,-0.003976874984800816,-0.05803193151950836
0.038246266543865204,-0.006169996690005064,-0.01758969947695732,0.018216775730252266,-0.00422216160222888,-0.05905115604400635
0.03861580416560173,-0.00683516776189208,-0.01739739254117012,0.01883137971162796,-0.0040190014988183975,-0.05918210744857788
0.03843328356742859,-0.0062219141982495785,-0.018068058416247368,0.01874362863600254,-0.003713984275236726,-0.05925001949071884
0.038389407098293304,-0.005727011244744062,-0.018583590164780617,0.01808905601501465,-0.0037556865718215704,-0.05881466343998909
0.03911113366484642,-0.006139397621154785,-0.017960550263524055,0.018339792266488075,-0.004609209951013327,-0.058552902191877365
0.03750396892428398,-0.006028280593454838,-0.017719337716698647,0.018910378217697144,-0.004549895878881216,-0.05794753506779671
0.039170797914266586,-0.0062886630184948444,-0.018518701195716858,0.019070545211434364,-0.004505170974880457,-0.060265928506851196
0.03940246254205704,-0.005945221520960331,-0.018686790019273758,0.018890319392085075,-0.004203012213110924,-0.058709003031253815
0.038970947265625,-0.0061950464732944965,-0.018584655597805977,0.018180742859840393,-0.003970121033489704,-0.05801958963274956
0.03950105607509613,-0.006032186560332775,-0.018258677795529366,0.018131757155060768,-0.003894889960065484,-0.06159830465912819
0.03905715048313141,-0.006232541520148516,-0.01845538429915905,0.018131395801901817,-0.004149376414716244,-0.05926276370882988
0.03905715048313141,-0.006232541520148516,-0.01845538429915905,0.018131395801901817,-0.004149376414716244,-0.05926276370882988
0.03951816260814667,-0.0062440140172839165,-0.019091695547103882,0.018279850482940674,-0.004673357587307692,-0.059654589742422104
0.04014433175325394,-0.005779657047241926,-0.018837546929717064,0.019069885835051537,-0.004766882862895727,-0.060335300862789154
0.03958601877093315,-0.006084801163524389,-0.018996674567461014,0.018576785922050476,-0.004217580892145634,-0.06080496311187744
0.03950926288962364,-0.006544846575707197,-0.018928075209259987,0.018411103636026382,-0.004275007639080286,-0.060852304100990295
0.03936492279171944,-0.005928766448050737,-0.018483974039554596,0.019004663452506065,-0.004188567865639925,-0.06116272136569023
0.039222631603479385,-0.00585871422663331,-0.019198231399059296,0.018687957897782326,-0.003997693303972483,-0.06169173866510391
0.04088195785880089,-0.005515150725841522,-0.01944495365023613,0.018518716096878052,-0.004272769670933485,-0.06110239028930664
0.04106505960226059,-0.005575124174356461,-0.01913202553987503,0.018350783735513687,-0.00464222626760602,-0.061360254883766174
0.038613319396972656,-0.005793419666588306,-0.0193912573158741,0.01817488484084606,-0.00417664460837841,-0.06395400315523148
0.04000047221779823,-0.006126005668193102,-0.019102416932582855,0.018257221207022667,-0.00418159831315279,-0.06340567767620087
0.04010521247982979,-0.005441904067993164,-0.019002016633749008,0.01827789470553398,-0.0047090621665120125,-0.06185517832636833
0.04157152399420738,-0.005635290872305632,-0.01970771886408329,0.01801728457212448,-0.004431144800037146,-0.06287182867527008
0.04051540046930313,-0.005559817887842655,-0.019746964797377586,0.018570296466350555,-0.004215635359287262,-0.06504568457603455
0.039997298270463943,-0.005914016626775265,-0.01933351904153824,0.01820220984518528,-0.004064812324941158,-0.06198679283261299
0.0395548976957798,-0.00590559933334589,-0.01944357343018055,0.018215490505099297,-0.004475039429962635,-0.06295349448919296
0.04105160012841225,-0.005795829463750124,-0.019552011042833328,0.01849278435111046,-0.004698762204498053,-0.06199932098388672
0.03961076959967613,-0.005409827455878258,-0.019370101392269135,0.018168969079852104,-0.0044806706719100475,-0.06426822394132614
0.04155312106013298,-0.005465039052069187,-0.019960597157478333,0.01859425939619541,-0.004082918632775545,-0.06454634666442871
0.04199856147170067,-0.0053556496277451515,-0.020114313811063766,0.018820306286215782,-0.0038603502325713634,-0.06410443782806396
0.04127707704901695,-0.005738772917538881,-0.01932693086564541,0.018256310373544693,-0.003882354125380516,-0.06449511647224426
0.04213538020849228,-0.005530955735594034,-0.019183646887540817,0.018637973815202713,-0.004014310892671347,-0.06483220309019089
0.04143465682864189,-0.005654706619679928,-0.020128803327679634,0.01909591257572174,-0.0042320615611970425,-0.06487908214330673
0.04190945252776146,-0.005092528648674488,-0.020895401015877724,0.01881314069032669,-0.004389334004372358,-0.0656682476401329
0.041889168322086334,-0.005504537373781204,-0.01972753368318081,0.018971258774399757,-0.004437873139977455,-0.06397095322608948
0.04175323620438576,-0.005196715705096722,-0.020091699436306953,0.01955832727253437,-0.004171616863459349,-0.0656421110033989
0.042128242552280426,-0.005298319272696972,-0.01979837566614151,0.019505277276039124,-0.0038288801442831755,-0.06601368635892868
0.04404613375663757,-0.00545214070007205,-0.019332779571413994,0.019417252391576767,-0.0036469094920903444,-0.06599041819572449
0.04250773414969444,-0.004967311397194862,-0.020594114437699318,0.019252091646194458,-0.004148266278207302,-0.06775030493736267
0.04179127514362335,-0.005320622585713863,-0.021081719547510147,0.018930071964859962,-0.004061814397573471,-0.06450808793306351
0.04328253120183945,-0.005273488350212574,-0.020673837512731552,0.019329501315951347,-0.004283244255930185,-0.06530959159135818
0.04328253120183945,-0.005273488350212574,-0.020673837512731552,0.019329501315951347,-0.004283244255930185,-0.06530959159135818
0.04452023655176163,-0.005589289125055075,-0.020573994144797325,0.01971226930618286,-0.00509937247261405,-0.06603757292032242
0.04319387301802635,-0.005260710138827562,-0.021711846813559532,0.019859598949551582,-0.004099342040717602,-0.06746113300323486
0.042439669370651245,-0.004761179443448782,-0.02162623591721058,0.019201889634132385,-0.0037447402719408274,-0.0677872970700264
0.04419969022274017,-0.00470672408118844,-0.020769676193594933,0.018848201259970665,-0.0039914618246257305,-0.06793036311864853
0.04423494264483452,-0.004842308349907398,-0.021790489554405212,0.01897190697491169,-0.00401452649384737,-0.06848599761724472
0.0439644530415535,-0.0051833936013281345,-0.02107611671090126,0.0190727598965168,-0.004419447388499975,-0.06895391643047333
0.04404108226299286,-0.005447810981422663,-0.020641077309846878,0.018651483580470085,-0.004616637714207172,-0.06923402100801468
0.0441148541867733,-0.004907255992293358,-0.021638382226228714,0.01905958727002144,-0.004677993711084127,-0.068876713514328
0.04454948753118515,-0.004716968629509211,-0.022352809086441994,0.01910022832453251,-0.004465785808861256,-0.06946156919002533
0.04475605860352516,-0.004780535586178303,-0.021934863179922104,0.01877105049788952,-0.004340674728155136,-0.07128199189901352
0.04447434842586517,-0.0049191988073289394,-0.02131906896829605,0.019341105595231056,-0.0041596838273108006,-0.06969006359577179
0.04512330889701843,-0.005339203402400017,-0.02145056426525116,0.019230278208851814,-0.003989727236330509,-0.06871891766786575
0.04508592188358307,-0.005094032268971205,-0.022201210260391235,0.01891034096479416,-0.00465397397056222,-0.0716305673122406
0.04543963447213173,-0.004766932688653469,-0.022102931514382362,0.01912580244243145,-0.0048805722035467625,-0.07087022066116333
0.043587103486061096,-0.0045290784910321236,-0.02143188565969467,0.01936216466128826,-0.004590749274939299,-0.06851575523614883
0.045437123626470566,-0.004555499646812677,-0.02166035771369934,0.019391899928450584,-0.004511353559792042,-0.07054643332958221
0.045582495629787445,-0.005078725516796112,-0.021580107510089874,0.01973397098481655,-0.004493951331824064,-0.07094624638557434
0.045230306684970856,-0.005095531232655048,-0.02192729339003563,0.019503142684698105,-0.004247976001352072,-0.07007676362991333
0.045362431555986404,-0.00531248701736331,-0.022155074402689934,0.01936529390513897,-0.004458610899746418,-0.07051941007375717
0.045678991824388504,-0.005065595265477896,-0.021923841908574104,0.01856686919927597,-0.0046562934294342995,-0.07022479921579361
0.04609420523047447,-0.004790975712239742,-0.022025806829333305,0.018550217151641846,-0.004701352212578058,-0.07087104767560959
0.045821450650691986,-0.00467356201261282,-0.02254575863480568,0.018880851566791534,-0.005043189041316509,-0.06943631172180176
0.045761410146951675,-0.004701587837189436,-0.021980734542012215,0.019808176904916763,-0.005015021655708551,-0.07166106253862381
0.045760221779346466,-0.004708532709628344,-0.021674642339348793,0.019693978130817413,-0.004434206523001194,-0.0718289390206337
0.04758276417851448,-0.00452819187194109,-0.022295914590358734,0.018996868282556534,-0.004367418587207794,-0.0708293467760086
0.04635082930326462,-0.004689689725637436,-0.022523432970046997,0.019238313660025597,-0.0046423859894275665,-0.07243381440639496
0.044712066650390625,-0.0046387785114347935,-0.02202433906495571,0.019593698903918266,-0.005101996939629316,-0.07109599560499191
0.04729454219341278,-0.004471030086278915,-0.022293714806437492,0.018999498337507248,-0.0049692923203110695,-0.0721939355134964
0.04729454219341278,-0.004471030086278915,-0.022293714806437492,0.018999498337507248,-0.0049692923203110695,-0.0721939355134964
0.045489776879549026,-0.004459248390048742,-0.022329695522785187,0.018994977697730064,-0.004330214112997055,-0.0729450210928917
0.045489776879549026,-0.004459248390048742,-0.022329695522785187,0.018994977697730064,-0.004330214112997055,-0.0729450210928917
0.046154994517564774,-0.004410558845847845,-0.022024404257535934,0.01849622279405594,-0.004445476923137903,-0.07317186146974564
0.04750584438443184,-0.004510902334004641,-0.02220938913524151,0.01853708177804947,-0.004785948898643255,-0.0735134482383728
0.04725014790892601,-0.00417538546025753,-0.022422632202506065,0.01877002976834774,-0.005533190444111824,-0.07323240488767624
0.04698425531387329,-0.004306766204535961,-0.022617217153310776,0.018971644341945648,-0.004954010713845491,-0.07351959496736526
0.04695959389209747,-0.004192143213003874,-0.022639010101556778,0.020307276397943497,-0.004556273575872183,-0.07214510440826416
0.047480884939432144,-0.004266468808054924,-0.022201456129550934,0.020576784387230873,-0.004490612540394068,-0.07394827157258987
0.046706218272447586,-0.004205059725791216,-0.02273118682205677,0.020541375502943993,-0.004497763700783253,-0.07433943450450897
0.047112274914979935,-0.004371989984065294,-0.0227506086230278,0.020801208913326263,-0.004783035721629858,-0.07452169805765152
0.0469624400138855,-0.004470175597816706,-0.02265983074903488,0.020754177123308182,-0.00476859649643302,-0.07552023977041245
0.047750718891620636,-0.004323118831962347,-0.02252446487545967,0.02022595703601837,-0.005251619033515453,-0.07314260303974152
0.04688016325235367,-0.004495367407798767,-0.023030247539281845,0.020543674007058144,-0.005177866667509079,-0.0745302215218544
0.04588736221194267,-0.004263570997864008,-0.023378320038318634,0.02025756426155567,-0.004925383720546961,-0.07494086772203445
0.047004781663417816,-0.0041550444439053535,-0.023316005244851112,0.019780224189162254,-0.004940350539982319,-0.07375354319810867
0.0480816476047039,-0.0042174262925982475,-0.02342180907726288,0.019553234800696373,-0.0049431342631578445,-0.07519237697124481
0.04850606247782707,-0.004462623503059149,-0.022384243085980415,0.019565599039196968,-0.004787457641214132,-0.07571517676115036
0.045782461762428284,-0.004495666828006506,-0.022761523723602295,0.019469650462269783,-0.004763920325785875,-0.075338214635849
0.04762893170118332,-0.004321475513279438,-0.023910047486424446,0.01958613283932209,-0.005243436899036169,-0.07528845965862274
0.0484442412853241,-0.004002070985734463,-0.023614127188920975,0.020121537148952484,-0.005240730941295624,-0.0761762261390686
0.0478111132979393,-0.004376540891826153,-0.02348177507519722,0.020039841532707214,-0.005630312487483025,-0.0766104981303215
0.048022493720054626,-0.004203785210847855,-0.023623758926987648,0.02031554840505123,-0.0052550132386386395,-0.07659177482128143
0.04817749559879303,-0.004083589650690556,-0.023822061717510223,0.02071131393313408,-0.0049864621832966805,-0.07626158744096756
0.04866405948996544,-0.004073057323694229,-0.023424075916409492,0.020542733371257782,-0.004873705096542835,-0.07703619450330734
0.04841110482811928,-0.004048733040690422,-0.023647258058190346,0.020040271803736687,-0.004792496562004089,-0.0793844610452652
0.04814061522483826,-0.004306338261812925,-0.02345508150756359,0.020221015438437462,-0.004758742172271013,-0.07650469988584518
0.04896187037229538,-0.00402224762365222,-0.02353932522237301,0.020187420770525932,-0.005082594230771065,-0.07802079617977142
0.04928332194685936,-0.004418360535055399,-0.023644709959626198,0.019649812951683998,-0.0050816889852285385,-0.07816547900438309
0.04964538663625717,-0.004509652964770794,-0.024081451818346977,0.019334150478243828,-0.005021175369620323,-0.07746829837560654
0.049366842955350876,-0.0043041822500526905,-0.02362983487546444,0.020796477794647217,-0.005359035450965166,-0.07720028609037399
0.04995676875114441,-0.004134440328925848,-0.024097714573144913,0.021273810416460037,-0.005349605809897184,-0.07813344150781631
0.04995676875114441,-0.004134440328925848,-0.024097714573144913,0.021273810416460037,-0.005349605809897184,-0.07813344150781631
0.050045859068632126,-0.0044444771483540535,-0.023720888420939445,0.021803658455610275,-0.005160587374120951,-0.07819405198097229
0.05022534355521202,-0.004101621452718973,-0.023350801318883896,0.021333057433366776,-0.00495700491592288,-0.07813257724046707
0.05072331801056862,-0.004434869159013033,-0.023769784718751907,0.02025369182229042,-0.0048341467045247555,-0.07785537093877792
0.0509481206536293,-0.004549194127321243,-0.024329036474227905,0.019809860736131668,-0.00507494667544961,-0.07820433378219604
0.05131923407316208,-0.004358542617410421,-0.024411309510469437,0.020436210557818413,-0.004895453341305256,-0.07850434631109238
0.05080027133226395,-0.0040452186949551105,-0.024678682908415794,0.02127118408679962,-0.004969086963683367,-0.07954234629869461
0.05137186869978905,-0.00415623327717185,-0.02428554557263851,0.021077686920762062,-0.005381910130381584,-0.07733112573623657
0.053031958639621735,-0.004028875846415758,-0.024175837635993958,0.020609503611922264,-0.005253615323454142,-0.07935743033885956
0.05020282417535782,-0.0037802557926625013,-0.024292374029755592,0.020695960149168968,-0.005597151815891266,-0.0791778489947319
0.05138856917619705,-0.004207734018564224,-0.024205613881349564,0.020964425057172775,-0.005439945962280035,-0.07788591831922531
0.05224216729402542,-0.004192381165921688,-0.02423541620373726,0.021539239212870598,-0.005348531529307365,-0.07978269457817078
0.05332542955875397,-0.003996231593191624,-0.024490097537636757,0.021119320765137672,-0.0051360344514250755,-0.08104880154132843
0.05141676589846611,-0.0038288182113319635,-0.024481307715177536,0.020850250497460365,-0.004926783498376608,-0.08093149960041046
0.05209324136376381,-0.003891602624207735,-0.02382628805935383,0.020032964646816254,-0.00494724977761507,-0.08100982755422592
0.052573032677173615,-0.003945877775549889,-0.023785624653100967,0.02041352167725563,-0.004991110414266586,-0.08110949397087097
0.05271701142191887,-0.003939379472285509,-0.024990929290652275,0.02087407000362873,-0.005290238186717033,-0.08135826140642166
0.052599355578422546,-0.0038001378998160362,-0.025907233357429504,0.021199453622102737,-0.005505488719791174,-0.08220227062702179
0.05274820327758789,-0.0038139966782182455,-0.025645991787314415,0.02110818773508072,-0.005232134833931923,-0.08138668537139893
0.05275830999016762,-0.003810406429693103,-0.025760285556316376,0.021746285259723663,-0.00520065613090992,-0.08308840543031693
0.05228821933269501,-0.004175475332885981,-0.025801153853535652,0.022005727514624596,-0.005347446072846651,-0.08134962618350983
0.054855506867170334,-0.004245562944561243,-0.025760376825928688,0.021997900679707527,-0.005639422684907913,-0.08135733008384705
0.05192597210407257,-0.00410761684179306,-0.02594284899532795,0.021734407171607018,-0.0052323411218822,-0.08414880186319351
0.05228147283196449,-0.0039688763208687305,-0.026471436023712158,0.02168322540819645,-0.00525582255795598,-0.08157029747962952
0.05312071368098259,-0.004023834131658077,-0.026338346302509308,0.02128671482205391,-0.005434964783489704,-0.08189484477043152
0.05496014282107353,-0.003493974218145013,-0.025765860453248024,0.020650111138820648,-0.005450631026178598,-0.08264106512069702
0.053152699023485184,-0.003621677402406931,-0.025315742939710617,0.020597264170646667,-0.0057254028506577015,-0.08302518725395203
0.05293513834476471,-0.0036849533207714558,-0.02641303464770317,0.02083297073841095,-0.005473668687045574,-0.08332443237304688
0.05416563153266907,-0.0026984545402228832,-0.02718307450413704,0.02070213295519352,-0.005367937497794628,-0.08264125883579254
0.054226942360401154,-0.001456606318242848,-0.02695462293922901,0.020578673109412193,-0.005375974345952272,-0.08258209377527237
0.05398857593536377,-0.0013297772966325283,-0.028139589354395866,0.021046284586191177,-0.005500470753759146,-0.08436998724937439
0.054801974445581436,-0.0009604766382835805,-0.027951693162322044,0.02118152752518654,-0.005524275358766317,-0.08302882313728333
0.05426932871341705,-0.0011079155374318361,-0.02722732536494732,0.0207607913762331,-0.005509297829121351,-0.08510514348745346
0.05438040569424629,-0.002296280115842819,-0.027532650157809258,0.021066663786768913,-0.0052763670682907104,-0.08417003601789474
0.054793670773506165,-0.0026774294674396515,-0.02680279314517975,0.021278811618685722,-0.005211990792304277,-0.08431883901357651
0.05488729849457741,-0.0024216321762651205,-0.026994531974196434,0.021291431039571762,-0.0050929514691233635,-0.08483928442001343
0.05488729849457741,-0.0024216321762651205,-0.026994531974196434,0.021291431039571762,-0.0050929514691233635,-0.08483928442001343
0.055176034569740295,-0.0018850717460736632,-0.02801823802292347,0.02132776938378811,-0.005737580358982086,-0.08481203019618988
0.054872237145900726,-0.0013155367923900485,-0.02780739590525627,0.021630235016345978,-0.005501376930624247,-0.0849318727850914
0.05518360435962677,-0.0011759691406041384,-0.02700910158455372,0.022182630375027657,-0.0051430449821054935,-0.08626987785100937
0.055786218494176865,-0.0011384689714759588,-0.027536235749721527,0.022136518731713295,-0.0056121195666491985,-0.08481195569038391
0.05606590583920479,-0.0011841049417853355,-0.028004948049783707,0.02182254195213318,-0.005573484115302563,-0.08460437506437302
0.05607409030199051,-0.0011624394683167338,-0.027547333389520645,0.02167373150587082,-0.005763705354183912,-0.08527059108018875
0.0572015643119812,-0.0012607087846845388,-0.027291880920529366,0.02139812335371971,-0.005492473486810923,-0.08525215089321136
0.05577399954199791,-0.0012892776867374778,-0.027533546090126038,0.021096186712384224,-0.005404741037636995,-0.08633686602115631
0.05540107563138008,-0.0012860530987381935,-0.027821525931358337,0.02121151052415371,-0.005251778755337,-0.085147425532341
0.05572497099637985,-0.0012122128391638398,-0.02785571664571762,0.022416597232222557,-0.005747825838625431,-0.0835128054022789
0.05810912325978279,-0.0011613938258960843,-0.027775976806879044,0.022600773721933365,-0.006039855536073446,-0.08650447428226471
0.05574453994631767,-0.0010311608202755451,-0.027932973578572273,0.022145668044686317,-0.005855626426637173,-0.08481437712907791
0.055935006588697433,-0.0008565708412788808,-0.02842859737575054,0.02178381010890007,-0.005758901592344046,-0.08535472303628922
0.057297252118587494,-0.0008612738456577063,-0.02840118110179901,0.022009264677762985,-0.0057907551527023315,-0.08576609194278717
0.0586591511964798,-0.0008629562798887491,-0.02848283387720585,0.022312544286251068,-0.006063527427613735,-0.08662276715040207
0.055586352944374084,-0.0008673645206727087,-0.02862798608839512,0.021957727149128914,-0.005920067895203829,-0.08694779127836227
0.05696551501750946,-0.000859899737406522,-0.028713326901197433,0.021785901859402657,-0.005681635811924934,-0.08705464005470276
0.05738253518939018,-0.0009710651356726885,-0.028675608336925507,0.021971339359879494,-0.00562711525708437,-0.08679817616939545
0.057206686586141586,-0.0009626636747270823,-0.028926003724336624,0.022504763677716255,-0.006082239560782909,-0.08954577893018723
0.05744112655520439,-0.0008999250712804496,-0.029024766758084297,0.02255287766456604,-0.005727644078433514,-0.08717797696590424
0.05667131394147873,-0.0011006410932168365,-0.028980949893593788,0.02211451716721058,-0.005947064608335495,-0.09038394689559937
0.058876343071460724,-0.0010677941609174013,-0.02900487557053566,0.021228719502687454,-0.0056914989836514,-0.08925731480121613
0.05643768236041069,-0.001042526331730187,-0.02897070348262787,0.021576451137661934,-0.005878809839487076,-0.0889827236533165
0.058625657111406326,-0.0009933238616213202,-0.029297908768057823,0.02302485704421997,-0.005821842234581709,-0.08955258876085281
0.05925881862640381,-0.0009806555463001132,-0.029616454616189003,0.022627562284469604,-0.005990440491586924,-0.08975212275981903
0.05661650374531746,-0.00099840946495533,-0.029881637543439865,0.02288196049630642,-0.00552375428378582,-0.08971843123435974
0.05763263627886772,-0.0011321490164846182,-0.02860986813902855,0.024017274379730225,-0.005782079417258501,-0.08947962522506714
0.05763263627886772,-0.0011321490164846182,-0.02860986813902855,0.024017274379730225,-0.005782079417258501,-0.08947962522506714
0.05857646092772484,-0.0012352936901152134,-0.028774352744221687,0.024010881781578064,-0.00559786893427372,-0.08955521136522293
0.0582960769534111,-0.0012153867864981294,-0.030879827216267586,0.0232646893709898,-0.005917904432862997,-0.09013201296329498
0.05840418487787247,-0.0010614771163091063,-0.028908738866448402,0.022406572476029396,-0.005976541433483362,-0.0895063579082489
0.05882211774587631,-0.0009907600469887257,-0.029658515006303787,0.022193925455212593,-0.00583864189684391,-0.09129450470209122
0.05849488824605942,-0.0009735722560435534,-0.03130194917321205,0.022583186626434326,-0.006054264027625322,-0.08898071944713593
0.058255016803741455,-0.0009581767371855676,-0.029767131432890892,0.023737411946058273,-0.006008846219629049,-0.08980781584978104
0.05888887867331505,-0.0009407536708749831,-0.030081871896982193,0.024338411167263985,-0.006276351399719715,-0.09181302040815353
0.05918831005692482,-0.000884650566149503,-0.0294196717441082,0.023739799857139587,-0.006473534274846315,-0.09073960036039352
0.05890193209052086,-0.0009030246874317527,-0.030555790290236473,0.02268158085644245,-0.00624531926587224,-0.09186002612113953
0.059016283601522446,-0.0009027604246512055,-0.03031862899661064,0.022704727947711945,-0.006224477663636208,-0.09229104965925217
0.05906098335981369,-0.0009023720631375909,-0.03054594248533249,0.0229819156229496,-0.005690013524144888,-0.09392735362052917
0.059394024312496185,-0.0011728783138096333,-0.0301777683198452,0.02334144338965416,-0.005860740784555674,-0.09239158034324646
0.05926742032170296,-0.0011718046152964234,-0.030109258368611336,0.023348020389676094,-0.006396479904651642,-0.093716099858284
0.05998431146144867,-0.0011291751870885491,-0.03048204630613327,0.023059723898768425,-0.005972819868475199,-0.09360974282026291
0.059975795447826385,-0.0011250830721110106,-0.03069244511425495,0.022889381274580956,-0.005891453940421343,-0.09287269413471222
0.059551041573286057,-0.001118863234296441,-0.03062073141336441,0.02274627424776554,-0.005859251134097576,-0.0946137085556984
0.06011510640382767,-0.0010811928659677505,-0.030507715418934822,0.022807901725172997,-0.005834241863340139,-0.09472476691007614
0.05949937179684639,-0.0010542527306824923,-0.03023502603173256,0.022877037525177002,-0.0058068507350981236,-0.09462694823741913
0.061315570026636124,-0.0010190282482653856,-0.030437426641583443,0.022903012111783028,-0.005979257170110941,-0.09381096810102463
0.05876385420560837,-0.0011175592662766576,-0.030252069234848022,0.022825118154287338,-0.005944643169641495,-0.09413019567728043
0.0592767708003521,-0.0011175217805430293,-0.02980324998497963,0.022718753665685654,-0.0053131296299397945,-0.09450754523277283
0.06061935797333717,-0.001246668049134314,-0.03008306585252285,0.02272837422788143,-0.005602304823696613,-0.09488219022750854
0.060988906770944595,-0.0012048009084537625,-0.02980625070631504,0.022490326315164566,-0.005915468093007803,-0.09613820165395737
0.05906029790639877,-0.0011491943150758743,-0.030067788437008858,0.022418107837438583,-0.006364765577018261,-0.09443747997283936
0.05998712033033371,-0.0010016846936196089,-0.029943574219942093,0.02249475009739399,-0.00582989351823926,-0.09488571435213089
0.06070592626929283,-0.0010895595187321305,-0.030561048537492752,0.02234887331724167,-0.005959128960967064,-0.09808684885501862
0.059686727821826935,-0.0010936773614957929,-0.03039855696260929,0.02256585657596588,-0.006716048810631037,-0.0966983288526535
0.06268569827079773,-0.0013255486264824867,-0.030635345727205276,0.02294044755399227,-0.006496264133602381,-0.09881334751844406
0.06268569827079773,-0.0013255486264824867,-0.030635345727205276,0.02294044755399227,-0.006496264133602381,-0.09881334751844406
0.06021559610962868,-0.0012916541891172528,-0.031692080199718475,0.022546125575900078,-0.0062986197881400585,-0.09609454870223999
0.05989693105220795,-0.0012246430851519108,-0.03194655478000641,0.02295820787549019,-0.005392878316342831,-0.09679479151964188
0.06212295964360237,-0.0010810412932187319,-0.030289843678474426,0.024142879992723465,-0.00545008247718215,-0.09775663167238235
0.06295694410800934,-0.001091686193831265,-0.03056677244603634,0.024066047742962837,-0.005663099233061075,-0.09782572090625763
0.059868425130844116,-0.0010951659642159939,-0.031255580484867096,0.023715149611234665,-0.006015443708747625,-0.09752029925584793
0.061837054789066315,-0.0010663318680599332,-0.030629081651568413,0.022952977567911148,-0.00647702906280756,-0.09835384041070938
0.062279731035232544,-0.0010397693840786815,-0.030469467863440514,0.023291125893592834,-0.005679209716618061,-0.09652917832136154
0.06188318878412247,-0.0010438919998705387,-0.03106045536696911,0.02417425997555256,-0.005336265545338392,-0.10009510815143585
0.061987876892089844,-0.0009866025066003203,-0.031034162268042564,0.024310635402798653,-0.0055946833454072475,-0.09897506237030029
0.062196437269449234,-0.0008915419457480311,-0.030176496133208275,0.023689646273851395,-0.006001065485179424,-0.09797144681215286
0.0623699314892292,-0.0008913917699828744,-0.030460422858595848,0.02408255636692047,-0.006124012637883425,-0.09779522567987442
0.06246553733944893,-0.000856549886520952,-0.03149109333753586,0.02479872852563858,-0.006054964382201433,-0.09875312447547913
0.06242126226425171,-0.0008567170589230955,-0.032350849360227585,0.02465437911450863,-0.0060745347291231155,-0.09910279512405396
0.0624735951423645,-0.0008627102361060679,-0.03137804567813873,0.023611703887581825,-0.005745377857238054,-0.10004999488592148
0.062245845794677734,-0.0008761179633438587,-0.03150337189435959,0.02292569726705551,-0.006316056475043297,-0.09977605193853378
0.06309709697961807,-0.0011481514666229486,-0.03161089867353439,0.02294965460896492,-0.0066987923346459866,-0.1000669002532959
0.06311491876840591,-0.0011132871732115746,-0.03192635625600815,0.023287087678909302,-0.006445980165153742,-0.10123847424983978
0.0632578507065773,-0.0011124035809189081,-0.03136318922042847,0.0239455197006464,-0.006121304351836443,-0.10143540799617767
0.06313805282115936,-0.0011234846897423267,-0.031337473541498184,0.023887431249022484,-0.006205603014677763,-0.1055394634604454
0.06356111168861389,-0.001138892606832087,-0.032013386487960815,0.023524481803178787,-0.006284508388489485,-0.10187000036239624
0.0636216551065445,-0.0010976750636473298,-0.03157702833414078,0.023083927109837532,-0.006988697685301304,-0.10384756326675415
0.06309301406145096,-0.0010681063868105412,-0.031649887561798096,0.023371189832687378,-0.006834991276264191,-0.10227295756340027
0.06513317674398422,-0.0010230029001832008,-0.03224661946296692,0.023390207439661026,-0.006809254176914692,-0.10311019420623779
0.0628942996263504,-0.001012106309644878,-0.032066356390714645,0.023105913773179054,-0.006647276226431131,-0.1040424183011055
0.06457197666168213,-0.001163038774393499,-0.03197631984949112,0.02302958257496357,-0.006491340696811676,-0.10394540429115295
0.06545743346214294,-0.0011897943913936615,-0.03191361948847771,0.023058267310261726,-0.006364121101796627,-0.10239757597446442
0.06545743346214294,-0.0011897943913936615,-0.03191361948847771,0.023058267310261726,-0.006364121101796627,-0.10239757597446442
0.06307004392147064,-0.0012480891309678555,-0.032205868512392044,0.02304070070385933,-0.006414999254047871,-0.10442926734685898
0.06432468444108963,-0.0012949345400556922,-0.03211872652173042,0.023438001051545143,-0.00618418725207448,-0.10332676023244858
0.06477698683738708,-0.0012691739248111844,-0.03211165592074394,0.023636214435100555,-0.006435109302401543,-0.102542445063591
0.06529874354600906,-0.0011985060991719365,-0.03219851106405258,0.023448999971151352,-0.006338414736092091,-0.10387668013572693
0.0655987486243248,-0.0011166117619723082,-0.0324641577899456,0.02355399914085865,-0.005916173104196787,-0.10443835705518723
0.06676044315099716,-0.0010196054354310036,-0.033003970980644226,0.023459354415535927,-0.006194365676492453,-0.10496070235967636
0.06661022454500198,-0.0010139390360563993,-0.032662536948919296,0.02397345006465912,-0.006638325285166502,-0.10543093085289001
0.06530588865280151,-0.001007626298815012,-0.032206300646066666,0.0240885429084301,-0.006783898454159498,-0.10461048036813736
0.06670023500919342,-0.000992807443253696,-0.033101893961429596,0.0238783098757267,-0.006716297473758459,-0.10499894618988037
0.06796611845493317,-0.001246530911885202,-0.034169357270002365,0.023887017741799355,-0.006592696066945791,-0.10613585263490677
0.06566634774208069,-0.0012300001690164208,-0.03348574414849281,0.024011950939893723,-0.006443358957767487,-0.1062350869178772
0.06695902347564697,-0.0011417162604629993,-0.03290772810578346,0.024056779220700264,-0.007075398229062557,-0.10803540050983429
0.06723608076572418,-0.0010240876581519842,-0.0338919460773468,0.024216966703534126,-0.006192950997501612,-0.10536479204893112
0.0677359327673912,-0.0009219424682669342,-0.033546123653650284,0.02440829388797283,-0.006346289534121752,-0.10732948780059814
0.06694293022155762,-0.0009047284256666899,-0.033506039530038834,0.02430259808897972,-0.006629027891904116,-0.10701148957014084
0.06676853448152542,-0.000873843498993665,-0.03477068990468979,0.023895734921097755,-0.007344285026192665,-0.10703389346599579
0.06771200150251389,-0.0008768668631091714,-0.03446981683373451,0.023958012461662292,-0.006969155743718147,-0.10853302478790283
0.06761331111192703,-0.0008235265268012881,-0.034024015069007874,0.02396683394908905,-0.006530337501317263,-0.10754077136516571
0.06772437691688538,-0.0009185337112285197,-0.03383678197860718,0.0243025254458189,-0.00650136498734355,-0.10726092010736465
0.06762722134590149,-0.000827810843475163,-0.03478957712650299,0.024118591099977493,-0.0066221714951097965,-0.10756224393844604
0.06744623929262161,-0.0008327321847900748,-0.03480266034603119,0.023821158334612846,-0.007150455377995968,-0.10890297591686249
0.0682009682059288,-0.0008321048808284104,-0.03462621197104454,0.024003949016332626,-0.006909756455570459,-0.10892363637685776
0.06842873245477676,-0.0008410000009462237,-0.03658682107925415,0.024957071989774704,-0.007249718066304922,-0.11031033843755722
