davideferrari95/blind_handover_controller/data/Test 223 - [2024-02-08 -- 12-16-00]/joint_states_data.csv
shoulder_pan_joint,shoulder_lift_joint,elbow_joint,wrist_1_joint,wrist_2_joint,wrist_3_joint
0.0022881769109517336,0.01029262412339449,-0.010267040692269802,-0.0016244077123701572,-0.0,0.0026012263260781765
0.0022881769109517336,0.01029262412339449,-0.010267040692269802,-0.0016244077123701572,-0.0,0.0026012263260781765
0.0021511781960725784,0.011815708130598068,-0.009663074277341366,-0.0026428636629134417,-0.0,0.0029771511908620596
0.0017597636906430125,0.01047552190721035,-0.010161660611629486,-0.0035103894770145416,-0.0,0.0029959240928292274
0.0017510915640741587,0.010141155682504177,-0.010353759862482548,-0.003759486833587289,-0.0,0.0028541202191263437
0.0017542955465614796,0.011300584301352501,-0.009868292137980461,-0.003252211259678006,-0.0,0.00263047032058239
0.002014297293499112,0.010370815172791481,-0.010829771868884563,-0.0026411095168441534,-0.0,0.0026498313527554274
0.0026151782367378473,0.010313629172742367,-0.010117813013494015,-0.0020342774223536253,-0.0,0.0028247868176549673
0.002296986524015665,0.010024450719356537,-0.009736199863255024,-0.0018520193407312036,-0.0,0.002653964562341571
0.0022601280361413956,0.010682027786970139,-0.010558211244642735,-0.0017782057402655482,-0.0,0.0026856979820877314
0.002108996268361807,0.010293103754520416,-0.009890610352158546,-0.001785947591997683,-0.0,0.002671909285709262
0.002108996268361807,0.010293103754520416,-0.009890610352158546,-0.001785947591997683,-0.0,0.002671909285709262
0.0022715884260833263,0.010553151369094849,-0.00942432601004839,-0.002075540367513895,-0.0,0.0024041596334427595
0.0023742197081446648,0.009740881621837616,-0.009702695533633232,-0.002269008196890354,-0.0,0.0025214948691427708
0.002335800090804696,0.010351772420108318,-0.009801454842090607,-0.0022999602369964123,-0.0,0.002752882894128561
0.0026348200626671314,0.010175461880862713,-0.009051498956978321,-0.0020594324450939894,-0.0,0.0028688281308859587
0.00243509653955698,0.010318329557776451,-0.009751305915415287,-0.0018654034938663244,-0.0,0.00286797690205276
0.0024115899577736855,0.00982957798987627,-0.009028813801705837,-0.00153192481957376,-0.0,0.0028241288382560015
0.002571800258010626,0.010448019951581955,-0.010204914957284927,-0.0018572176340967417,-0.0,0.0028374402318149805
0.0024646236561238766,0.010168271139264107,-0.009152237325906754,-0.002480771392583847,-0.0,0.0026783919893205166
0.0025780885480344296,0.00971758272498846,-0.009427005425095558,-0.0025191984605044127,-0.0,0.002548932796344161
0.0026625944301486015,0.00992110837250948,-0.009849964641034603,-0.002503280295059085,-0.0,0.0023345432709902525
0.0025109658017754555,0.010568742640316486,-0.00942928995937109,-0.0022981632500886917,-0.0,0.002418552991002798
0.0026786800008267164,0.010865485295653343,-0.00895959697663784,-0.002167596248909831,-0.0,0.002578678075224161
0.002801433904096484,0.010291262529790401,-0.009342196397483349,-0.001994545105844736,-0.0,0.0024629193358123302
0.0027955262921750546,0.010657775215804577,-0.009256212040781975,-0.0019472904969006777,-0.0,0.0025522885844111443
0.002781579503789544,0.009914400987327099,-0.008753493428230286,-0.0018610050901770592,-0.0,0.002302474807947874
0.0027241080533713102,0.010191671550273895,-0.009428049437701702,-0.0018773811170831323,-0.0,0.0021548306103795767
0.0028097345493733883,0.010603669099509716,-0.009061667136847973,-0.0021030919160693884,-0.0,0.0019944272935390472
0.0026191608048975468,0.009954506531357765,-0.009283645078539848,-0.0020794242154806852,-0.0,0.0020021875388920307
0.0027077163103967905,0.010556608438491821,-0.00893781054764986,-0.002163794357329607,-0.0,0.002198678907006979
0.002807839773595333,0.010717951692640781,-0.009584787301719189,-0.002180898329243064,-0.0,0.0020854517351835966
0.0026490145828574896,0.009960894472897053,-0.008687235414981842,-0.0022757002152502537,-0.0,0.002237027045339346
0.0028159040957689285,0.010417722165584564,-0.008374596945941448,-0.0023995512165129185,-0.0,0.002029429655522108
0.0028318825643509626,0.010310803540050983,-0.009552780538797379,-0.0023881038650870323,-0.0,0.0019442531047388911
0.0027606829535216093,0.009871919639408588,-0.009275711141526699,-0.0024953673128038645,-0.0,0.0018509901128709316
0.002620037877932191,0.010555545799434185,-0.008485009893774986,-0.0022634915076196194,-0.0,0.002148203318938613
0.002798228058964014,0.009948178194463253,-0.008763047866523266,-0.0021404516883194447,-0.0,0.0022857284639030695
0.0028688223101198673,0.009792882949113846,-0.009352641180157661,-0.0019352176459506154,-0.0,0.002389471046626568
0.0029539784882217646,0.010531914420425892,-0.008640571497380733,-0.001974881161004305,-0.0,0.002494951942935586
0.002771654399111867,0.010148555971682072,-0.008808321319520473,-0.0018798478413373232,-0.0,0.002209547907114029
0.0029511363245546818,0.01037661638110876,-0.009175374172627926,-0.0023198125418275595,-0.0,0.002096395008265972
0.0029511363245546818,0.01037661638110876,-0.009175374172627926,-0.0023198125418275595,-0.0,0.002096395008265972
0.002970312489196658,0.011011826805770397,-0.008614902384579182,-0.0023347472306340933,-0.0,0.001887870137579739
0.002915648277848959,0.01026323065161705,-0.00878916122019291,-0.0023251879028975964,-0.0,0.0019610284361988306
0.002737857401371002,0.010470638051629066,-0.009299090132117271,-0.002393966307863593,-0.0,0.0019523624796420336
0.0030299844220280647,0.010700957849621773,-0.008870535530149937,-0.0024937079288065434,-0.0,0.0021868424955755472
0.0033763821702450514,0.01022695004940033,-0.0085644805803895,-0.0024576548021286726,-0.0,0.0022860972676426172
0.0030622445046901703,0.01052104588598013,-0.00888718944042921,-0.002746397629380226,-0.0,0.0020903549157083035
0.002776138950139284,0.010637923143804073,-0.008457032032310963,-0.002750192768871784,-0.0,0.002018909901380539
0.0030033558141440153,0.01133129931986332,-0.008404836989939213,-0.002836244646459818,-0.0,0.0018613404827192426
0.0034692040644586086,0.01030404306948185,-0.009005439467728138,-0.002576148835942149,-0.0,0.0018330261809751391
0.0033462310675531626,0.010437032207846642,-0.00853690505027771,-0.002353937365114689,-0.0,0.001989664975553751
0.0030926319304853678,0.011034289374947548,-0.007912085391581059,-0.0022679150570183992,-0.0,0.002037788974121213
0.0028612962923943996,0.010206411592662334,-0.00879827793687582,-0.002168554114177823,-0.0,0.0022310062777251005
0.0031309735495597124,0.010537342168390751,-0.009093672037124634,-0.002297620987519622,-0.0,0.002072943840175867
0.003318013157695532,0.010471360757946968,-0.008288542740046978,-0.002293893601745367,-0.0,0.002078267512843013
0.0032528750598430634,0.01026376523077488,-0.00860059354454279,-0.002380978548899293,-0.0,0.0022808928042650223
0.00333845685236156,0.010898436419665813,-0.008874497376382351,-0.0026906158309429884,-0.0,0.002280092565342784
0.0032001296058297157,0.010790900327265263,-0.008521410636603832,-0.0026007441338151693,-0.0,0.002412347821518779
0.002969171153381467,0.01090486440807581,-0.008932425640523434,-0.0025018341839313507,-0.0,0.0022265776060521603
0.003159579588100314,0.010560587979853153,-0.008770463988184929,-0.002418608870357275,-0.0,0.002145518083125353
0.0030361153185367584,0.010368892922997475,-0.008306784555315971,-0.002363493898883462,-0.0,0.001969768200069666
0.0023861611261963844,0.00995337963104248,-0.008103577420115471,-0.0022423220798373222,-0.0,0.0019480576738715172
0.002358809346333146,0.010454026982188225,-0.00879041850566864,-0.0022629350423812866,-0.0,0.0017748051322996616
0.0024821755941957235,0.010111957788467407,-0.008584262803196907,-0.0024255081079900265,-0.0,0.001766313100233674
0.0028688558377325535,0.01118951104581356,-0.00879672635346651,-0.0025963978841900826,-0.0,0.001708060852251947
0.0027298321947455406,0.010586985386908054,-0.008561496622860432,-0.0027050813660025597,-0.0,0.0017590030329301953
0.002672920236364007,0.01053415797650814,-0.008920314721763134,-0.002451172564178705,-0.0,0.0017975636292248964
0.002324166474863887,0.010515892878174782,-0.008494339883327484,-0.0025262024719268084,-0.0,0.0019294845405966043
0.002204063581302762,0.010629028081893921,-0.00827128067612648,-0.0027075510006397963,-0.0,0.0019468944519758224
0.002204063581302762,0.010629028081893921,-0.00827128067612648,-0.0027075510006397963,-0.0,0.0019468944519758224
0.0023826677352190018,0.010262144729495049,-0.009112429805099964,-0.002911544172093272,-0.0,0.0017319885082542896
0.0024662071373313665,0.010550526902079582,-0.008126460947096348,-0.003008487168699503,-0.0,0.001578279654495418
0.0025754813104867935,0.01002377551048994,-0.00823879987001419,-0.0030819892417639494,-0.0,0.0016027750680223107
0.0023773133289068937,0.010944906622171402,-0.008574584499001503,-0.003104760544374585,-0.0,0.001655688975006342
0.00225665420293808,0.010484102182090282,-0.008492441847920418,-0.0029283184558153152,-0.0,0.0017391552682965994
0.002167101949453354,0.009920468553900719,-0.008511613123118877,-0.002714746631681919,-0.0,0.001649628160521388
0.002355333883315325,0.010519938543438911,-0.009152024984359741,-0.00279323011636734,-0.0,0.001555785653181374
0.0026379404589533806,0.010035204701125622,-0.0085905147716403,-0.0029444340616464615,-0.0,0.001495616976171732
0.0025191938038915396,0.011227438226342201,-0.008288138546049595,-0.0026342563796788454,-0.0,0.0013955631293356419
0.0024921551812440157,0.010733308270573616,-0.009028779342770576,-0.00261424551717937,-0.0,0.0013055861927568913
0.0021396689116954803,0.010428154841065407,-0.008663101121783257,-0.0026364533696323633,-0.0,0.0012569050304591656
0.0022217591758817434,0.010711487382650375,-0.008413434028625488,-0.002484960714355111,-0.0,0.001348976162262261
0.002312185475602746,0.010604294016957283,-0.008833389729261398,-0.0025264534633606672,-0.0,0.0016965019749477506
0.00231604534201324,0.01015754509717226,-0.008972784504294395,-0.0024644078221172094,-0.0,0.0018131898250430822
0.002715831156820059,0.01047446671873331,-0.008603685535490513,-0.0024173434358090162,-0.0,0.0017237579450011253
0.0028123590163886547,0.010279175825417042,-0.008105834014713764,-0.0024532002862542868,-0.0,0.0017518899403512478
0.0024598282761871815,0.009713871404528618,-0.008730928413569927,-0.002372256014496088,-0.0,0.0016221052501350641
0.0024862897116690874,0.010634372942149639,-0.008794497698545456,-0.002306559355929494,-0.0,0.001378627261146903
0.002613937249407172,0.010028412565588951,-0.00879982765763998,-0.002597847254946828,-0.0,0.001229596440680325
0.0028118763584643602,0.009784781374037266,-0.008848346769809723,-0.003078326815739274,-0.0,0.0011862170649692416
0.0027320031076669693,0.010652863420546055,-0.009429143741726875,-0.003113917773589492,-0.0,0.0011410326696932316
0.0028107818216085434,0.010966445319354534,-0.008120403625071049,-0.003119253320619464,-0.0,0.0011239585001021624
0.0028199253138154745,0.010095256380736828,-0.008381101302802563,-0.0031347889453172684,-0.0,0.0011524453293532133
0.0029003897216171026,0.010400304570794106,-0.009621325880289078,-0.003346451325342059,-0.0,0.0013513180892914534
0.0029003897216171026,0.010400304570794106,-0.009621325880289078,-0.003346451325342059,-0.0,0.0013513180892914534
0.002732675289735198,0.010136651806533337,-0.00889921560883522,-0.0033942372538149357,-0.0,0.0016161588719114661
0.002945688320323825,0.010189143009483814,-0.008500387892127037,-0.003335152752697468,-0.0,0.0019586998969316483
0.002842799760401249,0.01019753236323595,-0.008951385505497456,-0.002887711161747575,-0.0,0.0016602188115939498
0.002842799760401249,0.01019753236323595,-0.008951385505497456,-0.002887711161747575,-0.0,0.0016602188115939498
0.002883038017898798,0.010299166664481163,-0.008560135960578918,-0.0030777999199926853,-0.0,0.0014829004649072886
0.003115494968369603,0.009883354417979717,-0.009484980255365372,-0.0034327618777751923,-0.0,0.0013348100474104285
0.0030897289980202913,0.010403351858258247,-0.008470281958580017,-0.0033816099166870117,-0.0,0.0011120365234091878
0.002976440591737628,0.010621030814945698,-0.008256351575255394,-0.0034503182396292686,-0.0,0.0009991362458094954
0.002688376000151038,0.009686899371445179,-0.009462534449994564,-0.0032539721578359604,-0.0,0.0010664050932973623
0.00292854942381382,0.010368379764258862,-0.008684422820806503,-0.0034323849249631166,-0.0,0.0014426191337406635
0.0030583993066102266,0.009801139123737812,-0.0084275146946311,-0.003378482535481453,-0.0,0.001478390651755035
0.0031043095514178276,0.009725306183099747,-0.009140106849372387,-0.0033085173927247524,-0.0,0.0013982342788949609
0.0029170389752835035,0.010459552519023418,-0.008746694773435593,-0.0031967132817953825,-0.0,0.0012512145331129432
0.00288831046782434,0.010260706767439842,-0.0083836754783988,-0.0033913026563823223,-0.0,0.0010397768346592784
0.00323458737693727,0.010693922638893127,-0.00911265891045332,-0.0032477022614330053,-0.0,0.001003866782411933
0.003241540864109993,0.010554732754826546,-0.009000282734632492,-0.0035318066366016865,-0.0,0.0009579362813383341
0.0031424514017999172,0.01023847982287407,-0.008852601051330566,-0.003703291993588209,-0.0,0.0009174332371912897
0.0029912968166172504,0.009741888381540775,-0.008354989811778069,-0.0037177286576479673,-0.0,0.0008614165126346052
0.002996019786223769,0.010257212445139885,-0.008385840803384781,-0.003723209723830223,-0.0,0.0008130100322887301
0.0031076096929609776,0.009886573068797588,-0.008748886175453663,-0.00361880986019969,-0.0,0.0008206376805901527
0.0030688277911394835,0.009733504615724087,-0.008530441671609879,-0.0033652849961072206,-0.0,0.0008726255618967116
0.0033949173521250486,0.01018465869128704,-0.00871804915368557,-0.003243852872401476,-0.0,0.0013386229984462261
0.0032209872733801603,0.010178372263908386,-0.009229962714016438,-0.002986786887049675,-0.0,0.0013299398124217987
0.003115269122645259,0.010568821802735329,-0.008299041539430618,-0.0033338614739477634,-0.0,0.0012698075734078884
0.003120457287877798,0.009697668254375458,-0.008271055296063423,-0.0036505803000181913,-0.0,0.0011897983495146036
0.0031794693786650896,0.010600024834275246,-0.009533347561955452,-0.0037531794514507055,-4.477015238535387e-07,0.0011248462833464146
0.0031395144760608673,0.010197851806879044,-0.00882675126194954,-0.0037356202956289053,-2.9231708609245288e-08,0.0010638614185154438
0.0033015115186572075,0.010729392990469933,-0.008052513003349304,-0.0037245808634907007,-1.908621705126734e-09,0.0010378827573731542
0.0033015115186572075,0.010729392990469933,-0.008052513003349304,-0.0037245808634907007,-1.908621705126734e-09,0.0010378827573731542
0.00365061336196959,0.010114088654518127,-0.008768865838646889,-0.0035968811716884375,-1.2461937037855364e-10,0.0009471616940572858
0.0033316602930426598,0.010017938911914825,-0.00931909866631031,-0.003448877017945051,-8.136754291176995e-12,0.0009213653393089771
0.003108728677034378,0.010267960838973522,-0.008293603546917439,-0.00335276429541409,-5.312719123136411e-13,0.0009170392877422273
0.003195240395143628,0.01004959549754858,-0.0091596944257617,-0.004008258692920208,-2.26489558546514e-15,0.0010627609444782138
0.003477902617305517,0.010197076015174389,-0.008412341587245464,-0.004221613984555006,-1.4788149702765817e-16,0.0010586378630250692
0.0033221920020878315,0.009821360930800438,-0.008244725875556469,-0.004243466537445784,-9.655605671256975e-18,0.001023448770865798
0.003616626840084791,0.01014371681958437,-0.008574542589485645,-0.003947450779378414,-6.304420111094608e-19,0.0009565399377606809
0.0033440724946558475,0.010302439332008362,-0.008471508510410786,-0.003507337300106883,-4.1163357176342844e-20,0.0008926399168558419
0.003575155744329095,0.009634945541620255,-0.008497051894664764,-0.0035492966417223215,-2.6876727825369183e-21,0.0008085815352387726
0.003200150327757001,0.010123505257070065,-0.008539152331650257,-0.003879596944898367,-1.754858444116612e-22,0.0007916893810033798
0.003226060187444091,0.009945330210030079,-0.008991860784590244,-0.004086216911673546,-1.1457971145507251e-23,0.0007170816534198821
0.0032995876390486956,0.009861827827990055,-0.009126094169914722,-0.004070749972015619,8.375395736948121e-06,0.0007326207705773413
0.00316046760417521,0.010302257724106312,-0.008534467779099941,-0.004342598374933004,0.0002512378850951791,0.0006620550993829966
0.0034078555181622505,0.009969879873096943,-0.008092781528830528,-0.004379061982035637,0.0002529926423449069,0.0006731281173415482
0.0036661813501268625,0.009785153903067112,-0.00848452653735876,-0.00419076019898057,0.00028214772464707494,0.0006247083656489849
0.0037577825132757425,0.010456429794430733,-0.009158303961157799,-0.004005907103419304,0.00027361686807125807,0.0005847331485711038
0.0035107387229800224,0.009647112339735031,-0.008584680035710335,-0.004219431895762682,0.00029841758077964187,0.0005273190326988697
0.003459198633208871,0.009438617154955864,-0.00918614026159048,-0.0042815967462956905,0.0002898680395446718,0.0005416144849732518
0.004069834016263485,0.009667843580245972,-0.008641071617603302,-0.00407602870836854,0.0003143696812912822,0.00051152054220438
0.004304859321564436,0.009820173494517803,-0.007730406709015369,-0.004310495685786009,0.000304648419842124,0.0005062377313151956
0.0035720961168408394,0.00955917127430439,-0.00885795522481203,-0.0042837830260396,0.0004946079570800066,0.0005003675469197333
0.0035626711323857307,0.009526688605546951,-0.009180321358144283,-0.004442797042429447,0.0005441507673822343,0.0004656176024582237
0.003296797862276435,0.009675364941358566,-0.0081963324919343,-0.0044324458576738834,0.000561328197363764,0.0004336911370046437
0.004071362782269716,0.00953137967735529,-0.008539693430066109,-0.0041832211427390575,0.0005330816493369639,0.0004339326696936041
0.004119605757296085,0.009706704877316952,-0.009056732058525085,-0.003929831087589264,0.0005533590447157621,0.0004336995480116457
0.0035953479818999767,0.00948766153305769,-0.008044485934078693,-0.004320498090237379,0.0006884098402224481,0.00041065129335038364
0.0035425168462097645,0.009218701161444187,-0.008033904246985912,-0.004603089764714241,0.0007094303146004677,0.0003885918122250587
0.0041352855041623116,0.010026237927377224,-0.008948002941906452,-0.004790162667632103,0.0006786340964026749,0.0003705017443280667
0.004016900435090065,0.009817046113312244,-0.008463182486593723,-0.004843308590352535,0.0006929951487109065,0.000341392180416733
0.004016900435090065,0.009817046113312244,-0.008463182486593723,-0.004843308590352535,0.0006929951487109065,0.000341392180416733
0.003944150172173977,0.009839300997555256,-0.008492854423820972,-0.004212083760648966,0.000893298361916095,0.000296333892038092
0.0039462619461119175,0.009755358099937439,-0.008801490068435669,-0.003923620097339153,0.0009170544799417257,0.0003297485236544162
0.0038696657866239548,0.010124209336936474,-0.008394936099648476,-0.004374817945063114,0.0009470667573623359,0.00031394511461257935
0.003786824643611908,0.010226679034531116,-0.008905136026442051,-0.005088431295007467,0.0011247494257986546,0.00029689937946386635
0.004299583844840527,0.0097827622666955,-0.009047333151102066,-0.005066556390374899,0.001159253646619618,0.00028143354575149715
0.004113691858947277,0.009749796241521835,-0.00853657815605402,-0.004827888682484627,0.001193889183923602,0.00030038986005820334
0.004283496178686619,0.010387904942035675,-0.008329743519425392,-0.004636708647012711,0.0011088919127359986,0.0002965751336887479
0.00416094483807683,0.009604660794138908,-0.008775371126830578,-0.004598850850015879,0.001146585214883089,0.00028388542705215514
0.003582554403692484,0.009301751852035522,-0.008450739085674286,-0.004663478583097458,0.0011481710243970156,0.0002716836170293391
0.0038886507973074913,0.010467940010130405,-0.0077325813472270966,-0.004755124449729919,0.0011305228108540177,0.000260452477959916
0.004183082841336727,0.010022424161434174,-0.007740756031125784,-0.005109027959406376,0.001186347333714366,0.0002501109556760639
0.004286644980311394,0.009624581784009933,-0.009266572073101997,-0.005354372784495354,0.0012076415587216616,0.00024055896210484207
0.0042670792900025845,0.010825167410075665,-0.008269432000815868,-0.005130823235958815,0.0011811084114015102,0.0002317096950719133
0.00436549773439765,0.010046270675957203,-0.007650959771126509,-0.004840766079723835,0.0014424212276935577,0.0002234894927823916
0.00413501774892211,0.00958050973713398,-0.0077095115557312965,-0.0047072842717170715,0.00138873141258955,0.00021583199850283563
0.003991833422333002,0.010105935856699944,-0.00825192965567112,-0.0048569790087640285,0.0013025529915466905,0.00020868165302090347
0.004409583285450935,0.010570615530014038,-0.008717086166143417,-0.005289004649966955,0.0011739969486370683,0.00020198995480313897
0.004485988989472389,0.009873487986624241,-0.00797226931899786,-0.0056258863769471645,0.0011175218969583511,0.00019571497978176922
0.004378535784780979,0.009985407814383507,-0.007684779819101095,-0.005468177143484354,0.0010901857167482376,0.00018981740868184716
0.004260646644979715,0.010065899230539799,-0.007860268466174603,-0.005070726852864027,0.0010622653644531965,0.0001842652854975313
0.004157571587711573,0.009611746296286583,-0.007874825038015842,-0.005221327766776085,0.0010885599767789245,0.0001790283713489771
0.003996129147708416,0.01002014521509409,-0.007670550141483545,-0.005522394087165594,0.0011062208795920014,0.00017408149142283946
0.004327880684286356,0.009778893552720547,-0.008335785940289497,-0.005596579983830452,0.0010776494164019823,0.0001694001693977043
0.004475030116736889,0.009704179130494595,-0.008251138031482697,-0.005588137079030275,0.0011566666653379798,0.00016496404714416713
0.0042983731254935265,0.010625461116433144,-0.00763722462579608,-0.005274850409477949,0.0011480485554784536,0.00016075461462605745
0.004520472139120102,0.00984305702149868,-0.007441265974193811,-0.005179272033274174,0.0011063838610425591,0.000156754904310219
0.0044383215717971325,0.009927336126565933,-0.008022062480449677,-0.005872380454093218,0.0010749608045443892,0.00015312738833017647
0.0044383215717971325,0.009927336126565933,-0.008022062480449677,-0.005872380454093218,0.0010749608045443892,0.00015312738833017647
0.004569133743643761,0.009786239825189114,-0.008328021503984928,-0.005803877953439951,0.0008474616915918887,5.638756192638539e-05
0.004569133743643761,0.009786239825189114,-0.008328021503984928,-0.005803877953439951,0.0008474616915918887,5.638756192638539e-05
0.004676405340433121,0.009759563952684402,-0.008433946408331394,-0.005750749260187149,0.000825465889647603,5.4652464314131066e-05
0.0042733424343168736,0.009469148702919483,-0.007720280904322863,-0.006285675801336765,0.0008055996149778366,5.304043588694185e-05
0.0043328916653990746,0.010312212631106377,-0.007717144209891558,-0.006079693324863911,0.0007675477536395192,3.887671118718572e-05
0.00455117505043745,0.009979053400456905,-0.008073905482888222,-0.006013450212776661,0.0007421416230499744,2.5900462787831202e-05
0.004533714149147272,0.009653180837631226,-0.008389388211071491,-0.005986221134662628,0.000740397663321346,2.442200275254436e-05
0.004883314482867718,0.01033042836934328,-0.007839210331439972,-0.005782185588032007,0.0007589425658807158,2.3727423467789777e-05
0.004634547978639603,0.010072380304336548,-0.007462553679943085,-0.0056395684368908405,0.0007876997115090489,3.044455979761551e-06
0.004462754353880882,0.009909708984196186,-0.008819084614515305,-0.005564172752201557,0.0008982566650956869,1.9878120838257018e-07
0.0049116588197648525,0.009787199087440968,-0.008052852936089039,-0.006063056644052267,0.0009520719177089632,1.2978992103285236e-08
0.005002093967050314,0.010217314586043358,-0.007591128349304199,-0.005685220472514629,0.0009475263068452477,8.474354551424312e-10
0.004842115566134453,0.0097019849345088,-0.008177635259926319,-0.005727075040340424,0.0009414094965904951,5.5331478981957005e-11
0.004588438663631678,0.009791607037186623,-0.008565829135477543,-0.00645283842459321,0.0011725828517228365,3.6127500730592788e-12
0.004611671902239323,0.0098948385566473,-0.008019906468689442,-0.006563382688909769,0.0011599840363487601,2.358867495864253e-13
0.004623214714229107,0.009570589289069176,-0.00809334684163332,-0.006183361168950796,0.0011210744269192219,1.5401720358603453e-14
0.004672991577535868,0.010095619596540928,-0.007931672967970371,-0.005868236534297466,0.001074741710908711,1.0056222906940126e-15
0.005166380666196346,0.009935136884450912,-0.00804517325013876,-0.0057142325676977634,0.0010350384982302785,6.565994928067913e-17
0.00507905799895525,0.00998744834214449,-0.008011416532099247,-0.006371756549924612,0.001011325977742672,-0.0003756887454073876
0.004626890644431114,0.009803772903978825,-0.00775130745023489,-0.006431467365473509,0.0009312809561379254,-0.0005619330331683159
0.004786075558513403,0.009915713220834732,-0.008756637573242188,-0.006130381487309933,0.0009228615090250969,-0.0005604156758636236
0.004910455085337162,0.00974432285875082,-0.007847096771001816,-0.005937379319220781,0.0008243540651164949,-0.0005844336119480431
0.004798654932528734,0.010642853565514088,-0.007622662931680679,-0.0058994051069021225,0.0007353929686360061,-0.0005817461060360074
0.005167115945369005,0.009397643618285656,-0.008001324720680714,-0.00635691499337554,0.0007276090909726918,-0.000570461736060679
0.005569919478148222,0.009464412927627563,-0.008735042996704578,-0.006660485174506903,0.0007192033808678389,-0.0007678533438593149
0.005112895276397467,0.010815042071044445,-0.00846175942569971,-0.006807060446590185,0.0007372316904366016,-0.0008404411491937935
0.0049272142350673676,0.01003273855894804,-0.007685455959290266,-0.006247127428650856,0.0007126049604266882,-0.0008658065926283598
0.0048043993301689625,0.009510708041489124,-0.00829299446195364,-0.00609890790656209,0.000951065041590482,-0.0010734489187598228
0.0048043993301689625,0.009510708041489124,-0.00829299446195364,-0.00609890790656209,0.000951065041590482,-0.0010734489187598228
0.0047903223894536495,0.010133573785424232,-0.008374123834073544,-0.006742885336279869,0.0010194889036938548,-0.001123839640058577
0.005135669372975826,0.010655236430466175,-0.008216076530516148,-0.007005824241787195,0.0009517045691609383,-0.0010583365801721811
0.0050117941573262215,0.010157521814107895,-0.008253507316112518,-0.006150748580694199,0.0011642209719866514,-0.0009245111141353846
0.0055533405393362045,0.009326272644102573,-0.00804958213120699,-0.007628151681274176,0.0011911116307601333,-0.0008953098440542817
0.005327187478542328,0.009562232531607151,-0.007733771111816168,-0.007007724139839411,0.001057074754498899,-0.0009302886319346726
0.004363625310361385,0.01051662303507328,-0.007605923339724541,-0.006348314695060253,0.0010306573240086436,-0.0012888868805021048
0.005045427940785885,0.009975749999284744,-0.00890269223600626,-0.006005435716360807,0.0009377678507007658,-0.0018098311265930533
0.005676601082086563,0.009624248370528221,-0.008070845156908035,-0.006591903045773506,0.0009246019762940705,-0.002045162720605731
0.0055360933765769005,0.0104801831766963,-0.007890801876783371,-0.006830477621406317,0.0009028507629409432,-0.0020498281810432673
0.005053714849054813,0.010097533464431763,-0.008477220311760902,-0.007062769960612059,0.0008721686317585409,-0.001758452970534563
0.004636967089027166,0.009781263768672943,-0.009017296135425568,-0.006573596969246864,0.0009039146243594587,-0.0014506061561405659
0.005490066017955542,0.010354884900152683,-0.008017560467123985,-0.0065458971075713634,0.0009059673175215721,-0.0013198840897530317
0.0054001822136342525,0.009675529785454273,-0.008204801008105278,-0.006862083915621042,0.0009053683024831116,-0.0012828076723963022
0.005347579251974821,0.009607585147023201,-0.00884802546352148,-0.0070591517724096775,0.0009047723724506795,-0.001204754807986319
0.005539991892874241,0.010322933085262775,-0.008542090654373169,-0.007118764333426952,0.0009646738762967288,-0.001296410569921136
0.005111470818519592,0.010298863053321838,-0.008221082389354706,-0.006803341209888458,0.0010195036884397268,-0.0021709499415010214
0.005184854380786419,0.009761761873960495,-0.00872358214110136,-0.007275744806975126,0.0009669167920947075,-0.002614394063130021
0.005046029109507799,0.010295065119862556,-0.008700618520379066,-0.008004507049918175,0.0008941375417634845,-0.0025825565680861473
0.005269205197691917,0.010171894915401936,-0.008335347287356853,-0.007594740483909845,0.0008905557333491743,-0.002254422288388014
0.005337187089025974,0.010340775363147259,-0.008521058596670628,-0.0073067364282906055,0.0009497091523371637,-0.002099675126373768
0.005095327273011208,0.011002955958247185,-0.00906325038522482,-0.007442176342010498,0.0010081473737955093,-0.0017574116354808211
0.005353471264243126,0.009998269379138947,-0.00883859395980835,-0.007824680767953396,0.0010116439079865813,-0.0016417839797213674
0.005022572819143534,0.009831029921770096,-0.008416571654379368,-0.007464159745723009,0.0013095519971102476,-0.0016052544815465808
0.004944880027323961,0.010190114378929138,-0.008549627847969532,-0.00701550580561161,0.0012921856250613928,-0.002027047798037529
0.005408371798694134,0.009864695370197296,-0.008422210812568665,-0.007976767607033253,0.0012482465244829655,-0.0027234507724642754
0.005422737915068865,0.01006376650184393,-0.008580382913351059,-0.008368452079594135,0.0011544597800821066,-0.003075988031923771
0.005422737915068865,0.01006376650184393,-0.008580382913351059,-0.008368452079594135,0.0011544597800821066,-0.003075988031923771
0.005176085513085127,0.009838663972914219,-0.00875655747950077,-0.007116255350410938,0.0011898439843207598,-0.0024399703834205866
0.005202151834964752,0.010085148736834526,-0.007887536659836769,-0.008326270617544651,0.001139641273766756,-0.0019695067312568426
0.005202151834964752,0.010085148736834526,-0.007887536659836769,-0.008326270617544651,0.001139641273766756,-0.0019695067312568426
0.005425486247986555,0.009489941410720348,-0.008491014130413532,-0.0072504752315580845,0.0011004902189597487,-0.0018341231625527143
0.005546589381992817,0.010134996846318245,-0.008036674931645393,-0.007385318633168936,0.0012257850030437112,-0.0020568363834172487
0.005146249663084745,0.010642233304679394,-0.007732595317065716,-0.00821872428059578,0.0012769055319949985,-0.0024108632933348417
0.00521410396322608,0.009888816624879837,-0.008151760324835777,-0.007812747731804848,0.001350581063888967,-0.0025284073781222105
0.004939621314406395,0.010100453160703182,-0.008230521343648434,-0.0074822609312832355,0.0015469358768314123,-0.002752921311184764
0.005322253797203302,0.009629255160689354,-0.008164057508111,-0.0076413508504629135,0.001487159519456327,-0.0028940876945853233
0.00563792884349823,0.009532942436635494,-0.007919925265014172,-0.007638121023774147,0.0013766640331596136,-0.0030413323547691107
0.005241872277110815,0.010521494783461094,-0.008358979597687721,-0.007938455790281296,0.0012313839979469776,-0.0031760281417518854
0.005745128262788057,0.009769828990101814,-0.008104083128273487,-0.007544397842139006,0.0011734131257981062,-0.0035480810329318047
0.005359211005270481,0.010172298178076744,-0.007677203509956598,-0.007882300764322281,0.0012008596677333117,-0.0033074317034333944
0.005452484358102083,0.010183362290263176,-0.007473459932953119,-0.008339558728039265,0.0012443122686818242,-0.0032327561639249325
0.005736825987696648,0.00968968402594328,-0.00879486370831728,-0.008309376426041126,0.0013157742796465755,-0.002953417832031846
0.005584036931395531,0.00991547666490078,-0.008089122362434864,-0.007643646560609341,0.001248177490197122,-0.002544951857998967
0.005698396824300289,0.010049097239971161,-0.007634809706360102,-0.007655794266611338,0.0011348803527653217,-0.002483256859704852
0.004940289072692394,0.009694511070847511,-0.007846317254006863,-0.008077552542090416,0.001142892986536026,-0.002361765829846263
0.005415682215243578,0.009608444757759571,-0.00835399143397808,-0.008241266012191772,0.0010205399012193084,-0.0023013718891888857
0.005534284748136997,0.009885840117931366,-0.007532221265137196,-0.008509713225066662,0.0009858300909399986,-0.0025370812509208918
0.0057716937735676765,0.009475170634686947,-0.007220161613076925,-0.00846659392118454,0.0009728988516144454,-0.0033775577321648598
0.005640435963869095,0.009697574190795422,-0.008414625190198421,-0.008560026064515114,0.0009048271458595991,-0.004653311800211668
0.005557378754019737,0.01016039215028286,-0.008492297492921352,-0.008492602035403252,0.0009037939598783851,-0.0043402076698839664
0.005436912644654512,0.010188393294811249,-0.0077981846407055855,-0.008928254246711731,0.0009031865047290921,-0.0038521545939147472
0.005436912644654512,0.010188393294811249,-0.0077981846407055855,-0.008928254246711731,0.0009031865047290921,-0.0038521545939147472
0.006111497990787029,0.0094403475522995,-0.007173867430537939,-0.008966412395238876,0.0009130719699896872,-0.00365022337064147
0.005921599455177784,0.010674318298697472,-0.007805495988577604,-0.008469703607261181,0.0011885162675753236,-0.0036231810227036476
0.005818336736410856,0.009572246111929417,-0.007696374785155058,-0.008648050017654896,0.001175105688162148,-0.0036383550614118576
0.006002503447234631,0.00955196749418974,-0.00763211864978075,-0.00899717677384615,0.0011434803018346429,-0.003752844873815775
0.005874501541256905,0.00984684657305479,-0.008624291978776455,-0.008330708369612694,0.0012047495692968369,-0.004345552064478397
0.006127688102424145,0.009469603188335896,-0.00794481672346592,-0.008501842617988586,0.0011979540577158332,-0.004190980922430754
0.00595517735928297,0.01006507407873869,-0.007641651667654514,-0.00878912303596735,0.0011960598640143871,-0.00358761684037745
0.005590544547885656,0.009787199087440968,-0.007888169959187508,-0.00834013894200325,0.0012666250113397837,-0.0035163583233952522
0.005670584738254547,0.009827302768826485,-0.00791375432163477,-0.00873627420514822,0.00124996283557266,-0.003686465322971344
0.006047162692993879,0.010200518183410168,-0.007573509588837624,-0.00925512332469225,0.0012343788985162973,-0.004271287005394697
0.00596365612000227,0.010012324899435043,-0.007387743331491947,-0.00924552883952856,0.0013499647611752152,-0.0041911969892680645
0.006185989361256361,0.009589132852852345,-0.008025207556784153,-0.008643802255392075,0.0013300360878929496,-0.00393255241215229
0.005726329050958157,0.010115692391991615,-0.007778761442750692,-0.008465683087706566,0.0015156951267272234,-0.0038330466486513615
0.005922495853155851,0.009859621524810791,-0.007428636774420738,-0.008745220489799976,0.0014219089644029737,-0.004220631904900074
0.006309492979198694,0.010592743754386902,-0.007421827409416437,-0.008602903224527836,0.0012619639746844769,-0.004236701875925064
0.006194425281137228,0.010137632489204407,-0.007903724908828735,-0.009051988832652569,0.0011308318935334682,-0.004053767770528793
0.006295005790889263,0.009925462305545807,-0.007953611202538013,-0.009306204505264759,0.0010558303911238909,-0.0038847571704536676
0.00652757752686739,0.010251455940306187,-0.007379394955933094,-0.008930784650146961,0.0010475178714841604,-0.0038406262174248695
0.005853794515132904,0.010351279750466347,-0.006780129857361317,-0.009142318740487099,0.0010361488675698638,-0.003972311038523912
0.006445483770221472,0.010681022889912128,-0.007263534236699343,-0.009495166130363941,0.0011565356981009245,-0.0040667857974767685
0.006720646284520626,0.009591979905962944,-0.007658241782337427,-0.009258612990379333,0.0011993316002190113,-0.004051681607961655
0.006184317637234926,0.00959724560379982,-0.007661151234060526,-0.009160350076854229,0.0011837028432637453,-0.004349364899098873
0.006184317637234926,0.00959724560379982,-0.007661151234060526,-0.009160350076854229,0.0011837028432637453,-0.004349364899098873
0.005762859713286161,0.009878935292363167,-0.0074238646775484085,-0.00904411543160677,0.001502511790022254,-0.004649918992072344
0.006221761927008629,0.009757446125149727,-0.007839598692953587,-0.008814533241093159,0.0014839662471786141,-0.004545253235846758
0.006676454562693834,0.009502637200057507,-0.007446572184562683,-0.009375602938234806,0.0013777058338746428,-0.004220114555209875
0.006648452486842871,0.010381998494267464,-0.007254478987306356,-0.0095206992700696,0.0012805042788386345,-0.004286119714379311
0.00619674613699317,0.009951051324605942,-0.008161702193319798,-0.009255324490368366,0.0012738748919218779,-0.004522822331637144
0.0062555354088544846,0.009717344306409359,-0.00752206239849329,-0.009222100488841534,0.0012355187209323049,-0.004854649305343628
0.0062555354088544846,0.009717344306409359,-0.00752206239849329,-0.009222100488841534,0.0012355187209323049,-0.004854649305343628
0.006959469988942146,0.010956594720482826,-0.007250986993312836,-0.00968944188207388,0.0011863866820931435,-0.005211662966758013
0.006544221192598343,0.009488865733146667,-0.007770379539579153,-0.009489361196756363,0.0012967503862455487,-0.004829585086554289
0.006347638554871082,0.010188505984842777,-0.007614204194396734,-0.009874403476715088,0.0013275790261104703,-0.004586925730109215
0.006665365304797888,0.009676048532128334,-0.0075586093589663506,-0.009992653504014015,0.0013203503331169486,-0.004415480419993401
0.006730319932103157,0.00957908108830452,-0.006965848617255688,-0.009931620210409164,0.001430961419828236,-0.004344139248132706
0.006399039179086685,0.010235985741019249,-0.007135429419577122,-0.010162275284528732,0.0014217214193195105,-0.004816020373255014
0.006193516310304403,0.009961594827473164,-0.008132598362863064,-0.00979814026504755,0.0016498509794473648,-0.005375250242650509
0.006167287938296795,0.009656492620706558,-0.00782705657184124,-0.010033727623522282,0.0015204979572445154,-0.0051146759651601315
0.007095261476933956,0.01025934237986803,-0.006863689050078392,-0.010368196293711662,0.0014272653497755527,-0.005256821401417255
0.007551567163318396,0.010178940370678902,-0.007280389312654734,-0.010396833531558514,0.0014019033405929804,-0.005161914508789778
0.006987209431827068,0.009749846532940865,-0.008026177994906902,-0.010796412825584412,0.001404927228577435,-0.0048220474272966385
0.006685466971248388,0.010553311556577682,-0.0069382814690470695,-0.010657274164259434,0.001453626318834722,-0.004944058135151863
0.006830605678260326,0.009357553906738758,-0.00665974011644721,-0.011080428957939148,0.0015517936553806067,-0.0051794275641441345
0.006838911212980747,0.009094168432056904,-0.007075832691043615,-0.01063216757029295,0.0014574631350114942,-0.0051576741971075535
0.007193945348262787,0.010016665793955326,-0.007789126597344875,-0.009697559289634228,0.0013225603615865111,-0.0053205592557787895
0.006924849469214678,0.009795296005904675,-0.007334987632930279,-0.010251453146338463,0.0013486783718690276,-0.00541899586096406
0.007437588181346655,0.00977963488548994,-0.007025427650660276,-0.010071292519569397,0.0013141992967575788,-0.005522680934518576
0.00703581003472209,0.010428606532514095,-0.007102039642632008,-0.009446928277611732,0.0012343393173068762,-0.005395879969000816
0.006892894394695759,0.00997412670403719,-0.007699651177972555,-0.010265199467539787,0.0012705293484032154,-0.0057569872587919235
0.0071083856746554375,0.009651228785514832,-0.007427045609802008,-0.010118182748556137,0.0012629219563677907,-0.0059525687247514725
0.0071083856746554375,0.009651228785514832,-0.007427045609802008,-0.010118182748556137,0.0012629219563677907,-0.0059525687247514725
0.00699083274230361,0.010927712544798851,-0.006720196455717087,-0.009561199694871902,0.0015020569553598762,-0.006115167401731014
0.007570785935968161,0.010008844546973705,-0.006857185158878565,-0.010059049353003502,0.0016331643564626575,-0.005626781843602657
0.007468900643289089,0.009637952782213688,-0.007584700360894203,-0.01062001846730709,0.0020621279254555702,-0.005953906569629908
0.007211354095488787,0.009739675559103489,-0.006690765731036663,-0.010003878735005856,0.002054273383691907,-0.006025773473083973
0.007211354095488787,0.009739675559103489,-0.006690765731036663,-0.010003878735005856,0.002054273383691907,-0.006025773473083973
0.007575340569019318,0.010438558645546436,-0.008167412132024765,-0.009753408841788769,0.0015934435650706291,-0.006078418344259262
0.006835692096501589,0.009788813069462776,-0.0076699526980519295,-0.010374841280281544,0.001474608900025487,-0.006279071792960167
0.0070731728337705135,0.009630445390939713,-0.00692623620852828,-0.01059433538466692,0.0014108035247772932,-0.006374813616275787
0.007557767443358898,0.010697081685066223,-0.007450975477695465,-0.009930827654898167,0.0016231234185397625,-0.006259845104068518
0.007832411676645279,0.009927704930305481,-0.008008459582924843,-0.010504551231861115,0.0016134210163727403,-0.006373936776071787
0.007443681824952364,0.009765725582838058,-0.00777176721021533,-0.010909857228398323,0.0019960966892540455,-0.006594596430659294
0.007285460364073515,0.010506563819944859,-0.006997633725404739,-0.010531142354011536,0.001830729772336781,-0.006789843551814556
0.008221427910029888,0.009737284854054451,-0.006905511021614075,-0.010922370478510857,0.0017718737944960594,-0.006541490089148283
0.007869208231568336,0.009770216420292854,-0.007452384568750858,-0.01083251740783453,0.0016868985258042812,-0.006855680141597986
0.007375818677246571,0.010040991008281708,-0.008114217780530453,-0.0110143031924963,0.0014977086102589965,-0.0064171236008405685
0.008034642785787582,0.00994713045656681,-0.007750275544822216,-0.011462039314210415,0.0014932913472875953,-0.006497757043689489
0.007873686030507088,0.009836400859057903,-0.007779015228152275,-0.010920953936874866,0.0014578679110854864,-0.006971803028136492
0.007948208600282669,0.01024709828197956,-0.007823691703379154,-0.0115699153393507,0.0017481257673352957,-0.007498139049857855
0.007516390178352594,0.00997389666736126,-0.007455845829099417,-0.011519687250256538,0.0016463224310427904,-0.007003526668995619
0.0078068203292787075,0.010864435695111752,-0.0074639348313212395,-0.011229688301682472,0.0017080230172723532,-0.006440507713705301
0.007738783955574036,0.010228544473648071,-0.008219211362302303,-0.012017750181257725,0.0017352428985759616,-0.006799978669732809
0.008240756578743458,0.009641901589930058,-0.008022692985832691,-0.011571862734854221,0.0016545880353078246,-0.006995398085564375
0.00801122561097145,0.010014291852712631,-0.007631368935108185,-0.01184196025133133,0.0016889401013031602,-0.007453626953065395
0.00801122561097145,0.010014291852712631,-0.007631368935108185,-0.01184196025133133,0.0016889401013031602,-0.007453626953065395
0.007777600083500147,0.010545225813984871,-0.0071356999687850475,-0.01205169316381216,0.0016000584000721574,-0.007133832201361656
0.008097757585346699,0.009919457137584686,-0.00722202705219388,-0.012031220830976963,0.0017343373037874699,-0.007199497893452644
0.007652206812053919,0.01016238797456026,-0.007953687570989132,-0.012232773005962372,0.0018905664328485727,-0.00698990561068058
0.0077291205525398254,0.010124131105840206,-0.007650534622371197,-0.011955512687563896,0.002037134487181902,-0.007769152522087097
0.007834702730178833,0.01014480646699667,-0.0076253111474215984,-0.012681704014539719,0.001958688488230109,-0.007529993541538715
0.00810216274112463,0.01117327343672514,-0.0075205364264547825,-0.01224901620298624,0.0019117764895781875,-0.007255088072270155
0.00832410342991352,0.009827358648180962,-0.00797552615404129,-0.012305591255426407,0.0016722689615562558,-0.007562518119812012
0.00829327292740345,0.010354981757700443,-0.008161703124642372,-0.012126981280744076,0.001534098177216947,-0.007152794394642115
0.00829327292740345,0.010354981757700443,-0.008161703124642372,-0.012126981280744076,0.001534098177216947,-0.007152794394642115
0.007850495167076588,0.009888870641589165,-0.007747281808406115,-0.0120013989508152,0.0016542220255360007,-0.007450869306921959
0.008237194269895554,0.01066810917109251,-0.007508055306971073,-0.01240357756614685,0.0015888373600319028,-0.007816190831363201
0.008364039473235607,0.010062134824693203,-0.007678289897739887,-0.011980651877820492,0.0018798887031152844,-0.0075333816930651665
0.008199390955269337,0.01009614672511816,-0.007553202100098133,-0.012353232130408287,0.0019083480583503842,-0.007466976065188646
0.00826799776405096,0.01025661826133728,-0.0070935627445578575,-0.012768917717039585,0.0018967513460665941,-0.007884569466114044
0.008966651745140553,0.009708346799015999,-0.007270489819347858,-0.012710457667708397,0.0017983332509174943,-0.007740248925983906
0.008552911691367626,0.010514788329601288,-0.007377698086202145,-0.013343515805900097,0.0018581334734335542,-0.008033651858568192
0.008185614831745625,0.010257200337946415,-0.007670701015740633,-0.013164626434445381,0.0017888882430270314,-0.007793860975652933
0.009124393574893475,0.009738880209624767,-0.007366879377514124,-0.013397314585745335,0.002032955875620246,-0.007642283104360104
0.008456569164991379,0.01076571922749281,-0.0072668613865971565,-0.013005719520151615,0.002214371459558606,-0.007414486724883318
0.008593646809458733,0.011092773638665676,-0.007136916276067495,-0.01364163402467966,0.0022156224586069584,-0.00788045208901167
0.009075804613530636,0.010161876678466797,-0.007804160006344318,-0.013010772876441479,0.0022226611617952585,-0.007920976728200912
0.008868744596838951,0.010820764116942883,-0.007446877658367157,-0.013397433795034885,0.0021407264284789562,-0.007672255393117666
0.008678128011524677,0.010125081986188889,-0.007086510304361582,-0.013225232250988483,0.0017607208574190736,-0.0073506892658770084
0.008565605618059635,0.009866374544799328,-0.0069602373987436295,-0.013402015902101994,0.001721725333482027,-0.007955762557685375
0.009484972804784775,0.01054908987134695,-0.007473036181181669,-0.013099498115479946,0.0017009222647175193,-0.00819880049675703
0.009027190506458282,0.010933704674243927,-0.00746294716373086,-0.012861440889537334,0.0017669108929112554,-0.008351681753993034
0.008526253513991833,0.010028255172073841,-0.00700004817917943,-0.013282625004649162,0.002063032239675522,-0.007797633297741413
0.008526253513991833,0.010028255172073841,-0.00700004817917943,-0.013282625004649162,0.002063032239675522,-0.007797633297741413
0.009135309606790543,0.010337701998651028,-0.006795572582632303,-0.01344440970569849,0.002134437672793865,-0.007684123236685991
0.008232148364186287,0.010261605493724346,-0.00801497045904398,-0.014293589629232883,0.0022170422598719597,-0.008191942237317562
0.0090672941878438,0.010147311724722385,-0.007986010983586311,-0.013986141420900822,0.0021374288480728865,-0.007833256386220455
0.009297477081418037,0.010624445043504238,-0.00708437617868185,-0.01395602710545063,0.002202023286372423,-0.007886617444455624
0.00922403670847416,0.009747141040861607,-0.007601325400173664,-0.013869714923202991,0.0020168893970549107,-0.008119603618979454
0.009006612002849579,0.010126873850822449,-0.0070954421535134315,-0.014243463054299355,0.0020425200928002596,-0.007013350259512663
0.009290473535656929,0.00974205881357193,-0.006599125452339649,-0.014926251955330372,0.0022684421855956316,-0.007164624519646168
0.00917011871933937,0.009935894049704075,-0.006752158515155315,-0.014097841456532478,0.0025969159323722124,-0.006945810280740261
0.009105999954044819,0.0099620521068573,-0.007457084022462368,-0.014537154696881771,0.0025255896616727114,-0.006676614750176668
0.009193509817123413,0.010490692220628262,-0.0074677481316030025,-0.01389670092612505,0.0026026624254882336,-0.0071318368427455425
0.009181446395814419,0.010202840901911259,-0.006909475661814213,-0.014082847163081169,0.002375585027039051,-0.006691392045468092
0.009085951372981071,0.009806293062865734,-0.006382778286933899,-0.013547280803322792,0.0022569671273231506,-0.007273946888744831
0.0103270523250103,0.00993707962334156,-0.0070801228284835815,-0.013715592212975025,0.002210617996752262,-0.007439170964062214
0.009655036963522434,0.010150176472961903,-0.008235817775130272,-0.013843285851180553,0.001985978102311492,-0.007412516046315432
0.00922602042555809,0.010339071042835712,-0.0072029875591397285,-0.01460549607872963,0.001986125949770212,-0.007298284210264683
0.009398329071700573,0.009576134383678436,-0.006488535087555647,-0.014206675812602043,0.0018839641707018018,-0.008005142211914062
0.009691275656223297,0.010421285405755043,-0.006368563510477543,-0.014854076318442822,0.002067945431917906,-0.007845351472496986
0.010352223180234432,0.00990421511232853,-0.007223389111459255,-0.014602448791265488,0.002104936633259058,-0.00759922107681632
0.011289875023066998,0.00958278588950634,-0.007142070680856705,-0.015143883414566517,0.0022713837679475546,-0.007910887710750103
0.010865424759685993,0.01032940112054348,-0.006856345105916262,-0.014464142732322216,0.002252250676974654,-0.00801408477127552
0.010178322903811932,0.010744989849627018,-0.006689225789159536,-0.01463769655674696,0.0022302092984318733,-0.007832195609807968
0.010921716690063477,0.010010634548962116,-0.007273577153682709,-0.01446934137493372,0.002157814335078001,-0.00833363551646471
0.010921716690063477,0.010010634548962116,-0.007273577153682709,-0.01446934137493372,0.002157814335078001,-0.00833363551646471
0.010716778226196766,0.010733727365732193,-0.00743146101012826,-0.014882364310324192,0.002078716177493334,-0.007818362675607204
0.010807009413838387,0.009943900629878044,-0.00662978133186698,-0.01428176835179329,0.0021365617867559195,-0.007557571399956942
0.011022682301700115,0.0098230866715312,-0.0062414659187197685,-0.014713381417095661,0.002134020673111081,-0.00808890350162983
0.010655872523784637,0.010837595909833908,-0.006769683212041855,-0.014385046437382698,0.002424762351438403,-0.00791206769645214
0.010954775847494602,0.011077320203185081,-0.0072576566599309444,-0.01486489549279213,0.0027602321933954954,-0.008119535632431507
0.011238699778914452,0.010199658572673798,-0.007314501330256462,-0.0146404467523098,0.002703543286770582,-0.00785913784056902
0.011039468459784985,0.010807699523866177,-0.006848124787211418,-0.01465443056076765,0.0024412251077592373,-0.008033648133277893
0.011415941640734673,0.010204062797129154,-0.007680493872612715,-0.0149180106818676,0.002010985976085067,-0.008873065002262592
0.011351756751537323,0.010515491478145123,-0.006571045145392418,-0.01460192445665598,0.002071799011901021,-0.008310304954648018
0.011170599609613419,0.010507958009839058,-0.006531320046633482,-0.01509089395403862,0.0020890950690954924,-0.008168435655534267
0.010720791295170784,0.011315632611513138,-0.00694942707195878,-0.015392131172120571,0.002310399431735277,-0.008039003238081932
0.011851552873849869,0.010487874038517475,-0.007438721600919962,-0.015723688527941704,0.0023741780314594507,-0.00824979692697525
0.011059834621846676,0.010458075441420078,-0.0073804971762001514,-0.015149291604757309,0.0023696718271821737,-0.008495207875967026
0.010518512688577175,0.010966822504997253,-0.0068757664412260056,-0.01549756620079279,0.002814227482303977,-0.0077808029018342495
0.010611939243972301,0.010218409821391106,-0.007240544073283672,-0.015275523997843266,0.0027872181963175535,-0.007895861752331257
0.010550787672400475,0.009652084670960903,-0.007910532876849174,-0.015434800647199154,0.0025533053558319807,-0.00805557519197464
0.010540883056819439,0.010537771508097649,-0.007782928645610809,-0.015554765239357948,0.0023708082735538483,-0.00845406949520111
0.01052622776478529,0.0098104914650321,-0.00694424519315362,-0.015320631675422192,0.0022193591576069593,-0.008341214619576931
0.010394523851573467,0.009462051093578339,-0.006681751925498247,-0.015399578958749771,0.002397239441052079,-0.008153346367180347
0.010715440846979618,0.010112608782947063,-0.006887959782034159,-0.015300167724490166,0.002631733426824212,-0.008491067215800285
0.010726097971200943,0.009849262423813343,-0.007315713446587324,-0.015798265114426613,0.0027114131953567266,-0.009006465785205364
0.010818595997989178,0.009828370064496994,-0.006978440564125776,-0.015418975614011288,0.0025915377773344517,-0.008308137767016888
0.010777565650641918,0.01051837857812643,-0.006974354386329651,-0.015855420380830765,0.0025259717367589474,-0.008486060425639153
0.010288141667842865,0.01002524048089981,-0.007529042661190033,-0.015686575323343277,0.002579339547082782,-0.008636483922600746
0.010682024993002415,0.010517723858356476,-0.00782017968595028,-0.01600024104118347,0.0025388773065060377,-0.00881966482847929
0.010868784971535206,0.011070208624005318,-0.007070053834468126,-0.016169680282473564,0.0029462187085300684,-0.009721295908093452
0.010846328921616077,0.010133972391486168,-0.007288177963346243,-0.016141336411237717,0.002977270632982254,-0.009113607928156853
0.011320232413709164,0.009881464764475822,-0.006904297042638063,-0.01613253355026245,0.0029692852403968573,-0.008543248288333416
0.011320232413709164,0.009881464764475822,-0.006904297042638063,-0.01613253355026245,0.0029692852403968573,-0.008543248288333416
0.011435242369771004,0.009989690035581589,-0.008089154027402401,-0.01616932824254036,0.0028062695637345314,-0.00880113709717989
0.01031897310167551,0.010511050000786781,-0.007106048054993153,-0.016919845715165138,0.002761464798822999,-0.009381615556776524
0.010660294443368912,0.010147531516849995,-0.00684018712490797,-0.016888024285435677,0.002742909360677004,-0.009264660067856312
0.010340597480535507,0.010646873153746128,-0.007215047720819712,-0.01677553914487362,0.0026215771213173866,-0.008868400938808918
0.010422945022583008,0.009985697455704212,-0.007598446682095528,-0.016411887481808662,0.002692117588594556,-0.00944497436285019
0.010748469270765781,0.010380267165601254,-0.0072267986834049225,-0.0164615660905838,0.0025306905154138803,-0.00916233379393816
0.010275396518409252,0.010606961324810982,-0.0070694261230528355,-0.016975199803709984,0.0024501897860318422,-0.009633111767470837
0.01061210222542286,0.010526638478040695,-0.007100390736013651,-0.01586238294839859,0.0026170576456934214,-0.009703215211629868
0.011070446111261845,0.010390161536633968,-0.007007437292486429,-0.016471242532134056,0.0032218587584793568,-0.0091146444901824
0.010707334615290165,0.010317130014300346,-0.006904030684381723,-0.01733177714049816,0.0030564123298972845,-0.009214737452566624
0.010528670623898506,0.01087419968098402,-0.00693955272436142,-0.01786927506327629,0.002818825887516141,-0.009560822509229183
0.010000117123126984,0.010487327352166176,-0.0073701124638319016,-0.016220400109887123,0.002706297440454364,-0.010197223164141178
0.01062931027263403,0.010257482528686523,-0.007555756252259016,-0.016898032277822495,0.002720845164731145,-0.009829591028392315
0.010312491096556187,0.010508210398256779,-0.007549811154603958,-0.01730036735534668,0.0026034300681203604,-0.009547857567667961
0.01035340502858162,0.010473383590579033,-0.0069517651572823524,-0.017914019525051117,0.002551303943619132,-0.009182890877127647
0.010609102435410023,0.011394433677196503,-0.007507950998842716,-0.01808379404246807,0.0024098011199384928,-0.009717384353280067
0.010804776102304459,0.010430986061692238,-0.0076413326896727085,-0.017437726259231567,0.002312877681106329,-0.010604098439216614
0.010585574433207512,0.010458284057676792,-0.006648457143455744,-0.017791545018553734,0.002570061944425106,-0.0095354113727808
0.010674407705664635,0.010830653831362724,-0.0064609115943312645,-0.01722884736955166,0.0030954903922975063,-0.009391946718096733
0.010083054192364216,0.010583827272057533,-0.006755524314939976,-0.0175954420119524,0.003090932033956051,-0.00953811127692461
0.010728049091994762,0.010462693870067596,-0.007224305998533964,-0.018199963495135307,0.0029482420068234205,-0.009349052794277668
0.010726175270974636,0.010816384106874466,-0.007226135581731796,-0.017929159104824066,0.003034146036952734,-0.00998833030462265
0.01031556911766529,0.010337017476558685,-0.007280070800334215,-0.018339022994041443,0.0028786773327738047,-0.010132154449820518
0.010512460954487324,0.010580248199403286,-0.006994426250457764,-0.018367158249020576,0.0028453581035137177,-0.00979722198098898
0.010385236702859402,0.010775984264910221,-0.007460580673068762,-0.01824217475950718,0.0026959883980453014,-0.009836379438638687
0.0106056435033679,0.010577484034001827,-0.006833662278950214,-0.018741710111498833,0.002586487215012312,-0.009858675301074982
0.01063300110399723,0.011131281964480877,-0.006745356135070324,-0.0182424858212471,0.002418787684291601,-0.009737956337630749
0.011521688662469387,0.011041243560612202,-0.006971650756895542,-0.018268877640366554,0.002501749200746417,-0.009931439533829689
0.011521688662469387,0.011041243560612202,-0.006971650756895542,-0.018268877640366554,0.002501749200746417,-0.009931439533829689
0.011834841221570969,0.010733415372669697,-0.007119643036276102,-0.018639476969838142,0.0028072737623006105,-0.010316680185496807
0.011991256847977638,0.011132687330245972,-0.007028726860880852,-0.01857575587928295,0.0029319352470338345,-0.009842691011726856
0.01161204557865858,0.010614286176860332,-0.007055035326629877,-0.018579185009002686,0.0027909190393984318,-0.009846232831478119
0.012019061483442783,0.010894354432821274,-0.006988057866692543,-0.018330687656998634,0.0027273751329630613,-0.010252511128783226
0.011743299663066864,0.011271088384091854,-0.007471499033272266,-0.01830022595822811,0.002860969165340066,-0.010108187794685364
0.01230926439166069,0.010682782158255577,-0.007562337443232536,-0.018977830186486244,0.0027440055273473263,-0.010672243312001228
0.01198627334088087,0.011281573213636875,-0.006953458767384291,-0.018752729520201683,0.002705860184505582,-0.010407458059489727
0.011926942504942417,0.011082054115831852,-0.006615480408072472,-0.01826292835175991,0.002766551449894905,-0.010166347958147526
0.012392842210829258,0.010427827946841717,-0.006934312172234058,-0.01890859566628933,0.002787623554468155,-0.010228780098259449
0.012271824292838573,0.011301177553832531,-0.006679123733192682,-0.01903650350868702,0.0027028960175812244,-0.010492519475519657
0.011824695393443108,0.011703765019774437,-0.006598909851163626,-0.01936551183462143,0.0029854821041226387,-0.010270638391375542
0.012400754727423191,0.011047353968024254,-0.007205793168395758,-0.019586753100156784,0.002986994106322527,-0.010522788390517235
0.012756678275763988,0.010767816565930843,-0.007732792757451534,-0.019731761887669563,0.002916414523497224,-0.010827701538801193
0.012762893922626972,0.011375739239156246,-0.0070826392620801926,-0.019673386588692665,0.002763202181085944,-0.011034710332751274
0.012638214975595474,0.01168560516089201,-0.006751008331775665,-0.01951552927494049,0.0028574159368872643,-0.010615563951432705
0.011989761143922806,0.011391165666282177,-0.006633873097598553,-0.019565606489777565,0.002649730071425438,-0.010059051215648651
0.01323694922029972,0.011211303062736988,-0.0073378439992666245,-0.019643491134047508,0.002585100708529353,-0.010054039768874645
0.012445119209587574,0.010881640948355198,-0.00688283471390605,-0.01959650218486786,0.002712581306695938,-0.010627403855323792
0.012283834628760815,0.011202799156308174,-0.006693082395941019,-0.019643891602754593,0.0030820288229733706,-0.011027340777218342
0.01216166466474533,0.011166929267346859,-0.006609935779124498,-0.019914157688617706,0.0031567285768687725,-0.010515468195080757
0.012591050006449223,0.010980079881846905,-0.007185753434896469,-0.02029348537325859,0.002980179386213422,-0.01064064260572195
0.012901420705020428,0.011325642466545105,-0.007508226670324802,-0.019762465730309486,0.002935974393039942,-0.010965762659907341
0.012382803484797478,0.011132386513054371,-0.006704018451273441,-0.019494256004691124,0.0028629715088754892,-0.010816061869263649
0.013036545366048813,0.011666381731629372,-0.006412748713046312,-0.020134540274739265,0.002725210040807724,-0.010553504340350628
0.012714718468487263,0.011032408103346825,-0.006959696765989065,-0.019945956766605377,0.0027804728597402573,-0.011265256442129612
0.01273126807063818,0.010758630000054836,-0.007077387534081936,-0.019510747864842415,0.002733082976192236,-0.010363498702645302
0.012968420051038265,0.011600920930504799,-0.007251554634422064,-0.020155642181634903,0.003038307884708047,-0.009872973896563053
0.012968420051038265,0.011600920930504799,-0.007251554634422064,-0.020155642181634903,0.003038307884708047,-0.009872973896563053
0.013006942346692085,0.011178825050592422,-0.007054141256958246,-0.020321425050497055,0.0032810361590236425,-0.010448209941387177
0.013061023317277431,0.011346153914928436,-0.006953830365091562,-0.02021941728889942,0.0032911330927163363,-0.011199332773685455
0.01312730461359024,0.011303093284368515,-0.007194156758487225,-0.020722687244415283,0.0033428706228733063,-0.011568387039005756
0.013561133295297623,0.011007657274603844,-0.007073435932397842,-0.020164797082543373,0.0031620741356164217,-0.011485131457448006
0.013246065005660057,0.01127643883228302,-0.00690854899585247,-0.01987619139254093,0.0030295690521597862,-0.01165637094527483
0.012896846979856491,0.011282902210950851,-0.0073164296336472034,-0.020596100017428398,0.0028337198309600353,-0.01116754487156868
0.013749688863754272,0.012127186171710491,-0.0071280463598668575,-0.019683929160237312,0.002923821797594428,-0.011479396373033524
0.013034543953835964,0.011451239697635174,-0.006967362016439438,-0.02020062878727913,0.003311276203021407,-0.011568346060812473
0.013260407373309135,0.011429673060774803,-0.0067337024956941605,-0.02055411785840988,0.0038902724627405405,-0.012074964120984077
0.013024472631514072,0.011147407814860344,-0.008154516108334064,-0.02007807418704033,0.003692593891173601,-0.012086263857781887
0.013499678112566471,0.011041181161999702,-0.008022882044315338,-0.02009938471019268,0.0033156475983560085,-0.012236550450325012
0.013186137191951275,0.011535332538187504,-0.007107811514288187,-0.02093101479113102,0.0029445544350892305,-0.012375960126519203
0.013701824471354485,0.011287878267467022,-0.006436617113649845,-0.021398741751909256,0.002782043069601059,-0.011987543664872646
0.013397476635873318,0.011736239306628704,-0.007085185032337904,-0.020797474309802055,0.0028358621057122946,-0.011676252819597721
0.013487864285707474,0.011998922564089298,-0.007469969801604748,-0.020556889474391937,0.002868182957172394,-0.01179502159357071
0.013622968457639217,0.01127928402274847,-0.00689548859372735,-0.021316835656762123,0.0030474145896732807,-0.01188274659216404
0.013554653152823448,0.011667590588331223,-0.006955341435968876,-0.02126643992960453,0.003171093063428998,-0.011900337412953377
0.013859531842172146,0.011246099136769772,-0.007031188812106848,-0.020339930430054665,0.003535454161465168,-0.011491684243083
0.013372129760682583,0.011499038897454739,-0.007679633796215057,-0.020071711391210556,0.0035304496996104717,-0.011820024810731411
0.014094537124037743,0.011671368032693863,-0.0074095046147704124,-0.02027093805372715,0.0034758448600769043,-0.012281511910259724
0.01367301307618618,0.011116918176412582,-0.007133494596928358,-0.020666442811489105,0.003607419552281499,-0.012237942777574062
0.01418741699308157,0.012260531075298786,-0.007622760254889727,-0.020588841289281845,0.003309099469333887,-0.012470254674553871
0.013786660507321358,0.011313456110656261,-0.00786152109503746,-0.021160408854484558,0.0035488344728946686,-0.012659633532166481
0.014139693230390549,0.01139137428253889,-0.007001017685979605,-0.02115371823310852,0.003403058974072337,-0.012280596420168877
0.014139693230390549,0.01139137428253889,-0.007001017685979605,-0.02115371823310852,0.003403058974072337,-0.012280596420168877
0.0135413883253932,0.011617300100624561,-0.007363991346210241,-0.020764093846082687,0.0032975603826344013,-0.012069343589246273
0.013999726623296738,0.011119391769170761,-0.0076224952936172485,-0.021024463698267937,0.003293852787464857,-0.011888266541063786
0.012440817430615425,0.011736596003174782,-0.007775312755256891,-0.021189462393522263,0.00316702201962471,-0.011961094103753567
0.014232841320335865,0.010827809572219849,-0.007447763346135616,-0.02102147415280342,0.0033061306457966566,-0.012069780379533768
0.01478033047169447,0.010450051166117191,-0.0074125174432992935,-0.020708341151475906,0.0031489990651607513,-0.012985375709831715
0.014502515085041523,0.011617019772529602,-0.0073447274044156075,-0.021146386861801147,0.003335206303745508,-0.012753120623528957
0.013754051178693771,0.011187796480953693,-0.008086812682449818,-0.021190183237195015,0.003586521605029702,-0.012825621291995049
0.014299217611551285,0.011530265212059021,-0.007032167166471481,-0.02068081870675087,0.0034629828296601772,-0.012089097872376442
0.014552930369973183,0.011244788765907288,-0.007479925639927387,-0.02098178304731846,0.003357582725584507,-0.012446627952158451
0.01446778979152441,0.01169239915907383,-0.007793377619236708,-0.021304113790392876,0.0034521089401096106,-0.012486514635384083
0.01444140076637268,0.01115140039473772,-0.00757997203618288,-0.021493079140782356,0.003413653699681163,-0.012497927062213421
0.013936042785644531,0.011586989276111126,-0.00702840369194746,-0.021744297817349434,0.00355367548763752,-0.01237549539655447
0.014385184273123741,0.012044248171150684,-0.00706317275762558,-0.021776165813207626,0.003813412506133318,-0.012700906954705715
0.01406545378267765,0.011384897865355015,-0.008138887584209442,-0.021623879671096802,0.0034702112898230553,-0.012602468952536583
0.014512820169329643,0.011661539785563946,-0.006969444919377565,-0.021623820066452026,0.003173052566125989,-0.013063064776360989
0.014402084983885288,0.011338618583977222,-0.006219704635441303,-0.021533099934458733,0.003376555861905217,-0.012840465642511845
0.0149715356528759,0.011347867548465729,-0.0066649820655584335,-0.02208072878420353,0.0036181113682687283,-0.012676076963543892
0.014491407200694084,0.011558798141777515,-0.007522533647716045,-0.022667432203888893,0.003762755310162902,-0.012722022831439972
0.014873660169541836,0.010999131016433239,-0.007004722021520138,-0.022774960845708847,0.0037634526379406452,-0.012655213475227356
0.014343035407364368,0.011684960685670376,-0.006203745491802692,-0.022417856380343437,0.003426565323024988,-0.013075222261250019
0.014856872148811817,0.011339482851326466,-0.0064643858931958675,-0.022540787234902382,0.00316241174004972,-0.01280479971319437
0.014484669081866741,0.011009503155946732,-0.007200340274721384,-0.023143170401453972,0.003238491015508771,-0.013188633136451244
0.014773215167224407,0.012005365453660488,-0.007189507596194744,-0.02294236794114113,0.003615585621446371,-0.012817909941077232
0.01459213811904192,0.011310096830129623,-0.006975187920033932,-0.02195519581437111,0.003914513159543276,-0.01295536570250988
0.014651946723461151,0.011671825312077999,-0.007018210832029581,-0.022316550835967064,0.003927065525203943,-0.013136160559952259
0.014327118173241615,0.011663444340229034,-0.006504036486148834,-0.022674305364489555,0.0037654959596693516,-0.013230675831437111
0.01519020926207304,0.0111406110227108,-0.006879229564219713,-0.023702040314674377,0.003749231342226267,-0.013149124570190907
0.01519020926207304,0.0111406110227108,-0.006879229564219713,-0.023702040314674377,0.003749231342226267,-0.013149124570190907
0.01494230329990387,0.011692972853779793,-0.006919654086232185,-0.02325812354683876,0.0039322711527347565,-0.013161099515855312
0.01545669510960579,0.011809724383056164,-0.006833601277321577,-0.02281108684837818,0.004121804144233465,-0.013127431273460388
0.0151602728292346,0.011611118912696838,-0.006557003129273653,-0.021838534623384476,0.003896908601745963,-0.012406127527356148
0.0152351763099432,0.011343786492943764,-0.007242487743496895,-0.022388968616724014,0.003689914010465145,-0.013726755976676941
0.015342424623668194,0.011111445724964142,-0.007304838392883539,-0.02317855879664421,0.003606519429013133,-0.013952141627669334
0.015458098612725735,0.011586293578147888,-0.006530988495796919,-0.02348494343459606,0.0035341698676347733,-0.013402258045971394
0.015478009358048439,0.011526950635015965,-0.006722229532897472,-0.023503534495830536,0.003706045914441347,-0.013138748705387115
0.015561481937766075,0.011587209068238735,-0.007671230006963015,-0.02331671118736267,0.0037223859690129757,-0.01322275772690773
0.015485493466258049,0.011380895972251892,-0.007153212558478117,-0.023945312947034836,0.0038193068467080593,-0.013427818194031715
0.015666265040636063,0.011552347801625729,-0.005887511186301708,-0.023230262100696564,0.003598220879212022,-0.013227392919361591
0.015565319918096066,0.011403643526136875,-0.006212983280420303,-0.022523581981658936,0.003508085384964943,-0.013275274075567722
0.01599489152431488,0.011620103381574154,-0.0073534357361495495,-0.022537190467119217,0.003631376661360264,-0.013383612036705017
0.015726223587989807,0.011847020126879215,-0.006933274678885937,-0.023848753422498703,0.003998713102191687,-0.013479805551469326
0.016109099611639977,0.011195768602192402,-0.006763252895325422,-0.024316055700182915,0.004060487728565931,-0.013462441973388195
0.016112111508846283,0.011592166498303413,-0.005959317088127136,-0.024176932871341705,0.0038528461009263992,-0.013281028717756271
0.0163353830575943,0.011253401637077332,-0.006449836306273937,-0.0245073102414608,0.0036861407570540905,-0.013473015278577805
0.016849473118782043,0.011157231405377388,-0.007041657343506813,-0.024562429636716843,0.0036285915412008762,-0.013401878997683525
0.016328416764736176,0.011257775127887726,-0.006802875082939863,-0.02443508990108967,0.0037237771321088076,-0.013290291652083397
0.01666557975113392,0.011438563466072083,-0.006430755369365215,-0.02447332814335823,0.0035014725290238857,-0.013027193956077099
0.016300681978464127,0.011806752532720566,-0.006358047481626272,-0.024669868871569633,0.0035903588868677616,-0.013497564941644669
0.014917946420609951,0.011333495378494263,-0.007150209974497557,-0.024847708642482758,0.0036369848530739546,-0.013546416535973549
0.016387345269322395,0.011306141503155231,-0.007142946124076843,-0.024797892197966576,0.003677692962810397,-0.013688545674085617
0.01716643013060093,0.011382079683244228,-0.006402101833373308,-0.02478972263634205,0.004019713029265404,-0.01357254758477211
0.016650740057229996,0.011066769249737263,-0.00650484673678875,-0.024628818035125732,0.004508031066507101,-0.013657649978995323
0.016650740057229996,0.011066769249737263,-0.00650484673678875,-0.024628818035125732,0.004508031066507101,-0.013657649978995323
0.01669403165578842,0.011711155995726585,-0.007449291180819273,-0.02448515221476555,0.004290355835109949,-0.01358518935739994
0.016663135960698128,0.011233370751142502,-0.007021917030215263,-0.0248454250395298,0.00435867952182889,-0.013716091401875019
0.016475047916173935,0.011097232811152935,-0.006448403000831604,-0.02521105483174324,0.0038919306825846434,-0.013706507161259651
0.01737043634057045,0.011452537961304188,-0.0062195188365876675,-0.025451213121414185,0.003574734553694725,-0.013333776965737343
0.017014862969517708,0.010915291495621204,-0.006754969712346792,-0.02536693960428238,0.0035686735063791275,-0.01373261958360672
0.017169367522001266,0.011778328567743301,-0.0073979515582323074,-0.025802461430430412,0.0040838937275111675,-0.013975151814520359
0.017496755346655846,0.011037009768188,-0.006855458952486515,-0.025928383693099022,0.004351871553808451,-0.014444772154092789
0.017471089959144592,0.011234262958168983,-0.006417510565370321,-0.025286898016929626,0.004150895867496729,-0.01435543317347765
0.01672746054828167,0.010542301461100578,-0.006965546403080225,-0.025156795978546143,0.0038108418229967356,-0.014511417597532272
0.017036020755767822,0.01083897054195404,-0.007273800205439329,-0.025563985109329224,0.0037366305477917194,-0.014536994509398937
0.0174256544560194,0.0106967156752944,-0.006847301498055458,-0.025652583688497543,0.003910418134182692,-0.01438536774367094
0.0172913558781147,0.01081666350364685,-0.006510202307254076,-0.02588755451142788,0.004267262760549784,-0.01440921239554882
0.017454713582992554,0.011395678855478764,-0.006834135390818119,-0.02557683177292347,0.0042142122983932495,-0.014097100123763084
0.017140395939350128,0.01132166851311922,-0.007256518583744764,-0.026064325124025345,0.004315616562962532,-0.013921168632805347
0.01741591840982437,0.011008862406015396,-0.006723302416503429,-0.026185590773820877,0.004055153112858534,-0.01430489867925644
0.01757071726024151,0.011327606625854969,-0.006795510649681091,-0.02617609314620495,0.004352366551756859,-0.014400222338736057
0.01671614684164524,0.010829654522240162,-0.007381931878626347,-0.026036277413368225,0.004184544552117586,-0.014045215211808681
0.017763670533895493,0.011082231067121029,-0.00712095620110631,-0.02666574902832508,0.0040007769130170345,-0.014526871033012867
0.017791936174035072,0.01121679600328207,-0.00649036280810833,-0.026677826419472694,0.003944661468267441,-0.014653578400611877
0.017135102301836014,0.010722856968641281,-0.006579757202416658,-0.025278327986598015,0.004126227926462889,-0.015535622835159302
0.017835570499300957,0.01180232409387827,-0.006808450445532799,-0.025258153676986694,0.0043835570104420185,-0.015192319639027119
0.017733976244926453,0.011018968187272549,-0.007306452840566635,-0.02654348313808441,0.00467471219599247,-0.014889937825500965
0.017776919528841972,0.010735242627561092,-0.006908534560352564,-0.026804296299815178,0.004847719334065914,-0.015047136694192886
0.018070504069328308,0.011118205264210701,-0.006812117528170347,-0.02651456743478775,0.0044934675097465515,-0.015615100041031837
0.017427951097488403,0.010309851728379726,-0.006846720818430185,-0.027003485709428787,0.0040674335323274136,-0.015476391650736332
0.01809348724782467,0.010996785946190357,-0.006586938165128231,-0.028127655386924744,0.003864566795527935,-0.015446259640157223
0.01786738634109497,0.01149920653551817,-0.006933622993528843,-0.027957476675510406,0.004170969594269991,-0.015821274369955063
0.01786738634109497,0.01149920653551817,-0.006933622993528843,-0.027957476675510406,0.004170969594269991,-0.015821274369955063
0.01806078851222992,0.010848489589989185,-0.0066832806915044785,-0.026813611388206482,0.004422035999596119,-0.015813278034329414
0.01795109733939171,0.01119950506836176,-0.006810268387198448,-0.026702499017119408,0.005021766293793917,-0.015791306272149086
0.017742272466421127,0.010189647786319256,-0.00675555132329464,-0.027872605249285698,0.004824231844395399,-0.015230200253427029
0.018174907192587852,0.010193277150392532,-0.007200412452220917,-0.027981186285614967,0.004289667587727308,-0.015219838358461857
0.018290115520358086,0.010837392881512642,-0.006691445130854845,-0.027901973575353622,0.004409761633723974,-0.015641745179891586
0.017935818061232567,0.010784873738884926,-0.006333056837320328,-0.028401602059602737,0.004133721813559532,-0.016328662633895874
0.018645258620381355,0.011135092936456203,-0.006723059341311455,-0.028431415557861328,0.0041574519127607346,-0.016538813710212708
0.018095124512910843,0.011578365229070187,-0.007138408720493317,-0.029084814712405205,0.004307064693421125,-0.016495902091264725
0.01892603002488613,0.011154016479849815,-0.006994861178100109,-0.028916029259562492,0.0054561118595302105,-0.015722334384918213
0.018220486119389534,0.01103821862488985,-0.006577719002962112,-0.028990235179662704,0.004568887874484062,-0.016972774639725685
0.019345104694366455,0.01094556599855423,-0.006858327426016331,-0.029134023934602737,0.004076665733009577,-0.016489971429109573
0.019223660230636597,0.011713565327227116,-0.006955762393772602,-0.02928948402404785,0.004053327254951,-0.016453882679343224
0.019487719982862473,0.01127968356013298,-0.006836911663413048,-0.029299195855855942,0.004129254724830389,-0.01630534417927265
0.019572358578443527,0.011496092192828655,-0.006910728290677071,-0.029378054663538933,0.0044843172654509544,-0.01622455008327961
0.019680790603160858,0.011291829869151115,-0.0067734140902757645,-0.02936234511435032,0.004590330645442009,-0.016467556357383728
0.018808623775839806,0.011097258888185024,-0.0076440866105258465,-0.02927202731370926,0.0045941551215946674,-0.01628650352358818
0.01889996975660324,0.011501165106892586,-0.006751490291208029,-0.029580824077129364,0.004775607492774725,-0.016956886276602745
0.019608575850725174,0.011358271352946758,-0.006326061673462391,-0.029444944113492966,0.005083465948700905,-0.01689278893172741
0.019191592931747437,0.011263087391853333,-0.006857897154986858,-0.029888257384300232,0.004578528925776482,-0.01671372540295124
0.019648024812340736,0.01106336247175932,-0.007661909330636263,-0.0301977526396513,0.004543026443570852,-0.016851073130965233
0.01951633021235466,0.011003279127180576,-0.007053668610751629,-0.030035194009542465,0.004481087904423475,-0.016785504296422005
0.019274791702628136,0.011628988198935986,-0.0062881349585950375,-0.03034890443086624,0.004339537583291531,-0.017374621704220772
0.01925155147910118,0.011332105845212936,-0.006303804460912943,-0.029516637325286865,0.004336169455200434,-0.01744859479367733
0.020247016102075577,0.011342784389853477,-0.006774112582206726,-0.030246878042817116,0.004564336035400629,-0.01770561747252941
0.01953350007534027,0.011653176508843899,-0.00686994893476367,-0.03164380043745041,0.004700304474681616,-0.017351830378174782
0.019273698329925537,0.011463528499007225,-0.00641242042183876,-0.03151281177997589,0.004574661608785391,-0.017152609303593636
0.02011704631149769,0.012323976494371891,-0.006379131227731705,-0.03053034096956253,0.004725485574454069,-0.017482053488492966
0.01944151520729065,0.01146898977458477,-0.006541199050843716,-0.030414681881666183,0.004925315268337727,-0.017257940024137497
0.01944151520729065,0.01146898977458477,-0.006541199050843716,-0.030414681881666183,0.004925315268337727,-0.017257940024137497
0.019671238958835602,0.01168849691748619,-0.007036532275378704,-0.03155604749917984,0.0049003600142896175,-0.01735575869679451
0.01964617520570755,0.012209531851112843,-0.00682255532592535,-0.03137274831533432,0.0051658181473612785,-0.017496652901172638
0.019890017807483673,0.011806841939687729,-0.006292126141488552,-0.031777311116456985,0.005032526329159737,-0.01764563098549843
0.019332727417349815,0.012493684887886047,-0.0063131325878202915,-0.032937683165073395,0.004793551284819841,-0.01800936833024025
0.020126158371567726,0.012068421579897404,-0.0067962524481117725,-0.032989080995321274,0.004561396315693855,-0.01787903532385826
0.02001706138253212,0.012529224157333374,-0.007436344400048256,-0.0313178151845932,0.004707039333879948,-0.01749345287680626
0.019449345767498016,0.011507510207593441,-0.006957517471164465,-0.03136464208364487,0.0047401366755366325,-0.017731279134750366
0.019946083426475525,0.011508209630846977,-0.0063244993798434734,-0.03223966062068939,0.005114843137562275,-0.01760360412299633
0.019865786656737328,0.012028430588543415,-0.006423686631023884,-0.03235293924808502,0.005482852924615145,-0.017575623467564583
0.019557448104023933,0.012104442343115807,-0.006579435896128416,-0.03231946378946304,0.004483696538954973,-0.01787486858665943
0.020008625462651253,0.011905403807759285,-0.006125222891569138,-0.032374296337366104,0.0045908233150839806,-0.017912130802869797
0.01949312351644039,0.011439481750130653,-0.006215999834239483,-0.03249518573284149,0.004893907345831394,-0.017704017460346222
0.019543692469596863,0.012355614453554153,-0.006741069722920656,-0.03264821693301201,0.0048933448269963264,-0.017936328426003456
0.020107761025428772,0.011366722173988819,-0.007205391768366098,-0.0322694405913353,0.0049369558691978455,-0.01821490004658699
0.020055359229445457,0.01182820089161396,-0.0066392989829182625,-0.0321781188249588,0.004877500701695681,-0.01803375408053398
0.019804183393716812,0.011802113614976406,-0.006198415532708168,-0.03233307972550392,0.005075088702142239,-0.01799224317073822
0.020096126943826675,0.012618671171367168,-0.006253526546061039,-0.0319698266685009,0.004642709158360958,-0.01776125468313694
0.020398318767547607,0.011991630308330059,-0.0069442265667021275,-0.032070595771074295,0.004571305122226477,-0.018163757398724556
0.020488286390900612,0.011728819459676743,-0.006439496763050556,-0.032074593007564545,0.0050938851200044155,-0.018952881917357445
0.020423036068677902,0.01235235296189785,-0.006101064383983612,-0.03241211175918579,0.005252724979072809,-0.018676821142435074
0.018663862720131874,0.011926350183784962,-0.006218268536031246,-0.032748784869909286,0.005026055034250021,-0.017782103270292282
0.020768076181411743,0.011924614198505878,-0.006716911680996418,-0.03290024399757385,0.004770231433212757,-0.018067331984639168
0.020676329731941223,0.012053784914314747,-0.006645374931395054,-0.03266351670026779,0.004736997187137604,-0.0181770958006382
0.021021192893385887,0.011672682128846645,-0.006190950516611338,-0.03225990757346153,0.004872095305472612,-0.017654497176408768
0.02084546536207199,0.012239928357303143,-0.006141308695077896,-0.03252425044775009,0.005620506592094898,-0.017478235065937042
0.020667841657996178,0.01198278833180666,-0.00667565455660224,-0.032439421862363815,0.005566192325204611,-0.018093358725309372
0.020434126257896423,0.012375694699585438,-0.006821148097515106,-0.03234349191188812,0.0053527518175542355,-0.018943345174193382
0.021101264283061028,0.012353275902569294,-0.006635311990976334,-0.032389167696237564,0.005223176442086697,-0.018917720764875412
0.020722568035125732,0.0125171123072505,-0.006471589207649231,-0.032566335052251816,0.00517735630273819,-0.01826469972729683
0.02083718031644821,0.012510267086327076,-0.006352271884679794,-0.033473435789346695,0.00513712503015995,-0.018379027023911476
0.021176304668188095,0.012049144133925438,-0.006634366232901812,-0.034159574657678604,0.0049998643808066845,-0.019008008763194084
0.021176304668188095,0.012049144133925438,-0.006634366232901812,-0.034159574657678604,0.0049998643808066845,-0.019008008763194084
0.02107885107398033,0.01266490574926138,-0.007227001711726189,-0.03307404741644859,0.004952002316713333,-0.019233394414186478
0.02117953635752201,0.012508610263466835,-0.006608519237488508,-0.03232157975435257,0.005233375821262598,-0.019087953492999077
0.02079477161169052,0.012509369291365147,-0.006146325264126062,-0.03398726135492325,0.005091709550470114,-0.018664395436644554
0.021151594817638397,0.01241733692586422,-0.006189296022057533,-0.034791234880685806,0.004796270746737719,-0.01902569830417633
0.02118150144815445,0.012381079606711864,-0.007132907398045063,-0.034647610038518906,0.004680256359279156,-0.018357444554567337
0.021114647388458252,0.012365512549877167,-0.006322167813777924,-0.03450692445039749,0.004926650784909725,-0.01905948296189308
0.021498285233974457,0.012746082618832588,-0.006152866408228874,-0.03344814479351044,0.005527508910745382,-0.019406212493777275
0.02147400751709938,0.01268862746655941,-0.006639423314481974,-0.03482155129313469,0.005264352075755596,-0.01924596168100834
0.02121029421687126,0.01286453939974308,-0.0072255502454936504,-0.035528514534235,0.005410298239439726,-0.01891040802001953
0.021378833800554276,0.012757579796016216,-0.00731228431686759,-0.03541118651628494,0.005206819158047438,-0.019305728375911713
0.021796179935336113,0.012633773498237133,-0.0064941332675516605,-0.03517284244298935,0.005082976073026657,-0.01942364312708378
0.021824607625603676,0.012545784004032612,-0.006452096160501242,-0.03543636202812195,0.00516242440789938,-0.0192748811095953
0.021895000711083412,0.012207141146063805,-0.007377204485237598,-0.03550369292497635,0.005127573851495981,-0.01972864754498005
0.02200561948120594,0.012695194222033024,-0.007125820033252239,-0.035624802112579346,0.005547543056309223,-0.01952420547604561
0.02252313494682312,0.011316715739667416,-0.006274871528148651,-0.035355377942323685,0.005321831908077002,-0.019454475492239
0.021726055070757866,0.012448987923562527,-0.006478429306298494,-0.035653259605169296,0.005073704291135073,-0.019934436306357384
0.021234741434454918,0.01239017490297556,-0.0073752449825406075,-0.035771191120147705,0.005548258777707815,-0.019628234207630157
0.022181067615747452,0.013303348794579506,-0.007486829534173012,-0.03613332286477089,0.00544125959277153,-0.020077407360076904
0.022696571424603462,0.012668542563915253,-0.006587499286979437,-0.03642398864030838,0.00526075903326273,-0.020345306023955345
0.022356348112225533,0.012130583636462688,-0.006853710860013962,-0.037017468363046646,0.005390937905758619,-0.02011551521718502
0.02195374295115471,0.012526679784059525,-0.007572134491056204,-0.0369795560836792,0.005076395347714424,-0.02006831020116806
0.022388271987438202,0.012534321285784245,-0.007949705235660076,-0.0368969552218914,0.005114957690238953,-0.020234240218997
0.023554319515824318,0.012690262869000435,-0.0070451912470161915,-0.03675531595945358,0.005122119095176458,-0.020465552806854248
0.022985493764281273,0.01284857653081417,-0.006312423385679722,-0.037708356976509094,0.005361501593142748,-0.02047615870833397
0.022802460938692093,0.013451403938233852,-0.006705095991492271,-0.03859668970108032,0.0053427256643772125,-0.020533228293061256
0.02220657840371132,0.0126941604539752,-0.007341272197663784,-0.03791518881917,0.005598712712526321,-0.02073100581765175
0.02212003991007805,0.01247922983020544,-0.007117013912647963,-0.03723346069455147,0.005398801062256098,-0.020535629242658615
0.022728675976395607,0.012614364735782146,-0.006915562320500612,-0.03768002241849899,0.005954854656010866,-0.020502794533967972
0.023381203413009644,0.012530557811260223,-0.006723041646182537,-0.03749975934624672,0.00591840548440814,-0.020976534113287926
0.023236114531755447,0.012712707743048668,-0.006591736804693937,-0.03867855295538902,0.005750738549977541,-0.020913515239953995
0.021650640293955803,0.012338091619312763,-0.0071822707541286945,-0.03988941013813019,0.00559624470770359,-0.020997609943151474
0.02308048866689205,0.013299181126058102,-0.006964683998376131,-0.038328662514686584,0.005511829163879156,-0.021171605214476585
0.02308048866689205,0.013299181126058102,-0.006964683998376131,-0.038328662514686584,0.005511829163879156,-0.021171605214476585
0.023674214258790016,0.012975038960576057,-0.006927174050360918,-0.03849953040480614,0.005984292831271887,-0.020792361348867416
0.023575687780976295,0.012674679048359394,-0.007697287015616894,-0.03873654082417488,0.005811444483697414,-0.02086145058274269
0.02300381101667881,0.012802012264728546,-0.008424834348261356,-0.0387863852083683,0.005862462799996138,-0.021236445754766464
0.023184759542346,0.012597289867699146,-0.006701332982629538,-0.03863128274679184,0.005774438381195068,-0.020855646580457687
0.023897506296634674,0.012618450447916985,-0.005948296282440424,-0.03807394579052925,0.005663357675075531,-0.02185998298227787
0.02382648177444935,0.013238727115094662,-0.0072245351038873196,-0.03823966905474663,0.005734607111662626,-0.021845974028110504
0.023713313043117523,0.01292317733168602,-0.007367292884737253,-0.03878052532672882,0.005450117867439985,-0.021119499579072
0.024342015385627747,0.013168984092772007,-0.006704055238515139,-0.038497310131788254,0.00563539145514369,-0.02085609920322895
0.024170225486159325,0.012693525291979313,-0.0068327696062624454,-0.03846036270260811,0.005729347001761198,-0.021300120279192924
0.023851389065384865,0.013077015057206154,-0.007532790303230286,-0.03799530491232872,0.005671761464327574,-0.02197786048054695
0.024182181805372238,0.01258962694555521,-0.007128499448299408,-0.03833514824509621,0.0053491853177547455,-0.0218996349722147
0.024677371606230736,0.013140443712472916,-0.006537128239870071,-0.03866918012499809,0.00580571498721838,-0.022133029997348785
0.024424836039543152,0.01288735494017601,-0.006738064344972372,-0.038800109177827835,0.005944688338786364,-0.022194789722561836
0.024617016315460205,0.012428544461727142,-0.006725278217345476,-0.038847800344228745,0.006101119797676802,-0.02273002453148365
0.025536296889185905,0.013079021126031876,-0.006996796932071447,-0.03992030769586563,0.005846105981618166,-0.022408325225114822
0.025234878063201904,0.012729394249618053,-0.0066645340994000435,-0.0399184376001358,0.006024983245879412,-0.0221028421074152
0.024663368239998817,0.01327033806592226,-0.007152296602725983,-0.040017545223236084,0.005975369364023209,-0.02170570008456707
0.024128152057528496,0.012931332923471928,-0.006542762741446495,-0.040297362953424454,0.005993296392261982,-0.022095009684562683
0.025162212550640106,0.013747322373092175,-0.007183322217315435,-0.040493208914995193,0.0058535984717309475,-0.02237248420715332
0.026155224069952965,0.013171694241464138,-0.006722639314830303,-0.04103352874517441,0.006276486907154322,-0.022641846910119057
0.025682872161269188,0.0132446875795722,-0.006642133463174105,-0.04192287102341652,0.006123833358287811,-0.02275392785668373
0.025438399985432625,0.013156619854271412,-0.0067270840518176556,-0.04341167211532593,0.006267760880291462,-0.022439321503043175
0.025438399985432625,0.013156619854271412,-0.0067270840518176556,-0.04341167211532593,0.006267760880291462,-0.022439321503043175
0.02632436715066433,0.013128074817359447,-0.007316829636693001,-0.04186931625008583,0.00589327747002244,-0.022232400253415108
0.025900404900312424,0.0135324252769351,-0.007005101535469294,-0.040839649736881256,0.005744386464357376,-0.02209542505443096
0.026134926825761795,0.01325858011841774,-0.00679321214556694,-0.042158257216215134,0.005398858338594437,-0.022366825491189957
0.025497812777757645,0.013173328712582588,-0.006546914577484131,-0.04228518158197403,0.006145381834357977,-0.0225860383361578
0.02487802691757679,0.012616162188351154,-0.006755145266652107,-0.043407704681158066,0.006804333999752998,-0.02260400354862213
0.026800673454999924,0.013312408700585365,-0.006964236032217741,-0.04096892476081848,0.005854303482919931,-0.022815553471446037
0.026436936110258102,0.013577732257544994,-0.0064489650540053844,-0.04246988520026207,0.005872560665011406,-0.022886356338858604
0.026003234088420868,0.01331312395632267,-0.006529607344418764,-0.043415267020463943,0.005861656274646521,-0.0229194276034832
0.026061704382300377,0.013638369739055634,-0.00698014535009861,-0.0430404357612133,0.006128017324954271,-0.02272697538137436
0.02670235000550747,0.013110416941344738,-0.0064297872595489025,-0.04309990257024765,0.006405602674931288,-0.022910065948963165
0.025732049718499184,0.013447870500385761,-0.00616265507414937,-0.04300369694828987,0.006264075171202421,-0.022987371310591698
0.026180997490882874,0.0132795674726367,-0.006378416437655687,-0.04333151504397392,0.006315544247627258,-0.02283666469156742
0.026096273213624954,0.013486712239682674,-0.006879741791635752,-0.04349636659026146,0.006403706967830658,-0.02287309430539608
0.025994732975959778,0.013589002192020416,-0.006957574747502804,-0.042917970567941666,0.006198931019753218,-0.02327347733080387
0.026155898347496986,0.01342203002423048,-0.006023291498422623,-0.04257155954837799,0.006578895263373852,-0.022509636357426643
0.02650161273777485,0.013455175794661045,-0.006260496564209461,-0.042422425001859665,0.00659578014165163,-0.0229036808013916
0.026651328429579735,0.013027317821979523,-0.006710515357553959,-0.04146132245659828,0.005933995824307203,-0.02310878597199917
0.02639755792915821,0.013725616037845612,-0.007063003256917,-0.042003750801086426,0.00604943698272109,-0.023267604410648346
0.02710261195898056,0.013463580049574375,-0.00677497498691082,-0.04356918856501579,0.006859924644231796,-0.023781711235642433
0.026782779023051262,0.013913427479565144,-0.006293283775448799,-0.04367830231785774,0.0067919399589300156,-0.0235795546323061
0.027232348918914795,0.013296886347234249,-0.006417425349354744,-0.04179995134472847,0.0064223273657262325,-0.023875826969742775
0.027021069079637527,0.01385157648473978,-0.006810904946178198,-0.041744545102119446,0.006105892825871706,-0.024043671786785126
0.02703537791967392,0.013239118270576,-0.007289714179933071,-0.04257198050618172,0.006421410944312811,-0.023841669782996178
0.026598231866955757,0.013718610629439354,-0.006901122629642487,-0.042723409831523895,0.006644791457802057,-0.023829568177461624
0.025649309158325195,0.013424066826701164,-0.006437660660594702,-0.043175019323825836,0.006428075954318047,-0.023580428212881088
0.027441993355751038,0.013699759729206562,-0.006325465627014637,-0.04137847572565079,0.0064325216226279736,-0.02399466745555401
0.027167806401848793,0.013604461215436459,-0.006872439291328192,-0.04059320315718651,0.006546268239617348,-0.023939628154039383
0.02637944370508194,0.013833173550665379,-0.006419594865292311,-0.04260733723640442,0.0061482759192585945,-0.02355373091995716
0.026125548407435417,0.01371235866099596,-0.006222887896001339,-0.04263404384255409,0.006336423568427563,-0.023203838616609573
0.026660550385713577,0.013704703189432621,-0.006589237600564957,-0.04276125878095627,0.00635541882365942,-0.023967521265149117
0.026527879759669304,0.013580149039626122,-0.00667858961969614,-0.04296312853693962,0.006040216889232397,-0.0249626561999321
0.026527879759669304,0.013580149039626122,-0.00667858961969614,-0.04296312853693962,0.006040216889232397,-0.0249626561999321
0.026913492009043694,0.01393249910324812,-0.006131241098046303,-0.043995801359415054,0.0067447773180902,-0.024150077253580093
0.026808718219399452,0.01391731295734644,-0.006252399180084467,-0.04462267458438873,0.006905238144099712,-0.024033261463046074
0.0269350353628397,0.01422177068889141,-0.0065952385775744915,-0.04456982761621475,0.006205514073371887,-0.023898281157016754
0.026776880025863647,0.013974732719361782,-0.006669209338724613,-0.044044364243745804,0.006010012235492468,-0.023915264755487442
0.02695855125784874,0.014295252971351147,-0.006219333969056606,-0.04429319128394127,0.0064626154489815235,-0.02458515763282776
0.026650313287973404,0.013699319213628769,-0.0061256419867277145,-0.04449698328971863,0.006721435580402613,-0.024362608790397644
0.02587069571018219,0.014122512191534042,-0.0063357967883348465,-0.0442267544567585,0.007096932735294104,-0.02480645664036274
0.026496825739741325,0.013712877407670021,-0.006395644508302212,-0.04491232708096504,0.006591704674065113,-0.025634873658418655
0.02736022137105465,0.014244048856198788,-0.006457159295678139,-0.044116243720054626,0.006404581479728222,-0.02565343864262104
0.027391698211431503,0.013388076797127724,-0.0064268046990036964,-0.04516018554568291,0.006788723636418581,-0.024515671655535698
0.026777144521474838,0.013980844058096409,-0.006034597288817167,-0.04483378306031227,0.007241167593747377,-0.023913798853754997
0.025848284363746643,0.013779864646494389,-0.005962371360510588,-0.045185383409261703,0.006989357061684132,-0.024279065430164337
0.026485636830329895,0.01442566979676485,-0.006536154076457024,-0.04546438530087471,0.006602955516427755,-0.02484385296702385
0.027446094900369644,0.014161167666316032,-0.006774090230464935,-0.0450974740087986,0.0063880630768835545,-0.025352219119668007
0.02669820934534073,0.014627390541136265,-0.006199641618877649,-0.047719068825244904,0.006898397114127874,-0.024953531101346016
0.02736448310315609,0.014090861193835735,-0.006258748937398195,-0.04729688912630081,0.007162947673350573,-0.025100436061620712
0.02791266143321991,0.01448377501219511,-0.006436873693019152,-0.04542689397931099,0.006601311266422272,-0.024973446503281593
0.027718961238861084,0.013749880716204643,-0.006349852774292231,-0.0463901162147522,0.00641453405842185,-0.02557622268795967
0.027667999267578125,0.01414903812110424,-0.006464426405727863,-0.047153402119874954,0.006260606925934553,-0.025424258783459663
0.02671053074300289,0.014074684120714664,-0.006552332080900669,-0.04875717684626579,0.006483369041234255,-0.02532874047756195
0.02660515531897545,0.014532240107655525,-0.006126067601144314,-0.04701586812734604,0.006977502256631851,-0.02577766589820385
0.02765156514942646,0.014091813936829567,-0.006007199175655842,-0.04545427858829498,0.0069435881450772285,-0.026030169799923897
0.027503730729222298,0.014741671271622181,-0.006688205525279045,-0.04744558036327362,0.006949767004698515,-0.02581602893769741
0.027433739975094795,0.014313957653939724,-0.007160767447203398,-0.047789957374334335,0.006902641151100397,-0.02587604522705078
0.027299070730805397,0.014713175594806671,-0.006274460349231958,-0.047262392938137054,0.007836798205971718,-0.026198260486125946
0.02732028067111969,0.014064248651266098,-0.005974762607365847,-0.046697843819856644,0.0065272292122244835,-0.02566913329064846
0.02732028067111969,0.014064248651266098,-0.005974762607365847,-0.046697843819856644,0.0065272292122244835,-0.02566913329064846
0.027557017281651497,0.014550348743796349,-0.00650044996291399,-0.04631420224905014,0.006476542912423611,-0.025703873485326767
0.02755272202193737,0.014176550321280956,-0.007382349576801062,-0.0463140606880188,0.0065973540768027306,-0.026019293814897537
0.028106242418289185,0.014091980643570423,-0.006210161838680506,-0.04653147608041763,0.00737729063257575,-0.026010436937212944
0.027719637379050255,0.014649155549705029,-0.006361674517393112,-0.046319980174303055,0.007242274936288595,-0.0260845348238945
0.027602609246969223,0.013874110765755177,-0.006813340820372105,-0.04536270350217819,0.006681510712951422,-0.026251306757330894
0.028130745515227318,0.014442681334912777,-0.006629346404224634,-0.04776139184832573,0.0067184679210186005,-0.026181688532233238
0.028341019526124,0.013864286243915558,-0.006060781888663769,-0.047820091247558594,0.006674064788967371,-0.026735961437225342
0.027744142338633537,0.014471563510596752,-0.006086754146963358,-0.045009274035692215,0.007028684951364994,-0.02761015109717846
0.028500953689217567,0.014285145327448845,-0.005548196844756603,-0.04648970440030098,0.006798585876822472,-0.027514774352312088
0.029407132416963577,0.014901014044880867,-0.0065876757726073265,-0.047548558562994,0.006388082168996334,-0.026453865692019463
0.028986124321818352,0.014269893988966942,-0.006747042760252953,-0.048690199851989746,0.006597311235964298,-0.025494175031781197
0.0279744490981102,0.014620528556406498,-0.006258501671254635,-0.04673432931303978,0.00668830331414938,-0.02679893746972084
0.028323117643594742,0.013939831405878067,-0.006093777250498533,-0.04766825959086418,0.007070430554449558,-0.027721283957362175
0.02945994772017002,0.0144670894369483,-0.006464086007326841,-0.04874584451317787,0.007431246805936098,-0.02690649777650833
0.028536269441246986,0.014034519903361797,-0.0064698439091444016,-0.04871046543121338,0.007092855870723724,-0.026930006220936775
0.0288348700851202,0.014679992571473122,-0.006300422828644514,-0.04830450192093849,0.006883412133902311,-0.028110725805163383
0.030060555785894394,0.014049187302589417,-0.006225188262760639,-0.048217952251434326,0.006779284682124853,-0.027211464941501617
0.029360955581068993,0.01447670254856348,-0.005846962332725525,-0.04829920828342438,0.006904507987201214,-0.026094473898410797
0.028623688966035843,0.014299295842647552,-0.006303965579718351,-0.04857213422656059,0.006905286572873592,-0.026580410078167915
0.028474781662225723,0.014792597852647305,-0.007211796008050442,-0.048535317182540894,0.007185404654592276,-0.028346411883831024
0.029353801161050797,0.014028108678758144,-0.0063046920113265514,-0.04836568608880043,0.007548171561211348,-0.027086758986115456
0.029939202591776848,0.01422836259007454,-0.005997418891638517,-0.049021974205970764,0.007246836554259062,-0.026705894619226456
0.029788833111524582,0.013875744305551052,-0.006636481266468763,-0.04925376921892166,0.007183284964412451,-0.027206534519791603
0.029537810012698174,0.014522984623908997,-0.007018822245299816,-0.049649957567453384,0.00734713627025485,-0.027114788070321083
0.029458003118634224,0.014156877063214779,-0.0066473521292209625,-0.049520622938871384,0.007064107805490494,-0.02752027101814747
0.029962969943881035,0.014962290413677692,-0.006067500449717045,-0.05011368170380592,0.007024283520877361,-0.02779250591993332
0.029962969943881035,0.014962290413677692,-0.006067500449717045,-0.05011368170380592,0.007024283520877361,-0.02779250591993332
0.030118713155388832,0.014092100784182549,-0.0061637326143682,-0.0497952438890934,0.007179384119808674,-0.02781134843826294
0.030192658305168152,0.01471711415797472,-0.006103073246777058,-0.05149411782622337,0.006934838835150003,-0.027731748297810555
0.03054216131567955,0.014001289382576942,-0.00671077286824584,-0.05092836543917656,0.006918547209352255,-0.027967650443315506
0.030568819493055344,0.01416583452373743,-0.006505402736365795,-0.050151146948337555,0.007230697199702263,-0.028011605143547058
0.030937936156988144,0.014515891671180725,-0.0061249868012964725,-0.05165733024477959,0.0072645326144993305,-0.027844933792948723
