davideferrari95/blind_handover_controller/data/Test 252 - [2024-02-08 -- 12-43-43]/joint_states_data.csv
shoulder_pan_joint,shoulder_lift_joint,elbow_joint,wrist_1_joint,wrist_2_joint,wrist_3_joint
0.004886925686150789,0.007728223223239183,-0.010839403606951237,0.006430134177207947,-0.0,0.005181350279599428
0.004959101788699627,0.00711237546056509,-0.010895957238972187,0.0057045998983085155,-0.0,0.0054858592338860035
0.004709846805781126,0.007186539005488157,-0.010181584395468235,0.005640601739287376,-0.0,0.0053108613938093185
0.004709846805781126,0.007186539005488157,-0.010181584395468235,0.005640601739287376,-0.0,0.0053108613938093185
0.004906343761831522,0.007508700247853994,-0.010712627321481705,0.006250069942325354,-0.0,0.004879459738731384
0.004906343761831522,0.007508700247853994,-0.010712627321481705,0.006250069942325354,-0.0,0.004879459738731384
0.004922059830278158,0.006784286815673113,-0.010728000663220882,0.006107391323894262,-0.0,0.004800794180482626
0.004922059830278158,0.006784286815673113,-0.010728000663220882,0.006107391323894262,-0.0,0.004800794180482626
0.004764470737427473,0.007268521003425121,-0.010707269422709942,0.0054964846931397915,-0.0,0.005659306887537241
0.00471504544839263,0.007692098617553711,-0.010675727389752865,0.005372007377445698,-0.0,0.006387120578438044
0.00463581457734108,0.006748612970113754,-0.01132939849048853,0.005695953965187073,-0.0,0.004991621244698763
0.00470268540084362,0.006490723695605993,-0.010491005145013332,0.006142905447632074,-0.0,0.0042867413721978664
0.004713223781436682,0.0067711868323385715,-0.010553889907896519,0.005857258569449186,-0.0,0.0040200017392635345
0.004502971190959215,0.006783862132579088,-0.011355498805642128,0.005549746099859476,-0.0,0.004828522447496653
0.0048773568123579025,0.006631376687437296,-0.010753185488283634,0.005095980130136013,-0.0,0.005519302096217871
0.004475786350667477,0.006237574853003025,-0.011091881431639194,0.004902716260403395,-0.0,0.0061263577081263065
0.00451253354549408,0.006548952776938677,-0.010888317599892616,0.005272585432976484,-0.0,0.005719347856938839
0.004515804350376129,0.006633479613810778,-0.010519711300730705,0.005426601506769657,-0.0,0.005306602921336889
0.0049637556076049805,0.006326871458441019,-0.011257839389145374,0.005367181729525328,-0.0,0.0048851859755814075
0.004805081058293581,0.006118786055594683,-0.011227179318666458,0.005053392145782709,-0.0,0.0048118410632014275
0.004739029798656702,0.006042439956218004,-0.010745440609753132,0.005177879240363836,-0.0,0.00541344378143549
0.0042739869095385075,0.005948918871581554,-0.011457337997853756,0.00536407670006156,-0.0,0.005286495201289654
0.004275765269994736,0.006361452862620354,-0.010917623527348042,0.005396342370659113,-0.0,0.005241904407739639
0.0042406124994158745,0.006456138100475073,-0.012017489410936832,0.005348443519324064,-0.0,0.004889372736215591
0.004840140230953693,0.006523333955556154,-0.011520223692059517,0.0050844778306782246,-0.0,0.004448711406439543
0.005042731296271086,0.006072206888347864,-0.010561774484813213,0.0052106319926679134,-0.0,0.004545207601040602
0.004683705512434244,0.006469439249485731,-0.011705514043569565,0.00537768704816699,-0.0,0.004788293037563562
0.004330265801399946,0.006905189715325832,-0.01107881125062704,0.005123359151184559,-0.0,0.0056767030619084835
0.004379700403660536,0.006844556424766779,-0.011569835245609283,0.00539059191942215,-0.0,0.005638372618705034
0.004753973335027695,0.00643210019916296,-0.01068869885057211,0.005605293903499842,-0.0,0.004817912355065346
0.004753973335027695,0.00643210019916296,-0.01068869885057211,0.005605293903499842,-0.0,0.004817912355065346
0.004730002023279667,0.006945746950805187,-0.011360522359609604,0.005187466740608215,-0.0,0.004529639147222042
0.004730002023279667,0.006945746950805187,-0.011360522359609604,0.005187466740608215,-0.0,0.004529639147222042
0.004806044977158308,0.006370081100612879,-0.011829173192381859,0.00534017663449049,-0.0,0.005295820068567991
0.004806044977158308,0.006370081100612879,-0.011829173192381859,0.00534017663449049,-0.0,0.005295820068567991
0.004691339563578367,0.006379378959536552,-0.010696297511458397,0.0054127853363752365,-0.0,0.005365239456295967
0.004784286022186279,0.006177394650876522,-0.011264147236943245,0.005161095876246691,-0.0,0.0051790582947432995
0.00498560257256031,0.006331881508231163,-0.010987458750605583,0.004941204562783241,-0.0,0.005011121742427349
0.0049663628451526165,0.00638607470318675,-0.010620180517435074,0.005166102200746536,-0.0,0.005189409479498863
0.005146848037838936,0.006184928584843874,-0.01104634627699852,0.005597972776740789,-0.0,0.005111105274409056
0.005071681458503008,0.0064542475156486034,-0.010800845921039581,0.006074422504752874,-0.0,0.004974381532520056
0.00446702865883708,0.006276328582316637,-0.010765321552753448,0.005666039884090424,-0.0,0.005039890296757221
0.004398643504828215,0.005978357512503862,-0.010167564265429974,0.005492284893989563,-0.0,0.005080123897641897
0.005021638702601194,0.006078490987420082,-0.011727696284651756,0.005149855278432369,-0.0,0.005031868349760771
0.004912917967885733,0.007156121078878641,-0.010634906589984894,0.0053047845140099525,-0.0,0.005067147314548492
0.004912917967885733,0.007156121078878641,-0.010634906589984894,0.0053047845140099525,-0.0,0.005067147314548492
0.005009408108890057,0.006613097153604031,-0.010998081415891647,0.005460348445922136,-0.0,0.0052378191612660885
0.004483157303184271,0.0061538564041256905,-0.010779239237308502,0.004725922830402851,-0.0,0.004700188525021076
0.004483157303184271,0.0061538564041256905,-0.010779239237308502,0.004725922830402851,-0.0,0.004700188525021076
0.004543899092823267,0.007206594105809927,-0.011204839684069157,0.004976825322955847,-0.0,0.004499058239161968
0.005285846069455147,0.006799269001930952,-0.010919018648564816,0.005018922500312328,-0.0,0.004797984845936298
0.005124988034367561,0.0064028175547719,-0.010466448962688446,0.0051712775602936745,-0.0,0.00498980050906539
0.004775779787451029,0.006663317326456308,-0.011003047227859497,0.005526205524802208,-0.0,0.005289787892252207
0.004396515432745218,0.006562740541994572,-0.010662693530321121,0.004942606668919325,-0.0,0.00505431741476059
0.004528753459453583,0.006392577663064003,-0.010780456475913525,0.005083431024104357,-0.0,0.005110293161123991
0.004898713435977697,0.006136700510978699,-0.010982516221702099,0.005166222341358662,-0.0,0.005257758777588606
0.004898713435977697,0.006136700510978699,-0.010982516221702099,0.005166222341358662,-0.0,0.005257758777588606
0.00488981744274497,0.00588882714509964,-0.011689424514770508,0.00592020945623517,-0.0,0.005140573717653751
0.0046109044924378395,0.006460291333496571,-0.011580802500247955,0.005551909562200308,-0.0,0.00490952143445611
0.004580992739647627,0.006440663244575262,-0.010302919894456863,0.005486552603542805,-0.0,0.004809285514056683
0.00461231404915452,0.006167997140437365,-0.011061156168580055,0.005542104598134756,-0.0,0.0050070215947926044
0.004639122635126114,0.0061077335849404335,-0.010489500127732754,0.005242191720753908,-0.0,0.0051233284175395966
0.004991535097360611,0.006315262988209724,-0.010303787887096405,0.005445925518870354,-0.0,0.005257864017039537
0.005031284876167774,0.00607605604454875,-0.011077488772571087,0.005502683576196432,-0.0,0.005189727991819382
0.004799727816134691,0.006570648867636919,-0.010460985824465752,0.005548269487917423,-0.0,0.005234294570982456
0.004654731601476669,0.00641834968701005,-0.010438584722578526,0.005220780149102211,-0.0,0.004842572845518589
0.004650179296731949,0.005936581175774336,-0.011203142814338207,0.00472558056935668,-0.0,0.004713232629001141
0.0047101471573114395,0.006332419812679291,-0.010707820765674114,0.004971950314939022,-0.0,0.0050825742073357105
0.0047488734126091,0.006744848098605871,-0.010581158101558685,0.005426943767815828,-0.0,0.005039819981902838
0.00529902521520853,0.006539696361869574,-0.01053589303046465,0.005484918598085642,-0.0,0.005105501506477594
0.005112939048558474,0.006376244593411684,-0.010663195513188839,0.005134790204465389,-0.0,0.00493916729465127
0.0048028454184532166,0.0061828335747122765,-0.011373325251042843,0.004837683867663145,-0.0,0.004754765424877405
0.004768189042806625,0.006100987549871206,-0.010533192194998264,0.004984233528375626,-0.0,0.00489786546677351
0.0052445800974965096,0.00645702239125967,-0.010334576480090618,0.005315831396728754,-0.0,0.005318259354680777
0.005122297443449497,0.006546055898070335,-0.011113256216049194,0.005222223699092865,-0.0,0.005482329986989498
0.005537481512874365,0.00651258509606123,-0.010401496663689613,0.005384188611060381,-0.0,0.005354609806090593
0.005164072848856449,0.006212977692484856,-0.010519328527152538,0.004664537496864796,-0.0,0.005176133941859007
0.004899003077298403,0.006366418208926916,-0.010851291008293629,0.004506247118115425,-0.0,0.004958558827638626
0.0050878520123660564,0.006407406181097031,-0.009920120239257812,0.004336304031312466,-0.0,0.004767329897731543
0.005020241718739271,0.006242922507226467,-0.010773071087896824,0.004962560720741749,-0.0,0.004785782657563686
0.00547037785872817,0.00663516903296113,-0.010950645431876183,0.005201312713325024,-0.0,0.005222724284976721
0.005290881264954805,0.006903206929564476,-0.011651335284113884,0.005178295075893402,-0.0,0.0054935854859650135
0.005290881264954805,0.006903206929564476,-0.011651335284113884,0.005178295075893402,-0.0,0.0054935854859650135
0.004898542072623968,0.006564450915902853,-0.010593464598059654,0.005152107682079077,-0.0,0.005018611438572407
0.004784420598298311,0.00646221125498414,-0.009962811134755611,0.005135916639119387,-0.0,0.004879434127360582
0.005121844820678234,0.006689142435789108,-0.010861704126000404,0.00497581297531724,-0.0,0.005230729002505541
0.006323542911559343,0.006810684688389301,-0.010672494769096375,0.004979051183909178,-0.0,0.005499719176441431
0.0051476419903337955,0.006576076149940491,-0.01086287572979927,0.004946960601955652,-0.0,0.005154232960194349
0.0051476419903337955,0.006576076149940491,-0.01086287572979927,0.004946960601955652,-0.0,0.005154232960194349
0.004564713221043348,0.006309648510068655,-0.01019602082669735,0.004848220385611057,-0.0,0.005030462052673101
0.005111425183713436,0.006533551495522261,-0.010374042205512524,0.004716597497463226,-0.0,0.004831539001315832
0.0054189651273190975,0.006452703382819891,-0.010792573913931847,0.004949062131345272,-0.0,0.004854087717831135
0.005077204667031765,0.007030593231320381,-0.011121461167931557,0.0050378707237541676,-0.0,0.004852107260376215
0.005219733342528343,0.0066585964523255825,-0.011379603296518326,0.004954328760504723,-0.0,0.005249878391623497
0.00512293353676796,0.006624661851674318,-0.01123095490038395,0.005156062543392181,-0.0,0.005203841719776392
0.005791480652987957,0.006684334948658943,-0.01048467680811882,0.004971751011908054,-0.0,0.004914552439004183
0.005311034619808197,0.0072929696179926395,-0.01160887535661459,0.0045614843256771564,-0.0,0.00473024370148778
0.005331564694643021,0.007293678820133209,-0.011196630075573921,0.004086518194526434,-0.0,0.004844634793698788
0.005498834885656834,0.007328543346375227,-0.011328539811074734,0.004260350484400988,-0.0,0.0048199971206486225
0.005489789415150881,0.0067088184878230095,-0.011203352361917496,0.004595953039824963,-0.0,0.005266957450658083
0.005883186589926481,0.007065191864967346,-0.011218301951885223,0.005049670115113258,-0.0,0.0054017468355596066
0.00525807635858655,0.007154508959501982,-0.011409283615648746,0.004873324651271105,-0.0,0.004828886594623327
0.005162530578672886,0.006608239375054836,-0.011072704568505287,0.0045162951573729515,-0.0,0.004649387206882238
0.005123482085764408,0.006802006158977747,-0.011098469607532024,0.004477125126868486,-0.0,0.004876876249909401
0.005818582605570555,0.007440640591084957,-0.011123128235340118,0.0049154628068208694,-0.0,0.00495485495775938
0.005251146387308836,0.007709176279604435,-0.010872378014028072,0.004632964264601469,-0.0,0.005363157484680414
0.004934342578053474,0.00695672444999218,-0.01129074301570654,0.004502653609961271,-0.0,0.0055079651065170765
0.0050726840272545815,0.006791255436837673,-0.01105585228651762,0.004573996644467115,-0.0,0.00546674570068717
0.004905927460640669,0.006759601179510355,-0.01069327536970377,0.0045415847562253475,-0.0,0.00545984273776412
0.005538993515074253,0.0066863237880170345,-0.010915540158748627,0.0040238406509160995,-0.0,0.0053289481438696384
0.005538993515074253,0.0066863237880170345,-0.010915540158748627,0.0040238406509160995,-0.0,0.0053289481438696384
0.005020534619688988,0.006755778566002846,-0.011262206360697746,0.004208635538816452,-0.0,0.005318456329405308
0.005015872418880463,0.006811146624386311,-0.01138775609433651,0.004331601783633232,-0.0,0.005104424431920052
0.005222697276622057,0.007497968152165413,-0.010399027727544308,0.004454582463949919,-0.0,0.005153545178472996
0.0046861437149345875,0.006804930046200752,-0.010658864863216877,0.0045414757914841175,-0.0,0.005034842062741518
0.00502392090857029,0.0064613413996994495,-0.011150047183036804,0.004218169488012791,-0.0,0.005656789988279343
0.005422899033874273,0.00675229262560606,-0.010926254093647003,0.0038871264550834894,-0.0,0.006122433114796877
0.0050762915052473545,0.0070700799115002155,-0.011796467006206512,0.0041585518047213554,-0.0,0.005272132344543934
0.005467268638312817,0.007531621027737856,-0.01116212923079729,0.004482414573431015,-0.0,0.004763801582157612
0.005156818777322769,0.006910611875355244,-0.01093206461519003,0.004478790331631899,-0.0,0.004745355807244778
0.004954464267939329,0.006522969342768192,-0.01112061645835638,0.004514873493462801,-0.0,0.005340939853340387
0.005174230318516493,0.006672232411801815,-0.010632678866386414,0.0045386068522930145,-0.0,0.005553198512643576
0.00518233934417367,0.007364681921899319,-0.011357063427567482,0.004172489978373051,-0.0,0.005272200796753168
0.005010269582271576,0.0071389274671673775,-0.011553365737199783,0.004343969281762838,-0.0,0.0050314501859247684
0.005530011374503374,0.006666704546660185,-0.011204764246940613,0.004156866576522589,-0.0,0.004895451478660107
0.005230176728218794,0.007001375779509544,-0.011753764934837818,0.004041309468448162,-0.0,0.005007840692996979
0.00515097426250577,0.0076815420761704445,-0.01175767369568348,0.004457450937479734,-0.0,0.004988440312445164
0.00515097426250577,0.0076815420761704445,-0.01175767369568348,0.004457450937479734,-0.0,0.004988440312445164
0.005803103558719158,0.007228177972137928,-0.011223926208913326,0.004952740389853716,-0.0,0.005231879651546478
0.0053461575880646706,0.0068188621662557125,-0.0110603803768754,0.004915656056255102,-0.0,0.005260278470814228
0.005343366414308548,0.007146365009248257,-0.011598091572523117,0.004295383580029011,-0.0,0.005274410359561443
0.005471245851367712,0.008089659735560417,-0.011581247672438622,0.0040879687294363976,-0.0,0.00517755001783371
0.005145725794136524,0.007233410608023405,-0.01179646048694849,0.004684322513639927,-0.0,0.005245585460215807
0.005432124715298414,0.005987310782074928,-0.012120447121560574,0.004883262328803539,-0.0,0.005276074633002281
0.005471346899867058,0.007782910019159317,-0.010604707524180412,0.00479144137352705,-0.0,0.0052728913724422455
0.0054571605287492275,0.006814986001700163,-0.011744954623281956,0.004671436734497547,-0.0,0.0058076102286577225
0.0054571605287492275,0.006814986001700163,-0.011744954623281956,0.004671436734497547,-0.0,0.0058076102286577225
0.005696178879588842,0.007340133655816317,-0.011073924601078033,0.004308026749640703,-0.0,0.005797460675239563
0.00571055943146348,0.007499030791223049,-0.0112365847453475,0.0040063499473035336,-0.0,0.005527624394744635
0.005705054383724928,0.007446432486176491,-0.010913235135376453,0.004432534333318472,-0.0,0.0053711868822574615
0.005232215393334627,0.007493547163903713,-0.01132937427610159,0.004618613049387932,-0.0,0.005344899371266365
0.005003873724490404,0.006910108495503664,-0.011101099662482738,0.004338766448199749,-0.0,0.005551772657781839
0.005193364340811968,0.007297851145267487,-0.010607585310935974,0.004413052927702665,-0.0,0.0052301911637187
0.005495497491210699,0.00753021938726306,-0.011739568784832954,0.004506068769842386,-0.0,0.005224145483225584
0.006154303438961506,0.0072410437278449535,-0.011959847994148731,0.004577952437102795,-0.0,0.005542205646634102
0.005309833213686943,0.007039601448923349,-0.011834743432700634,0.0043593053705990314,-0.0,0.005655752494931221
0.00550874462351203,0.007203957997262478,-0.011408042162656784,0.004582392051815987,-0.0,0.005765972658991814
0.005273202899843454,0.007287462241947651,-0.01060254592448473,0.004634978249669075,-0.0,0.005297885276377201
0.006013156846165657,0.006978090386837721,-0.009404690004885197,0.0046234093606472015,-0.0,0.0056801242753863335
0.005579538643360138,0.007270417641848326,-0.011228601448237896,0.004200211726129055,-0.0,0.005377915687859058
0.005903851706534624,0.007548983674496412,-0.010625521652400494,0.0043224431574344635,-0.0,0.006025537382811308
0.0054411087185144424,0.0076940529979765415,-0.010795697569847107,0.004181812517344952,-0.0,0.005826887674629688
0.005945510230958462,0.007009486202150583,-0.010648061521351337,0.004361771512776613,-0.0,0.005682327784597874
0.005510029848664999,0.006580353248864412,-0.010243668220937252,0.004275118000805378,-0.0,0.005376530345529318
0.005986526608467102,0.006095625460147858,-0.01094649825245142,0.004309019073843956,-0.0,0.005200330168008804
0.0055031441152095795,0.006830093916505575,-0.010539072565734386,0.004216980189085007,-0.0,0.005515694618225098
0.0058868988417088985,0.0068810563534498215,-0.01070044282823801,0.0044090840965509415,-0.0,0.006244409363716841
0.005769507028162479,0.006586895324289799,-0.010918088257312775,0.004606899805366993,-0.0,0.00629994785413146
0.005654880777001381,0.006516770459711552,-0.009921175427734852,0.004741795361042023,-0.0,0.005571190267801285
0.005298583768308163,0.006755962036550045,-0.010733656585216522,0.004739382304251194,-0.0,0.00530616519972682
0.005899559240788221,0.006571232806891203,-0.010164367035031319,0.004726155195385218,-0.0,0.005495098419487476
0.005899559240788221,0.006571232806891203,-0.010164367035031319,0.004726155195385218,-0.0,0.005495098419487476
0.005885490216314793,0.006290647201240063,-0.010431732051074505,0.004676518961787224,-0.0,0.0057404497638344765
0.006203129887580872,0.0070935748517513275,-0.011205102317035198,0.0045430767349898815,-0.0,0.005832691211253405
0.005689030047506094,0.006601071450859308,-0.010235871188342571,0.004404794424772263,-0.0,0.005503373686224222
0.006567319855093956,0.006094592623412609,-0.010768117383122444,0.00459587387740612,-0.0,0.0052079795859754086
0.006124136969447136,0.006042106542736292,-0.010152109898626804,0.004682871047407389,-0.0,0.0056328075006604195
0.005902380216866732,0.00626763142645359,-0.011073451489210129,0.004376283846795559,-0.0,0.0056149642914533615
0.00622501689940691,0.006577636115252972,-0.01122237741947174,0.004409618675708771,-0.0,0.005958457011729479
0.0057574245147407055,0.006602294743061066,-0.01124323159456253,0.004203133750706911,-0.0,0.006126604974269867
0.00651665311306715,0.0059777917340397835,-0.011399147100746632,0.004240162204951048,-0.0,0.005686821416020393
0.0065309531055390835,0.006218574475497007,-0.011021419428288937,0.004272717051208019,-0.0,0.0059082480147480965
0.006133319344371557,0.006113085430115461,-0.01103972177952528,0.004807506687939167,-0.0,0.0060616047121584415
0.006219096481800079,0.006474179681390524,-0.01115113403648138,0.004866132512688637,-0.0,0.006225624121725559
0.006019221153110266,0.0065490929409861565,-0.011078780516982079,0.004548021592199802,-0.0,0.006264644209295511
0.006120313890278339,0.005724253598600626,-0.011669614352285862,0.0044272770173847675,-0.0,0.005624298006296158
0.006550125777721405,0.005871511530131102,-0.010671164840459824,0.004191904328763485,-0.0,0.0058282483369112015
0.006653791759163141,0.006474608089774847,-0.010540137067437172,0.004318426363170147,-0.0,0.005641849245876074
0.005954735446721315,0.006751003675162792,-0.01131090335547924,0.004424214828759432,-0.0,0.005716792307794094
0.006704867351800203,0.006260458845645189,-0.010881379246711731,0.004392026457935572,-0.0,0.0053504882380366325
0.006463892757892609,0.006121329963207245,-0.01002721581608057,0.004595997743308544,-0.0,0.00578374182805419
0.006065908819437027,0.00641458947211504,-0.010758087038993835,0.004546458832919598,-0.0,0.005603266414254904
0.006232526618987322,0.0062490045092999935,-0.010360727086663246,0.00459669902920723,-0.0,0.005909419152885675
0.005704747512936592,0.006462337914854288,-0.010206243023276329,0.0046475850977003574,-0.0,0.005956435110419989
0.006144161336123943,0.006623078603297472,-0.01085082720965147,0.004521972965449095,-0.0,0.005887137725949287
0.006342233624309301,0.0058546666987240314,-0.010710869915783405,0.004331148229539394,-0.0,0.005608053877949715
0.006507088430225849,0.006008875090628862,-0.011232905089855194,0.004392954986542463,-0.0,0.0057545923627913
0.006166224833577871,0.006374210584908724,-0.011139213107526302,0.004552561789751053,-0.0,0.005881965160369873
0.006166224833577871,0.006374210584908724,-0.011139213107526302,0.004552561789751053,-0.0,0.005881965160369873
0.007204579655081034,0.005968586076050997,-0.01183001697063446,0.004415933042764664,-0.0,0.0064146071672439575
0.007058657240122557,0.006447948981076479,-0.010553152300417423,0.004488165024667978,-0.0,0.00657996628433466
0.006195275112986565,0.0062208352610468864,-0.009882819838821888,0.004247676581144333,-0.0,0.006063814274966717
0.006364332512021065,0.006422998383641243,-0.010984344407916069,0.004329434130340815,-0.0,0.0062994626350700855
0.006008220836520195,0.006399187259376049,-0.01081043854355812,0.004486733116209507,-0.0,0.006043711677193642
0.006471843924373388,0.0059540243819355965,-0.010704057291150093,0.0046265628188848495,-0.0,0.005985030438750982
0.006687680259346962,0.005989432334899902,-0.010867441073060036,0.004658875055611134,-0.0,0.006324226502329111
0.006644123699516058,0.005916580557823181,-0.010256988927721977,0.004491223953664303,-0.0,0.0060842339880764484
0.005849982611835003,0.006083417683839798,-0.010272176936268806,0.004329273011535406,-0.0,0.005949854850769043
0.006259182933717966,0.006557371933013201,-0.010504425503313541,0.004328003153204918,-0.0,0.006080432794988155
0.006731519475579262,0.006008533760905266,-0.00989578291773796,0.004213079810142517,-0.0,0.005724509246647358
0.006466950289905071,0.00582844065502286,-0.011091663502156734,0.003997836261987686,-0.0,0.006233961787074804
0.006190516985952854,0.006222893018275499,-0.011037128046154976,0.004281169269233942,-0.0,0.006202938035130501
0.0062057338654994965,0.0061537278816103935,-0.010473672300577164,0.004183569923043251,-0.0,0.006034292746335268
0.006760471034795046,0.006342706736177206,-0.01096060499548912,0.004434879403561354,-0.0,0.005982214119285345
0.007336949929594994,0.005678566172719002,-0.010353623889386654,0.004651957657188177,-0.0,0.00599872600287199
0.0069612544029951096,0.005892788991332054,-0.010639072395861149,0.004647248890250921,-0.0,0.006345073226839304
0.006315930280834436,0.006370599381625652,-0.010642940178513527,0.0046617635525763035,-0.0,0.006370821967720985
0.006671817973256111,0.006218896247446537,-0.010326951742172241,0.004465400706976652,-0.0,0.007469150237739086
0.0069742402993142605,0.006330142728984356,-0.011275639757514,0.004521433264017105,-0.0,0.0072922599501907825
0.006938420236110687,0.005983756855130196,-0.010662904940545559,0.004249760881066322,-0.0,0.0058137900196015835
0.006308380514383316,0.00564973521977663,-0.011213080957531929,0.004185011610388756,-0.0,0.005954877007752657
0.006308380514383316,0.00564973521977663,-0.011213080957531929,0.004185011610388756,-0.0,0.005954877007752657
0.0066645145416259766,0.006021431181579828,-0.010342475026845932,0.004356111399829388,-0.0,0.006521127186715603
0.006957546342164278,0.006551321595907211,-0.009850183501839638,0.0041192020289599895,-0.0,0.006497497204691172
0.007004035636782646,0.005932806525379419,-0.0110709797590971,0.004412629641592503,-0.0,0.00620015524327755
0.007004035636782646,0.005932806525379419,-0.0110709797590971,0.004412629641592503,-0.0,0.00620015524327755
0.006989068817347288,0.006035922560840845,-0.010493656620383263,0.004683676175773144,-0.0,0.006246218457818031
0.007248849142342806,0.00611510407179594,-0.010756662115454674,0.00506953988224268,-0.0,0.006533222738653421
0.00722136814147234,0.006286481861025095,-0.009979591704905033,0.0046520228497684,-0.0,0.006596670486032963
0.006639529950916767,0.006202152464538813,-0.010630449280142784,0.004621004220098257,-0.0,0.006606110837310553
0.007019113749265671,0.0059835780411958694,-0.010933257639408112,0.004654201678931713,-0.0,0.006547954399138689
0.007460648659616709,0.006195579655468464,-0.011055593378841877,0.004705569241195917,-0.0,0.006735524162650108
0.007513026241213083,0.006975112948566675,-0.011243107728660107,0.004675601609051228,-0.0,0.006549869664013386
0.006993309129029512,0.0063438331708312035,-0.010973935015499592,0.0046838452108204365,-0.0,0.00662824884057045
0.007355229463428259,0.00602381769567728,-0.01103129331022501,0.005037388764321804,-0.0,0.00629857974126935
0.007943855598568916,0.006497739348560572,-0.011432340368628502,0.004854741971939802,-0.0,0.006408995948731899
0.00716346874833107,0.006186360027641058,-0.010734301060438156,0.004845255520194769,-0.0,0.006639366503804922
0.006801891606301069,0.006462437566369772,-0.010819867253303528,0.004726748447865248,-0.0,0.006341174244880676
0.007092559244483709,0.0063394238241016865,-0.010908042080700397,0.004636014811694622,-0.0,0.006092490162700415
0.007411791943013668,0.006554548162966967,-0.010714625008404255,0.0041999840177595615,-0.0,0.0062980432994663715
0.00706291850656271,0.006160228047519922,-0.011485728435218334,0.004401739686727524,-0.0,0.006635045167058706
0.006925956811755896,0.006440337747335434,-0.01070335227996111,0.004611444193869829,-0.0,0.007062080316245556
0.007167189382016659,0.006621855311095715,-0.010414475575089455,0.0045621334575116634,-0.0,0.006714503280818462
0.007424098439514637,0.00629060436040163,-0.010801204480230808,0.004872798919677734,-0.0,0.006939159706234932
0.007076002191752195,0.0062508913688361645,-0.010852386243641376,0.00484645739197731,-0.0,0.006959838327020407
0.007353323511779308,0.006268008146435022,-0.01158981304615736,0.004736825358122587,-0.0,0.007107784040272236
0.007079922128468752,0.006277466658502817,-0.011331938207149506,0.0042812759056687355,-0.0,0.007074757944792509
0.0080229127779603,0.006226484198123217,-0.011115933768451214,0.004367563407868147,-0.0,0.00705606397241354
0.007697887718677521,0.006079868879169226,-0.011356993578374386,0.004568975884467363,-0.0,0.006959791760891676
0.007411719765514135,0.006176818162202835,-0.011218692176043987,0.004992224741727114,-0.0,0.007113644387573004
0.007617761380970478,0.006772768218070269,-0.011639174073934555,0.0045355805195868015,-0.0,0.006748453248292208
0.007414960768073797,0.0062628877349197865,-0.011133158579468727,0.004534589592367411,-0.0,0.007160703651607037
0.007295546587556601,0.006051977630704641,-0.011228897608816624,0.0046620420180261135,-0.0,0.007412545848637819
0.007295546587556601,0.006051977630704641,-0.011228897608816624,0.0046620420180261135,-0.0,0.007412545848637819
0.007590232416987419,0.006594042293727398,-0.011157223954796791,0.004599185194820166,-0.0,0.006619132589548826
0.008123897947371006,0.006676139310002327,-0.010590258985757828,0.0044602942653000355,-0.0,0.0062517281621694565
0.008232028223574162,0.00641203997656703,-0.010905730538070202,0.004956318996846676,-0.0,0.0064769829623401165
0.007769078481942415,0.00600924389436841,-0.010618764907121658,0.004874151665717363,-0.0,0.006792112719267607
0.007516820915043354,0.0056859394535422325,-0.010687503032386303,0.004797462373971939,-0.0,0.0071210493333637714
0.00811244547367096,0.005854445975273848,-0.011037906631827354,0.004506263416260481,-0.0,0.006801381707191467
0.007726018782705069,0.006456335075199604,-0.010752210393548012,0.004262831062078476,-0.0,0.006760082207620144
0.007402203977108002,0.006065231282263994,-0.011030055582523346,0.004725859500467777,-0.0,0.006681982893496752
0.007868529297411442,0.005927087739109993,-0.010881953872740269,0.005002779420465231,-0.0,0.0067761060781776905
0.008116312325000763,0.005634976085275412,-0.010692163370549679,0.005143009591847658,-0.0,0.006784096825867891
0.007877463474869728,0.005771159660071135,-0.011403760872781277,0.004962646868079901,-0.0,0.006692545022815466
0.008086740039288998,0.006243494339287281,-0.010500743985176086,0.004761379677802324,-0.0,0.007087930105626583
0.008437925018370152,0.006230084225535393,-0.010465987958014011,0.004350723698735237,-0.0,0.007432726211845875
0.008030642755329609,0.006142242345958948,-0.011222239583730698,0.004409183282405138,-0.0,0.0071352082304656506
0.008003460243344307,0.005557000171393156,-0.01077299378812313,0.004634522367268801,-0.0,0.00735401501879096
0.008009564131498337,0.005807399284094572,-0.010776390321552753,0.004674187395721674,-0.0,0.00749048450961709
0.008807111531496048,0.006486367434263229,-0.010887518525123596,0.004650208167731762,-0.0,0.007483863737434149
0.00820975936949253,0.005984438117593527,-0.010015766136348248,0.004589329473674297,-0.0,0.007741929963231087
0.007810363546013832,0.005807918030768633,-0.010463793762028217,0.00500908400863409,-0.0,0.007436253130435944
0.00810302048921585,0.005326494108885527,-0.010778944939374924,0.005056934896856546,-0.0,0.007043478079140186
0.008343931287527084,0.0057087792083621025,-0.010655123740434647,0.004733416251838207,-0.0,0.0074751898646354675
0.00827760249376297,0.005764049477875233,-0.011251905001699924,0.005313344299793243,-0.0,0.007071629632264376
0.007802262902259827,0.006314990576356649,-0.010701842606067657,0.005339598748832941,-0.0,0.007308147381991148
0.007802262902259827,0.006314990576356649,-0.010701842606067657,0.005339598748832941,-0.0,0.007308147381991148
0.008509427309036255,0.005620802752673626,-0.010250424034893513,0.005365134682506323,-0.0,0.0074873194098472595
0.008378514088690281,0.0055155265145003796,-0.010873542167246342,0.004977232776582241,-0.0,0.00788015779107809
0.008334914222359657,0.006045505404472351,-0.010653494857251644,0.004886646289378405,-0.0,0.0070976149290800095
0.00834543164819479,0.006588412914425135,-0.011628526262938976,0.005178546067327261,-0.0,0.006550993770360947
0.008299046196043491,0.005723245441913605,-0.010472908616065979,0.004995045717805624,-0.0,0.007082222029566765
0.00824808981269598,0.005283616483211517,-0.010945731773972511,0.004912863485515118,-0.0,0.00819811038672924
0.008935517631471157,0.0054563675075769424,-0.0107038589194417,0.005192379001528025,-0.0,0.008270478807389736
0.009019894525408745,0.005346980411559343,-0.010307012125849724,0.005053025670349598,-0.0,0.007715481333434582
0.008440856821835041,0.005768590606749058,-0.01067707221955061,0.004930166993290186,-0.0,0.007612129207700491
0.008506221696734428,0.005743828136473894,-0.010530488565564156,0.005062563810497522,-0.0,0.007503434084355831
0.008953660726547241,0.005623126868158579,-0.010557021014392376,0.004656661301851273,-0.0,0.007476022932678461
0.008597252890467644,0.005448259878903627,-0.011096063069999218,0.004620324354618788,-0.0,0.007911724969744682
0.008985421620309353,0.005662973504513502,-0.010801127180457115,0.004924312699586153,-0.0,0.00904142577201128
0.008857171051204205,0.006192367989569902,-0.010951213538646698,0.005025289487093687,-0.0,0.00845565926283598
0.008806830272078514,0.006021522451192141,-0.01065937988460064,0.005142559297382832,-0.0,0.00703453877940774
0.008969863876700401,0.005598451942205429,-0.010003683157265186,0.0054620010778307915,-0.0,0.007035546936094761
0.009359611198306084,0.005191989243030548,-0.010815568268299103,0.005440321285277605,-0.0,0.007722755894064903
0.009254606440663338,0.005691879894584417,-0.01040768250823021,0.0053150891326367855,-0.0,0.0082207340747118
0.008578130975365639,0.005492285825312138,-0.010793412104249,0.005048347637057304,-0.0,0.008313469588756561
0.009326808154582977,0.006464274600148201,-0.011137926951050758,0.005064735189080238,-0.0,0.00783103983849287
0.009058515541255474,0.0058533730916678905,-0.010899357497692108,0.005587171763181686,-0.0,0.007856312207877636
0.008704538457095623,0.005274079740047455,-0.010327364318072796,0.005688706412911415,-0.0,0.00795302726328373
0.009009785950183868,0.005384918302297592,-0.01069134846329689,0.005589089822024107,-0.0,0.007878500036895275
0.00881457794457674,0.006033016834408045,-0.010592358186841011,0.0050415280275046825,-0.0,0.00878900196403265
0.00869325827807188,0.006582270842045546,-0.010547569021582603,0.005365585442632437,-0.0,0.008210506290197372
0.008414599113166332,0.00603055115789175,-0.010579426772892475,0.005219346843659878,-0.0,0.008063084445893764
0.00895819254219532,0.005727425217628479,-0.010504228062927723,0.005205445922911167,-0.0,0.007817937061190605
0.00895819254219532,0.005727425217628479,-0.010504228062927723,0.005205445922911167,-0.0,0.007817937061190605
0.008991241455078125,0.005362987983971834,-0.010992218740284443,0.0058606755919754505,-0.0,0.008096147328615189
0.008411196060478687,0.006392492912709713,-0.010219855234026909,0.005438105668872595,-0.0,0.008126222528517246
0.008911552838981152,0.005927129648625851,-0.011018396355211735,0.0051931170746684074,-0.0,0.008116082288324833
0.008676739409565926,0.006020574364811182,-0.010173211805522442,0.005030720494687557,-0.0,0.008103080093860626
0.008704203180968761,0.0055143809877336025,-0.010317330248653889,0.00521165132522583,-0.0,0.007856374606490135
0.009228222072124481,0.005784139968454838,-0.011098790913820267,0.005114111118018627,-0.0,0.008219866082072258
0.009052244946360588,0.006419338285923004,-0.0101557532325387,0.005364380776882172,-0.0,0.00861913338303566
0.008734666742384434,0.006069470196962357,-0.010040847584605217,0.005318513140082359,-0.0,0.008384146727621555
0.009251732379198074,0.005982455797493458,-0.010594191960990429,0.005064822267740965,-0.0,0.008184749633073807
0.008981579914689064,0.005883233156055212,-0.010008122771978378,0.005186785478144884,-0.0,0.008232190273702145
0.009489059448242188,0.006103941705077887,-0.011204005219042301,0.005508612375706434,-0.0,0.008494804613292217
0.00912554282695055,0.0065123350359499454,-0.011138961650431156,0.005717770662158728,-0.0,0.008277936838567257
0.009657435119152069,0.006255416665226221,-0.010608257725834846,0.005689822603017092,-0.0,0.00821295939385891
0.008842851035296917,0.0060174972750246525,-0.01201266422867775,0.006175410468131304,-0.0,0.00830179825425148
0.009130433201789856,0.006343560758978128,-0.011469890363514423,0.006001745350658894,-0.0,0.008296781219542027
0.00954788364470005,0.00591563293710351,-0.01052889134734869,0.006226368248462677,-0.0,0.008167814463376999
0.00961995404213667,0.006516803987324238,-0.010919239372015,0.005226885434240103,-0.0,0.008220371790230274
0.009533907286822796,0.005902102682739496,-0.010679705068469048,0.005755947437137365,-0.0,0.009103136137127876
0.009462918154895306,0.005707236006855965,-0.01138318795710802,0.006047391798347235,-0.0,0.008400902152061462
0.009626394137740135,0.006205407902598381,-0.010862335562705994,0.0056115612387657166,-0.0,0.00849925260990858
0.009251232258975506,0.005932309199124575,-0.010648912750184536,0.005727684125304222,-0.0,0.008559362031519413
0.010074521414935589,0.006427261978387833,-0.01187768206000328,0.00594439497217536,-0.0,0.008511978201568127
0.00968557596206665,0.005763307213783264,-0.010329166427254677,0.005794169846922159,-0.0,0.008824224583804607
0.009334377944469452,0.005725559778511524,-0.011341368779540062,0.005704259965568781,-0.0,0.008576327934861183
0.010644166730344296,0.006397359073162079,-0.011854440905153751,0.0055516804568469524,-0.0,0.00858805887401104
0.00986917968839407,0.005873207468539476,-0.010791721753776073,0.005708301439881325,-0.0,0.008292905986309052
0.010089077986776829,0.0064242566004395485,-0.011184423230588436,0.005673957522958517,-0.0,0.008344265632331371
0.00928618386387825,0.005827583372592926,-0.011375759728252888,0.005582334008067846,-0.0,0.008968835696578026
0.009567389264702797,0.005819953512400389,-0.011668921448290348,0.005542590282857418,-0.0,0.008533729240298271
0.010143880732357502,0.006425566039979458,-0.011797810904681683,0.005540177226066589,-0.0,0.008566148579120636
0.010143880732357502,0.006425566039979458,-0.011797810904681683,0.005540177226066589,-0.0,0.008566148579120636
0.009954186156392097,0.006364018656313419,-0.012120853178203106,0.005884803365916014,-0.0,0.00921001099050045
0.009975656867027283,0.005823944695293903,-0.011603524908423424,0.005947479046881199,-0.0,0.009296528063714504
0.010364806279540062,0.005601099226623774,-0.011715346947312355,0.005862053018063307,-0.0,0.00891741830855608
0.010149972513318062,0.0054082972928881645,-0.01197883952409029,0.005540945567190647,-0.0,0.009700127877295017
0.010388138704001904,0.005574603099375963,-0.011361386626958847,0.005852970760315657,-0.0,0.009193637408316135
0.01049658190459013,0.006120078265666962,-0.01205990556627512,0.006394992582499981,-0.0,0.009440147317945957
0.0098258713260293,0.005799703299999237,-0.011718077585101128,0.00615115137770772,-0.0,0.00923321396112442
0.010217278264462948,0.0055968016386032104,-0.012013337574899197,0.006099327001720667,-0.0,0.008934149518609047
0.01056655403226614,0.005202539265155792,-0.011974742636084557,0.005907347425818443,-0.0,0.008610430173575878
0.010829418897628784,0.005285254213958979,-0.01112336851656437,0.006337882485240698,-0.0,0.009017113596200943
0.010469228029251099,0.005609400104731321,-0.01159744430333376,0.006565690040588379,-0.0,0.009074104018509388
0.010615185834467411,0.005970294121652842,-0.011315681040287018,0.006333229131996632,-0.0,0.009228440001606941
0.010044618509709835,0.005759945139288902,-0.011751660145819187,0.005540254060178995,-0.0,0.009839418344199657
0.010374492965638638,0.005543474107980728,-0.011963266879320145,0.005912200082093477,-0.0,0.008751139044761658
0.009943448938429356,0.005514063872396946,-0.011112307198345661,0.005980235058814287,-0.0,0.008398535661399364
0.010529687628149986,0.006068993825465441,-0.01203125063329935,0.006232281681150198,-0.0,0.009066055528819561
0.011130375787615776,0.006002459209412336,-0.011929957196116447,0.006055840291082859,-0.0,0.010211211629211903
0.01026470959186554,0.00579912168905139,-0.01213044486939907,0.005968089681118727,-0.0,0.009337658993899822
0.01025258656591177,0.005614591296762228,-0.011847468093037605,0.006036214996129274,-0.0,0.00945708155632019
0.010697933845221996,0.005722375120967627,-0.011748052202165127,0.006006850861012936,-0.0,0.009350609965622425
0.010492412373423576,0.005627884529531002,-0.01237280759960413,0.006516268942505121,-0.0,0.009489883668720722
0.010420343838632107,0.005918032024055719,-0.011303971521556377,0.006258874665945768,-0.0,0.00923149287700653
0.010309410281479359,0.005871073342859745,-0.011946533806622028,0.005637946538627148,-0.0,0.009319706819951534
0.01160530373454094,0.005186752416193485,-0.011584252119064331,0.005958632566034794,-0.0,0.00948791578412056
0.010576111264526844,0.005180572625249624,-0.011328828521072865,0.0061902860179543495,-0.0,0.009485116228461266
0.010576111264526844,0.005180572625249624,-0.011328828521072865,0.0061902860179543495,-0.0,0.009485116228461266
0.010354912839829922,0.005315153859555721,-0.011335009709000587,0.0065344469621777534,-0.0,0.01010636892169714
0.010297837667167187,0.004863120149821043,-0.011599197052419186,0.00591406412422657,-0.0,0.009652593173086643
0.010297837667167187,0.004863120149821043,-0.011599197052419186,0.00591406412422657,-0.0,0.009652593173086643
0.010414635762572289,0.0051468294113874435,-0.01156523171812296,0.006166934967041016,-0.0,0.009740231558680534
0.010912219062447548,0.005090894177556038,-0.011991914361715317,0.00637088855728507,-1.8262912817590404e-06,0.010015302337706089
0.011162555776536465,0.005236450582742691,-0.011928395368158817,0.00607314333319664,-1.1924376508432033e-07,0.010270649567246437
0.01071289461106062,0.00559617392718792,-0.011792388744652271,0.006015409249812365,-7.78576669802078e-09,0.009830200113356113
0.010689690709114075,0.005141048692166805,-0.011448029428720474,0.006018482614308596,-5.083549137196997e-10,0.009529240429401398
0.010550449602305889,0.005156994331628084,-0.01125759445130825,0.006372473202645779,-3.3191945719712734e-11,0.010051121935248375
0.01105473656207323,0.005410582292824984,-0.012083252891898155,0.006710817106068134,-2.1671967605912945e-12,0.009474051184952259
0.010971925221383572,0.005183442961424589,-0.012017722241580486,0.0066454303450882435,-1.4150246458507348e-13,0.00985320471227169
0.010201048105955124,0.005484959110617638,-0.011684257537126541,0.006444015074521303,-9.239099963602795e-15,0.010315567255020142
0.010811707936227322,0.005151848308742046,-0.011606561951339245,0.00637154933065176,-6.032472300347377e-16,0.009370780549943447
0.011348733678460121,0.004885531961917877,-0.011472897604107857,0.006788080092519522,-3.938773349648441e-17,0.009552096016705036
0.010659102350473404,0.005062713287770748,-0.012150442227721214,0.006493711844086647,-2.571737198061559e-18,0.00986183900386095
0.010904558002948761,0.005121001973748207,-0.0114840567111969,0.006090597249567509,-1.6791608753522194e-19,0.010618497617542744
0.01061076857149601,0.005130578298121691,-0.011549760587513447,0.0062186941504478455,-1.0963720834035622e-20,0.01065987627953291
0.011200026609003544,0.005511466413736343,-0.011528879404067993,0.00681050680577755,-7.158526236145996e-22,0.010340794920921326
0.01152533944696188,0.005164532922208309,-0.01173380110412836,0.0067901527509093285,-4.6740062276886504e-23,0.010120488703250885
0.010944919660687447,0.0047151376493275166,-0.011963707394897938,0.006422431208193302,-3.0517920311034376e-24,0.01027810201048851
0.011852463707327843,0.004595430102199316,-0.011557171121239662,0.00630268594250083,-1.992602002906187e-25,0.010756385512650013
0.010616744868457317,0.004711456131190062,-0.012090904638171196,0.006744781509041786,-1.301026690894216e-26,0.010258872993290424
0.010898815467953682,0.005091519095003605,-0.012372507713735104,0.006942874286323786,-8.494775279941584e-28,0.010106206871569157
0.011701432056725025,0.005443427246063948,-0.012131634168326855,0.007056384813040495,-5.54648083201594e-29,0.01054016686975956
0.011070171371102333,0.00506083806976676,-0.01192254014313221,0.006518158596009016,-3.6214558490076504e-30,0.010384599678218365
0.011126728728413582,0.004888450261205435,-0.011488744989037514,0.006408032961189747,-2.3645517905632327e-31,0.01010637916624546
0.011261322535574436,0.004756614100188017,-0.01214300561696291,0.006897896062582731,-1.5438834070472473e-32,0.01071900688111782
0.011100417003035545,0.004847494885325432,-0.011249675415456295,0.007394278421998024,-1.0080455478896373e-33,0.010479625314474106
0.011100417003035545,0.004847494885325432,-0.011249675415456295,0.007394278421998024,-1.0080455478896373e-33,0.010479625314474106
0.011205832473933697,0.004811443854123354,-0.011922420933842659,0.006876147817820311,-0.00016268080798909068,0.010423175990581512
0.011251579038798809,0.005068445112556219,-0.011524325236678123,0.006575405597686768,-0.00020255500567145646,0.009772935882210732
0.011373075656592846,0.004624705296009779,-0.012008762918412685,0.006909663323312998,-0.00019928500114474446,0.010603918693959713
0.01117365900427103,0.004969941917806864,-0.011528218165040016,0.006586930714547634,-0.00022236353834159672,0.010313653387129307
0.011347987689077854,0.004979087505489588,-0.012108179740607738,0.006574626080691814,-0.00023960424005053937,0.009936599060893059
0.011733553372323513,0.004825665149837732,-0.011900689452886581,0.00643184594810009,-0.00023902034445200115,0.01034431904554367
0.01140587031841278,0.004688907414674759,-0.011857731267809868,0.0069298408925533295,-0.0004898852785117924,0.011411787010729313
0.011343316175043583,0.005036426242440939,-0.012198599986732006,0.006994825787842274,-0.0005919886752963066,0.009698879905045033
0.01085740514099598,0.004959214944392443,-0.01213021483272314,0.006640047766268253,-0.0006277172942645848,0.00960971787571907
0.011540907435119152,0.004715198650956154,-0.012010241858661175,0.006404703017324209,-0.0006536684813909233,0.010368356481194496
0.011249997653067112,0.00469518406316638,-0.011824107728898525,0.006505721248686314,-0.0006181529606692493,0.010323199443519115
0.012083036825060844,0.004815822001546621,-0.012140817940235138,0.007116334047168493,-0.0007887656684033573,0.010851139202713966
0.013397924602031708,0.0047699823044240475,-0.01217509526759386,0.00702855596318841,-0.0008026703726500273,0.011112694628536701
0.013001992367208004,0.004715383518487215,-0.011929758824408054,0.006921983789652586,-0.0007273824303410947,0.011048759333789349
0.013084067031741142,0.00471934350207448,-0.01259919535368681,0.0065935272723436356,-0.0007208224851638079,0.011014311574399471
0.012583604082465172,0.0046911113895475864,-0.011973371729254723,0.00720418244600296,-0.0006682599778287113,0.010649722069501877
0.013630875386297703,0.004698289092630148,-0.012710288166999817,0.007289264351129532,-0.0006857917178422213,0.010715940035879612
0.012682495638728142,0.00465655792504549,-0.012248048558831215,0.007107612676918507,-0.0006309774471446872,0.01092800498008728
0.013015211559832096,0.0047142403200268745,-0.011958886869251728,0.006876170169562101,-0.0005813147872686386,0.011237078346312046
0.01310825813561678,0.005255162250250578,-0.012480051256716251,0.007169072981923819,-0.0005170407239347696,0.011516227386891842
0.01305003184825182,0.004830250050872564,-0.011952750384807587,0.007245754823088646,-0.0005498399841599166,0.011324269697070122
0.013307998888194561,0.004990116227418184,-0.012751447968184948,0.007192437537014484,-0.0005040877149440348,0.011097445152699947
0.013161763548851013,0.004976704716682434,-0.012253687717020512,0.006930691190063953,-0.000532747246325016,0.010860004462301731
0.013602692633867264,0.004840676672756672,-0.012684423476457596,0.007442732807248831,-0.0004954998148605227,0.01051540207117796
0.013195224106311798,0.0047280266880989075,-0.012505271472036839,0.007232827600091696,-0.0004596283833961934,0.011319946497678757
0.013427693396806717,0.005084695294499397,-0.012458011507987976,0.007138424087315798,-0.000473381660412997,0.011261958628892899
0.013192197307944298,0.005078326910734177,-0.012675473466515541,0.006831314414739609,-0.00045732740545645356,0.011060219258069992
0.01332553755491972,0.0048354933969676495,-0.01233003381639719,0.006883174646645784,-0.00043332812492735684,0.011212549172341824
0.01332553755491972,0.0048354933969676495,-0.01233003381639719,0.006883174646645784,-0.00043332812492735684,0.011212549172341824
0.01298024132847786,0.004969973582774401,-0.012667521834373474,0.006914957892149687,-0.0004225953889545053,0.012043910101056099
0.013188940472900867,0.004529236350208521,-0.013210623525083065,0.006734577938914299,-0.0004234237130731344,0.011498392559587955
0.013459526933729649,0.004563437309116125,-0.012950429692864418,0.007061318028718233,-0.0003946858341805637,0.011241629719734192
0.013537216000258923,0.00509323924779892,-0.01334337331354618,0.007471723016351461,-0.0004208951140753925,0.011379944160580635
0.013694670982658863,0.004971904214471579,-0.013467245735228062,0.007524231448769569,-0.0004013119905721396,0.011579792015254498
0.01370235439389944,0.004629713948816061,-0.013261346146464348,0.007088060956448317,-0.00040397985139861703,0.011198754422366619
0.013178718276321888,0.004703164100646973,-0.012960046529769897,0.007298338692635298,-0.00040547194657847285,0.01164462510496378
0.013742335140705109,0.004836038686335087,-0.012350880540907383,0.007874790579080582,-0.0003853508096653968,0.011447718366980553
0.013293181546032429,0.004798159934580326,-0.013151010498404503,0.0072576687671244144,-0.00036740940413437784,0.011670155450701714
0.013324813917279243,0.004774917382746935,-0.012278552167117596,0.006947256624698639,-0.0004062152002006769,0.011633774265646935
0.013078461401164532,0.004995549563318491,-0.013531990349292755,0.007111253682523966,-0.00037689608871005476,0.011327167972922325
0.01382153294980526,0.004874741658568382,-0.01295678224414587,0.007548268884420395,-0.0003480317536741495,0.01148337870836258
0.01337080541998148,0.004746823105961084,-0.013351291418075562,0.007419080939143896,-0.00035439550993032753,0.011250481940805912
0.013646110892295837,0.005083325318992138,-0.01284028496593237,0.007300910539925098,-0.00035950556048192084,0.011176316998898983
0.013665026985108852,0.004852786660194397,-0.012828883714973927,0.007380120921880007,-0.00033882010029628873,0.011272864416241646
0.013669626787304878,0.0047630369663238525,-0.013033265247941017,0.007530517876148224,-0.00034480125759728253,0.011902139522135258
0.01316240057349205,0.004925117827951908,-0.01261884905397892,0.008047850802540779,-0.00034954704460687935,0.01169758290052414
0.013614663854241371,0.004807878285646439,-0.01319696195423603,0.006931130774319172,-0.00033264761441387236,0.01159678865224123
0.013683435507118702,0.004715528339147568,-0.01233852468430996,0.006503093522042036,-0.0003380909620318562,0.012509764172136784
0.013548746705055237,0.004704712424427271,-0.013306882232427597,0.007213376462459564,-0.0003424449823796749,0.012254087254405022
0.013685510493814945,0.005081566981971264,-0.012865066528320312,0.0075943185947835445,-0.0003281700483057648,0.012419983744621277
0.013432414270937443,0.005110215861350298,-0.013123336248099804,0.007271733600646257,-0.00031394438701681793,0.012544216588139534
0.013547874987125397,0.004858996719121933,-0.01280693057924509,0.007111557759344578,-0.0003013896639458835,0.011390234343707561
0.013657365925610065,0.004741842392832041,-0.012999829836189747,0.007599507458508015,-0.00030047004111111164,0.011899072676897049
0.014292450621724129,0.0042741489596664906,-0.012974873185157776,0.007845212705433369,-0.0002828343422152102,0.012487024068832397
0.013852063566446304,0.005118498113006353,-0.013031364418566227,0.00724857859313488,-0.0002513127401471138,0.012746033258736134
0.013852063566446304,0.005118498113006353,-0.013031364418566227,0.00724857859313488,-0.0002513127401471138,0.012746033258736134
0.01354330126196146,0.005370469763875008,-0.012436309829354286,0.007513785269111395,-0.00028233640477992594,0.012852647341787815
0.013897147960960865,0.00511525571346283,-0.01308196410536766,0.008263424038887024,-0.0002710511034820229,0.013182277791202068
0.013840742409229279,0.0047336723655462265,-0.012904896400868893,0.007851156406104565,-0.00025827280478551984,0.012421001680195332
0.014167780987918377,0.0046785855665802956,-0.013627767562866211,0.00757057499140501,-0.00024649230181239545,0.012577257119119167
0.013653063215315342,0.00468770507723093,-0.012713657692074776,0.008172593079507351,-0.00027233612490817904,0.012398709543049335
0.014618155546486378,0.004929707385599613,-0.012717977166175842,0.008086387068033218,-0.00026333756977692246,0.013137012720108032
0.013773930259048939,0.004943688400089741,-0.012921963818371296,0.007826067507266998,-0.00027060011052526534,0.012643842026591301
0.014161806553602219,0.005236790981143713,-0.013584326021373272,0.007590237073600292,-0.0002766996913123876,0.012613395228981972
0.013855354860424995,0.004880267195403576,-0.013377366587519646,0.008074062876403332,-0.00026749641983769834,0.01250494085252285
0.014131858013570309,0.004451339598745108,-0.012770445086061954,0.008344645611941814,-0.00030642785714007914,0.012355891056358814
0.014012174680829048,0.004196334630250931,-0.013108589686453342,0.008359594270586967,-0.0003022936580237001,0.012937878258526325
0.014201178215444088,0.004976183641701937,-0.012922566384077072,0.00843860488384962,-0.00031192254391498864,0.01300890650600195
0.014120492152869701,0.0050260890275239944,-0.013446278870105743,0.008598164655268192,-0.00031901587499305606,0.012804180383682251
0.014706372283399105,0.004862369503825903,-0.01288113184273243,0.008652549237012863,-0.000302792846923694,0.012636841274797916
0.0144175561144948,0.004827273543924093,-0.013359546661376953,0.008798996917903423,-0.0003281856479588896,0.012772759422659874
0.014515463262796402,0.004297675099223852,-0.013033977709710598,0.009013015776872635,-0.00031732270144857466,0.012863999232649803
0.014595022425055504,0.004464844241738319,-0.013336680829524994,0.008565417490899563,-0.0003024548932444304,0.012921701185405254
0.014893620274960995,0.004524041898548603,-0.012936441227793694,0.008283346891403198,-0.0002886189322452992,0.01306530274450779
0.014412804506719112,0.004402706865221262,-0.013258722610771656,0.009296522475779057,-0.0003050988889299333,0.013097865507006645
0.01466861367225647,0.004600471816956997,-0.013248448260128498,0.009085424244403839,-0.00030148736550472677,0.013230291195213795
0.014281011186540127,0.005108649842441082,-0.01269608922302723,0.0087235476821661,-0.0002899437095038593,0.01304592378437519
0.014881390146911144,0.004903059918433428,-0.01310219056904316,0.008852789178490639,-0.00027898253756575286,0.013165785931050777
0.01431772019714117,0.004636150319129229,-0.012778794392943382,0.008814999833703041,-0.00033235165756195784,0.012941240333020687
0.014988219365477562,0.004510634113103151,-0.013422193005681038,0.008735050447285175,-0.00031400006264448166,0.013576498255133629
0.014988219365477562,0.004510634113103151,-0.013422193005681038,0.008735050447285175,-0.00031400006264448166,0.013576498255133629
0.01496564969420433,0.004711638670414686,-0.013405226171016693,0.008974905125796795,-0.00032350094988942146,0.014028611592948437
0.014660150744020939,0.005296346731483936,-0.012730098329484463,0.008684767410159111,-0.00031136174220591784,0.014058074913918972
0.015149244107306004,0.005427512805908918,-0.013291386887431145,0.008384368382394314,-0.0002947846660390496,0.013902190141379833
0.015149244107306004,0.005427512805908918,-0.013291386887431145,0.008384368382394314,-0.0002947846660390496,0.013902190141379833
0.015772908926010132,0.004409961402416229,-0.013262675143778324,0.008507609367370605,-0.00030967328348197043,0.013403799384832382
0.01578679122030735,0.004608395509421825,-0.01299157366156578,0.008209752850234509,-0.0002955053641926497,0.013168485835194588
0.015669843181967735,0.0046963170170784,-0.0124888326972723,0.00867858249694109,-0.00031722101266495883,0.013242721557617188
0.015667108818888664,0.004985354840755463,-0.013303647749125957,0.008848133496940136,-0.0003084222844336182,0.014213543385267258
0.015598556958138943,0.005126493982970715,-0.012720580212771893,0.00872090831398964,-0.0003689996665343642,0.01330917701125145
0.015765607357025146,0.0047722770832479,-0.013403162360191345,0.008690468035638332,-0.00035138119710609317,0.013473854400217533
0.015873713418841362,0.004692933522164822,-0.01274581253528595,0.008790748193860054,-0.0003873268433380872,0.013515193946659565
0.015843909233808517,0.0045430161990225315,-0.013263999484479427,0.008939653635025024,-0.00036513435770757496,0.013683675788342953
0.015541481785476208,0.0048758527263998985,-0.013226265087723732,0.008531145751476288,-0.0003842312435153872,0.013480094261467457
0.016192257404327393,0.005340509116649628,-0.01355564221739769,0.009272499941289425,-0.0003745097783394158,0.014210852794349194
0.01572885550558567,0.005309081170707941,-0.013450242578983307,0.009160175919532776,-0.00039809514419175684,0.014133557677268982
0.01593589223921299,0.004811982158571482,-0.013520884327590466,0.008241393603384495,-0.00038296249113045633,0.014223499223589897
0.016106152907013893,0.004571993835270405,-0.013174210675060749,0.008486933074891567,-0.0004976134514436126,0.014319109730422497
0.016418728977441788,0.004609490279108286,-0.012900291010737419,0.009039714001119137,-0.0005469266325235367,0.013949437066912651
0.016461964696645737,0.004691572859883308,-0.013585779815912247,0.008280259557068348,-0.0005485988804139197,0.013722976669669151
0.016131971031427383,0.00508221797645092,-0.013159655965864658,0.007989592850208282,-0.0005393870524130762,0.014368566684424877
0.0167083740234375,0.005144841969013214,-0.013649338856339455,0.00845156516879797,-0.0005653710104525089,0.014327670447528362
0.016353480517864227,0.00467781163752079,-0.012897045351564884,0.008975546807050705,-0.0007148514268919826,0.01437027845531702
0.016550831496715546,0.0048936158418655396,-0.01357010193169117,0.008566301316022873,-0.0007697453256696463,0.014314522035419941
0.016677644103765488,0.0048477742820978165,-0.013460972346365452,0.009301486425101757,-0.0007032107096165419,0.014762467704713345
0.01662314496934414,0.004831396508961916,-0.014178072102367878,0.00914811808615923,-0.0007133306935429573,0.014459441415965557
0.01682928577065468,0.004452885594218969,-0.013728813268244267,0.00898656528443098,-0.0006516810972243547,0.015074157156050205
0.016666628420352936,0.0045585050247609615,-0.014242975041270256,0.008952106349170208,-0.0006696280906908214,0.014895330183207989
0.01721242442727089,0.00512172095477581,-0.01338802371174097,0.009955107234418392,-0.0006173280999064445,0.015159127302467823
0.016837220638990402,0.004916022531688213,-0.014204377308487892,0.009313610382378101,-0.0005981865106150508,0.01499850768595934
0.016676990315318108,0.0044380235485732555,-0.014080417342483997,0.009448118507862091,-0.0005853052134625614,0.015064557082951069
0.016952626407146454,0.004460911266505718,-0.014059513807296753,0.009203351102769375,-0.0005696754669770598,0.014413555152714252
0.017858382314443588,0.004668678157031536,-0.013840898871421814,0.008952927775681019,-0.000510858662892133,0.014853918924927711
0.017117762938141823,0.004768421407788992,-0.01377859991043806,0.009511332027614117,-0.0005044991266913712,0.015537288971245289
0.01688004471361637,0.004732789471745491,-0.013681304641067982,0.009533682838082314,-0.0004691682115662843,0.015205158852040768
0.01688004471361637,0.004732789471745491,-0.013681304641067982,0.009533682838082314,-0.0004691682115662843,0.015205158852040768
0.017597606405615807,0.004702737554907799,-0.014106279239058495,0.009198743849992752,-0.000490661128424108,0.014884814620018005
0.017633730545639992,0.004629135597497225,-0.013560880906879902,0.00953545793890953,-0.00046623829985037446,0.014928270131349564
0.018152251839637756,0.004316860344260931,-0.013635269366204739,0.00944799929857254,-0.0004519236390478909,0.015256273560225964
0.017925256863236427,0.00447168480604887,-0.013881758786737919,0.009354695677757263,-0.00042318995110690594,0.015497401356697083
0.01808740384876728,0.004582347813993692,-0.014076920226216316,0.009652809239923954,-0.00038760676397942007,0.015589792281389236
0.018423957750201225,0.004788825288414955,-0.013827712275087833,0.010060434229671955,-0.0004232117207720876,0.015561873093247414
0.017589880153536797,0.004681052640080452,-0.014734727330505848,0.010114007629454136,-0.00039645307697355747,0.01552102342247963
0.017925845459103584,0.004371206276118755,-0.014502756297588348,0.010120518505573273,-0.0003695856430567801,0.016407890245318413
0.018010348081588745,0.004564773291349411,-0.014824154786765575,0.009959189221262932,-0.00038834608858451247,0.014642812311649323
0.018121708184480667,0.004655780736356974,-0.014100096188485622,0.00990189891308546,-0.0003782672283705324,0.014703407883644104
0.01884939707815647,0.005039032083004713,-0.014374300837516785,0.009995046071708202,-0.0003576511808205396,0.014964054338634014
0.018364740535616875,0.004993950016796589,-0.01361455675214529,0.009688826277852058,-0.0003384844458196312,0.015585968270897865
0.018471738323569298,0.004759836941957474,-0.014294777996838093,0.009208360686898232,-0.00036094963434152305,0.01536038238555193
0.018613699823617935,0.004609615076333284,-0.013038135133683681,0.009411909617483616,-0.0003488952061161399,0.015523196198046207
0.018287666141986847,0.004658432677388191,-0.014033636078238487,0.009589726105332375,-0.0003331060288473964,0.01529685128480196
0.01869823969900608,0.004721127916127443,-0.013888072222471237,0.00941545981913805,-0.0003183946537319571,0.015405561774969101
0.018556823953986168,0.004650450777262449,-0.01460961066186428,0.00975251104682684,-0.00031393763492815197,0.015402534045279026
0.01854732446372509,0.005205207038670778,-0.01409251056611538,0.010054768063127995,-0.00029537169029936194,0.01567688025534153
0.01892334781587124,0.005028801970183849,-0.014748474583029747,0.00976633932441473,-0.00027729556313715875,0.015710603445768356
0.019001124426722527,0.0047148182056844234,-0.013989020138978958,0.010270227678120136,-0.00026120105758309364,0.01605938747525215
0.018801597878336906,0.004637325182557106,-0.014283564873039722,0.010598283261060715,-0.0002928282192442566,0.01615207828581333
0.018990814685821533,0.004650800488889217,-0.01404139120131731,0.009807351976633072,-0.0002806047268677503,0.015762362629175186
0.01902378350496292,0.004716366529464722,-0.014710881747305393,0.009804602712392807,-0.00026692624669522047,0.016084227710962296
0.019062519073486328,0.004811915103346109,-0.013972997665405273,0.010261726565659046,-0.0002543618029449135,0.015970760956406593
0.019451672211289406,0.005097062326967716,-0.014501930214464664,0.009304576553404331,-0.00027799076633527875,0.01600777916610241
0.019451672211289406,0.005097062326967716,-0.014501930214464664,0.009304576553404331,-0.00027799076633527875,0.01600777916610241
0.01910705305635929,0.004824996460229158,-0.014985614456236362,0.010170171968638897,-0.00025998265482485294,0.01635715737938881
0.01964360661804676,0.005068804137408733,-0.014301272109150887,0.009454752318561077,-0.00024969695368781686,0.0165567547082901
0.019681451842188835,0.004938505124300718,-0.014842342585325241,0.010398770682513714,-0.00026555013027973473,0.016350451856851578
0.019469667226076126,0.004909508395940065,-0.014084304682910442,0.009957199916243553,-0.00026382316718809307,0.01645403355360031
0.01943579688668251,0.005036469548940659,-0.014580651186406612,0.009759679436683655,-0.00025500141782686114,0.016231544315814972
0.019614990800619125,0.004907731898128986,-0.014282340183854103,0.010312717407941818,-0.0002463109267409891,0.01646413840353489
0.019687296822667122,0.005263861268758774,-0.0147742610424757,0.010088751092553139,-0.0002662832848727703,0.01639559492468834
0.019687296822667122,0.005263861268758774,-0.0147742610424757,0.010088751092553139,-0.0002662832848727703,0.01639559492468834
0.019702592864632607,0.004879706539213657,-0.014841032214462757,0.009973378852009773,-0.00024210300762206316,0.016365159302949905
0.01970618963241577,0.005159958265721798,-0.014007643796503544,0.010594724677503109,-0.00025217639631591737,0.01651613786816597
0.019854720681905746,0.004949377384036779,-0.014862492680549622,0.010657306760549545,-0.00026077538495883346,0.016748543828725815
0.02018432877957821,0.004618728067725897,-0.014820590615272522,0.010436566546559334,-0.00025005670613609254,0.01661771535873413
0.019947562366724014,0.004397021606564522,-0.015130090527236462,0.010286335833370686,-0.00023907190188765526,0.01684974879026413
0.01958189345896244,0.0050408183597028255,-0.014433162286877632,0.010926824994385242,-0.00026449502911418676,0.01705247536301613
0.020184628665447235,0.004894564859569073,-0.014499668031930923,0.01058179046958685,-0.00025606167037039995,0.017429813742637634
0.020318705588579178,0.004880399908870459,-0.014410845935344696,0.010198589414358139,-0.00024620426120236516,0.017544740810990334
0.02032163366675377,0.0048227207735180855,-0.01496331486850977,0.010229614563286304,-0.0002619869774207473,0.015938974916934967
0.020948020741343498,0.004443114157766104,-0.014348452910780907,0.010127445682883263,-0.0002604103647172451,0.016429556533694267
0.020720696076750755,0.004561675246804953,-0.01469139102846384,0.01036997139453888,-0.0002518177207093686,0.016861798241734505
0.02020808309316635,0.004762140102684498,-0.014714052900671959,0.01025578286498785,-0.00024333990586455911,0.0172372218221426
0.018609166145324707,0.004429702181369066,-0.015084448270499706,0.010074315592646599,-0.00029566872399300337,0.017295293509960175
0.02099050208926201,0.004457624163478613,-0.014898763038218021,0.009653235785663128,-0.00028590578585863113,0.017147773876786232
0.021330373361706734,0.0049695041961967945,-0.01472233235836029,0.010608517564833164,-0.00026937515940517187,0.01715165004134178
0.02079114504158497,0.004906686954200268,-0.014612876810133457,0.010624614544212818,-0.00025419078883714974,0.0166639294475317
0.020414575934410095,0.004479176364839077,-0.014867683872580528,0.009867462329566479,-0.00024059753923211247,0.017165932804346085
0.021052556112408638,0.004402708262205124,-0.015498907305300236,0.010503658093512058,-0.00022838237055111676,0.017102379351854324
0.020448537543416023,0.004720416851341724,-0.015100657008588314,0.010021409019827843,-0.00021734819165430963,0.016771549358963966
0.020448537543416023,0.004720416851341724,-0.015100657008588314,0.010021409019827843,-0.00021734819165430963,0.016771549358963966
0.020814815536141396,0.004787071608006954,-0.015766900032758713,0.009981077164411545,-0.00020733154087793082,0.017185434699058533
0.021366463974118233,0.004621119238436222,-0.015736939385533333,0.010849042795598507,-0.00022712488134857267,0.01760740391910076
0.020329149439930916,0.0046019284054636955,-0.014953008852899075,0.011349356733262539,-0.00021853420184925199,0.01767095923423767
0.020353898406028748,0.004553220700472593,-0.015341282822191715,0.01068829745054245,-0.00021007054601795971,0.01742609590291977
0.021057823672890663,0.00432860990986228,-0.014943455345928669,0.010018706321716309,-0.00023142753343563527,0.017839262261986732
0.021669073030352592,0.004511937499046326,-0.015826305374503136,0.010812045074999332,-0.0002270983241032809,0.017696518450975418
0.021377235651016235,0.004584352485835552,-0.015215755440294743,0.011488966643810272,-0.00021944910986348987,0.018316200003027916
0.02136910706758499,0.005128463730216026,-0.016018206253647804,0.010866389609873295,-0.00021207780810073018,0.018550748005509377
0.02137044444680214,0.004540920723229647,-0.01591045968234539,0.011079329997301102,-0.00023250337108038366,0.018007606267929077
0.021398581564426422,0.004510988015681505,-0.015347136184573174,0.0106923533603549,-0.00022695629741065204,0.017583085224032402
0.0211915522813797,0.00422385660931468,-0.015231478027999401,0.010821226984262466,-0.00022013322450220585,0.01729726605117321
0.02175096422433853,0.004447869025170803,-0.016039753332734108,0.011777670122683048,-0.00022662397532258183,0.017500538378953934
0.021969253197312355,0.004478629678487778,-0.01662825047969818,0.011000758036971092,-0.00021788859157823026,0.01778305135667324
0.021648390218615532,0.004603739827871323,-0.015792421996593475,0.011541420593857765,-0.000246710202191025,0.01778886839747429
0.021547256037592888,0.0047627710737288,-0.015592318028211594,0.011389052495360374,-0.00023835447791498154,0.0184212364256382
0.02222718670964241,0.003692867700010538,-0.015428420156240463,0.01123779360204935,-0.00026391338906250894,0.018575308844447136
0.022018540650606155,0.003551952075213194,-0.016656529158353806,0.011328546330332756,-0.0002555317187216133,0.018293991684913635
0.022094767540693283,0.0038589772302657366,-0.015494164079427719,0.010842854157090187,-0.00027843398856930435,0.01824900507926941
0.022433960810303688,0.004114274401217699,-0.015194151550531387,0.011123036034405231,-0.0005048452876508236,0.018087908625602722
0.02241371013224125,0.004021892324090004,-0.015506581403315067,0.011178653687238693,-0.000598533486481756,0.018279006704688072
0.02236495539546013,0.004197936970740557,-0.015637094154953957,0.010746972635388374,-0.0005644208868034184,0.019402483478188515
0.022313160821795464,0.0042619602754712105,-0.01622675359249115,0.011096791364252567,-0.000553846824914217,0.01832338608801365
0.02249002456665039,0.004040892235934734,-0.01588001288473606,0.011082693934440613,-0.0005434181075543165,0.01835418865084648
0.02216007187962532,0.0037763137370347977,-0.01600741408765316,0.01173450704663992,-0.0005644352058880031,0.018837975338101387
0.022593073546886444,0.0036825560964643955,-0.015541495755314827,0.011678190901875496,-0.0005313542787916958,0.018715573474764824
0.02240247093141079,0.003739755367860198,-0.015874845907092094,0.011278667487204075,-0.0005848750006407499,0.0187778752297163
0.02284841239452362,0.003768689464777708,-0.015197399072349072,0.011726979166269302,-0.0006085092900320888,0.018777988851070404
0.02284841239452362,0.003768689464777708,-0.015197399072349072,0.011726979166269302,-0.0006085092900320888,0.018777988851070404
0.022449450567364693,0.003741804277524352,-0.016011014580726624,0.011421550996601582,-0.0006147670792415738,0.018734151497483253
0.022713830694556236,0.0038931493181735277,-0.01599009707570076,0.011509347707033157,-0.0006172001012600958,0.019137583673000336
0.023085283115506172,0.003689682111144066,-0.015826445072889328,0.011123360134661198,-0.0006745672435499728,0.01915808394551277
0.022655364125967026,0.0035720281302928925,-0.015746843069791794,0.01156269945204258,-0.0006695232004858553,0.01911282353103161
0.02262420393526554,0.003480671439319849,-0.016094647347927094,0.011345328763127327,-0.0006736791110597551,0.01919722557067871
0.02305271103978157,0.003615552792325616,-0.015804041177034378,0.01117115467786789,-0.0006223756354302168,0.01902672089636326
0.023398540914058685,0.003956383094191551,-0.01624295301735401,0.011585131287574768,-0.000559528183657676,0.019171208143234253
0.02288544923067093,0.0038741242606192827,-0.015680020675063133,0.011254223063588142,-0.0005854441551491618,0.019071590155363083
0.023168381303548813,0.003663057694211602,-0.01594606414437294,0.011363456957042217,-0.0005776465404778719,0.018876126036047935
0.022967595607042313,0.003499902319163084,-0.015416109934449196,0.011585560627281666,-0.0005664383061230183,0.01920551434159279
0.023828692734241486,0.0038273746613413095,-0.015973737463355064,0.011243121698498726,-0.0005283161881379783,0.019224531948566437
0.02391926571726799,0.003985605668276548,-0.015546510927379131,0.01176312193274498,-0.0004929992137476802,0.019405966624617577
0.023807676509022713,0.003929475322365761,-0.016145261004567146,0.011434231884777546,-0.0005223013577051461,0.019930580630898476
0.02403607964515686,0.004276369232684374,-0.01605759933590889,0.011861182749271393,-0.0005451767356134951,0.019866086542606354
0.023387491703033447,0.004155518487095833,-0.015655793249607086,0.012195006012916565,-0.0005552387447096407,0.019212622195482254
0.02240649238228798,0.003628430189564824,-0.015993209555745125,0.011775054968893528,-0.000547040079254657,0.0187465101480484
0.02326669543981552,0.003491212846711278,-0.015766460448503494,0.01190462987869978,-0.0007327971397899091,0.018853411078453064
0.02419794164597988,0.0042106169275939465,-0.016209708526730537,0.011490778997540474,-0.0007738686981610954,0.019244346767663956
0.023750845342874527,0.004032616503536701,-0.01544511690735817,0.01188027486205101,-0.0006921247113496065,0.019828423857688904
0.02343781851232052,0.003753711935132742,-0.01597784273326397,0.012003072537481785,-0.0007023181533440948,0.019949208945035934
0.023968884721398354,0.004071174655109644,-0.015559996478259563,0.011456357315182686,-0.0006425717147067189,0.01902010850608349
0.024386553093791008,0.004238775931298733,-0.015967341139912605,0.01162929367274046,-0.0006447937339544296,0.01916934736073017
0.02403721958398819,0.004106202628463507,-0.015837883576750755,0.01170859020203352,-0.000609097012784332,0.01937543973326683
0.024163968861103058,0.003894555615261197,-0.015775244683027267,0.012235326692461967,-0.0005824757972732186,0.019754676148295403
0.02356564626097679,0.00431722030043602,-0.015926990658044815,0.012229306623339653,-0.0005746358656324446,0.019485285505652428
0.02323334291577339,0.004179056733846664,-0.015699150040745735,0.012127178721129894,-0.0005605529877357185,0.019688589498400688
0.02412664145231247,0.0038732949178665876,-0.015698283910751343,0.011945473961532116,-0.0005435277707874775,0.02048489637672901
0.02412664145231247,0.0038732949178665876,-0.015698283910751343,0.011945473961532116,-0.0005435277707874775,0.02048489637672901
0.02388603799045086,0.00372427050024271,-0.016031039878726006,0.012591591104865074,-0.0005626706988550723,0.0191666092723608
0.024172859266400337,0.0038047172129154205,-0.015557053498923779,0.012355986982584,-0.0005297012976370752,0.019480256363749504
0.02436450868844986,0.0044168271124362946,-0.01620401255786419,0.012477145530283451,-0.0004972580936737359,0.02033425308763981
0.02415345050394535,0.004267493728548288,-0.015618832781910896,0.01230468600988388,-0.0005289078108035028,0.02073867805302143
0.023813527077436447,0.0044930195435881615,-0.01577824167907238,0.012348771095275879,-0.0004785323399119079,0.020199822261929512
0.024119727313518524,0.004112710244953632,-0.015923021361231804,0.012800199910998344,-0.0005131460493430495,0.01984555460512638
0.024088913574814796,0.003923216834664345,-0.016028618440032005,0.012207557447254658,-0.0004733890818897635,0.020123571157455444
0.024633610621094704,0.00391119671985507,-0.016235224902629852,0.012844028882682323,-0.0005029523745179176,0.02033890411257744
0.024580953642725945,0.00433194637298584,-0.015859359875321388,0.012241264805197716,-0.00046984179061837494,0.020331142470240593
0.024239620193839073,0.004396393895149231,-0.016150612384080887,0.012433686293661594,-0.0004834363062400371,0.02050359733402729
0.024534793570637703,0.004279050976037979,-0.01567773148417473,0.012582185678184032,-0.00046643606037832797,0.020588921383023262
0.0241455789655447,0.004451313987374306,-0.016499212011694908,0.012619365938007832,-0.0004389267705846578,0.020514896139502525
0.024712901562452316,0.004558677785098553,-0.015933146700263023,0.012846918776631355,-0.0004316698177717626,0.02050614543259144
0.024597713723778725,0.0041060009971261024,-0.016041263937950134,0.013088823296129704,-0.0004101217200513929,0.020554080605506897
0.02284054085612297,0.004375097807496786,-0.016164079308509827,0.013620062731206417,-0.0003769089817069471,0.020832553505897522
0.025411931797862053,0.004301935900002718,-0.016368620097637177,0.012961399741470814,-0.0003478267462924123,0.020513545721769333
0.02506125345826149,0.004262273199856281,-0.017468376085162163,0.013498255982995033,-0.00035418447805568576,0.02040817402303219
0.024926064535975456,0.004494463559240103,-0.01619381085038185,0.012962311506271362,-0.0003593058208934963,0.020867981016635895
0.024580560624599457,0.004646467510610819,-0.016403324902057648,0.012819811701774597,-0.00033864349825307727,0.021626519039273262
0.025167325511574745,0.004620678722858429,-0.015957782045006752,0.01248757354915142,-0.0003446330374572426,0.021300291642546654
0.024749718606472015,0.004480133298784494,-0.01662443019449711,0.01240566186606884,-0.0003493858384899795,0.02097495272755623
0.025289181619882584,0.004609665367752314,-0.01704445295035839,0.012859568931162357,-0.0003675473853945732,0.021088333800435066
0.026308530941605568,0.004304098431020975,-0.01685279980301857,0.012640202417969704,-0.00036024404107593,0.020944517105817795
0.026183761656284332,0.004478206392377615,-0.01732097938656807,0.013132893480360508,-0.00034376507392153144,0.02105814777314663
0.025417106226086617,0.004731644876301289,-0.016538817435503006,0.012530200183391571,-0.000346826360328123,0.021291794255375862
0.024642597883939743,0.005076246801763773,-0.016812503337860107,0.013279031962156296,-0.0003390274941921234,0.021491361781954765
0.02573789283633232,0.004388811998069286,-0.016793033108115196,0.012300554662942886,-0.0003710410965140909,0.02132224105298519
0.025922199711203575,0.004395675379782915,-0.017402106896042824,0.012985758483409882,-0.0003977343440055847,0.021512674167752266
0.02610250562429428,0.004385762382298708,-0.0171724334359169,0.012927224859595299,-0.00041096698259934783,0.0216864924877882
0.02610250562429428,0.004385762382298708,-0.0171724334359169,0.012927224859595299,-0.00041096698259934783,0.0216864924877882
0.02667963318526745,0.004471918102353811,-0.017327599227428436,0.013701056130230427,-0.00039467334863729775,0.021679367870092392
0.02690204605460167,0.0049892691895365715,-0.016680538654327393,0.013303601182997227,-0.0005525475717149675,0.021757353097200394
0.026868412271142006,0.004522275645285845,-0.017177777364850044,0.013191514648497105,-0.0006243550451472402,0.022033143788576126
0.026064477860927582,0.004558741580694914,-0.01734459213912487,0.012553798034787178,-0.0005849550943821669,0.022319098934531212
0.02636546641588211,0.0042891716584563255,-0.016889750957489014,0.013126003555953503,-0.000611259019933641,0.022065134719014168
0.026821523904800415,0.004362134728580713,-0.01640302687883377,0.01279474701732397,-0.0005621318705379963,0.022107653319835663
0.027392439544200897,0.004488167818635702,-0.01703161746263504,0.013478565029799938,-0.0005848929868079722,0.022292621433734894
0.027128273621201515,0.004693638067692518,-0.017591197043657303,0.013353881426155567,-0.0005472346674650908,0.02244463376700878
0.026979373767971992,0.004408603068441153,-0.017252076417207718,0.013795273378491402,-0.00059876887826249,0.022679688408970833
0.026714472100138664,0.004440197721123695,-0.017031973227858543,0.013555530458688736,-0.0006276477361097932,0.02344646118581295
0.026825085282325745,0.0042219641618430614,-0.01758263073861599,0.0139431431889534,-0.0006562121561728418,0.02181841805577278
0.027139125391840935,0.004038287792354822,-0.017116615548729897,0.013636614196002483,-0.0006051355157978833,0.021676398813724518
0.02625858411192894,0.004014352336525917,-0.017282884567975998,0.013465206138789654,-0.0006260914960876107,0.022567234933376312
0.02776435762643814,0.00426490930840373,-0.017268436029553413,0.01363682746887207,-0.0007113085011951625,0.023003876209259033
0.028161533176898956,0.00450208131223917,-0.01659967191517353,0.013589620590209961,-0.0007174363126978278,0.0230291448533535
0.027707429602742195,0.004617265425622463,-0.017151035368442535,0.01345278974622488,-0.0006845789612270892,0.021756744012236595
0.027958858758211136,0.00415936391800642,-0.01703599840402603,0.013294083066284657,-0.0007052004220895469,0.021622110158205032
0.0277763269841671,0.004405966494232416,-0.01721084676682949,0.01391344703733921,-0.0007185887079685926,0.02263694629073143
0.028094956651329994,0.004299412481486797,-0.01749720238149166,0.013304250314831734,-0.0007846419466659427,0.023610346019268036
0.028185872361063957,0.004302287008613348,-0.017172684893012047,0.013449674472212791,-0.0007751824450679123,0.0228830948472023
0.028547972440719604,0.004445735830813646,-0.017614206299185753,0.013138338923454285,-0.0007319938740693033,0.02290349453687668
0.028461439535021782,0.004542601760476828,-0.017015282064676285,0.013610648922622204,-0.0007481093052774668,0.023423735052347183
0.0282412301748991,0.004756806883960962,-0.017713066190481186,0.0132902255281806,-0.0007575875497423112,0.02438376657664776
0.02880026586353779,0.004445268772542477,-0.017748188227415085,0.01350810844451189,-0.0007669655606150627,0.023648705333471298
0.028721176087856293,0.004595198668539524,-0.01764214225113392,0.01366139855235815,-0.0007417998858727515,0.022442113608121872
0.02896442823112011,0.004300120286643505,-0.01710626110434532,0.013789894990622997,-0.0007570190937258303,0.023205922916531563
0.028945956379175186,0.004563033580780029,-0.017052507027983665,0.013504779897630215,-0.0006818615947850049,0.024051083251833916
0.02940141037106514,0.004677563440054655,-0.017491869628429413,0.013638458214700222,-0.0006912682438269258,0.023849699646234512
0.02940141037106514,0.004677563440054655,-0.017491869628429413,0.013638458214700222,-0.0006912682438269258,0.023849699646234512
0.029004443436861038,0.004627875983715057,-0.017038434743881226,0.013570277951657772,-0.0006400609272532165,0.023624297231435776
0.02970145270228386,0.004311184864491224,-0.01765933446586132,0.013678687624633312,-0.0006218212656676769,0.02374928630888462
0.0298916082829237,0.004334963858127594,-0.017254799604415894,0.013274603523314,-0.000647932116407901,0.023542840033769608
0.02976083755493164,0.0045500039122998714,-0.01733144372701645,0.013586004264652729,-0.0006750367465429008,0.023847073316574097
0.029833273962140083,0.0047050048597157,-0.017324121668934822,0.013656149618327618,-0.0006857431726530194,0.024082008749246597
0.0299424659460783,0.004463758785277605,-0.016823170706629753,0.013839738443493843,-0.0006450676009990275,0.024068787693977356
0.031100094318389893,0.004432325717061758,-0.0173612292855978,0.013612662442028522,-0.0007599167292937636,0.02421990968286991
0.03067914769053459,0.004418937489390373,-0.017478084191679955,0.013999717310070992,-0.0006740951794199646,0.024038083851337433
0.0275223758071661,0.00452204467728734,-0.01758989877998829,0.013689008541405201,-0.0005876859650015831,0.023801054805517197
0.030230123549699783,0.0041426061652600765,-0.01755480468273163,0.014480451121926308,-0.0005955231608822942,0.024444088339805603
0.03113440051674843,0.004392972681671381,-0.017502617090940475,0.014172288589179516,-0.0005571991205215454,0.024713436141610146
0.030067743733525276,0.00443302933126688,-0.017817875370383263,0.014776749536395073,-0.000506406300701201,0.024240616708993912
0.030749207362532616,0.0047430614940822124,-0.01778789982199669,0.014389731921255589,-0.0005003296537324786,0.02432212233543396
0.03197489678859711,0.004834161140024662,-0.01761631853878498,0.014993583783507347,-0.00049490766832605,0.024237746372818947
0.03146744146943092,0.004417473915964365,-0.017782017588615417,0.014641055837273598,-0.0004608996969182044,0.02397145889699459
0.030305515974760056,0.004484923556447029,-0.01754467375576496,0.014672808349132538,-0.00047473100130446255,0.024228766560554504
0.030822616070508957,0.004225913435220718,-0.017847001552581787,0.013943823054432869,-0.0004594969213940203,0.024696694687008858
0.03216494619846344,0.004157337360084057,-0.017582423985004425,0.014143243432044983,-0.00039115906110964715,0.024590283632278442
0.03146365284919739,0.004159541334956884,-0.017442824319005013,0.013784405775368214,-0.0003581299679353833,0.02417375147342682
0.031712498515844345,0.00439528189599514,-0.017892999574542046,0.014445188455283642,-0.0003637532645370811,0.024092283099889755
0.03165772929787636,0.004219842609018087,-0.017925044521689415,0.014114370569586754,-0.0003683480026666075,0.024533754214644432
0.030996501445770264,0.004442415665835142,-0.017983585596084595,0.0142741734161973,-0.00038915491313673556,0.02512124739587307
0.03136608749628067,0.004224225878715515,-0.01817450486123562,0.014566638506948948,-0.0004085766267962754,0.024606801569461823
0.03161626309156418,0.00431350851431489,-0.01908385008573532,0.014493982307612896,-0.0006161503843031824,0.0239906907081604
0.03161626309156418,0.00431350851431489,-0.01908385008573532,0.014493982307612896,-0.0006161503843031824,0.0239906907081604
0.03185541182756424,0.004481245763599873,-0.01832784153521061,0.014964691363275051,-0.0006581587949767709,0.023723391816020012
0.03208492696285248,0.004640283528715372,-0.01761128567159176,0.01486903801560402,-0.0006835782551206648,0.024871356785297394
0.03189970552921295,0.004819083493202925,-0.018994780257344246,0.015161674469709396,-0.0006667645648121834,0.025103691965341568
0.03118576854467392,0.004468568600714207,-0.018236374482512474,0.01439186092466116,-0.0010421386687085032,0.025131717324256897
0.03160012885928154,0.004337390884757042,-0.01825774274766445,0.01456565409898758,-0.0010399414459243417,0.025559453293681145
0.0313534140586853,0.004245830234140158,-0.018637968227267265,0.014716917648911476,-0.0010208489838987589,0.025691650807857513
0.030266858637332916,0.004360209684818983,-0.01866694539785385,0.01535702683031559,-0.0009311737376265228,0.025530649349093437
0.03197069466114044,0.004526852164417505,-0.01885116659104824,0.015090779401361942,-0.0009171957499347627,0.024942686781287193
0.03273305296897888,0.004720293451100588,-0.01870710775256157,0.015394198708236217,-0.0008824070682749152,0.02441631443798542
0.03317911550402641,0.0046591805294156075,-0.01817639358341694,0.016265790909528732,-0.0007875369628891349,0.02489655092358589
0.03152211010456085,0.003937677014619112,-0.018841944634914398,0.016375340521335602,-0.0007953111198730767,0.026172656565904617
0.031567491590976715,0.003438142826780677,-0.01899336650967598,0.015769949182868004,-0.0007123271352611482,0.02632136084139347
0.0325247161090374,0.003144558984786272,-0.01854531094431877,0.014918544329702854,-0.0007250987691804767,0.025881417095661163
0.032541461288928986,0.0040045492351055145,-0.01886405050754547,0.01502744946628809,-0.0006570452824234962,0.025487761944532394
0.0323466882109642,0.004188055172562599,-0.018753455951809883,0.015196805819869041,-0.0005700814072042704,0.02549334615468979
0.032884810119867325,0.0039687613025307655,-0.018126485869288445,0.016077270731329918,-0.0005993300001136959,0.025727685540914536
0.03278380632400513,0.0038971644826233387,-0.018557576462626457,0.015386602841317654,-0.0006230700528249145,0.026022382080554962
0.03230750933289528,0.003934393171221018,-0.018661119043827057,0.015464738011360168,-0.0006589012918993831,0.025995342060923576
0.03183715045452118,0.0034868628717958927,-0.018782824277877808,0.015635497868061066,-0.000963586731813848,0.026178861036896706
0.03303216025233269,0.003576086601242423,-0.019311387091875076,0.015836460515856743,-0.0009709557052701712,0.02641216106712818
0.03303109109401703,0.0038242570590227842,-0.018820486962795258,0.015362967737019062,-0.00087171042105183,0.026527393609285355
0.032819610089063644,0.003938376437872648,-0.018679706379771233,0.01538149919360876,-0.0008691040566191077,0.026468003168702126
0.03282897174358368,0.003457915736362338,-0.018963495269417763,0.01547540258616209,-0.0008390838629566133,0.026314938440918922
0.03250904008746147,0.0031485201325267553,-0.01833176054060459,0.0159673523157835,-0.0008672502590343356,0.026815682649612427
0.03262781351804733,0.0031308645848184824,-0.01884794980287552,0.01522218156605959,-0.0007788882940076292,0.025850066915154457
0.03310833498835564,0.0033229843247681856,-0.019249875098466873,0.014735883101820946,-0.0007879145559854805,0.026437845081090927
0.0334724523127079,0.0035331195686012506,-0.019002171233296394,0.014659907668828964,-0.0007197348168119788,0.026566127315163612
0.03300303593277931,0.0037606002297252417,-0.018835945054888725,0.01452048122882843,-0.0006592869758605957,0.026652416214346886
0.03300303593277931,0.0037606002297252417,-0.018835945054888725,0.01452048122882843,-0.0006592869758605957,0.026652416214346886
0.03381778672337532,0.0034608347341418266,-0.018297459930181503,0.014151601120829582,-0.0006185871898196638,0.026696769520640373
0.03235577791929245,0.0035770214162766933,-0.01893630437552929,0.014751228503882885,-0.0005506741581484675,0.026646878570318222
0.03417474031448364,0.0038896577898412943,-0.019435813650488853,0.014707780443131924,-0.0005820037331432104,0.026707377284765244
0.034059759229421616,0.0034545143134891987,-0.01858801580965519,0.015622983686625957,-0.0005733533762395382,0.026932138949632645
0.03359811753034592,0.0036056579556316137,-0.01925354078412056,0.015622484497725964,-0.0005611235392279923,0.026708485558629036
0.033484384417533875,0.003846563398838043,-0.0193390604108572,0.01576077938079834,-0.0005175417172722518,0.02664613164961338
0.03375021740794182,0.003945033531636,-0.018563130870461464,0.01566530019044876,-0.0005373553722165525,0.026909861713647842
0.0342700369656086,0.003440035507082939,-0.019087474793195724,0.016076495870947838,-0.0005075059598311782,0.026945635676383972
0.034162137657403946,0.003368584904819727,-0.019200457260012627,0.015898795798420906,-0.0005136236432008445,0.026592114940285683
0.03424820676445961,0.0035590571351349354,-0.018761390820145607,0.016004569828510284,-0.000543777656275779,0.02658546157181263
0.03428107127547264,0.00381029536947608,-0.01907474920153618,0.016058145090937614,-0.0005142639274708927,0.026838384568691254
0.0343959704041481,0.004281811881810427,-0.019445369020104408,0.015596839599311352,-0.0005283619975671172,0.02732827328145504
0.03447938710451126,0.004053132142871618,-0.01959666796028614,0.016043245792388916,-0.0005039565148763359,0.02778363786637783
0.0350508987903595,0.003519651712849736,-0.019605008885264397,0.016023224219679832,-0.0005253718118183315,0.02756631001830101
0.03472333773970604,0.004114968236535788,-0.019528856500983238,0.01630978472530842,-0.0005001480458304286,0.026377083733677864
0.03443940728902817,0.004149799235165119,-0.01931508630514145,0.016203219071030617,-0.0005922492127865553,0.026462450623512268
0.035294923931360245,0.004413974937051535,-0.01998886652290821,0.016379663720726967,-0.0006312734331004322,0.027371510863304138
0.03617996722459793,0.004319820087403059,-0.020547064021229744,0.016263481229543686,-0.0006173389265313745,0.02749522402882576
0.035071298480033875,0.004049438517540693,-0.019871210679411888,0.01629551127552986,-0.0006001388537697494,0.027549119666218758
0.034285563975572586,0.003892359556630254,-0.020049216225743294,0.016458844766020775,-0.0006181764183565974,0.02875206433236599
0.03522050753235817,0.004331547301262617,-0.02010471001267433,0.016211599111557007,-0.0005824478575959802,0.028202204033732414
0.0349530428647995,0.004132719710469246,-0.019510542973876,0.01618528924882412,-0.0006395531236194074,0.026738209649920464
0.035751376301050186,0.0038711936213076115,-0.019716983661055565,0.015279099345207214,-0.0006506622885353863,0.027228442952036858
0.035706907510757446,0.003998165484517813,-0.020514441654086113,0.015696506947278976,-0.0006520944298245013,0.028328659012913704
0.0350700281560421,0.0040350863710045815,-0.020479029044508934,0.015753354877233505,-0.0006317413062788546,0.029024405404925346
0.03530954197049141,0.004261790309101343,-0.02031640335917473,0.015707610175013542,-0.0008149028872139752,0.02763477712869644
0.03530954197049141,0.004261790309101343,-0.02031640335917473,0.015707610175013542,-0.0008149028872139752,0.02763477712869644
0.03644973784685135,0.004457871895283461,-0.020567752420902252,0.01599990762770176,-0.000773558160290122,0.027708571404218674
0.036269962787628174,0.0041041383519768715,-0.019854096695780754,0.015752866864204407,-0.0007044687517918646,0.028005976229906082
0.036287128925323486,0.0036977652925997972,-0.02029803767800331,0.01641245372593403,-0.0007183615234680474,0.028275886550545692
0.036287128925323486,0.0036977652925997972,-0.02029803767800331,0.01641245372593403,-0.0007183615234680474,0.028275886550545692
0.03564959019422531,0.004145890939980745,-0.019441034644842148,0.01606297306716442,-0.0007544218678958714,0.02839326113462448
0.03619788587093353,0.004113299306482077,-0.01967645436525345,0.01643677055835724,-0.0008473136113025248,0.02845781110227108
0.03586152195930481,0.004437262192368507,-0.019897157326340675,0.016148017719388008,-0.0008589581120759249,0.0283195860683918
0.03572331368923187,0.004225771874189377,-0.020268412306904793,0.016878323629498482,-0.0009962451877072453,0.028581125661730766
0.03657656908035278,0.004052243195474148,-0.020180191844701767,0.016985852271318436,-0.0010556158376857638,0.0285101979970932
0.03646091744303703,0.0039446065202355385,-0.02034391090273857,0.016771478578448296,-0.001033379347063601,0.02890699729323387
0.03633558005094528,0.0039382074028253555,-0.02005067467689514,0.017398836091160774,-0.0009488943032920361,0.028961634263396263
0.03633466735482216,0.0035051722079515457,-0.019597232341766357,0.01717570424079895,-0.0009145241929218173,0.02925761789083481
0.03777967765927315,0.003944852855056524,-0.020291971042752266,0.01738918200135231,-0.0008454011403955519,0.029075557366013527
0.037374019622802734,0.004245318938046694,-0.020386217162013054,0.01701516844332218,-0.0008572193328291178,0.029733916744589806
0.035351622849702835,0.004063111264258623,-0.019892418757081032,0.01684347167611122,-0.0008636285201646388,0.029609406366944313
0.03641768544912338,0.004148529376834631,-0.020056063309311867,0.017395101487636566,-0.0008682754705660045,0.029162973165512085
0.036773692816495895,0.0041039171628654,-0.02021581307053566,0.01744016259908676,-0.0009420815040357411,0.028644798323512077
0.03685402497649193,0.0042612990364432335,-0.02016058750450611,0.017824118956923485,-0.0008977295365184546,0.029081478714942932
0.03766043111681938,0.004114970564842224,-0.019851021468639374,0.017600245773792267,-0.0008953881915658712,0.030363960191607475
0.037792786955833435,0.004077525809407234,-0.020128143951296806,0.017053745687007904,-0.0007761066081002355,0.030373049899935722
0.035740405321121216,0.0040327273309230804,-0.02039765566587448,0.01702962815761566,-0.0007329797372221947,0.029399456456303596
0.03714275360107422,0.004479072988033295,-0.01994284614920616,0.016423314809799194,-0.0006996095180511475,0.028511276468634605
0.03835482522845268,0.004583298694342375,-0.020253699272871017,0.01699322648346424,-0.0007102022063918412,0.029160967096686363
0.0371820367872715,0.004609392955899239,-0.02013384737074375,0.01702195405960083,-0.0006578585016541183,0.02915480174124241
0.03766684606671333,0.004510756116360426,-0.019787944853305817,0.017457354813814163,-0.0005606923950836062,0.02914733625948429
0.03771183639764786,0.004277119878679514,-0.019995398819446564,0.017581729218363762,-0.0004975656047463417,0.030340086668729782
0.037909187376499176,0.004035185556858778,-0.020529797300696373,0.016406303271651268,-0.0005309722037054598,0.030456071719527245
0.03761773928999901,0.00487062893807888,-0.019896134734153748,0.01720065250992775,-0.0005174914840608835,0.029185447841882706
0.03799649327993393,0.0046725147403776646,-0.020416654646396637,0.017811967059969902,-0.0005158032872714102,0.028998922556638718
0.037818338721990585,0.004848289769142866,-0.020317086949944496,0.01781938411295414,-0.0005116296233609319,0.03039970062673092
0.038070812821388245,0.0042273011058568954,-0.01988411508500576,0.016337232664227486,-0.0006234213360585272,0.030650299042463303
0.03861953690648079,0.0042595164850354195,-0.020379694178700447,0.016852164641022682,-0.0006846920005045831,0.03014190122485161
0.0382792204618454,0.004208999685943127,-0.01992367021739483,0.016624828800559044,-0.0007087275735102594,0.030378729104995728
0.0382792204618454,0.004208999685943127,-0.01992367021739483,0.016624828800559044,-0.0007087275735102594,0.030378729104995728
0.03808078542351723,0.00452835951000452,-0.019455431029200554,0.017123373225331306,-0.0010146066779270768,0.03031863272190094
0.037001606076955795,0.004611404612660408,-0.019712848588824272,0.017335601150989532,-0.0010137173812836409,0.030155988410115242
0.03903521969914436,0.004702107515186071,-0.02029731497168541,0.017177756875753403,-0.0009227438713423908,0.030820010229945183
0.03934885188937187,0.00428056763485074,-0.019914064556360245,0.017568007111549377,-0.0007923817611299455,0.0311401579529047
0.03888174146413803,0.004418583121150732,-0.020197683945298195,0.01715642586350441,-0.0007747674244455993,0.031166033819317818
0.038533806800842285,0.004077224060893059,-0.02076965756714344,0.017133409157395363,-0.0007125316769815981,0.03130645677447319
0.03920051455497742,0.003903959644958377,-0.021079039201140404,0.01753505878150463,-0.0007203819695860147,0.031225310638546944
0.039158694446086884,0.004291319753974676,-0.02061738632619381,0.017553633078932762,-0.00062943110242486,0.031137211248278618
0.03941652551293373,0.004384016618132591,-0.020917203277349472,0.018097098916769028,-0.0006261196685954928,0.031337399035692215
0.039291273802518845,0.004345828201621771,-0.0206128042191267,0.01823127642273903,-0.0005823770770803094,0.031022686511278152
0.03936252370476723,0.004452959634363651,-0.020233621820807457,0.01810344308614731,-0.0006085320492275059,0.031048515811562538
0.03877338021993637,0.004574768710881472,-0.020535483956336975,0.018081853166222572,-0.0006184557569213212,0.03140813112258911
0.040920864790678024,0.004110641777515411,-0.02147972211241722,0.017844701185822487,-0.0007009310065768659,0.03112212009727955
0.04058012738823891,0.0043481504544615746,-0.021410692483186722,0.018053680658340454,-0.0008040688117034733,0.03150316700339317
0.038712725043296814,0.00437560398131609,-0.020600272342562675,0.01807827316224575,-0.000791492871940136,0.031559690833091736
0.03881749138236046,0.004355196841061115,-0.021562859416007996,0.017974598333239555,-0.0008029004093259573,0.03173286095261574
0.0392581969499588,0.00486725103110075,-0.022345736622810364,0.018182773143053055,-0.0007669639308005571,0.031298935413360596
0.04087619110941887,0.004510171711444855,-0.02176915854215622,0.017791640013456345,-0.0008375808247365057,0.032336607575416565
0.04127901792526245,0.003989796154201031,-0.020308654755353928,0.017745833843946457,-0.0008327191462740302,0.031831808388233185
0.03942086547613144,0.0037632030434906483,-0.02076398767530918,0.018308071419596672,-0.0008412060560658574,0.03205205127596855
0.038947612047195435,0.003849515924230218,-0.021876629441976547,0.017927227541804314,-0.0008209492079913616,0.03306520730257034
0.04090024158358574,0.003975054249167442,-0.021007101982831955,0.01780238002538681,-0.0007807195070199668,0.032110217958688736
0.040679704397916794,0.004008489195257425,-0.02067607268691063,0.017664581537246704,-0.0008481394033879042,0.03093603067100048
0.04056962952017784,0.003992947284132242,-0.021983394399285316,0.017569659277796745,-0.0008648446528241038,0.031159792095422745
0.040399372577667236,0.004358953796327114,-0.021784793585538864,0.018611658364534378,-0.0009877141565084457,0.03206421062350273
0.04087308049201965,0.004167492501437664,-0.021417221054434776,0.01841045171022415,-0.0011079073883593082,0.033124759793281555
0.0405566431581974,0.003901540068909526,-0.021561063826084137,0.018483517691493034,-0.0010916368337348104,0.03304542228579521
0.040480196475982666,0.00378416501916945,-0.021882470697164536,0.018088674172759056,-0.0010640810942277312,0.03263937681913376
0.040480196475982666,0.00378416501916945,-0.021882470697164536,0.018088674172759056,-0.0010640810942277312,0.03263937681913376
0.04031520336866379,0.003838126314803958,-0.02207517810165882,0.018410248681902885,-0.0010825741337612271,0.031508274376392365
0.04055143520236015,0.003848972264677286,-0.021952051669359207,0.0185993704944849,-0.000980739714577794,0.032137975096702576
0.04159580543637276,0.0037923897616565228,-0.021935509517788887,0.01823950745165348,-0.0008922406705096364,0.033444344997406006
0.041142866015434265,0.004034875426441431,-0.021892601624131203,0.01852228306233883,-0.0008306169766001403,0.033500876277685165
0.03957364708185196,0.003922034054994583,-0.022513706237077713,0.018873699009418488,-0.0007815214921720326,0.03275424614548683
0.04092204198241234,0.0036534215323626995,-0.0222624521702528,0.018441399559378624,-0.0006983097409829497,0.0328410267829895
0.04071934521198273,0.0035855546593666077,-0.022060172632336617,0.018842775374650955,-0.000712043431121856,0.032421939074993134
0.04207233339548111,0.0036331273149698973,-0.022220617160201073,0.018636658787727356,-0.0006173285655677319,0.03292817994952202
0.041283655911684036,0.003778280923143029,-0.02242218144237995,0.01834546960890293,-0.0005679384339600801,0.03310329094529152
0.03964708372950554,0.0038004040252417326,-0.022596782073378563,0.018763888627290726,-0.0005967876059003174,0.03317979350686073
0.04167044162750244,0.003803051309660077,-0.022177720442414284,0.0184404905885458,-0.0006247924757190049,0.032938018441200256
0.04182133823633194,0.0039473362267017365,-0.02245909348130226,0.01835496537387371,-0.0006111915572546422,0.03322587162256241
0.04134637117385864,0.0044206008315086365,-0.022621948271989822,0.018952803686261177,-0.0008328567491844296,0.03355010971426964
0.041053686290979385,0.004210637416690588,-0.02272644080221653,0.01934303157031536,-0.0009457914275117218,0.03188067674636841
0.04120637848973274,0.003950734157115221,-0.02244730293750763,0.01957685872912407,-0.0009462566231377423,0.03381594270467758
0.04160673916339874,0.003867568913847208,-0.022139230743050575,0.019666215404868126,-0.0008917872910387814,0.03393442928791046
0.041806429624557495,0.003920038230717182,-0.022486835718154907,0.018957877531647682,-0.0010520631913095713,0.033678051084280014
