davideferrari95/blind_handover_controller/data/Test 75 - [2024-02-07 -- 15-52-16]/joint_states_data.csv
shoulder_pan_joint,shoulder_lift_joint,elbow_joint,wrist_1_joint,wrist_2_joint,wrist_3_joint
-0.002239370718598366,0.0048913066275417805,-0.009479370899498463,0.005743162240833044,3.5473870624382744e-41,-0.0019858514424413443
-0.002239370718598366,0.0048913066275417805,-0.009479370899498463,0.005743162240833044,3.5473870624382744e-41,-0.0019858514424413443
-0.002187678823247552,0.004825608339160681,-0.00967203825712204,0.005128553602844477,2.3163463615289226e-42,-0.0024227220565080643
-0.0022733230143785477,0.0054047591984272,-0.009976547211408615,0.004313735291361809,1.5134023414708024e-43,-0.002433137036859989
-0.0022733230143785477,0.0054047591984272,-0.009976547211408615,0.004313735291361809,1.5134023414708024e-43,-0.002433137036859989
-0.002417459385469556,0.0051177809946238995,-0.009903712198138237,0.004391010385006666,9.80908925027372e-45,-0.0025315284729003906
-0.002243064809590578,0.005113762803375721,-0.009642379358410835,0.005739218555390835,0.0,-0.0019281338900327682
-0.002183265285566449,0.005229899659752846,-0.009170572273433208,0.006013208068907261,0.0,-0.0017243829788640141
-0.002196000423282385,0.005386511795222759,-0.009382711723446846,0.005278429016470909,0.0,-0.0015551068354398012
-0.0021290353033691645,0.005116276443004608,-0.009241078980267048,0.004743541125208139,0.0,-0.0016034895088523626
-0.0020818707998842,0.004803445655852556,-0.00923196505755186,0.004782443400472403,0.0,-0.002021386520937085
-0.0022028295788913965,0.005114392377436161,-0.009303768165409565,0.005386603530496359,0.0,-0.001916649634949863
-0.0021947200875729322,0.005063188727945089,-0.008954864926636219,0.006199443247169256,0.0,-0.0020373892039060593
-0.002493040170520544,0.005292331799864769,-0.00865442119538784,0.00628352165222168,0.0,-0.0018750234739854932
-0.002308751456439495,0.005224138032644987,-0.009324167855083942,0.005611138883978128,0.0,-0.0017524491995573044
-0.002420953707769513,0.0049983300268650055,-0.008921260014176369,0.005199553910642862,0.0,-0.001761566731147468
-0.002349335001781583,0.00531526654958725,-0.009473891928792,0.005314301699399948,0.0,-0.0020080741960555315
-0.0023113174829632044,0.005234086886048317,-0.00929146446287632,0.005348860751837492,0.0,-0.0019203547853976488
-0.0025822026655077934,0.005117109511047602,-0.008829770609736443,0.005287430249154568,0.0,-0.002095563802868128
-0.002523882547393441,0.0056639681570231915,-0.008387630805373192,0.005160766188055277,0.0,-0.001946372096426785
-0.002441883087158203,0.005397460423409939,-0.00852207187563181,0.005595091730356216,0.0,-0.002015290316194296
-0.0025829607620835304,0.005298740230500698,-0.009766997769474983,0.005334599409252405,0.0,-0.0018848628969863057
-0.002510914346203208,0.005060615483671427,-0.009113222360610962,0.005012109875679016,0.0,-0.001973230391740799
-0.0025979806669056416,0.004829917568713427,-0.008905449882149696,0.005178980994969606,0.0,-0.0017972042551264167
-0.0025979806669056416,0.004829917568713427,-0.008905449882149696,0.005178980994969606,0.0,-0.0017972042551264167
-0.00266252551227808,0.005328311584889889,-0.009393277578055859,0.005344556178897619,0.0,-0.001768775167874992
-0.002998143434524536,0.005170117598026991,-0.009525947272777557,0.005704360548406839,0.0,-0.0017830922733992338
-0.0029199665877968073,0.005450119264423847,-0.008475580252707005,0.005570404697209597,0.0,-0.0020805231761187315
-0.002877582795917988,0.005563521292060614,-0.00930975191295147,0.005573177244514227,0.0,-0.0019590784795582294
-0.0022867752704769373,0.0051972996443510056,-0.008896756917238235,0.005290298257023096,0.0,-0.0020644061733037233
-0.0020978469401597977,0.005341382697224617,-0.008864063769578934,0.0053578829392790794,0.0,-0.0019072532886639237
-0.0020488405134528875,0.00519169494509697,-0.009535848163068295,0.005541262216866016,0.0,-0.001824139035306871
-0.002397361444309354,0.005874145310372114,-0.00847326498478651,0.005801558960229158,0.0,-0.001962941838428378
-0.0020439820364117622,0.005346720106899738,-0.008131437934935093,0.005413485690951347,0.0,-0.0018222721992060542
-0.0015508491778746247,0.005217003170400858,-0.008763869293034077,0.005577302072197199,0.0,-0.0018300743540748954
-0.0013339158613234758,0.005311234388500452,-0.008893869817256927,0.005393408238887787,0.0,-0.0017571765929460526
-0.0012605349766090512,0.00553272757679224,-0.008422238752245903,0.005219164304435253,0.0,-0.0017727401573210955
-0.0013077131006866693,0.005682880524545908,-0.00908626802265644,0.004953286610543728,0.0,-0.001804106286726892
-0.0014466637512668967,0.005552938673645258,-0.008537744171917439,0.005251250229775906,0.0,-0.0017098542302846909
-0.0017177253030240536,0.005393178202211857,-0.007267718203365803,0.0057472544722259045,0.0,-0.001968124182894826
-0.00186972098890692,0.005585802253335714,-0.008362162858247757,0.005385721102356911,0.0,-0.002061321632936597
-0.0016489479457959533,0.005592016503214836,-0.009663050994277,0.005114418920129538,0.0,-0.002040721708908677
-0.0013451522681862116,0.005715550389140844,-0.008748332969844341,0.004984193481504917,0.0,-0.0018287231214344501
-0.0012393661309033632,0.005693069193512201,-0.008435427211225033,0.005299098324030638,0.0,-0.0017354576848447323
-0.0011752992868423462,0.005413983017206192,-0.008948750793933868,0.005705626681447029,0.0,-0.00163237564265728
-0.0011478862725198269,0.005408501252532005,-0.008902283385396004,0.005616511218249798,0.0,-0.001495474949479103
-0.0012072974350303411,0.005544849671423435,-0.0089539410546422,0.005105296149849892,0.0,-0.0014460253296419978
-0.0012780477991327643,0.005674188490957022,-0.009673069231212139,0.0047693997621536255,0.0,-0.0013846339425072074
-0.001365799456834793,0.00633286964148283,-0.009521299041807652,0.00473901117220521,0.0,-0.0014542352873831987
-0.0015017623081803322,0.006168742198497057,-0.009507374837994576,0.005560845602303743,0.0,-0.001500593964010477
-0.0014258878072723746,0.005656213965266943,-0.00973349530249834,0.0058555095456540585,0.0,-0.0016112318262457848
-0.0013151189778000116,0.005671690218150616,-0.00942785944789648,0.00562974764034152,0.0,-0.0016637376975268126
-0.0013151189778000116,0.005671690218150616,-0.00942785944789648,0.00562974764034152,0.0,-0.0016637376975268126
-0.001231936039403081,0.00574707705527544,-0.00888730213046074,0.004996970295906067,0.0,-0.0018129602540284395
-0.0011747214011847973,0.006419116165488958,-0.010023842565715313,0.0045438422821462154,0.0,-0.0018640379421412945
-0.0011370142456144094,0.005651853047311306,-0.010298662818968296,0.004788233432918787,0.0,-0.0020009062718600035
-0.0011609237408265471,0.005517217330634594,-0.010154462419450283,0.005004264879971743,0.0,-0.002002070192247629
-0.001124492846429348,0.005680252332240343,-0.009350044652819633,0.005799015983939171,0.0,-0.0016995458863675594
-0.0012858095578849316,0.0061286818236112595,-0.00913284718990326,0.005357979331165552,0.0,-0.0015784897841513157
-0.0012584474170580506,0.005852315109223127,-0.00994162354618311,0.005130358971655369,0.0,-0.0014726846711710095
-0.001210864051245153,0.005422791000455618,-0.00994998961687088,0.005007186904549599,0.0,-0.0015276100020855665
-0.0011764821829274297,0.00533940689638257,-0.009463614784181118,0.00484584691002965,0.0,-0.0015124236233532429
-0.0012579470640048385,0.005647067446261644,-0.010089496150612831,0.005279396660625935,0.0,-0.0016649974277243018
-0.0012336114887148142,0.005854410585016012,-0.009873535484075546,0.005333614069968462,0.0,-0.001736471545882523
-0.001232481561601162,0.006174285896122456,-0.009432895109057426,0.005318507086485624,0.0,-0.001979035558179021
-0.001309867831878364,0.005517376586794853,-0.009557507000863552,0.004964462481439114,0.0,-0.0018440756248310208
-0.0012754437047988176,0.005320045631378889,-0.010011469945311546,0.0046801441349089146,0.0,-0.0018807165324687958
-0.0012796447845175862,0.005174360703676939,-0.010505388490855694,0.00441925460472703,0.0,-0.001711072283796966
-0.0012184600345790386,0.005800106097012758,-0.010230356827378273,0.004547980614006519,0.0,-0.0015884906752035022
-0.00126638391520828,0.005932575557380915,-0.009606558829545975,0.0050990344025194645,0.0,-0.0015597168821841478
-0.001135019352659583,0.005478881299495697,-0.00993411149829626,0.005052864085882902,0.0,-0.0013996532652527094
-0.0011629604268819094,0.004984572529792786,-0.00995165016502142,0.004880313295871019,0.0,-0.0013728020712733269
-0.0011298722820356488,0.005180687643587589,-0.009688446298241615,0.004511003848165274,0.0,-0.0014278596499934793
-0.0011298722820356488,0.005180687643587589,-0.009688446298241615,0.004511003848165274,0.0,-0.0014278596499934793
-0.0011227367212995887,0.005481516942381859,-0.009468117728829384,0.0043617296032607555,0.0,-0.0015582421328872442
-0.0013388005318120122,0.0056439358741045,-0.009913000278174877,0.004573935177177191,0.0,-0.0016577885253354907
-0.0012596516171470284,0.00576808862388134,-0.009936545044183731,0.004872321151196957,0.0,-0.0018630233826115727
-0.0012012537335976958,0.005241888575255871,-0.00932798720896244,0.005486319772899151,0.0,-0.001755387638695538
-0.0011010948801413178,0.0050750356167554855,-0.009608499705791473,0.005418242421001196,0.0,-0.0015993539709597826
-0.0010339823784306645,0.0056388648226857185,-0.009411471895873547,0.005355389788746834,0.0,-0.0014196160482242703
-0.0010149205336347222,0.005428845528513193,-0.009946358390152454,0.004859501495957375,0.0,-0.0013550232397392392
-0.0009199466439895332,0.005676586646586657,-0.009596718475222588,0.004854132421314716,0.0,-0.0013660909608006477
-0.0010153122711926699,0.005277686752378941,-0.009118769317865372,0.005176395643502474,0.0,-0.00140366330742836
-0.0010299378773197532,0.004876425955444574,-0.009280761703848839,0.00525412242859602,0.0,-0.0015801996923983097
-0.0010703889420256019,0.0052514877170324326,-0.00925572868436575,0.005194829776883125,0.0,-0.0015405897283926606
-0.0011032000184059143,0.005292047280818224,-0.009120029397308826,0.004525151569396257,0.0,-0.001442278386093676
-0.0011727837845683098,0.005866244435310364,-0.009561029262840748,0.0045431493781507015,0.0,-0.0012753488263115287
-0.0010642310371622443,0.005428742151707411,-0.009991301223635674,0.004652942065149546,0.0,-0.001205440261401236
-0.0011711242841556668,0.005724892020225525,-0.009535358287394047,0.005231585819274187,0.0,-0.001149308169260621
-0.0011224111076444387,0.0053526475094258785,-0.009305674582719803,0.005406293552368879,0.0,-0.0011004287516698241
-0.0011199676664546132,0.004983211401849985,-0.009177402593195438,0.0054462202824652195,0.0,-0.000992238987237215
-0.0010632685152813792,0.005861090961843729,-0.009038692340254784,0.004642343148589134,0.0,-0.0009746700525283813
-0.0010547535493969917,0.005352547857910395,-0.00928673055022955,0.004531704355031252,0.0,-0.0009628209518268704
-0.0010293450905010104,0.005471756681799889,-0.009647255763411522,0.0046955253928899765,0.0,-0.0009684115066193044
-0.0010109229478985071,0.005187053699046373,-0.00911523588001728,0.004846156109124422,0.0,-0.0011398952919989824
-0.000915441894903779,0.005050376057624817,-0.008934209123253822,0.0050497413612902164,0.0,-0.0011967939790338278
-0.0009834005031734705,0.005861160345375538,-0.009333116002380848,0.005007103551179171,0.0,-0.001261961180716753
-0.0009710061131045222,0.005654287990182638,-0.009065459482371807,0.004906378220766783,0.0,-0.0012878162087872624
-0.0009612145368009806,0.0056655146181583405,-0.00855396967381239,0.005125863943248987,0.0,-0.001217187033034861
-0.0008912964258342981,0.005297277122735977,-0.00910245068371296,0.005009551998227835,0.0,-0.00105523772072047
-0.0008912964258342981,0.005297277122735977,-0.00910245068371296,0.005009551998227835,0.0,-0.00105523772072047
-0.0009952262043952942,0.005653297062963247,-0.00990653969347477,0.004923494532704353,0.0,-0.0010253478540107608
-0.0009811966447159648,0.005312034860253334,-0.008942860178649426,0.0047677732072770596,0.0,-0.0008980109705589712
-0.0009698859066702425,0.005902173928916454,-0.009978953748941422,0.004857220221310854,0.0,-0.0008558520930819213
-0.0008891891920939088,0.005366395693272352,-0.009254763834178448,0.005002887919545174,0.0,-0.0008593772654421628
-0.0008837062050588429,0.004841517191380262,-0.00889137014746666,0.004976360127329826,0.0,-0.0008789267158135772
-0.0008548807818442583,0.005087953992187977,-0.009520194493234158,0.004770585335791111,0.0,-0.0010215792572125793
-0.0007875995361246169,0.005185191053897142,-0.009091372601687908,0.00509281363338232,0.0,-0.0010053581790998578
-0.0007990661542862654,0.005093473009765148,-0.008670183829963207,0.0054331994615495205,0.0,-0.0009821905987337232
-0.0008074895013123751,0.0049496907740831375,-0.00892171822488308,0.005511794239282608,0.0,-0.0009661797666922212
-0.00081850920105353,0.005178291816264391,-0.008659092709422112,0.005239524412900209,0.0,-0.0009680716902948916
-0.0008019066299311817,0.004948026034981012,-0.008435879833996296,0.004790343809872866,0.0,-0.0009583408827893436
-0.0007441575871780515,0.004767590668052435,-0.009149093180894852,0.004852296784520149,0.0,-0.000934695650357753
-0.0007596579380333424,0.00495365122333169,-0.009924715384840965,0.004811818245798349,0.0,-0.0008528548059985042
-0.0008152946247719228,0.004973309580236673,-0.008786560036242008,0.004953271709382534,0.0,-0.000824378861580044
-0.0007063148659653962,0.0048417686484754086,-0.008715173229575157,0.004884558264166117,0.0,-0.0007702907314524055
-0.0007273786468431354,0.00510849803686142,-0.008793226443231106,0.005233690142631531,0.0,-0.0007255701348185539
-0.0007148333243094385,0.005023409612476826,-0.008689241483807564,0.005076068453490734,0.0,-0.0007209606701508164
-0.0006717735668644309,0.004813977517187595,-0.008729426190257072,0.004556323401629925,0.0,-0.0006684864638373256
-0.0006639140192419291,0.00473377201706171,-0.009143639355897903,0.0044173020869493484,0.0,-0.0006690274458378553
-0.0006327226292341948,0.005110389087349176,-0.009229778312146664,0.0046784947626292706,0.0,-0.0006300550303421915
-0.0006031521479599178,0.0046584936790168285,-0.008536609821021557,0.004658176098018885,0.0,-0.0005776555626653135
-0.0006052706157788634,0.004633295815438032,-0.00915195606648922,0.004845009185373783,0.0,-0.0005891607725061476
-0.0005739975022152066,0.00492420420050621,-0.008893504738807678,0.004455290734767914,0.0,-0.0005520086269825697
-0.0006020856089890003,0.004930282477289438,-0.008351701311767101,0.0044035762548446655,0.0,-0.0005742161883972585
-0.0005525611923076212,0.005238942801952362,-0.009094328619539738,0.0044682640582323074,0.0,-0.0005722958594560623
-0.0005795485340058804,0.004928566049784422,-0.009112403728067875,0.00449474947527051,0.0,-0.0005619118455797434
-0.000537255487870425,0.004938400816172361,-0.008671680465340614,0.004431207198649645,0.0,-0.0006390859489329159
-0.000537255487870425,0.004938400816172361,-0.008671680465340614,0.004431207198649645,0.0,-0.0006390859489329159
-0.0005921314004808664,0.004632468335330486,-0.008762692101299763,0.004612114280462265,0.0,-0.0006532300030812621
-0.0005345209501683712,0.0049147941172122955,-0.009277325123548508,0.005154033657163382,0.0,-0.0006303317495621741
-0.000477891240734607,0.005009454675018787,-0.009276988916099072,0.005237643141299486,0.0,-0.0006130001274868846
-0.0004725614853668958,0.005046764854341745,-0.01016592513769865,0.004425625782459974,0.0,-0.0005847502616234124
-0.000434861023677513,0.004788727033883333,-0.009198096580803394,0.0050314487889409065,0.0,-0.0005726944655179977
-0.0004024470108561218,0.00472897058352828,-0.00863654911518097,0.005055202636867762,0.0,-0.0005325651145540178
-0.000374527124222368,0.004694108385592699,-0.009045054204761982,0.004916916601359844,0.0,-0.0005299746408127248
-0.0004077657649759203,0.004951503127813339,-0.009009839035570621,0.00534481555223465,0.0,-0.0004860840563196689
-0.00038370018592104316,0.005221589934080839,-0.00839312095195055,0.005231175106018782,0.0,-0.00043942994670942426
-0.0003616800531744957,0.005014817230403423,-0.00891963206231594,0.004968724679201841,0.0,-0.00046932860277593136
-0.00034204067196696997,0.004842728842049837,-0.009335801005363464,0.005007303785532713,0.0,-0.0004404094652272761
-0.0003244253166485578,0.005187829490751028,-0.00904539879411459,0.004993072245270014,0.0,-0.0004077429766766727
-0.00030853526550345123,0.004774394910782576,-0.00904729776084423,0.004705545026808977,0.0,-0.0004255863022990525
-0.0002941297134384513,0.005033751949667931,-0.009097694419324398,0.005314546171575785,0.0,-0.0004121995298191905
-0.0002810081350617111,0.004875935148447752,-0.008190447464585304,0.005323317833244801,0.0,-0.0003877643612213433
-0.00030690032872371376,0.0051496028900146484,-0.008712111040949821,0.004611301701515913,0.0,-0.00036533051752485335
-0.00029484080732800066,0.004901580512523651,-0.010099740698933601,0.00446124654263258,0.0,-0.0003453024255577475
-0.00028324814047664404,0.00459445733577013,-0.00904568750411272,0.004498383961617947,0.0,-0.0003708974691107869
-0.0002725262602325529,0.0048433393239974976,-0.008708208799362183,0.004638471640646458,0.0,-0.000355422351276502
-0.00026258689467795193,0.004870463162660599,-0.009100373834371567,0.005196677520871162,0.0,-0.00033887726021930575
-0.00025334686506539583,0.004797423258423805,-0.009465971030294895,0.005448564421385527,0.0,-0.00032365077640861273
-0.00024473489611409605,0.005167515017092228,-0.008887727744877338,0.005095221102237701,0.0,-0.0003097263106610626
-0.00023668921494390815,0.0050639137625694275,-0.009613587521016598,0.004801508039236069,0.0,-0.00029694981640204787
-0.00022915599402040243,0.00474366033449769,-0.009560849517583847,0.004817335866391659,0.0,-0.00028518648468889296
-0.000222087386646308,0.004794476553797722,-0.00894164014607668,0.00538637163117528,0.0,-0.00027431841590441763
-0.0002154422109015286,0.004742640070617199,-0.009037039242684841,0.005300513468682766,0.0,-0.0002642490726429969
-0.00020918251539114863,0.004766007419675589,-0.00921725481748581,0.005156830884516239,0.0,-0.0002557564585004002
-0.00020327662059571594,0.005083770956844091,-0.009153214283287525,0.004976800177246332,0.0,-0.00021213099535088986
-0.0001976949570234865,0.0054154288955032825,-0.00938369706273079,0.0047808061353862286,0.0,-0.00020060411770828068
-0.00018740353698376566,0.004626815672963858,-0.009115822613239288,0.005137308035045862,0.0,-0.00018405192531645298
-0.00018740353698376566,0.004626815672963858,-0.009115822613239288,0.005137308035045862,0.0,-0.00018405192531645298
-0.00018740353698376566,0.004626815672963858,-0.009115822613239288,0.005137308035045862,0.0,-0.00018405192531645298
-0.0001559693628223613,0.005082758143544197,-0.009769282303750515,0.005043064709752798,0.0,-0.00017013202887028456
-0.00015210271521937102,0.0054887887090444565,-0.009651418775320053,0.005100194364786148,0.0,-0.00016393368423450738
-0.0001485157263232395,0.005171989090740681,-0.009022870101034641,0.004625561181455851,0.0,-0.0001581705582793802
-0.0001450953132007271,0.004825697746127844,-0.009724116884171963,0.004564881324768066,0.0,-0.0001527991407783702
-0.0001418289029970765,0.004787666257470846,-0.009790350683033466,0.004970164969563484,0.0,-0.00014778073818888515
-0.0001387062220601365,0.004810872487723827,-0.00938250683248043,0.005153781268745661,0.0,-0.00014308128447737545
-0.0001357182045467198,0.005330176558345556,-0.009751422330737114,0.005035177804529667,0.0,-0.00013867158850189298
-0.00013285610475577414,0.005664527881890535,-0.009524834342300892,0.004807043354958296,0.0,-0.00013452587882056832
-0.0001301122538279742,0.005490545183420181,-0.009188875555992126,0.00465911440551281,0.0,-0.0001306208869209513
-0.00012747947766911238,0.005475321784615517,-0.010092386975884438,0.004659922327846289,0.0,-0.00012693603639490902
-0.00012495125702116638,0.005049522500485182,-0.010412576608359814,0.004714612383395433,0.0,-0.00012345350114628673
-4.998711301595904e-05,0.005459222476929426,-0.008994797244668007,0.005034368950873613,0.0,-0.00012015666288789362
-3.9612648834008723e-05,0.005228223744779825,-0.009793717414140701,0.005481313914060593,0.0,-0.00011703178461175412
-3.863785968860611e-05,0.005497467238456011,-0.009706993587315083,0.005439729429781437,0.0,-0.0001140649983426556
-3.782426574616693e-05,0.005559845827519894,-0.009382598102092743,0.004979257471859455,0.0,-0.00011124517186544836
-3.70457892131526e-05,0.005092500243335962,-0.010129916481673717,0.004651771392673254,0.0,-0.00010856136213988066
-3.629876664490439e-05,0.005419848021119833,-0.00966593436896801,0.004289968404918909,0.0,-0.00010600384848657995
-3.558121534297243e-05,0.005279830191284418,-0.008976568467915058,0.004458058625459671,0.0,-0.00010356410348322242
-3.489149457891472e-05,0.005029737949371338,-0.009439127519726753,0.005080861505120993,0.0,-0.00010123444371856749
-3.4228032745886594e-05,0.0052383169531822205,-0.009616831317543983,0.00503522576764226,0.0,-9.900688019115478e-05
-3.358928734087385e-05,0.005322098266333342,-0.009699296206235886,0.004956136457622051,0.0,-7.879333134042099e-05
-3.2974017813103274e-05,0.004979892633855343,-0.010075828991830349,0.004850775469094515,0.0,-7.595155329909176e-05
-3.2974017813103274e-05,0.004979892633855343,-0.010075828991830349,0.004850775469094515,0.0,-7.595155329909176e-05
-2.1725631086155772e-05,0.005214195232838392,-0.009773400612175465,0.0047693271189928055,0.0,-7.43067721487023e-05
-1.5361400073743425e-05,0.005653833504766226,-0.009674673900008202,0.005298864562064409,0.0,-6.996890442678705e-05
-1.5361400073743425e-05,0.005653833504766226,-0.009674673900008202,0.005298864562064409,0.0,-6.996890442678705e-05
-1.5103619261935819e-05,0.0056456346064805984,-0.009347190149128437,0.005023561418056488,0.0,-6.863489397801459e-05
-1.4854336768621579e-05,0.005043576471507549,-0.009875486604869366,0.004839663859456778,0.0,-6.735086935805157e-05
-1.4613152416131925e-05,0.00478993309661746,-0.009490654803812504,0.004750537220388651,0.0,-6.611395656364039e-05
-1.4379679669218604e-05,0.0049589104019105434,-0.009436090476810932,0.004346408881247044,0.0,-6.492163083748892e-05
-1.4153539268590976e-05,0.005447437055408955,-0.009544653818011284,0.004563177470117807,0.0,-6.377161480486393e-05
-1.3934409253124613e-05,0.006072341930121183,-0.009704400785267353,0.004889067728072405,0.0,-6.266156560741365e-05
-1.601605731593736e-06,0.005437090061604977,-0.00948453787714243,0.004980177152901888,0.0,-6.158956966828555e-05
-2.148758504461057e-08,0.004964577034115791,-0.009751527570188046,0.004493554122745991,0.0,-4.7395576984854415e-05
-2.8828336939845656e-10,0.005239001475274563,-0.009803998284041882,0.004935749806463718,0.0,-4.479328708839603e-05
-3.867689155057086e-12,0.0051117269322276115,-0.008915134705603123,0.005337646696716547,0.0,-4.394557618070394e-05
-5.188998373779202e-14,0.0059228697791695595,-0.00960568431764841,0.005450667813420296,0.0,-4.3234169424977154e-05
-6.961704501176787e-16,0.0054407003335654736,-0.009822314605116844,0.005357526242733002,0.0,-4.2552324885036796e-05
-9.340015588052681e-18,0.004801805131137371,-0.009391207247972488,0.004921614658087492,0.0,1.9591998352552764e-05
-1.2530822097776862e-19,0.005408487748354673,-0.010012424550950527,0.004464303608983755,0.0,3.8662801671307534e-05
-1.6811698741090862e-21,0.005372228566557169,-0.009092897176742554,0.004638071171939373,0.0,3.909541919711046e-05
-2.25550400045977e-23,0.0050615910440683365,-0.00879071094095707,0.004937715362757444,0.0,5.256884469417855e-05
-3.026046273562579e-25,0.005799977108836174,-0.009174777194857597,0.00511089526116848,0.0,5.60035950911697e-05
-4.05982719677325e-27,0.005223441403359175,-0.009729307144880295,0.005092875566333532,0.0,5.515508019016124e-05
-5.44677604064812e-29,0.004932332318276167,-0.009589700028300285,0.004980552941560745,0.0,6.97299765306525e-05
-7.3075452674800095e-31,0.004704260732978582,-0.00926084816455841,0.0051000057719647884,0.0,7.052499131532386e-05
-7.3075452674800095e-31,0.004704260732978582,-0.00926084816455841,0.0051000057719647884,0.0,7.052499131532386e-05
-9.804004921521895e-33,0.004926692228764296,-0.009571864269673824,0.005064856261014938,0.0,8.548430923838168e-05
0.0002910837938543409,0.004759257193654776,-0.009222340770065784,0.005199408624321222,0.0,8.504010475007817e-05
0.00034740427508950233,0.005460567306727171,-0.00909428857266903,0.004920505918562412,0.0,0.0004132254980504513
0.0003234876203350723,0.005251590628176928,-0.009721331298351288,0.004910870920866728,0.0,0.00045727091492153704
0.000354926596628502,0.004463741555809975,-0.009364818222820759,0.004972471389919519,0.0,0.00043960698531009257
0.00033929847995750606,0.0043791066855192184,-0.009188209660351276,0.004945946857333183,0.0,0.0004708401393145323
0.00034967222018167377,0.005067783407866955,-0.008931964635848999,0.005373579915612936,0.0,0.000678619253449142
0.00037503824569284916,0.004906616639345884,-0.008785251528024673,0.005534152965992689,0.0,0.000825233815703541
0.00036152987740933895,0.004714378155767918,-0.009679773822426796,0.0056756711564958096,0.0,0.0008938467944972217
0.00046950732939876616,0.004600731655955315,-0.009306621737778187,0.004836191423237324,0.0,0.0014609373174607754
0.0004975076299160719,0.004679613281041384,-0.009086153469979763,0.004582253284752369,0.0,0.0015453442465513945
0.000480955553939566,0.004676192533224821,-0.009260536171495914,0.005019244737923145,0.0,0.00138704979326576
0.0005145356408320367,0.004611270967870951,-0.00996976438909769,0.004999568685889244,0.0,0.0013158000074326992
0.0005454931524582207,0.004594361875206232,-0.008826636709272861,0.004987289197742939,0.0,0.00123096932657063
0.0009132082341238856,0.004695534706115723,-0.010112370364367962,0.00511577446013689,0.0,0.0012369380565360188
0.0009155560401268303,0.004452035762369633,-0.009708836674690247,0.004927684087306261,0.0,0.0014165665488690138
0.0008362146327272058,0.004238826688379049,-0.009143075905740261,0.0047515989281237125,0.0,0.002073334064334631
0.000842590001411736,0.00416934909299016,-0.009438999928534031,0.004877318162471056,0.0,0.0025867787189781666
0.00076748535502702,0.004480499774217606,-0.00953638181090355,0.004900668747723103,0.0,0.0029214166570454836
0.0007571094902232289,0.004602557979524136,-0.009378138929605484,0.005318500101566315,0.0,0.0025658169761300087
0.0007771866512484848,0.004841783083975315,-0.009115911088883877,0.00512409582734108,0.0,0.00232448591850698
0.0008661774336360395,0.004773100838065147,-0.010266141034662724,0.004847231786698103,0.0,0.0020187736954540014
0.0009872238151729107,0.004600096493959427,-0.009718845598399639,0.0046635945327579975,0.0,0.0020244186744093895
0.0011702135670930147,0.004537550732493401,-0.009329766035079956,0.004996083676815033,0.0,0.002246139571070671
0.001174609293229878,0.004391475114971399,-0.00961575098335743,0.005443745758384466,0.0,0.002514616120606661
0.0015864211600273848,0.004579642321914434,-0.009421607479453087,0.006025040056556463,0.0,0.0026414128951728344
0.0015864211600273848,0.004579642321914434,-0.009421607479453087,0.006025040056556463,0.0,0.0026414128951728344
0.0016016110312193632,0.004554416052997112,-0.009661538526415825,0.005456186830997467,0.0,0.0027259718626737595
0.0014910426689311862,0.004878603387624025,-0.010005337186157703,0.005426537711173296,0.0,0.0029003475792706013
0.0015459462301805615,0.004761313553899527,-0.009964600205421448,0.005155656021088362,0.0,0.0027815033681690693
0.001463939668610692,0.004617443308234215,-0.009830059483647346,0.004955144599080086,0.0,0.0026711688842624426
0.001620222581550479,0.004218806978315115,-0.010131669230759144,0.005074466113001108,0.0,0.002777380170300603
0.002131221117451787,0.004238906316459179,-0.009462259709835052,0.006032150704413652,1.1197314506716793e-06,0.0030459188856184483
0.0021520203445106745,0.004907779861241579,-0.010613804683089256,0.005514791700989008,7.311046346103467e-08,0.0032378099858760834
0.0023358941543847322,0.005091697443276644,-0.009648844599723816,0.004874348174780607,4.7735908559332074e-09,0.003612975124269724
0.002326996996998787,0.00464220205321908,-0.00936870276927948,0.004784283693879843,3.1168137515358296e-10,0.0034724290017038584
0.0022632344625890255,0.004416188225150108,-0.009853480383753777,0.005222903098911047,2.0350566717897145e-11,0.003347900230437517
0.002340101869776845,0.004840572830289602,-0.009821155108511448,0.005660427734255791,1.3287466829950412e-12,0.0032843260560184717
0.0026518716476857662,0.004890836775302887,-0.009823017753660679,0.005467560142278671,8.67576613306463e-14,0.0031638641376048326
0.0025910097174346447,0.0045687067322432995,-0.010499373078346252,0.005570017267018557,5.664655231024012e-15,0.0032572129275649786
0.0029248283244669437,0.005080638453364372,-0.009509995579719543,0.005380493123084307,3.6986151569046134e-16,0.003553926944732666
0.0030013369396328926,0.005517138633877039,-0.009174920618534088,0.0059452541172504425,2.414931629908148e-17,0.0037507163360714912
0.002979565877467394,0.004810956306755543,-0.009683797135949135,0.006091554649174213,1.5767776807080224e-18,0.004247219301760197
0.002782882424071431,0.004422395955771208,-0.009866381995379925,0.005810583010315895,1.0295230783033058e-19,0.003728441195562482
0.00292280875146389,0.004885966889560223,-0.009694119915366173,0.005164374131709337,6.7220501283759346e-21,0.0035182887222617865
0.0033680181950330734,0.004486951511353254,-0.010656177066266537,0.00529814139008522,4.389018613645035e-22,0.0036891268100589514
0.0033234276343137026,0.004650759976357222,-0.00953610334545374,0.00575176440179348,2.865715205235543e-23,0.00380966579541564
0.0030643243808299303,0.005113240331411362,-0.009855852462351322,0.0061322590336203575,1.8711072669179964e-24,0.004195127636194229
0.0033449323382228613,0.004807037767022848,-0.010369939729571342,0.005868514068424702,1.221699392933015e-25,0.004173599183559418
0.003687092801555991,0.004291945602744818,-0.009663255885243416,0.005645291414111853,7.976823577010853e-27,0.003970187623053789
0.003926589619368315,0.004422891419380903,-0.009807460010051727,0.005336591973900795,5.2082952375013185e-28,0.0037512152921408415
0.003926589619368315,0.004422891419380903,-0.009807460010051727,0.005336591973900795,5.2082952375013185e-28,0.0037512152921408415
0.003442268818616867,0.004419001750648022,-0.010575110092759132,0.005718536674976349,3.4006445954599234e-29,0.0036922208964824677
0.0034547161776572466,0.004403653088957071,-0.009986677207052708,0.005955336149781942,2.2203779256523935e-30,0.003715303959324956
0.003556144656613469,0.004885638598352671,-0.009830465540289879,0.006134382449090481,1.4497481149665898e-31,0.003972530830651522
0.0036799111403524876,0.0049400352872908115,-0.010080228559672832,0.005672088824212551,9.465818870210169e-33,0.003960585221648216
0.004773539025336504,0.0046773627400398254,-0.010973555035889149,0.005656929221004248,4.0354270495826105e-35,0.004328981041908264
0.004650719463825226,0.00466588418930769,-0.010080153122544289,0.005893518216907978,2.6348454043531954e-36,0.004129569046199322
0.003974561579525471,0.0046932692639529705,-0.00932494830340147,0.00603084359318018,1.720365716860792e-37,0.0038723868783563375
0.003420281456783414,0.004514286294579506,-0.009773350320756435,0.005722780246287584,1.1232758043283018e-38,0.004230785649269819
0.004265177994966507,0.004606627393513918,-0.010358279570937157,0.006336625199764967,7.334185967506444e-40,0.004188452381640673
0.005147174000740051,0.004402858670800924,-0.00989646464586258,0.006303796544671059,4.788657242137197e-41,0.003967977594584227
0.005042615346610546,0.004415477626025677,-0.010141420178115368,0.006163213402032852,3.126296873908667e-42,0.003537793643772602
0.005403827875852585,0.004289842676371336,-0.010429736226797104,0.006088121794164181,2.045895757914233e-43,0.0040491558611392975
0.005294686648994684,0.004461026284843683,-0.009739402681589127,0.006032129283994436,1.401298464324817e-44,0.004653242416679859
0.004986487794667482,0.004406223073601723,-0.010065493173897266,0.005909583531320095,1.401298464324817e-45,0.004488479811698198
0.005354235880076885,0.004513332154601812,-0.010100933723151684,0.006213023327291012,0.0,0.004452050197869539
0.005254445597529411,0.004646106157451868,-0.01026867050677538,0.006329043302685022,0.0,0.004413418471813202
0.005851962603628635,0.004656048491597176,-0.011071616783738136,0.006050219759345055,0.0,0.004159031435847282
0.005819013807922602,0.004619554616510868,-0.01135987788438797,0.006100470665842295,0.0,0.004292048513889313
0.005710596684366465,0.00458257831633091,-0.009630385786294937,0.0057150209322571754,0.0,0.004750399384647608
0.00572929996997118,0.004546213895082474,-0.010650944896042347,0.005840163212269545,0.0,0.004948928486555815
0.005980621092021465,0.004609698895365,-0.010399702936410904,0.005975962150841951,0.0,0.004758255556225777
0.006477594841271639,0.00467564444988966,-0.010271606035530567,0.00598553754389286,0.0,0.00419280119240284
0.006441568955779076,0.004649264272302389,-0.010935069061815739,0.00603306433185935,0.0,0.004364994820207357
0.006091396324336529,0.004935029894113541,-0.01042089331895113,0.006092194467782974,0.0,0.004577900283038616
0.006091396324336529,0.004935029894113541,-0.01042089331895113,0.006092194467782974,0.0,0.004577900283038616
0.007267448119819164,0.004521553870290518,-0.01077309064567089,0.006328089628368616,0.0,0.004515550099313259
0.007267448119819164,0.004521553870290518,-0.01077309064567089,0.006328089628368616,0.0,0.004515550099313259
0.006756028160452843,0.004410086199641228,-0.01000904105603695,0.00658355001360178,0.0,0.004880178719758987
0.006891237106174231,0.00465909531340003,-0.010628610849380493,0.006066422443836927,0.0,0.004934309050440788
0.006858461070805788,0.004680521786212921,-0.01030535064637661,0.005543801933526993,0.0,0.00494384765625
0.007276024669408798,0.004607104230672121,-0.010703546926379204,0.006073559634387493,0.0,0.004901690874248743
0.007324059493839741,0.0045071677304804325,-0.010821836069226265,0.006474202033132315,0.0,0.004717288538813591
0.007280919700860977,0.004478431772440672,-0.01021689735352993,0.006154503673315048,0.0,0.005382560193538666
0.007742675021290779,0.00484840665012598,-0.011832715012133121,0.005993160419166088,0.0,0.005339936353266239
0.007436773739755154,0.004809380974620581,-0.01048363745212555,0.005873254034668207,0.0,0.005377460736781359
0.007535746321082115,0.004713192582130432,-0.010193770751357079,0.006487886421382427,0.0,0.006051402073353529
0.0077463057823479176,0.004758292343467474,-0.011235431768000126,0.006540749222040176,0.0,0.004950275178998709
0.007755730301141739,0.004820477683097124,-0.010378913022577763,0.006515685934573412,0.0,0.004857282154262066
0.008292309939861298,0.004496788140386343,-0.010731241665780544,0.0060713812708854675,0.0,0.00502702035009861
0.00847538560628891,0.004437921568751335,-0.010685023851692677,0.00626466516405344,0.0,0.0053284005261957645
0.00790856871753931,0.00458273570984602,-0.010264082811772823,0.006971255410462618,0.0,0.0059527442790567875
0.008702604100108147,0.004676880314946175,-0.01113656722009182,0.006897743791341782,0.0,0.005551022943109274
0.00856669433414936,0.004630727227777243,-0.010654069483280182,0.006413994822651148,0.0,0.005441601853817701
0.008421054109930992,0.00455762492492795,-0.010273662395775318,0.006236760877072811,0.0,0.005543167237192392
0.00810237880796194,0.0050500184297561646,-0.01072714850306511,0.006872321013361216,0.0,0.0060179890133440495
0.008465861901640892,0.004826534539461136,-0.011244853027164936,0.0071439375169575214,0.0,0.005669003818184137
0.009005249477922916,0.004746000282466412,-0.010613718070089817,0.006872271187603474,0.0,0.0054358006455004215
0.008253602311015129,0.004650150891393423,-0.010694732889533043,0.006008259020745754,0.0,0.005076904781162739
0.008786983788013458,0.004456907976418734,-0.009946327656507492,0.006454986985772848,0.0,0.005615042056888342
0.008966043591499329,0.00452473433688283,-0.01070412527769804,0.007117800414562225,0.0,0.005456082988530397
0.008372515439987183,0.004687838722020388,-0.01072041317820549,0.006951846648007631,0.0,0.005682306829839945
0.008823293261229992,0.004644440021365881,-0.010199980810284615,0.00621100515127182,0.0,0.006054259836673737
0.00924709253013134,0.004526676144450903,-0.011017506942152977,0.006040065549314022,0.0,0.00607219198718667
0.008928359486162663,0.004643821623176336,-0.0103917196393013,0.00706159882247448,0.0,0.006219660863280296
0.009032214991748333,0.004687875043600798,-0.01101587899029255,0.0070952679961919785,0.0,0.00617652852088213
0.009032214991748333,0.004687875043600798,-0.01101587899029255,0.0070952679961919785,0.0,0.00617652852088213
0.010020768269896507,0.004308255854994059,-0.011503348127007484,0.0067026130855083466,0.0,0.005912218242883682
0.009457594715058804,0.00497872568666935,-0.010636789724230766,0.00678023137152195,0.0,0.006287663243710995
0.009672221727669239,0.005032380111515522,-0.009806092828512192,0.007037793751806021,0.0,0.006678782869130373
0.00928093958646059,0.004655389115214348,-0.011122563853859901,0.007192710880190134,0.0,0.006372835952788591
0.009268638677895069,0.00443778233602643,-0.012177888303995132,0.006906906142830849,0.0,0.006056600715965033
0.009437196888029575,0.004381625913083553,-0.011314780451357365,0.007140808738768101,0.0,0.006360225845128298
0.009556581266224384,0.004033803474158049,-0.010004355572164059,0.006981072016060352,0.0,0.0068350560031831264
0.00903967022895813,0.004418780095875263,-0.010998371057212353,0.007101248949766159,0.0,0.00696886982768774
0.006845553871244192,0.004709978122264147,-0.010983472689986229,0.006529136560857296,0.0,0.006537979003041983
0.006481376010924578,0.004282472655177116,-0.010626409202814102,0.0064845699816942215,0.0,0.006501528900116682
0.007463433779776096,0.004309298936277628,-0.011254260316491127,0.00676328781992197,0.0,0.006651364732533693
0.007725108880549669,0.004003257490694523,-0.010276020504534245,0.007475692313164473,0.0,0.0069380891509354115
0.008043739013373852,0.00371978129260242,-0.01099449023604393,0.0069197784177958965,0.0,0.007204865571111441
0.0077175572514534,0.0036714826710522175,-0.011538153514266014,0.006489680148661137,0.0,0.007442875765264034
0.007683358620852232,0.004237025510519743,-0.010878232307732105,0.00694144144654274,-3.921191091649234e-05,0.007068288046866655
0.007462137844413519,0.0046056052669882774,-0.011134695261716843,0.007103842217475176,-0.00015147466911002994,0.006717410869896412
0.0075956080108881,0.004355336539447308,-0.010475709103047848,0.0072446539998054504,-0.00015371253539342433,0.007080595009028912
0.008103743195533752,0.004512313287705183,-0.010899198241531849,0.006883044261485338,-0.00014910339086782187,0.0073237973265349865
0.007451523095369339,0.004466934595257044,-0.011521908454596996,0.007009380962699652,-0.00014435144839808345,0.007368177641183138
0.008013530634343624,0.0046242605894804,-0.010688583366572857,0.007573921699076891,-0.00016414008860010654,0.007420395966619253
0.007951623760163784,0.004272736143320799,-0.011185049079358578,0.006901652552187443,-0.0001625383592909202,0.0073013342916965485
0.007849320769309998,0.004407093860208988,-0.011159049347043037,0.0065214610658586025,-0.0001775066484697163,0.007213689386844635
0.00774926133453846,0.004873957019299269,-0.010698746889829636,0.006576474756002426,-0.00017866362759377807,0.006982814520597458
0.007840451784431934,0.004729186650365591,-0.011225409805774689,0.007255215663462877,-0.00017412965826224536,0.007272794842720032
0.008864099159836769,0.004908028990030289,-0.010984598658978939,0.007561241276562214,-0.00016947164840530604,0.007210134994238615
0.008261521346867085,0.004767796490341425,-0.01062017772346735,0.007561946753412485,-0.0001650336489547044,0.007284657098352909
0.008378800004720688,0.004631868097931147,-0.011495050974190235,0.007020082324743271,-0.00016082073852885514,0.007478640880435705
0.008844485506415367,0.004307649563997984,-0.011161178350448608,0.007445478346198797,-0.0001719909778330475,0.008094772696495056
0.008844485506415367,0.004307649563997984,-0.011161178350448608,0.007445478346198797,-0.0001719909778330475,0.008094772696495056
0.008332010358572006,0.005004631821066141,-0.011700181290507317,0.007354856003075838,-0.00017053257033694535,0.008107802830636501
0.009165619499981403,0.004976585507392883,-0.011579655110836029,0.007760637439787388,-0.00016675364167895168,0.008389318361878395
0.009474176913499832,0.004556240048259497,-0.011433791369199753,0.007915792055428028,-0.00016298986156471074,0.008096256293356419
0.00929084699600935,0.004266756121069193,-0.01107728574424982,0.007586956489831209,-0.00015938252909108996,0.00806471984833479
0.008325107395648956,0.004194222390651703,-0.011230849660933018,0.007314322981983423,-0.0001559306401759386,0.008148923516273499
0.008882755413651466,0.004467759281396866,-0.010892381891608238,0.007325174752622843,-0.00015262509987223893,0.00881133321672678
0.009145626798272133,0.004527459852397442,-0.010760484263300896,0.0076625654473900795,-0.00014945681323297322,0.008662725798785686
0.009266221895813942,0.004871481563895941,-0.011519992724061012,0.007716066669672728,-0.000146417340147309,0.00839720107614994
0.009932592511177063,0.00481785973533988,-0.01128469966351986,0.007669367361813784,-0.000143499142723158,0.008860453963279724
0.009357643313705921,0.004799901973456144,-0.010807827115058899,0.007127868477255106,-0.00014069497410673648,0.008937676437199116
0.009220113977789879,0.004714527167379856,-0.011096498928964138,0.007138014305382967,-0.00016963074449449778,0.00941119808703661
0.00988864153623581,0.004335747100412846,-0.010843793861567974,0.007368925958871841,-0.00017351056158076972,0.009154366329312325
0.010071954689919949,0.004463923629373312,-0.011326325125992298,0.007351461797952652,-0.00016772393428254873,0.009520654566586018
0.010587159544229507,0.004352044779807329,-0.01145351305603981,0.00677894614636898,-0.00016173921176232398,0.008802523836493492
0.010192297399044037,0.004801352508366108,-0.011141795665025711,0.006803154945373535,-0.00018321409879717976,0.008777279406785965
0.01007089950144291,0.0049929493106901646,-0.012169333174824715,0.007012748625129461,-0.00018080246809404343,0.008837047033011913
0.010041845962405205,0.004813329316675663,-0.01150119211524725,0.007584391161799431,-0.00017517969536129385,0.008839502930641174
0.010627171024680138,0.004290528129786253,-0.01141593512147665,0.007007349748164415,-0.00016969014541245997,0.008369453251361847
0.01042083092033863,0.004144792445003986,-0.011204521171748638,0.007112393155694008,-0.00018831600027624518,0.008546159602701664
0.009768038988113403,0.004596034996211529,-0.010834169574081898,0.007524795830249786,-0.00018602886120788753,0.009362883865833282
0.010041368193924427,0.004668667912483215,-0.011619997210800648,0.007496375124901533,-0.0001809004897950217,0.008972021751105785
0.009973873384296894,0.004863659851253033,-0.011356541886925697,0.007032786495983601,-0.00017586431931704283,0.008667003363370895
0.010775300674140453,0.0048255594447255135,-0.0112806661054492,0.00711718387901783,-0.00019230737234465778,0.00901886261999607
0.011198736727237701,0.004876921884715557,-0.012174177914857864,0.0074576642364263535,-0.0001901498035294935,0.008679146878421307
0.01128930039703846,0.004787397105246782,-0.01122911274433136,0.0074299597181379795,-0.00029689323855564,0.008893677033483982
0.010670931078493595,0.004600829910486937,-0.011705451644957066,0.007438919972628355,-0.00027657372993417084,0.009396425448358059
0.010144238360226154,0.004332901444286108,-0.011499019339680672,0.007526166271418333,-0.0003057024732697755,0.008818305097520351
0.010144238360226154,0.004332901444286108,-0.011499019339680672,0.007526166271418333,-0.0003057024732697755,0.008818305097520351
0.010441675782203674,0.005048047751188278,-0.011864081025123596,0.00733135174959898,-0.00029515865026041865,0.008706841617822647
0.010671143420040607,0.004959421698004007,-0.011488866992294788,0.0072220126166939735,-0.00031469634268432856,0.008518725633621216
0.010780856013298035,0.004734258633106947,-0.012281074188649654,0.007656482048332691,-0.000310040864860639,0.008821009658277035
0.011452038772404194,0.004350511822849512,-0.011777487583458424,0.007595774717628956,-0.00029617041582241654,0.009694361127912998
0.01055953186005354,0.004247105214744806,-0.011845076456665993,0.00708018196746707,-0.0003179263148922473,0.009364113211631775
0.011007839813828468,0.0044511836022138596,-0.011682728305459023,0.007160821929574013,-0.00030908145708963275,0.009575927630066872
0.011123456992208958,0.004714885726571083,-0.01132957637310028,0.007644333876669407,-0.0002966578758787364,0.009191259741783142
0.011009570211172104,0.004909027833491564,-0.012441623024642467,0.007838382385671139,-0.00028493619174696505,0.009715482592582703
0.011549808084964752,0.005000018049031496,-0.011715341359376907,0.007677831221371889,-0.00031320942798629403,0.009686429053544998
0.011646721512079239,0.004343973007053137,-0.011997351422905922,0.0074971443973481655,-0.00032848570845089853,0.00961790606379509
0.012970085255801678,0.004482261836528778,-0.012175834737718105,0.007503259461373091,-0.0003084591298829764,0.009988594800233841
0.011083879508078098,0.004676623735576868,-0.01255783811211586,0.008078159764409065,-0.00033132790122181177,0.011050759814679623
0.010958968661725521,0.004691481124609709,-0.012784913182258606,0.007943307049572468,-0.00032468081917613745,0.009728483855724335
0.011986718513071537,0.005310425069183111,-0.011869045905768871,0.0077072624117136,-0.0003070796956308186,0.009958016686141491
0.012284389697015285,0.005323140881955624,-0.012408774346113205,0.007508006878197193,-0.0003263192775193602,0.01010865718126297
0.011753189377486706,0.004751638974994421,-0.012600733898580074,0.008307495154440403,-0.00032089269370771945,0.009829286485910416
0.01184364128857851,0.004895082674920559,-0.012457393109798431,0.008419563993811607,-0.0003060332965105772,0.010187414474785328
0.011163230054080486,0.004804130643606186,-0.01236278098076582,0.007854711264371872,-0.0003280167293269187,0.010496933944523335
0.011527526192367077,0.004851981531828642,-0.011813037097454071,0.007669492624700069,-0.00031871971441432834,0.010739916935563087
0.011137331835925579,0.004830625839531422,-0.012331747449934483,0.00823978055268526,-0.00039982987800613046,0.010813222266733646
0.012298251502215862,0.005317725706845522,-0.012434535659849644,0.008217963390052319,-0.00042868731543421745,0.010405576787889004
0.011735699139535427,0.004596036393195391,-0.01305055059492588,0.008059930056333542,-0.0004133401089347899,0.010719344019889832
0.011465274728834629,0.004518446978181601,-0.012578101828694344,0.008338937535881996,-0.00038499783840961754,0.010858106426894665
0.01164319273084402,0.004507707431912422,-0.012613058090209961,0.008324682712554932,-0.0003594305308070034,0.01037906575948
0.011367740109562874,0.004637070931494236,-0.012323877774178982,0.00810874905437231,-0.00038554571801796556,0.010772409848868847
0.011402917094528675,0.004727207124233246,-0.01198351290076971,0.008885056711733341,-0.00036955601535737514,0.010966887697577477
0.011402917094528675,0.004727207124233246,-0.01198351290076971,0.008885056711733341,-0.00036955601535737514,0.010966887697577477
0.011595875024795532,0.004814743530005217,-0.013065921142697334,0.008961129933595657,-0.00034775762469507754,0.011047430336475372
0.011595875024795532,0.004814743530005217,-0.013065921142697334,0.008961129933595657,-0.00034775762469507754,0.011047430336475372
0.011832966469228268,0.00478854076936841,-0.013042934238910675,0.009151476435363293,-0.0003416634281165898,0.010880779474973679
0.011324395425617695,0.0047805095091462135,-0.012255704961717129,0.008942671120166779,-0.00032683051540516317,0.010927094146609306
0.011955504305660725,0.004707159474492073,-0.012419161386787891,0.008539902046322823,-0.000340347527526319,0.010780570097267628
0.011330909095704556,0.0049503762274980545,-0.012287965975701809,0.008488945662975311,-0.000325994857121259,0.01100820954889059
0.011570349335670471,0.004791571293026209,-0.012748867273330688,0.008608807809650898,-0.00035722789471037686,0.010795006528496742
0.011730621568858624,0.004730557557195425,-0.012142493389546871,0.008415044285356998,-0.00034183537354692817,0.010689886286854744
0.012645985931158066,0.0042149098590016365,-0.01207276526838541,0.008337189443409443,-0.0003683235845528543,0.01065865345299244
0.01182396151125431,0.0037806853652000427,-0.01192339789122343,0.00920819491147995,-0.0003539959725458175,0.010015107691287994
0.011332329362630844,0.003642207710072398,-0.011993298307061195,0.00874317530542612,-0.00037090657860971987,0.010014552623033524
0.01182569470256567,0.003635152941569686,-0.012180079706013203,0.007929441519081593,-0.00036329784779809415,0.010593026876449585
0.012539127841591835,0.003969853278249502,-0.012003674171864986,0.008584816008806229,-0.00034653369220905006,0.010193337686359882
0.01195855438709259,0.003986712545156479,-0.012369781732559204,0.00914862472563982,-0.00046338283573277295,0.010595043189823627
0.01220085471868515,0.0038588065654039383,-0.011766134761273861,0.008490141481161118,-0.00048059335676953197,0.011169707402586937
0.011893581598997116,0.00431871647015214,-0.012082262896001339,0.008756221272051334,-0.00047763370093889534,0.011064411140978336
0.01242609228938818,0.004158670548349619,-0.012229928746819496,0.00898086279630661,-0.0004411815316416323,0.011231434531509876
0.012023734860122204,0.004516497254371643,-0.012323688715696335,0.00858874898403883,-0.00046667730202898383,0.011217424646019936
0.012108022347092628,0.004143952392041683,-0.012546919286251068,0.008009497076272964,-0.0004419316246639937,0.011355752125382423
0.012049980461597443,0.004415553528815508,-0.012221293523907661,0.00871163047850132,-0.00044214449007995427,0.011461791582405567
0.012234115041792393,0.004226475488394499,-0.012907491065561771,0.009083095006644726,-0.00044144425191916525,0.01159355416893959
0.012327338568866253,0.004000876098871231,-0.011970678344368935,0.008543363772332668,-0.00041756255086511374,0.011324438266456127
0.01194453239440918,0.003921916242688894,-0.012491974048316479,0.00875752605497837,-0.0004535920743364841,0.011376956477761269
0.01282950397580862,0.003920385148376226,-0.012364138849079609,0.008903705514967442,-0.00042108530760742724,0.011096623726189137
0.01282950397580862,0.003920385148376226,-0.012364138849079609,0.008903705514967442,-0.00042108530760742724,0.011096623726189137
0.011633523739874363,0.0040709879249334335,-0.012416313402354717,0.00861695222556591,-0.0004228974867146462,0.011159393936395645
0.0127427252009511,0.003766943933442235,-0.011951562948524952,0.009556649252772331,-0.0003948607773054391,0.011082500219345093
0.012283083982765675,0.003862628946080804,-0.012523363344371319,0.008561660535633564,-0.0004210693296045065,0.011223099194467068
0.01263188011944294,0.004266197327524424,-0.012145226821303368,0.008448305539786816,-0.0004014690057374537,0.011725961230695248
0.01206520851701498,0.0036083960440009832,-0.012516614980995655,0.009238253347575665,-0.0003778537502512336,0.011719238944351673
0.012635304592549801,0.003498805221170187,-0.01191285252571106,0.008802920579910278,-0.0003940275637432933,0.011744716204702854
0.012308836914598942,0.004135596100240946,-0.011753704398870468,0.008500572293996811,-0.0003847199841402471,0.011373033747076988
0.01267305575311184,0.004189338535070419,-0.012198898009955883,0.008925973437726498,-0.0003677418571896851,0.011762933805584908
0.012505247257649899,0.003930381499230862,-0.012076604180037975,0.009236368350684643,-0.0003867131599690765,0.011804566718637943
0.012273996137082577,0.003868037136271596,-0.012543407268822193,0.00920273270457983,-0.0004118955403100699,0.011573614552617073
0.013007089495658875,0.004294370301067829,-0.012244805693626404,0.008628367446362972,-0.00039809662848711014,0.01125900074839592
0.012098104692995548,0.004286430776119232,-0.01251495722681284,0.00915819313377142,-0.0004018508188892156,0.010938010178506374
0.012488335371017456,0.004005177412182093,-0.012334824539721012,0.008882429450750351,-0.000403767975512892,0.011421489529311657
0.0125121446326375,0.003918190486729145,-0.012077937833964825,0.008845680393278599,-0.0003811416681855917,0.011905132792890072
0.013554545119404793,0.0043746475130319595,-0.012636189348995686,0.009508764371275902,-0.00039734889287501574,0.01249752752482891
0.01300418097525835,0.004139207769185305,-0.012054868042469025,0.009782352484762669,-0.00038779841270297766,0.011302483268082142
0.01281106099486351,0.0041725169867277145,-0.0128490524366498,0.009526822715997696,-0.0003698158252518624,0.01149115152657032
0.012700500898063183,0.00452679255977273,-0.012867704033851624,0.009336843155324459,-0.00044446223182603717,0.012108315713703632
0.012919286265969276,0.004161593969911337,-0.013053118251264095,0.009378434158861637,-0.00041113432962447405,0.011694677174091339
0.013302878476679325,0.0038688285276293755,-0.012513241730630398,0.009169718250632286,-0.00044717712444253266,0.011999585665762424
0.012900982983410358,0.0041784243658185005,-0.012402892112731934,0.009974588640034199,-0.0004172098997514695,0.012164798565208912
0.012900982983410358,0.0041784243658185005,-0.012402892112731934,0.009974588640034199,-0.0004172098997514695,0.012164798565208912
0.013240072876214981,0.00467801745980978,-0.012823550961911678,0.009315423667430878,-0.0003875496331602335,0.011974056251347065
0.01294583361595869,0.004490010440349579,-0.012624957598745823,0.009442107751965523,-0.0003615985915530473,0.012034792453050613
0.013414712622761726,0.0040493980050086975,-0.012996254488825798,0.009359349496662617,-0.00033889382029883564,0.012270173989236355
0.013484296388924122,0.004567497409880161,-0.013174272142350674,0.00943396519869566,-0.0003010850050486624,0.013134281150996685
0.013484296388924122,0.004567497409880161,-0.013174272142350674,0.00943396519869566,-0.0003010850050486624,0.013134281150996685
0.013563006184995174,0.004370512906461954,-0.013260462321341038,0.010054977610707283,-0.0003144231450278312,0.01309061050415039
0.0135225560516119,0.004464079160243273,-0.012807432562112808,0.009870480746030807,-0.0002871873730327934,0.012921533547341824
0.014485522173345089,0.00426523806527257,-0.0127876503393054,0.010220685973763466,-0.0003112283593509346,0.012567976489663124
0.014485522173345089,0.00426523806527257,-0.0127876503393054,0.010220685973763466,-0.0003112283593509346,0.012567976489663124
0.013785216026008129,0.004228017292916775,-0.012655254453420639,0.009375693276524544,-0.00030061646248213947,0.012708999216556549
0.013647140003740788,0.0044313897378742695,-0.013478008098900318,0.009351697750389576,-0.00028871538233943284,0.012458398006856441
0.013912603259086609,0.004509101156145334,-0.013175447471439838,0.009610642679035664,-0.0002775923640001565,0.012821152806282043
0.014538316056132317,0.004333860240876675,-0.013915005140006542,0.009488776326179504,-0.00026728655211627483,0.012953783385455608
0.013639035634696484,0.004071344621479511,-0.013043925166130066,0.009912420064210892,-0.0002479084359947592,0.01258168090134859
0.014107194729149342,0.004311836790293455,-0.013511553406715393,0.009791960939764977,-0.0002272296551382169,0.012528231367468834
0.013828935101628304,0.00431861774995923,-0.01309946645051241,0.009160369634628296,-0.00021579449821729213,0.012892956845462322
0.015047995373606682,0.004481849260628223,-0.013993772678077221,0.009885738603770733,-0.0002058844402199611,0.013220936991274357
0.015733379870653152,0.004616193473339081,-0.01290658675134182,0.009415748529136181,-0.00022595954942516983,0.012972910888493061
0.016031434759497643,0.004539209883660078,-0.013181339018046856,0.009424026124179363,-0.00022567070845980197,0.012990630231797695
0.015284842811524868,0.004333739168941975,-0.013548607937991619,0.009575903415679932,-0.00021719079813919961,0.01281063724309206
0.015166222117841244,0.0045639462769031525,-0.013160374946892262,0.009910257533192635,-0.00023900429368950427,0.013256623409688473
0.01582019403576851,0.004289738833904266,-0.01349103357642889,0.009755286388099194,-0.00025904603535309434,0.013271176256239414
0.015912825241684914,0.004366529639810324,-0.013615000061690807,0.010652437806129456,-0.00025786051992326975,0.013742482289671898
0.016142847016453743,0.0050553553737699986,-0.012160547077655792,0.010410030372440815,-0.00041978960507549345,0.013770864345133305
0.016142847016453743,0.0050553553737699986,-0.012160547077655792,0.010410030372440815,-0.00041978960507549345,0.013770864345133305
0.014747216366231441,0.004557767417281866,-0.013555780053138733,0.009475382044911385,-0.00040663452818989754,0.013585930690169334
0.015846259891986847,0.004530305974185467,-0.013762157410383224,0.009881056845188141,-0.00042933336226269603,0.0132707878947258
0.016109494492411613,0.004482833668589592,-0.012796432711184025,0.010670717805624008,-0.0004135635099373758,0.01382147241383791
0.016595004126429558,0.004733560141175985,-0.013778474181890488,0.009825916029512882,-0.0003851677174679935,0.013755074702203274
0.016047729179263115,0.004743319470435381,-0.013111638836562634,0.009582603350281715,-0.00040366483153775334,0.0135892853140831
0.016694670543074608,0.004674449563026428,-0.01320617739111185,0.009164921008050442,-0.0003701180685311556,0.0133749945089221
0.01623944565653801,0.004252019803971052,-0.01350650005042553,0.010028318502008915,-0.00034962903009727597,0.013362636789679527
0.0160997211933136,0.004389437846839428,-0.01359567977488041,0.009869204834103584,-0.0003312428598292172,0.013263150118291378
0.016106082126498222,0.004607183393090963,-0.014042173512279987,0.00934367161244154,-0.00035655623651109636,0.013818030245602131
0.01650184765458107,0.00474582938477397,-0.01363214198499918,0.009335929527878761,-0.00034233080805279315,0.014684580266475677
0.016287177801132202,0.0043921153992414474,-0.01381334476172924,0.010138122364878654,-0.00032716296846047044,0.01397429034113884
0.016624512150883675,0.00456162728369236,-0.013628997839987278,0.010265013203024864,-0.00032849388662725687,0.01335954386740923
0.016347309574484825,0.005009320564568043,-0.013012624345719814,0.010011889040470123,-0.0003076762950513512,0.013938656076788902
0.01631731353700161,0.004788617603480816,-0.013375157490372658,0.010641704313457012,-0.00028807701892219484,0.014194611459970474
0.016782192513346672,0.004400056321173906,-0.013282308354973793,0.010341501794755459,-0.00027074309764429927,0.014732561074197292
0.01641663908958435,0.00452107610180974,-0.01406320370733738,0.01090981625020504,-0.00030290998984128237,0.014147300273180008
0.01687590405344963,0.004480002913624048,-0.013332233764231205,0.010722310282289982,-0.00028975243913009763,0.014429000206291676
0.01670994609594345,0.0045569101348519325,-0.014011748135089874,0.01013343594968319,-0.0003148900577798486,0.014207309111952782
0.01700945757329464,0.004697782453149557,-0.013125131838023663,0.011003446765244007,-0.0003050898085348308,0.014460709877312183
0.017270991578698158,0.004542915150523186,-0.013875762932002544,0.010736633092164993,-0.00033010757761076093,0.01450837031006813
0.016945822164416313,0.004643632099032402,-0.01335201133042574,0.010411880910396576,-0.000318073172820732,0.014265513978898525
0.017241328954696655,0.004718166776001453,-0.014283187687397003,0.01019965298473835,-0.00038608774775639176,0.014052577316761017
0.016851723194122314,0.004842669237405062,-0.01377590000629425,0.010374316945672035,-0.0003806665481533855,0.014739801175892353
0.017503799870610237,0.004730694927275181,-0.014076713472604752,0.010406210087239742,-0.00035252919769845903,0.014848635531961918
0.017503799870610237,0.004730694927275181,-0.014076713472604752,0.010406210087239742,-0.00035252919769845903,0.014848635531961918
0.017617037519812584,0.004659412894397974,-0.01374738197773695,0.010769459418952465,-0.00038346825749613345,0.015023656189441681
0.017306622117757797,0.004624936264008284,-0.01438232697546482,0.010278763249516487,-0.000365228857845068,0.014456392265856266
0.017034150660037994,0.004638507962226868,-0.013994588516652584,0.010640569031238556,-0.00038458185736089945,0.014135317876935005
0.01698821224272251,0.004795802757143974,-0.014133465476334095,0.01074264571070671,-0.00037484668428078294,0.013996193185448647
0.01777772419154644,0.0049219378270208836,-0.014175818301737309,0.010654501616954803,-0.00038356598815880716,0.014497917145490646
0.0173919890075922,0.004700505640357733,-0.014108347706496716,0.010363632813096046,-0.0004161933029536158,0.01477750949561596
0.017976781353354454,0.0047787269577383995,-0.014225108548998833,0.010418686084449291,-0.00042743192170746624,0.014511228539049625
0.017500625923275948,0.004714000970125198,-0.014158311299979687,0.011023644357919693,-0.00039334772736765444,0.01475575752556324
0.01734696514904499,0.004748129285871983,-0.014588738791644573,0.010941172949969769,-0.00042907363967970014,0.014706890098750591
0.017519749701023102,0.0048020388931035995,-0.014537759125232697,0.010483711026608944,-0.0004016283492092043,0.015225698240101337
0.01732455939054489,0.004905979614704847,-0.014387915842235088,0.011621706187725067,-0.00040427048224955797,0.014889751560986042
0.01796889118850231,0.005156199913471937,-0.01390903815627098,0.010436376556754112,-0.00040603798697702587,0.015247846953570843
0.01800176128745079,0.004811649210751057,-0.014391271397471428,0.010353914462029934,-0.00042342423694208264,0.01547221839427948
0.01760021597146988,0.00431403610855341,-0.014346440322697163,0.010334191843867302,-0.000411978893680498,0.015648791566491127
0.01753709837794304,0.003866863204166293,-0.014522611163556576,0.010290352627635002,-0.00043907787767238915,0.015329211950302124
0.017817215994000435,0.0038346396759152412,-0.01456532347947359,0.01115899533033371,-0.00044345229980535805,0.015612857416272163
0.01943582482635975,0.004782840143889189,-0.014667714014649391,0.010633794590830803,-0.000481995492009446,0.015451204963028431
0.018403276801109314,0.005009395536035299,-0.014476660639047623,0.009917187504470348,-0.0004471860302146524,0.015450423583388329
0.017712511122226715,0.004414793103933334,-0.01438701432198286,0.010662833228707314,-0.0004638480022549629,0.0159112848341465
0.018647711724042892,0.0042855930514633656,-0.014329948462545872,0.010796013288199902,-0.0004466783138923347,0.015792345628142357
0.017783500254154205,0.004022344946861267,-0.01472434215247631,0.010393213480710983,-0.00046964033390395343,0.016514282673597336
0.01772412285208702,0.004393832758069038,-0.014664451591670513,0.010860910639166832,-0.00044824412907473743,0.01526801846921444
0.018156623467803,0.00417802669107914,-0.014868480153381824,0.01053799968212843,-0.0005447845906019211,0.015378136187791824
0.018471455201506615,0.004443094599992037,-0.014194917865097523,0.011205831542611122,-0.0004947686684317887,0.015341523103415966
0.019266165792942047,0.0041237520053982735,-0.014470472931861877,0.01149918045848608,-0.0005290768458507955,0.015497599728405476
0.019266165792942047,0.0041237520053982735,-0.014470472931861877,0.01149918045848608,-0.0005290768458507955,0.015497599728405476
0.018909038975834846,0.004457698669284582,-0.014368696138262749,0.010763561353087425,-0.0005258512683212757,0.015596166253089905
0.018180865794420242,0.004322637338191271,-0.015135557390749454,0.010859496891498566,-0.000518547254614532,0.01565612107515335
0.019155971705913544,0.004165164195001125,-0.014723963104188442,0.01082689967006445,-0.00048127039917744696,0.015986274927854538
0.018415264785289764,0.004010808188468218,-0.0146646061912179,0.010829774662852287,-0.0005227794172242284,0.016429804265499115
0.019450083374977112,0.004288927651941776,-0.015202004462480545,0.0104196947067976,-0.000508947588969022,0.015965748578310013
0.019565390422940254,0.00456601195037365,-0.015071040019392967,0.010962092317640781,-0.0005270843394100666,0.01646067388355732
0.018866736441850662,0.004729229491204023,-0.015441001392900944,0.011269781738519669,-0.000499197980388999,0.01656692661345005
0.019363556057214737,0.004353812430053949,-0.014943788759410381,0.011131547391414642,-0.000458172318758443,0.01717991568148136
0.019833549857139587,0.003953790292143822,-0.015761924907565117,0.011586873792111874,-0.00042238779133185744,0.01691032014787197
0.019916841760277748,0.003818815341219306,-0.015410711988806725,0.011455506086349487,-0.0003917293215636164,0.016642969101667404
0.020059460774064064,0.004118140321224928,-0.01557913888245821,0.0118219880387187,-0.00036521750735118985,0.016791827976703644
0.020003003999590874,0.004714552313089371,-0.015020578168332577,0.011554868891835213,-0.00036972688394598663,0.016481120139360428
0.019788416102528572,0.00469167809933424,-0.015613473020493984,0.011109979823231697,-0.0003733795019797981,0.01634715311229229
0.02003043331205845,0.00438162824138999,-0.015668371692299843,0.011156674474477768,-0.0003540618345141411,0.016352646052837372
0.020523380488157272,0.004527450539171696,-0.016112584620714188,0.011163350194692612,-0.0003353191423229873,0.016817014664411545
0.020335309207439423,0.0043561928905546665,-0.016354721039533615,0.011282652616500854,-0.0003519331512507051,0.017936624586582184
0.020210910588502884,0.004297412466257811,-0.015672901645302773,0.011889023706316948,-0.00034557172330096364,0.01784747838973999
0.020757058635354042,0.004494102671742439,-0.016101598739624023,0.0118483267724514,-0.0003303985868114978,0.017612671479582787
0.020206425338983536,0.004666220862418413,-0.015911836177110672,0.011435773223638535,-0.00030105627956800163,0.017512332648038864
0.020603666082024574,0.004572565201669931,-0.016186892986297607,0.011185950599610806,-0.00031987024703994393,0.017668623477220535
0.020500971004366875,0.004411414265632629,-0.015209885314106941,0.010967272333800793,-0.000313858559820801,0.017799431458115578
0.020588357001543045,0.0045797559432685375,-0.015888970345258713,0.011149758473038673,-0.00034353919909335673,0.017549142241477966
0.02072119526565075,0.0043886518105864525,-0.015446200035512447,0.010899852961301804,-0.0003286762803327292,0.01761913113296032
0.020539186894893646,0.003970432095229626,-0.016567016020417213,0.011046185158193111,-0.0003541505429893732,0.017494840547442436
0.020539186894893646,0.003970432095229626,-0.016567016020417213,0.011046185158193111,-0.0003541505429893732,0.017494840547442436
0.020724665373563766,0.004366634879261255,-0.016259340569376945,0.011098080314695835,-0.0005161272711120546,0.017933350056409836
0.02101542428135872,0.004127573221921921,-0.01570132002234459,0.010644141584634781,-0.0006085511995479465,0.016795795410871506
0.021064428612589836,0.004367525223642588,-0.01416108664125204,0.011344070546329021,-0.0006391422357410192,0.01690784841775894
0.021428879350423813,0.004254779778420925,-0.01666380651295185,0.012295198626816273,-0.0005272218259051442,0.018249668180942535
0.021566495299339294,0.004083818756043911,-0.01563098654150963,0.012402720749378204,-0.000480324262753129,0.017952144145965576
0.021408071741461754,0.004249372519552708,-0.016354398801922798,0.012289389967918396,-0.0005093359504826367,0.01798970438539982
0.021403826773166656,0.0040336791425943375,-0.015796298161149025,0.012502186000347137,-0.0005252433475106955,0.017977416515350342
0.02176652103662491,0.004393028095364571,-0.016442270949482918,0.012112506665289402,-0.0005042408592998981,0.0179612934589386
0.02195887826383114,0.004123013932257891,-0.015623338520526886,0.011940802447497845,-0.0004748688661493361,0.017853977158665657
0.022747376933693886,0.004413510672748089,-0.015543916262686253,0.011724158190190792,-0.00044514224282465875,0.018138695508241653
0.02259819023311138,0.004417841322720051,-0.016450487077236176,0.011705598793923855,-0.0004060628707520664,0.018576156347990036
0.02207794226706028,0.004252404440194368,-0.016189001500606537,0.012326779775321484,-0.0004085318651050329,0.0190708227455616
0.021950749680399895,0.003977643791586161,-0.016585659235715866,0.012010237202048302,-0.0004102825478184968,0.018782097846269608
0.021784517914056778,0.004321120213717222,-0.015284639783203602,0.012530820444226265,-0.00038329564267769456,0.019029967486858368
0.02208416536450386,0.004098845645785332,-0.016119929030537605,0.012297868728637695,-0.00035800933255814016,0.018297001719474792
0.02276446484029293,0.0044000218622386456,-0.015907790511846542,0.012477156706154346,-0.0003841211728285998,0.017688430845737457
0.022572634741663933,0.004528205841779709,-0.01653423346579075,0.012192307971417904,-0.0003682709066197276,0.018452666699886322
0.022602848708629608,0.004343897569924593,-0.016890861093997955,0.01193831954151392,-0.0003913941327482462,0.01897689700126648
0.022763162851333618,0.004001803696155548,-0.016231659799814224,0.012183343060314655,-0.00037682431866414845,0.01911967061460018
0.023448264226317406,0.003798634512349963,-0.016595402732491493,0.011972172185778618,-0.0003600034979172051,0.018771927803754807
0.02342830039560795,0.003709303680807352,-0.015846017748117447,0.012526136822998524,-0.00037434790283441544,0.01875898614525795
0.023606253787875175,0.0037448275834321976,-0.01658971980214119,0.012613032944500446,-0.0004084054089616984,0.018861135467886925
0.0219177957624197,0.004038493148982525,-0.01620808243751526,0.012705144472420216,-0.0004350050294306129,0.01906103640794754
0.022593464702367783,0.00406394200399518,-0.016763126477599144,0.012647327035665512,-0.0004212515486869961,0.019656745716929436
0.022959379479289055,0.004313144367188215,-0.016650406643748283,0.012949621304869652,-0.0004483886295929551,0.019359322264790535
0.022959379479289055,0.004313144367188215,-0.016650406643748283,0.012949621304869652,-0.0004483886295929551,0.019359322264790535
0.02380830980837345,0.003986423369497061,-0.016512198373675346,0.013196905143558979,-0.0004253844090271741,0.020519284531474113
0.024037690833210945,0.00430777482688427,-0.016693253070116043,0.012916943058371544,-0.0005781498039141297,0.017779013141989708
0.023559505119919777,0.004151275847107172,-0.01618392951786518,0.013059809803962708,-0.0005643635522574186,0.018011638894677162
0.023502077907323837,0.004301388747990131,-0.016258884221315384,0.011922796256840229,-0.0005443908739835024,0.01939757727086544
0.023952869698405266,0.004331017378717661,-0.01649152673780918,0.011834423057734966,-0.0005714102298952639,0.01995585858821869
0.024175794795155525,0.004435742739588022,-0.01655331254005432,0.011917727999389172,-0.0005284606013447046,0.019938232377171516
0.024146661162376404,0.004705630708485842,-0.016348015516996384,0.012665187008678913,-0.000538999738637358,0.019531231373548508
0.024433940649032593,0.00422814441844821,-0.01660112664103508,0.01219919789582491,-0.0005162410670891404,0.019772307947278023
0.024294404312968254,0.003893807763233781,-0.016594083979725838,0.012554790824651718,-0.0005221109604462981,0.020080361515283585
0.02411525510251522,0.004181419499218464,-0.017314106225967407,0.01246351096779108,-0.0005277905729599297,0.020007595419883728
0.024299954995512962,0.004266461357474327,-0.01647050864994526,0.012884425930678844,-0.0005196238635107875,0.02007228322327137
0.024806275963783264,0.004031737335026264,-0.016645722091197968,0.012475494295358658,-0.000544989830814302,0.020118175074458122
0.02461993880569935,0.004352367017418146,-0.017291715368628502,0.012833711691200733,-0.0005456430953927338,0.02025544084608555
0.02490651234984398,0.004210416227579117,-0.016756413504481316,0.013066102750599384,-0.000537680636625737,0.020261118188500404
0.024758046492934227,0.0038935451302677393,-0.01781405508518219,0.012790885753929615,-0.0005036384100094438,0.02028893493115902
0.024748124182224274,0.0039774030447006226,-0.016860809177160263,0.013631942681968212,-0.000593349861446768,0.02037929557263851
0.02459591254591942,0.0038939022924751043,-0.017019394785165787,0.013093509711325169,-0.0005332562141120434,0.020087340846657753
0.024594444781541824,0.0036727909464389086,-0.017225975170731544,0.013276615180075169,-0.0005657660658471286,0.020363861694931984
0.025112314149737358,0.003475457662716508,-0.016923293471336365,0.012940731830894947,-0.0005589291686192155,0.020224155858159065
0.025406740605831146,0.0035083990078419447,-0.017589610069990158,0.013067996129393578,-0.0005482262349687517,0.020143480971455574
0.025106357410550117,0.003964310046285391,-0.017005490139126778,0.01295017171651125,-0.00050659867702052,0.02002815529704094
0.025280265137553215,0.003973528277128935,-0.01728694885969162,0.01307838223874569,-0.0005268511595204473,0.020283222198486328
0.02508446015417576,0.0038163643330335617,-0.017209390178322792,0.013284766115248203,-0.0004982675309292972,0.020511293783783913
0.025065114721655846,0.004237606655806303,-0.017278512939810753,0.013056960888206959,-0.0004962715320289135,0.021349122747778893
0.024563074111938477,0.004178374074399471,-0.017860861495137215,0.01344204694032669,-0.00045776026672683656,0.020632555708289146
0.02554028294980526,0.003985022194683552,-0.01739201508462429,0.013457912020385265,-0.000487854122184217,0.020189808681607246
0.02593383379280567,0.003436628496274352,-0.01759970746934414,0.013407685793936253,-0.00045638205483555794,0.020306115970015526
0.02593383379280567,0.003436628496274352,-0.01759970746934414,0.013407685793936253,-0.00045638205483555794,0.020306115970015526
0.025895915925502777,0.003428882919251919,-0.01817644201219082,0.012990642338991165,-0.00048664360656403005,0.020771771669387817
0.025011412799358368,0.004271857440471649,-0.01751977577805519,0.01332294661551714,-0.000516285712365061,0.021000368520617485
0.025193091481924057,0.004429509863257408,-0.017155243083834648,0.013138266280293465,-0.0006049314397387207,0.021102210506796837
0.025547882542014122,0.004157404415309429,-0.018017645925283432,0.01307942345738411,-0.0005875412607565522,0.021408289670944214
0.02462688460946083,0.003932962194085121,-0.018549660220742226,0.013447567820549011,-0.0005713786231353879,0.021100495010614395
0.0255169365555048,0.003835191484540701,-0.017538482323288918,0.013069087639451027,-0.0005611285450868309,0.021092873066663742
0.0263126902282238,0.0037852975074201822,-0.01815362647175789,0.012980439700186253,-0.000550013268366456,0.021328682079911232
0.02570226788520813,0.004356343764811754,-0.018176071345806122,0.013162119314074516,-0.0005613777320832014,0.021594684571027756
0.025608688592910767,0.004153549205511808,-0.01732722669839859,0.012836364097893238,-0.0005362320225685835,0.021952161565423012
0.024945760145783424,0.004145750775933266,-0.01797974668443203,0.013204168528318405,-0.0005256841541267931,0.021790850907564163
0.02521570771932602,0.003908243961632252,-0.017815079540014267,0.012679260224103928,-0.0005217323778197169,0.02134840004146099
0.02567845582962036,0.0037966021336615086,-0.01804630644619465,0.013174829073250294,-0.0005136193358339369,0.021357852965593338
0.02533595822751522,0.003876964095979929,-0.018176641315221786,0.013101008720695972,-0.0005094481166452169,0.021619947627186775
0.026270326226949692,0.004251645877957344,-0.01766844093799591,0.013739134185016155,-0.0005033756024204195,0.02176392450928688
0.02571696974337101,0.004021397791802883,-0.018063349649310112,0.01329490914940834,-0.0005259722820483148,0.02164488099515438
0.02538452297449112,0.004409857094287872,-0.01797892339527607,0.013380270451307297,-0.0006265842239372432,0.021599670872092247
0.025716420263051987,0.0041101956740021706,-0.017713293433189392,0.012951992452144623,-0.0006765605066902936,0.02185117080807686
0.026172680780291557,0.0043479097075760365,-0.01826602779328823,0.013302219100296497,-0.0006774715729989111,0.022075576707720757
0.026094956323504448,0.0041687870398163795,-0.017744535580277443,0.013664847239851952,-0.0006539482274092734,0.022502906620502472
0.026280658319592476,0.004275923129171133,-0.017943356186151505,0.013395676389336586,-0.0006684112013317645,0.021696118637919426
0.026358578354120255,0.004083013627678156,-0.018195750191807747,0.013572177849709988,-0.0007850303663872182,0.021581560373306274
0.02596590295433998,0.004319688305258751,-0.01745862327516079,0.013568167574703693,-0.0008225241326726973,0.02245374023914337
0.025882048532366753,0.004547405987977982,-0.017924701794981956,0.013726085424423218,-0.0007443028152920306,0.02267812006175518
0.02612808719277382,0.0042528617195785046,-0.018331404775381088,0.013510514982044697,-0.0007498268969357014,0.02301519736647606
0.02608853206038475,0.004420113749802113,-0.01815432868897915,0.013830008916556835,-0.0006814342923462391,0.023303834721446037
0.026127923280000687,0.004106015898287296,-0.01814952678978443,0.013639132492244244,-0.0006799170514568686,0.022459279745817184
0.026053661480545998,0.004157000221312046,-0.0177095215767622,0.014263717457652092,-0.0006393538205884397,0.021613527089357376
0.026455078274011612,0.003964936826378107,-0.018113411962985992,0.014146167784929276,-0.0005964765441603959,0.02209382876753807
0.026455078274011612,0.003964936826378107,-0.018113411962985992,0.014146167784929276,-0.0005964765441603959,0.02209382876753807
0.02654644474387169,0.0038506193086504936,-0.01814088225364685,0.014452379196882248,-0.0005352270090952516,0.023323243483901024
0.02654515951871872,0.00433418108150363,-0.017957307398319244,0.013649126514792442,-0.0005675926804542542,0.023440398275852203
0.026560137048363686,0.004214067943394184,-0.017782896757125854,0.013698776252567768,-0.0005510874325409532,0.023101910948753357
0.026574403047561646,0.004314258694648743,-0.017412424087524414,0.0141230383887887,-0.000575345242395997,0.023246552795171738
0.026843132451176643,0.004314647056162357,-0.018280357122421265,0.01362003292888403,-0.0006673526368103921,0.023503927513957024
0.02703004516661167,0.004480521660298109,-0.01802755333483219,0.01386276539415121,-0.0007125123520381749,0.02335626259446144
0.026576464995741844,0.00462143961340189,-0.018190763890743256,0.013667668215930462,-0.000750624283682555,0.022407593205571175
0.02652226760983467,0.00466783856973052,-0.01852753572165966,0.014227272011339664,-0.0007678957772441208,0.022795839235186577
0.02706344611942768,0.0046969265677034855,-0.017729895189404488,0.014050392434000969,-0.0009432420483790338,0.023010889068245888
0.027765311300754547,0.004404423758387566,-0.017784472554922104,0.014222797006368637,-0.0009303349070250988,0.023668799549341202
0.028172820806503296,0.004259472247213125,-0.017712563276290894,0.01411268301308155,-0.0008571961079724133,0.024485403671860695
0.028102951124310493,0.0044529675506055355,-0.01776014268398285,0.014194337651133537,-0.0007437569438479841,0.022933144122362137
0.026936795562505722,0.004209368955343962,-0.018293289467692375,0.013955894857645035,-0.0007331222295761108,0.0227898471057415
0.027377305552363396,0.004528251476585865,-0.017753612250089645,0.014181590639054775,-0.000678329321090132,0.023387275636196136
0.02850693091750145,0.004665660206228495,-0.017881108447909355,0.014563944190740585,-0.0006892257952131331,0.02412346564233303
0.028235789388418198,0.004391867201775312,-0.01872546784579754,0.015043511055409908,-0.0006384009611792862,0.024176431819796562
0.028619596734642982,0.004128060769289732,-0.018087690696120262,0.014595076441764832,-0.0005505840526893735,0.024424489587545395
0.029364394024014473,0.0044884695671498775,-0.018353283405303955,0.014987511560320854,-0.00048360013170167804,0.024194840341806412
0.029490550979971886,0.004777160473167896,-0.01832772046327591,0.01485500205308199,-0.0005170598160475492,0.024416299536824226
0.029005026444792747,0.004790745209902525,-0.0185109693557024,0.015207996591925621,-0.000534876249730587,0.024322958663105965
0.028180183842778206,0.004850693047046661,-0.018984394147992134,0.015392545610666275,-0.0005452636396512389,0.02368120662868023
0.02820899710059166,0.005117078777402639,-0.01834028959274292,0.01519693247973919,-0.0005379166686907411,0.024071456864476204
0.029635313898324966,0.004888931289315224,-0.017707429826259613,0.015150854364037514,-0.0005063418066129088,0.02454209513962269
0.029608692973852158,0.004483000375330448,-0.019317278638482094,0.01606060191988945,-0.0006059770239517093,0.02471327781677246
0.02956169843673706,0.0045852381736040115,-0.019317876547574997,0.015133705921471119,-0.0006371884956024587,0.024454385042190552
0.029565664008259773,0.005017039831727743,-0.01859700307250023,0.015217282809317112,-0.0005818188074044883,0.024217378348112106
0.02944047935307026,0.005058138631284237,-0.01940370723605156,0.014694197103381157,-0.0006072746473364532,0.024589302018284798
0.029563559219241142,0.0049277967773377895,-0.01899147219955921,0.01493948046118021,-0.0006328841554932296,0.025410473346710205
0.029563559219241142,0.0049277967773377895,-0.01899147219955921,0.01493948046118021,-0.0006328841554932296,0.025410473346710205
0.02950933203101158,0.004539496265351772,-0.018857132643461227,0.014815893955528736,-0.0007026427774690092,0.025604045018553734
0.029926417395472527,0.0046359580010175705,-0.018825609236955643,0.014741496182978153,-0.0006705194828100502,0.02452966570854187
0.029850304126739502,0.00471833162009716,-0.019041746854782104,0.01478211022913456,-0.0006026070332154632,0.02443527616560459
0.029937751591205597,0.005274676252156496,-0.019682899117469788,0.015097072347998619,-0.0006262894603423774,0.024905484169721603
0.03007027693092823,0.0051339841447770596,-0.019037622958421707,0.015184948220849037,-0.0005746227689087391,0.024553030729293823
0.0304088331758976,0.004337206017225981,-0.018523912876844406,0.014999529346823692,-0.0005268679233267903,0.025284290313720703
0.03032483160495758,0.004226629622280598,-0.01903344877064228,0.015177247114479542,-0.0005461375112645328,0.02629874460399151
0.030447356402873993,0.004031980875879526,-0.018326640129089355,0.015545894391834736,-0.0005152031662873924,0.02614140696823597
0.030651399865746498,0.003824229585006833,-0.019444821402430534,0.015403303317725658,-0.0004812765109818429,0.026195889338850975
0.03105161152780056,0.00422586128115654,-0.019294220954179764,0.015576893463730812,-0.0004371622344478965,0.02513165958225727
0.030966585502028465,0.004510276950895786,-0.018808791413903236,0.014948663301765919,-0.00039588770596310496,0.02527553401887417
0.0312452744692564,0.004382600076496601,-0.01877417229115963,0.014696006663143635,-0.00042640732135623693,0.026193363592028618
0.03069048374891281,0.004003409296274185,-0.019215766340494156,0.014101644977927208,-0.0004525057156570256,0.0270540714263916
0.031093282625079155,0.004262912552803755,-0.019043078646063805,0.01437455601990223,-0.00048305164091289043,0.02681993693113327
0.03213150426745415,0.004201092757284641,-0.019325589761137962,0.014009998179972172,-0.0004704623424913734,0.02598314918577671
0.03138766810297966,0.004316707141697407,-0.01999569870531559,0.014477803371846676,-0.0007425488438457251,0.02591158077120781
0.028737304732203484,0.004193056840449572,-0.019529586657881737,0.014437071047723293,-0.0007199454121291637,0.026319442316889763
0.031477294862270355,0.004296312108635902,-0.019505886361002922,0.01544347032904625,-0.0007311032968573272,0.026205355301499367
0.03246833384037018,0.004469016566872597,-0.01966150291264057,0.015660680830478668,-0.0006663805106654763,0.026250142604112625
0.03171354532241821,0.004312688019126654,-0.019019363448023796,0.015410324558615685,-0.0006832776707597077,0.0264838095754385
0.032206032425165176,0.003983281087130308,-0.01953260414302349,0.014705020934343338,-0.0006288255099207163,0.026335060596466064
0.03253337740898132,0.004369503352791071,-0.02003839984536171,0.014868441969156265,-0.00057858822401613,0.027693748474121094
0.032289206981658936,0.004171221051365137,-0.01953313872218132,0.014474618248641491,-0.0005543006700463593,0.026175139471888542
0.030939240008592606,0.004225267097353935,-0.019622553139925003,0.015012706629931927,-0.0005016650538891554,0.025997567921876907
0.031102163717150688,0.004568048752844334,-0.01993296481668949,0.015025046654045582,-0.0004518228233791888,0.026523906737565994
0.031102163717150688,0.004568048752844334,-0.01993296481668949,0.015025046654045582,-0.0004518228233791888,0.026523906737565994
0.03240662068128586,0.004867254290729761,-0.020054513588547707,0.015287810005247593,-0.00048131716903299093,0.02668321318924427
0.03226734697818756,0.004076600074768066,-0.02003529481589794,0.016175106167793274,-0.00044999324018135667,0.02726791799068451
0.03226734697818756,0.004076600074768066,-0.02003529481589794,0.016175106167793274,-0.00044999324018135667,0.02726791799068451
0.03275970742106438,0.003969421610236168,-0.01947208307683468,0.015897443518042564,-0.00047688590711914003,0.026760973036289215
0.032496821135282516,0.003935456275939941,-0.020032458007335663,0.01605415530502796,-0.0005226773791946471,0.026584766805171967
0.0325460210442543,0.00421828031539917,-0.019884362816810608,0.015712855383753777,-0.0005684028146788478,0.026485063135623932
0.03244060277938843,0.004655035212635994,-0.019693491980433464,0.016175545752048492,-0.0005949325277470052,0.026759633794426918
0.0327441543340683,0.004613149911165237,-0.020202528685331345,0.01592264138162136,-0.0005914552020840347,0.0271054208278656
0.03280073404312134,0.004328038543462753,-0.020268023014068604,0.016555553302168846,-0.0005792403826490045,0.026969952508807182
0.032385118305683136,0.0035553371999412775,-0.019406629726290703,0.016329381614923477,-0.0007562576793134212,0.027064479887485504
0.03293684124946594,0.0039712185971438885,-0.01996791735291481,0.016224414110183716,-0.0008026109426282346,0.027132345363497734
0.033108070492744446,0.0042107971385121346,-0.020170480012893677,0.01608862541615963,-0.000707743049133569,0.02745724283158779
0.03324180096387863,0.004519164562225342,-0.020191924646496773,0.015744997188448906,-0.0007157631334848702,0.027925953269004822
0.03347354754805565,0.00448213005438447,-0.020385118201375008,0.016266727820038795,-0.00065358926076442,0.02800200693309307
0.03279535472393036,0.004253576975315809,-0.020721761509776115,0.015624492429196835,-0.000592809054069221,0.028057534247636795
0.03357651084661484,0.004348786547780037,-0.02066884934902191,0.01608981564640999,-0.0006136904703453183,0.029461640864610672
0.03385196253657341,0.004070798400789499,-0.020358441397547722,0.015317599289119244,-0.0005697800661437213,0.02770255319774151
0.03370380401611328,0.004313113167881966,-0.020407158881425858,0.016163567081093788,-0.0005169279756955802,0.027329500764608383
0.03394096717238426,0.004262132104486227,-0.020865805447101593,0.01583046279847622,-0.0005317910690791905,0.027667243033647537
0.03392023220658302,0.004371243063360453,-0.02101694792509079,0.015907756984233856,-0.0005030935280956328,0.028832826763391495
0.033368710428476334,0.004361880477517843,-0.020922794938087463,0.01592245139181614,-0.0005178164574317634,0.029180729761719704
0.034339629113674164,0.004481233656406403,-0.021297723054885864,0.015791626647114754,-0.0004946784465573728,0.02882547862827778
0.03481060266494751,0.004579092841595411,-0.021615365520119667,0.016484782099723816,-0.000516413536388427,0.027445944026112556
0.03498796373605728,0.0042029800824820995,-0.021609941497445107,0.016276957467198372,-0.0004918621852993965,0.027745332568883896
0.03329618647694588,0.004470286890864372,-0.02152220718562603,0.016693957149982452,-0.0005780113278888166,0.028507066890597343
0.03308744356036186,0.004684236831963062,-0.02214951626956463,0.01592192053794861,-0.0006104466738179326,0.028461210429668427
0.03459350764751434,0.00430608494207263,-0.0222335122525692,0.01616419479250908,-0.0005598551360890269,0.028620364144444466
0.0339776985347271,0.0044274465180933475,-0.021158138290047646,0.01630527153611183,-0.0005079620750620961,0.028892451897263527
0.03536604344844818,0.005126751493662596,-0.021213512867689133,0.016379181295633316,-0.0005361428484320641,0.029011189937591553
0.03536604344844818,0.005126751493662596,-0.021213512867689133,0.016379181295633316,-0.0005361428484320641,0.029011189937591553
0.03424440324306488,0.004562472924590111,-0.022332975640892982,0.016167443245649338,-0.0005191078525967896,0.027844952419400215
0.03373773768544197,0.0044104126282036304,-0.02230590023100376,0.017074067145586014,-0.0004914455930702388,0.028065433725714684
0.03424347564578056,0.00426834961399436,-0.021846365183591843,0.017150288447737694,-0.0004911122960038483,0.029013527557253838
0.034990474581718445,0.004879813175648451,-0.021790381520986557,0.01770808920264244,-0.0004535583721008152,0.029148774221539497
0.0349385105073452,0.0050663729198277,-0.022152520716190338,0.0177240502089262,-0.00041270232759416103,0.02901265397667885
0.03461689129471779,0.004755114670842886,-0.022359192371368408,0.01689933054149151,-0.00043348222970962524,0.028821265324950218
0.03460453450679779,0.00464459415525198,-0.022093765437602997,0.01638834923505783,-0.00045094004599377513,0.0294142235070467
0.034906916320323944,0.004243636038154364,-0.022307952865958214,0.01594465784728527,-0.00045064135338179767,0.028782162815332413
0.035044264048337936,0.004512466490268707,-0.022382304072380066,0.017018383368849754,-0.00047865480883046985,0.02863583154976368
0.0346999391913414,0.004593806806951761,-0.02252599038183689,0.016963180154561996,-0.0005209951777942479,0.028949392959475517
0.03470335900783539,0.004741011653095484,-0.022381313145160675,0.017154298722743988,-0.0005277215968817472,0.02952798269689083
0.03461238741874695,0.00493573397397995,-0.022062033414840698,0.017213327810168266,-0.0005646254867315292,0.029763584956526756
0.035375453531742096,0.004802160896360874,-0.02216406539082527,0.016391152516007423,-0.0005908078164793551,0.02979724295437336
0.03376038372516632,0.00474791694432497,-0.02270844206213951,0.016829771921038628,-0.0005496874218806624,0.029864570125937462
0.03618636354804039,0.004584003705531359,-0.022594492882490158,0.016284972429275513,-0.0005733495345339179,0.029815059155225754
0.03585101664066315,0.004695653449743986,-0.022767167538404465,0.016969570890069008,-0.0006825692253187299,0.029610851779580116
0.03518487140536308,0.00481604365631938,-0.022710369899868965,0.016773682087659836,-0.0006988063105382025,0.029709668830037117
0.035323791205883026,0.005007083527743816,-0.02276058867573738,0.015987340360879898,-0.0007230898481793702,0.029576260596513748
0.03568721562623978,0.0047670211642980576,-0.022873708978295326,0.016287706792354584,-0.0007427461678162217,0.03061373345553875
0.03622143343091011,0.004644792061299086,-0.02263704128563404,0.016102105379104614,-0.0007202952983789146,0.03086228482425213
0.03617365285754204,0.004246368072926998,-0.02236814796924591,0.016682583838701248,-0.0009107214864343405,0.02988933026790619
0.03483220934867859,0.004484544508159161,-0.022669102996587753,0.01658729836344719,-0.0009197958861477673,0.02889145165681839
0.03551441431045532,0.0045193275436758995,-0.02259889617562294,0.016793368384242058,-0.0009179135668091476,0.02945200726389885
0.03572390228509903,0.004412150476127863,-0.022883929312229156,0.01741741970181465,-0.0008639100124128163,0.03050990216434002
0.035915497690439224,0.004473097622394562,-0.02266889251768589,0.017202874645590782,-0.000893404008820653,0.03005892224609852
0.035915497690439224,0.004473097622394562,-0.02266889251768589,0.017202874645590782,-0.000893404008820653,0.03005892224609852
0.03727041929960251,0.004577984102070332,-0.022483862936496735,0.017038218677043915,-0.0008373164455406368,0.03047112189233303
0.03581904247403145,0.00442479969933629,-0.02284536324441433,0.017015954479575157,-0.0007400639588013291,0.030434811487793922
0.03581904247403145,0.00442479969933629,-0.02284536324441433,0.017015954479575157,-0.0007400639588013291,0.030434811487793922
0.03608062118291855,0.0045514157973229885,-0.02266288362443447,0.017031624913215637,-0.0007058435003273189,0.030145753175020218
0.037360187619924545,0.004929054994136095,-0.022703146561980247,0.01758435182273388,-0.0006730079767294228,0.030133476480841637
0.03695804625749588,0.0048824818804860115,-0.023118339478969574,0.017365455627441406,-0.0006805419106967747,0.03086259588599205
0.037159599363803864,0.00439780717715621,-0.023077314719557762,0.017581870779395103,-0.0007047694525681436,0.030479751527309418
0.037183359265327454,0.004471350461244583,-0.022984301671385765,0.01794767938554287,-0.0007016874151304364,0.03028983436524868
0.037122104316949844,0.004506619181483984,-0.02251189760863781,0.01762741059064865,-0.0006808898178860545,0.030683670192956924
0.03789442032575607,0.00466560572385788,-0.022904088720679283,0.01789606362581253,-0.0008295607985928655,0.030674679204821587
0.03799327462911606,0.004694450180977583,-0.02332068420946598,0.017751263454556465,-0.0008478768286295235,0.031020229682326317
0.03766908124089241,0.004919582046568394,-0.023732148110866547,0.017538681626319885,-0.0008308098767884076,0.03168684244155884
0.037729207426309586,0.004744560923427343,-0.023948613554239273,0.01735849305987358,-0.0007585122366435826,0.0317392535507679
0.038615643978118896,0.0046975277364254,-0.023270871490240097,0.017576629295945168,-0.0007618444506078959,0.031647976487874985
0.038304589688777924,0.004762784577906132,-0.0227640550583601,0.01847703568637371,-0.0006994350114837289,0.03141934052109718
0.038390353322029114,0.004947703797370195,-0.022832181304693222,0.018147137016057968,-0.0006549069075845182,0.03169524297118187
0.03851731866598129,0.0044440170750021935,-0.022767260670661926,0.017635444179177284,-0.0006584745133295655,0.031341876834630966
0.03814248368144035,0.004497305955737829,-0.023129651322960854,0.017821073532104492,-0.0006840879796072841,0.03157581761479378
0.038826629519462585,0.004953902680426836,-0.023464897647500038,0.017572414129972458,-0.0006831629434600472,0.0317331925034523
0.03928956761956215,0.004464459139853716,-0.022859564051032066,0.01784610003232956,-0.000665351515635848,0.032124828547239304
0.0390976257622242,0.004499697592109442,-0.022810813039541245,0.01825929619371891,-0.0008411328308284283,0.03205255791544914
0.03967016935348511,0.0045713079161942005,-0.023648692294955254,0.018003245815634727,-0.0008924385183490813,0.03212946280837059
0.03944835439324379,0.0045722173526883125,-0.024068672209978104,0.018407201394438744,-0.0008963277214206755,0.03172193095088005
0.03943175822496414,0.00461914949119091,-0.023437121883034706,0.01818612590432167,-0.0009686635457910597,0.03227221965789795
0.040954578667879105,0.004685882478952408,-0.022643987089395523,0.018186016008257866,-0.0010032224236056209,0.03224785998463631
0.0409078411757946,0.004265489988029003,-0.022703256458044052,0.018542718142271042,-0.000916403136216104,0.03237757459282875
0.03827686235308647,0.004300152417272329,-0.023119326680898666,0.018311070278286934,-0.0009001474245451391,0.03231304883956909
0.04048227518796921,0.004619903862476349,-0.023807108402252197,0.01829231157898903,-0.0008009464363567531,0.0327102355659008
0.03992528095841408,0.004706905223429203,-0.02358703874051571,0.01838134415447712,-0.0008054965874180198,0.032772645354270935
0.03992528095841408,0.004706905223429203,-0.02358703874051571,0.01838134415447712,-0.0008054965874180198,0.032772645354270935
0.0408492386341095,0.004694436676800251,-0.023057181388139725,0.018223674967885017,-0.0007302819285541773,0.03371009603142738
0.041153594851493835,0.00467138085514307,-0.02300923690199852,0.01848400942981243,-0.0006944112246856093,0.03221828117966652
0.039883650839328766,0.004756391514092684,-0.023620473220944405,0.01871342398226261,-0.0007159655797295272,0.032816678285598755
0.0396406352519989,0.004657512065023184,-0.02366749197244644,0.01847776025533676,-0.0007607120787724853,0.03387007862329483
0.041696418076753616,0.004416687414050102,-0.023379722610116005,0.018334535881876945,-0.0010189734166488051,0.03132954612374306
0.041152387857437134,0.004436721093952656,-0.0233432799577713,0.01796742156147957,-0.0009891705121845007,0.03279045224189758
0.041253358125686646,0.004560442641377449,-0.02345774695277214,0.018531959503889084,-0.0008840984082780778,0.03297305479645729
0.040890663862228394,0.0046719517558813095,-0.023303957656025887,0.019028566777706146,-0.0008722590864636004,0.0336119681596756
0.0412006750702858,0.004695257171988487,-0.023523516952991486,0.019163062795996666,-0.0008214235422201455,0.03536798432469368
0.04123904928565025,0.004526800010353327,-0.022614752873778343,0.019337043166160583,-0.0008278160239569843,0.033612027764320374
0.04127516970038414,0.004736605100333691,-0.022510379552841187,0.018401894718408585,-0.0007469030097126961,0.031960029155015945
0.041438840329647064,0.004895745310932398,-0.0233469121158123,0.01805555447936058,-0.0007594426861032844,0.03290923684835434
0.04133929684758186,0.004779425915330648,-0.023808399215340614,0.01963483728468418,-0.0007550147129222751,0.033840108662843704
0.04105769097805023,0.005074287299066782,-0.023612817749381065,0.017886247485876083,-0.0007706804317422211,0.03419230133295059
0.041086602956056595,0.004420000594109297,-0.02350499853491783,0.01857861876487732,-0.0008229744853451848,0.03413419798016548
0.04305265471339226,0.0044351620599627495,-0.023498015478253365,0.018879840150475502,-0.0009200755157507956,0.034271884709596634
0.04304187744855881,0.0044755167327821255,-0.023265350610017776,0.018708162009716034,-0.0011194795370101929,0.034205809235572815
0.04065806418657303,0.004361805040389299,-0.023780860006809235,0.019222915172576904,-0.001274174195714295,0.03452437371015549
0.04166443645954132,0.004578291904181242,-0.023580558598041534,0.019435053691267967,-0.0012266342528164387,0.03380826115608215
0.04227209463715553,0.005034949630498886,-0.02372131682932377,0.019537705928087234,-0.0011637841816991568,0.034067630767822266
0.04360876977443695,0.004931281786412001,-0.024086838588118553,0.019660402089357376,-0.0010506282560527325,0.03414909541606903
0.043525394052267075,0.0045711989514529705,-0.023906344547867775,0.019634336233139038,-0.0008843412506394088,0.03423819690942764
0.04254988580942154,0.004194285254925489,-0.0240049809217453,0.018331684172153473,-0.0008671214454807341,0.034295834600925446
0.04236728325486183,0.004329794552177191,-0.023960256949067116,0.018306924030184746,-0.0008538191905245185,0.034292738884687424
0.04292736575007439,0.004579216707497835,-0.024110812693834305,0.018756715580821037,-0.0008728924440219998,0.03431135416030884
0.04292736575007439,0.004579216707497835,-0.024110812693834305,0.018756715580821037,-0.0008728924440219998,0.03431135416030884
0.043075524270534515,0.0046373819932341576,-0.024821093305945396,0.018635664135217667,-0.0008403339306823909,0.03445637971162796
0.04335250332951546,0.00468875328078866,-0.024977795779705048,0.019557451829314232,-0.0008522754651494324,0.033863842487335205
0.042766645550727844,0.0050375149585306644,-0.02353653311729431,0.019780660048127174,-0.0008590688230469823,0.03450510650873184
0.04314814507961273,0.004392753820866346,-0.024527233093976974,0.019401460886001587,-0.0008640820160508156,0.035093456506729126
0.043127238750457764,0.004430105909705162,-0.02590259164571762,0.0197626743465662,-0.0010733247036114335,0.03470010682940483
0.04321049526333809,0.004365647677332163,-0.024472873657941818,0.01992107555270195,-0.0011130404891446233,0.033156733959913254
0.04384756460785866,0.004793126601725817,-0.024768183007836342,0.019472649320960045,-0.0011029966408386827,0.03362186253070831
0.043942805379629135,0.00488689262419939,-0.02359648048877716,0.019510552287101746,-0.0011309963883832097,0.034991584718227386
0.04418379068374634,0.004438616801053286,-0.024411454796791077,0.018617169931530952,-0.0009735154453665018,0.03565426170825958
0.04410916939377785,0.004061070270836353,-0.025198575109243393,0.018883850425481796,-0.0009266427950933576,0.035629753023386
0.0443396158516407,0.003976010251790285,-0.025086242705583572,0.019222205504775047,-0.000834006757941097,0.03428047150373459
0.04398267716169357,0.004779430106282234,-0.02468063309788704,0.019086407497525215,-0.0008149067289195955,0.03436636924743652
0.0447215661406517,0.00484092440456152,-0.025039885193109512,0.019642239436507225,-0.0007531861192546785,0.03567015379667282
0.04467759653925896,0.004446910694241524,-0.025028256699442863,0.0200114157050848,-0.0006246799603104591,0.03596481680870056
0.04491283744573593,0.004379875957965851,-0.02481897361576557,0.019730689004063606,-0.0006374426302500069,0.03534872829914093
0.04516278952360153,0.00407253997400403,-0.024121776223182678,0.0198944304138422,-0.000664415187202394,0.035059455782175064
