davideferrari95/blind_handover_controller/data/Test 261 - [2024-02-08 -- 12-48-34]/joint_states_data.csv
shoulder_pan_joint,shoulder_lift_joint,elbow_joint,wrist_1_joint,wrist_2_joint,wrist_3_joint
0.006387511268258095,0.009374705143272877,-0.013432210311293602,0.004168886225670576,5.279804117373126e-16,0.006488420069217682
0.006387511268258095,0.009374705143272877,-0.013432210311293602,0.004168886225670576,5.279804117373126e-16,0.006488420069217682
0.006387511268258095,0.009374705143272877,-0.013432210311293602,0.004168886225670576,5.279804117373126e-16,0.006488420069217682
0.006294726859778166,0.009903973899781704,-0.01360359787940979,0.004084324464201927,3.4473347598188467e-17,0.006786821875721216
0.0062249875627458096,0.01047895010560751,-0.013492761179804802,0.004073052201420069,2.2508632918994294e-18,0.006587156094610691
0.0054356991313397884,0.009904948994517326,-0.013859582133591175,0.004116804804652929,1.46965282829873e-19,0.006779700051993132
0.006041564512997866,0.009555155411362648,-0.013377806171774864,0.004034754820168018,9.59578220513599e-21,0.006800954695791006
0.006131973583251238,0.009936450980603695,-0.01326820906251669,0.003909375984221697,6.265359996335e-22,0.00654982915148139
0.006111145485192537,0.009908556006848812,-0.01308179460465908,0.003986472729593515,4.090832599350603e-23,0.00654221884906292
0.00586764607578516,0.010486392304301262,-0.013806719332933426,0.003941921982914209,2.6710214939277387e-24,0.00663377158343792
0.005771435331553221,0.009971963241696358,-0.013537149876356125,0.0036877470556646585,1.7439860791309302e-25,0.006694473791867495
0.0060774036683142185,0.009795140475034714,-0.013870548456907272,0.0035632995422929525,1.1386983758991756e-26,0.006503017153590918
0.00628275191411376,0.010362919420003891,-0.013171734288334846,0.00400810269638896,7.434886438849221e-28,0.007195267826318741
0.006118492688983679,0.010338581167161465,-0.013937427662312984,0.004112255293875933,4.854449364941088e-29,0.006802598014473915
0.006057022139430046,0.009862899780273438,-0.013304859399795532,0.004261287860572338,3.169608233771908e-30,0.006699210498481989
0.0060573723167181015,0.010495739057660103,-0.013869185000658035,0.004036588594317436,2.069527864085946e-31,0.007121207192540169
0.006578476168215275,0.009844896383583546,-0.013695799745619297,0.003481596475467086,8.822721522909643e-34,0.0066558588296175
0.006578476168215275,0.009844896383583546,-0.013695799745619297,0.003481596475467086,8.822721522909643e-34,0.0066558588296175
0.006650550756603479,0.010498708114027977,-0.013466653414070606,0.003658300032839179,5.760607067447437e-35,0.0062248362228274345
0.00621836120262742,0.009930877014994621,-0.013881450518965721,0.0037923287600278854,3.7612644444512426e-36,0.006517799571156502
0.006322620436549187,0.009840404614806175,-0.013852794654667377,0.004223096650093794,2.4558367674461636e-37,0.006821128539741039
0.006458269897848368,0.010577880777418613,-0.014031331054866314,0.004056227393448353,1.6034859342886948e-38,0.006906326860189438
0.007146930322051048,0.009918543510138988,-0.013862348161637783,0.003965036477893591,1.0469619307402509e-39,0.006411087233573198
0.00648513063788414,0.010541143827140331,-0.013490024022758007,0.0035264845937490463,6.835954298515755e-41,0.006616519298404455
0.006253974046558142,0.010285165160894394,-0.013752227649092674,0.003960319794714451,4.4631356088745424e-42,0.006662340369075537
0.006596239283680916,0.00965641438961029,-0.01359540969133377,0.004106899723410606,2.9147008057956195e-43,0.007077453657984734
0.006611964665353298,0.009901709854602814,-0.013992959633469582,0.003598702372983098,1.961817850054744e-44,0.007250162772834301
0.006251778453588486,0.010657304897904396,-0.013532541692256927,0.0034929837565869093,1.401298464324817e-45,0.00673314556479454
0.006088037975132465,0.009781625121831894,-0.014090445823967457,0.004201797768473625,0.0,0.0063277543522417545
0.00634459825232625,0.00975449476391077,-0.014115342870354652,0.004599058534950018,0.0,0.006661605555564165
0.007319251075387001,0.01026298850774765,-0.014706038869917393,0.004216763190925121,0.0,0.007102526258677244
0.006514329928904772,0.010194441303610802,-0.01370798610150814,0.004273046739399433,0.0,0.006844606716185808
0.006325238384306431,0.009415003471076488,-0.01382758840918541,0.0036672030109912157,0.0,0.006391664035618305
0.0062397560104727745,0.010102462954819202,-0.013530805706977844,0.003593146102502942,0.0,0.006356821395456791
0.0065052141435444355,0.010028291493654251,-0.014221363700926304,0.004068178124725819,0.0,0.006839321460574865
0.006956564728170633,0.009583532810211182,-0.013607053086161613,0.004136224742978811,0.0,0.0069029200822114944
0.006839769892394543,0.009769192896783352,-0.013972754590213299,0.004022879991680384,0.0,0.006466744001954794
0.006406497675925493,0.010030459612607956,-0.013499446213245392,0.0040087332017719746,0.0,0.006434191484004259
0.006215020548552275,0.009801272302865982,-0.014419415965676308,0.0041909171268343925,0.0,0.006709483452141285
0.006766253150999546,0.00988683383911848,-0.013792644254863262,0.0040523093193769455,0.0,0.006785277277231216
0.007010424043983221,0.009175482206046581,-0.014253757894039154,0.003875651629641652,0.0,0.006528816651552916
0.006265121512115002,0.010342647321522236,-0.013742790557444096,0.00410511763766408,0.0,0.0065178279764950275
0.006515416316688061,0.009365386329591274,-0.013322831131517887,0.004586769267916679,0.0,0.006887909024953842
0.006774476263672113,0.009124195203185081,-0.01394077017903328,0.004498736001551151,0.0,0.0071587455458939075
0.006727023981511593,0.009734384715557098,-0.013949582353234291,0.0043334150686860085,0.0,0.006624846253544092
0.006695893593132496,0.009298646822571754,-0.013494007289409637,0.004082490224391222,0.0,0.006464212201535702
0.006570323836058378,0.009357350878417492,-0.013788369484245777,0.003960884641855955,0.0,0.007637803442776203
0.006570323836058378,0.009357350878417492,-0.013788369484245777,0.003960884641855955,0.0,0.007637803442776203
0.0067426897585392,0.009660353884100914,-0.01361757330596447,0.0038900317158550024,0.0,0.006860391236841679
0.007176309358328581,0.009039842523634434,-0.013686534948647022,0.0038719235453754663,0.0,0.005810229107737541
0.006998286582529545,0.008062997832894325,-0.013094945810735226,0.003866607090458274,0.0,0.0063180262222886086
0.007198082283139229,0.008343378081917763,-0.013305514119565487,0.003984231036156416,0.0,0.006653439719229937
0.006510960403829813,0.00911178719252348,-0.012336372397840023,0.004250581841915846,0.0,0.007407643832266331
0.00674960995092988,0.008681495673954487,-0.013457085937261581,0.004146810155361891,0.0,0.007018325850367546
0.00690268212929368,0.008958583697676659,-0.012900345027446747,0.004240106325596571,0.0,0.006275207735598087
0.007015613839030266,0.00901450589299202,-0.0133778415620327,0.004204352851957083,0.0,0.005996490363031626
0.006264071445912123,0.008886994794011116,-0.013101454824209213,0.004483136348426342,0.0,0.006164513062685728
0.006471755914390087,0.008698576129972935,-0.012845709919929504,0.0045967563055455685,0.0,0.006396947428584099
0.0065223840065300465,0.009173429571092129,-0.013072924688458443,0.004736736882477999,0.0,0.006768666207790375
0.0063573261722922325,0.009205731563270092,-0.012833412736654282,0.004657899960875511,0.0,0.006974541116505861
0.006247775163501501,0.008653838187456131,-0.01305888406932354,0.0041209375485777855,0.0,0.006822193972766399
0.006169251166284084,0.009843743406236172,-0.012693644501268864,0.0038333863485604525,0.0,0.007311079651117325
0.006621822249144316,0.00908864475786686,-0.013334882445633411,0.003753753611817956,0.0,0.0074500590562820435
0.006727432832121849,0.009025651030242443,-0.012808495201170444,0.004228818230330944,0.0,0.00684358598664403
0.006454478483647108,0.008999146521091461,-0.013372938148677349,0.004380075726658106,0.0,0.00689438683912158
0.006408179644495249,0.009419063106179237,-0.012955731712281704,0.004435080569237471,0.0,0.00687667028978467
0.00667972769588232,0.008728701621294022,-0.013407456688582897,0.004465699661523104,0.0,0.007110388018190861
0.006731255445629358,0.008763132616877556,-0.013163297437131405,0.004477264359593391,0.0,0.006969889625906944
0.00630818959325552,0.00909713376313448,-0.013221221044659615,0.004295533522963524,0.0,0.006748421583324671
0.006434711627662182,0.009017395786941051,-0.012917615473270416,0.00443852785974741,0.0,0.006678531877696514
0.006683188956230879,0.009168109856545925,-0.012404782697558403,0.004205541685223579,0.0,0.006945437751710415
0.0072263991460204124,0.009342281147837639,-0.01293273363262415,0.004485782235860825,0.0,0.007061556912958622
0.006380369886755943,0.009125798009335995,-0.012952262535691261,0.004192983731627464,0.0,0.0067788646556437016
0.006398462224751711,0.009399066679179668,-0.012136662378907204,0.0039411247707903385,0.0,0.007387019693851471
0.0069791655987501144,0.009224075824022293,-0.012811753898859024,0.004681853577494621,0.0,0.007076530251652002
0.006912930402904749,0.009102153591811657,-0.012521292082965374,0.004541863687336445,0.0,0.006610013544559479
0.007193444762378931,0.009449834935367107,-0.012509944848716259,0.004608019720762968,0.0,0.006525750271975994
0.006811433471739292,0.009406440891325474,-0.012581410817801952,0.004566027317196131,0.0,0.006840602029114962
0.006811433471739292,0.009406440891325474,-0.012581410817801952,0.004566027317196131,0.0,0.006840602029114962
0.0068583241663873196,0.009103875607252121,-0.012559143826365471,0.004796889144927263,0.0,0.006717301905155182
0.0068583241663873196,0.009103875607252121,-0.012559143826365471,0.004796889144927263,0.0,0.006717301905155182
0.006867569871246815,0.009902020916342735,-0.012084541842341423,0.0046964483335614204,0.0,0.00648447684943676
0.006953434552997351,0.00947384350001812,-0.012647494673728943,0.004678665194660425,0.0,0.006627389695495367
0.006870572920888662,0.00948437862098217,-0.012230520136654377,0.004673447459936142,0.0,0.007084188982844353
0.007238573860377073,0.009557224810123444,-0.012457299046218395,0.004494603257626295,0.0,0.006864046212285757
0.007287044543772936,0.009210511110723019,-0.012913007289171219,0.0050093550235033035,0.0,0.00685516931116581
0.007366508711129427,0.00949713122099638,-0.012484172359108925,0.005119472276419401,0.0,0.007221844978630543
0.006624224595725536,0.009535408578813076,-0.013176238164305687,0.004504024516791105,0.0,0.0067896051332354546
0.007066197693347931,0.009599384851753712,-0.012638762593269348,0.00446535088121891,0.0,0.006652858108282089
0.007183451671153307,0.009086154401302338,-0.012846728786826134,0.004533129278570414,0.0,0.006765700876712799
0.006856879219412804,0.009630106389522552,-0.012289108708500862,0.004799813497811556,0.0,0.006512593477964401
0.006931758020073175,0.009232784621417522,-0.01269273366779089,0.00490805646404624,0.0,0.006418169941753149
0.0071428618393838406,0.008876814506947994,-0.012797148898243904,0.004744069185107946,0.0,0.0067669907584786415
0.007341436110436916,0.009264372289180756,-0.012649928219616413,0.0043111988343298435,0.0,0.007166985888034105
0.0072875558398664,0.009070457890629768,-0.012877154164016247,0.004231977742165327,0.0,0.007278428412973881
0.007305164821445942,0.008838159963488579,-0.012371615506708622,0.004168517421931028,0.0,0.006816504988819361
0.00753436516970396,0.00929886382073164,-0.01275608129799366,0.0044308858923614025,0.0,0.007123863324522972
0.007170024327933788,0.008900085464119911,-0.013128981925547123,0.004755187779664993,0.0,0.007145844865590334
0.006826175842434168,0.009181446395814419,-0.013096463866531849,0.004347424488514662,0.0,0.006935384124517441
0.006630882620811462,0.009163429029285908,-0.013624791987240314,0.003964385949075222,0.0,0.007257663179188967
0.006877388805150986,0.008837668225169182,-0.013837208971381187,0.00406365841627121,0.0,0.007355086505413055
0.006946639623492956,0.009348958730697632,-0.013449729420244694,0.0039533814415335655,0.0,0.006939923856407404
0.0069403136149048805,0.009360377676784992,-0.013026127591729164,0.003877117531374097,0.0,0.006668375339359045
0.0069403136149048805,0.009360377676784992,-0.013026127591729164,0.003877117531374097,0.0,0.006668375339359045
0.006731035653501749,0.008676313795149326,-0.012715759687125683,0.004438754636794329,0.0,0.006767782382667065
0.00732504902407527,0.008853173814713955,-0.013485714793205261,0.004577878396958113,0.0,0.006967663764953613
0.0075324224308133125,0.009390721097588539,-0.012352598831057549,0.004373111296445131,0.0,0.007119073532521725
0.006906155496835709,0.008864094503223896,-0.01328518707305193,0.004096272401511669,0.0,0.007259332109242678
0.006700035184621811,0.008707504719495773,-0.012813612818717957,0.003907614853233099,0.0,0.007272668182849884
0.007048447150737047,0.009301316924393177,-0.013274007476866245,0.004353334195911884,0.0,0.007298415992408991
0.007309463806450367,0.00902777723968029,-0.012791458517313004,0.004188145510852337,0.0,0.007190580479800701
0.007508172653615475,0.008935905061662197,-0.013157408684492111,0.004813558422029018,0.0,0.0072721014730632305
0.006791148334741592,0.009392283856868744,-0.013068512082099915,0.005008858162909746,0.0,0.006955678574740887
0.0068583558313548565,0.009299388155341148,-0.013336129486560822,0.004850071854889393,0.0,0.006756829097867012
0.007555464748293161,0.009255523793399334,-0.012813249602913857,0.0045882235281169415,0.0,0.0066564627923071384
0.007385205943137407,0.00912789348512888,-0.011978602968156338,0.00461756344884634,0.0,0.006848169025033712
0.007087408099323511,0.009700039401650429,-0.012949029915034771,0.004652786999940872,0.0,0.007033056113868952
0.007435345556586981,0.008894456550478935,-0.012675425037741661,0.004898431245237589,0.0,0.007313276641070843
0.007699198089540005,0.009055870585143566,-0.0131626445800066,0.004907719790935516,0.0,0.0070455498062074184
0.007189203519374132,0.00952757429331541,-0.012672306038439274,0.0047047133557498455,0.0,0.00724818604066968
0.007158579770475626,0.009500522166490555,-0.012964477762579918,0.004322138149291277,0.0,0.007026828359812498
0.0068091414868831635,0.009224397130310535,-0.012806807644665241,0.004450552631169558,0.0,0.007548996713012457
0.007137184496968985,0.009371212683618069,-0.012646321207284927,0.004608721937984228,0.0,0.008620092645287514
0.007213892415165901,0.0093741649761796,-0.012855849228799343,0.004236799199134111,0.0,0.006314788945019245
0.007231995463371277,0.009136190637946129,-0.013262173160910606,0.005005790386348963,0.0,0.006622202228754759
0.007936246693134308,0.009432442486286163,-0.01237721461802721,0.005170539021492004,0.0,0.007161656394600868
0.007702873554080725,0.008780322037637234,-0.012856346555054188,0.005011016968637705,0.0,0.007895415648818016
0.007710984908044338,0.009085819125175476,-0.012572765350341797,0.004729908425360918,0.0,0.007718965411186218
0.006997266784310341,0.008947191759943962,-0.013218679465353489,0.004179977346211672,0.0,0.007601873483508825
0.006997266784310341,0.008947191759943962,-0.013218679465353489,0.004179977346211672,0.0,0.007601873483508825
0.008118153549730778,0.008960463106632233,-0.012711018323898315,0.004725465085357428,0.0,0.007466623559594154
0.00790207739919424,0.00943742785602808,-0.01314133033156395,0.005301750730723143,0.0,0.007452624849975109
0.00790207739919424,0.00943742785602808,-0.01314133033156395,0.005301750730723143,0.0,0.007452624849975109
0.007820041850209236,0.008965196087956429,-0.012811346910893917,0.005078435409814119,0.0,0.007459947373718023
0.007854530587792397,0.00941229797899723,-0.013090331107378006,0.004822286311537027,0.0,0.007701863534748554
0.007844526320695877,0.009079894050955772,-0.012238351628184319,0.004425253719091415,0.0,0.00748658599331975
0.007694273721426725,0.008734640665352345,-0.013071505352854729,0.004243344534188509,0.0,0.007168154697865248
0.0077742887660861015,0.008785001002252102,-0.012819112278521061,0.004420215729624033,0.0,0.0067627145908772945
0.00785720907151699,0.009312443435192108,-0.013245908543467522,0.004698749165982008,0.0,0.007091346196830273
0.008415699005126953,0.008965195156633854,-0.013011173345148563,0.0048484778963029385,0.0,0.007358970120549202
0.007310198154300451,0.008978769183158875,-0.012817993760108948,0.0046841721050441265,0.0,0.007473716512322426
0.007926023565232754,0.009309370070695877,-0.012894059531390667,0.004694071598351002,0.0,0.00748706329613924
0.007952893152832985,0.009245285764336586,-0.012635070830583572,0.00473531661555171,0.0,0.007520770654082298
0.007688584737479687,0.009113182313740253,-0.013324135914444923,0.004464033991098404,0.0,0.007569519802927971
0.007764401845633984,0.008511355146765709,-0.012210969813168049,0.004557057749480009,0.0,0.007169143762439489
0.0079577611759305,0.008682876825332642,-0.013036666437983513,0.0047308532521128654,0.0,0.006986518856137991
0.008668364025652409,0.008677802048623562,-0.012118509039282799,0.005178583320230246,0.0,0.007380066439509392
0.007836059667170048,0.008728179149329662,-0.012596257030963898,0.004946116823703051,0.0,0.007959801703691483
0.007549599278718233,0.009617617353796959,-0.012606917880475521,0.004861893597990274,0.0,0.008273236453533173
0.008290735073387623,0.008730019442737103,-0.012598736211657524,0.004620284773409367,0.0,0.007953387685120106
0.007860377430915833,0.008228793740272522,-0.012673440389335155,0.004818248562514782,0.0,0.007628268096596003
0.007681483868509531,0.008750162087380886,-0.012778648175299168,0.004996652714908123,0.0,0.007473553530871868
0.007986268028616905,0.008333475328981876,-0.012632051482796669,0.005090152844786644,0.0,0.008073229342699051
0.008016266860067844,0.008934779092669487,-0.01315061841160059,0.005031810142099857,0.0,0.0077823614701628685
0.008016266860067844,0.008934779092669487,-0.01315061841160059,0.005031810142099857,0.0,0.0077823614701628685
0.007840306498110294,0.008111336268484592,-0.012941226363182068,0.005346035584807396,0.0,0.007307637017220259
0.00812339037656784,0.007750784978270531,-0.012821308337152004,0.005153867416083813,0.0,0.007766184862703085
0.00812339037656784,0.007750784978270531,-0.012821308337152004,0.005153867416083813,0.0,0.007766184862703085
0.008212712593376637,0.008394846692681313,-0.012538336217403412,0.005050559062510729,0.0,0.007824746891856194
0.00784230139106512,0.00777210108935833,-0.012587528675794601,0.004900799598544836,0.0,0.0073097520507872105
0.00784230139106512,0.00777210108935833,-0.012587528675794601,0.004900799598544836,0.0,0.0073097520507872105
0.008789494633674622,0.008002333343029022,-0.013038723729550838,0.004445760045200586,0.0,0.007440267130732536
0.008035442791879177,0.00880099181085825,-0.012565148063004017,0.004491006955504417,0.0,0.007439517881721258
0.008189289830625057,0.00849007535725832,-0.013258721679449081,0.004928623326122761,0.0,0.007547399960458279
0.00851021520793438,0.007871494628489017,-0.012948763556778431,0.0049395994283258915,0.0,0.007916058413684368
0.008688211441040039,0.008191650733351707,-0.01323411799967289,0.0049331230111420155,0.0,0.007742208428680897
0.008149132132530212,0.008061100728809834,-0.012866390869021416,0.0048194932751357555,0.0,0.007422158494591713
0.00856769923120737,0.008192181587219238,-0.012775423936545849,0.004726901650428772,0.0,0.007834195159375668
0.009118862450122833,0.007915262132883072,-0.013205361552536488,0.004677890334278345,0.0,0.00783897377550602
0.008106118068099022,0.008426016196608543,-0.012849345803260803,0.005168600473552942,0.0,0.0076834955252707005
0.007982620969414711,0.007931850850582123,-0.013194303959608078,0.005231352057307959,0.0,0.007804298307746649
0.008537355810403824,0.00797221064567566,-0.012324259616434574,0.005049458239227533,0.0,0.007456536404788494
0.009062704630196095,0.007803775370121002,-0.01323294173926115,0.005156479310244322,0.0,0.007231181021779776
0.008075115270912647,0.007891896180808544,-0.013077043928205967,0.005080000031739473,0.0,0.007540049962699413
0.008609808050096035,0.008246824145317078,-0.013676893897354603,0.004844615235924721,0.0,0.007468228228390217
0.008658763021230698,0.008307165466248989,-0.013386226259171963,0.00525632593780756,0.0,0.007481138221919537
0.00847952626645565,0.00790876243263483,-0.01348945777863264,0.005249889567494392,0.0,0.007684440352022648
0.008498728275299072,0.007915996015071869,-0.012980456463992596,0.005151957739144564,0.0,0.007874726317822933
0.008498728275299072,0.007915996015071869,-0.012980456463992596,0.005151957739144564,0.0,0.007874726317822933
0.008925090543925762,0.007795664481818676,-0.013666016981005669,0.005067931488156319,0.0,0.007534225471317768
0.008925090543925762,0.007795664481818676,-0.013666016981005669,0.005067931488156319,0.0,0.007534225471317768
0.008575518615543842,0.008139225654304028,-0.013668633997440338,0.005243371240794659,0.0,0.008173668757081032
0.009248662739992142,0.007870133966207504,-0.013020498678088188,0.0051937527023255825,0.0,0.008314617909491062
0.008490316569805145,0.007766465190798044,-0.01343485713005066,0.00505527900531888,0.0,0.00782572291791439
0.008399350568652153,0.008175184950232506,-0.013006028719246387,0.005226024892181158,0.0,0.007775513455271721
0.009117232635617256,0.008293109014630318,-0.013747414574027061,0.004918506834656,0.0,0.007702876813709736
0.008429483510553837,0.008442427031695843,-0.013198926113545895,0.0045998916029930115,0.0,0.007550019305199385
0.008386107161641121,0.008011425845324993,-0.013952911831438541,0.004952489864081144,0.0,0.007847669534385204
0.009244286455214024,0.008069489151239395,-0.01337179820984602,0.004982901271432638,0.0,0.007761715445667505
0.008917907252907753,0.007510181050747633,-0.014170574955642223,0.004907725378870964,0.0,0.008520546369254589
0.008698000572621822,0.00781466718763113,-0.013608869165182114,0.005049573723226786,0.0,0.00755451712757349
0.008944414556026459,0.008597461506724358,-0.013471284881234169,0.004956408403813839,0.0,0.007800514344125986
0.010035584680736065,0.00852946750819683,-0.01296231895685196,0.004866569768637419,0.0,0.0079340860247612
0.008757316507399082,0.00796047504991293,-0.013089909218251705,0.004812121856957674,0.0,0.008128820918500423
0.008600630797445774,0.007897596806287766,-0.013571430929005146,0.004972915165126324,0.0,0.008399092592298985
0.009174125269055367,0.007969576865434647,-0.013434534892439842,0.004913133569061756,0.0,0.008937207981944084
0.009004540741443634,0.00755893811583519,-0.01387065276503563,0.005210428964346647,0.0,0.008444045670330524
0.008975563570857048,0.007641836069524288,-0.012772215530276299,0.005409944336861372,0.0,0.00829670112580061
0.009297436103224754,0.007683895528316498,-0.012964621186256409,0.005718715488910675,0.0,0.008509641513228416
0.008762212470173836,0.007772400975227356,-0.012711877003312111,0.006398099008947611,0.0,0.008179986849427223
0.00924502033740282,0.008200641721487045,-0.013534686528146267,0.005898813251405954,0.0,0.008382509462535381
0.00945876631885767,0.008494113571941853,-0.013803633861243725,0.005957678891718388,0.0,0.008517807349562645
0.00945876631885767,0.008494113571941853,-0.013803633861243725,0.005957678891718388,0.0,0.008517807349562645
0.008815964683890343,0.008211415261030197,-0.013507798314094543,0.005705863703042269,0.0,0.00861123763024807
0.009024357423186302,0.007936178706586361,-0.01316806860268116,0.00577163090929389,0.0,0.008183566853404045
0.009540239349007607,0.007766458205878735,-0.01308930292725563,0.005496579688042402,0.0,0.007856272161006927
0.009058304131031036,0.008511396124958992,-0.013082442805171013,0.005339344963431358,0.0,0.007994522340595722
0.0090029276907444,0.007924404926598072,-0.013900122605264187,0.004739923868328333,0.0,0.008287717588245869
0.009286570362746716,0.007486061658710241,-0.01292072981595993,0.0045740557834506035,0.0,0.008319412358105183
0.00885776150971651,0.007422720082104206,-0.013285068795084953,0.005468030925840139,0.0,0.00842936523258686
0.008736385963857174,0.008458288386464119,-0.012664321810007095,0.0058537875302135944,0.0,0.008637825027108192
0.009287063032388687,0.008086062036454678,-0.01346540730446577,0.005867873318493366,0.0,0.008198287338018417
0.010072426870465279,0.007571134250611067,-0.012850824743509293,0.00590958446264267,0.0,0.008227108046412468
0.008788390085101128,0.007421343587338924,-0.013416917994618416,0.005409584380686283,0.0,0.00883681420236826
0.010034644044935703,0.008065816946327686,-0.012959104031324387,0.005809602327644825,0.0,0.008615060709416866
0.009390607476234436,0.007968399673700333,-0.013569574803113937,0.006070135626941919,0.0,0.008470946922898293
0.009516695514321327,0.00749417208135128,-0.013431081548333168,0.006345356814563274,0.0,0.008718924596905708
0.009695017710328102,0.007272198796272278,-0.013512447476387024,0.006023596506565809,0.0,0.009013845585286617
0.009511965326964855,0.007665134966373444,-0.013239185325801373,0.005827815271914005,0.0,0.008554426953196526
0.009051154367625713,0.007497846614569426,-0.012824660167098045,0.00558996619656682,0.0,0.00881713256239891
0.009425895288586617,0.007366544101387262,-0.01322960015386343,0.005808028858155012,0.0,0.00900307297706604
0.009978043846786022,0.007388225756585598,-0.013166744261980057,0.006005601491779089,0.0,0.008916505612432957
0.009630577638745308,0.008085032925009727,-0.014055944979190826,0.005817573983222246,0.0,0.008746640756726265
0.009748601354658604,0.008192630484700203,-0.013270316645503044,0.0056615122593939304,0.0,0.0088901212438941
0.009715995751321316,0.007992410100996494,-0.013295411132276058,0.00628862576559186,0.0,0.008541562594473362
0.009753973223268986,0.007917232811450958,-0.013538660481572151,0.006354310549795628,-0.00011121639545308426,0.008776169270277023
0.009981892071664333,0.007454509846866131,-0.013159827329218388,0.006049145478755236,-0.00012218489428050816,0.009331239387392998
0.009526452049612999,0.007518582046031952,-0.014080670662224293,0.006077386438846588,-0.00011984447337454185,0.008842846378684044
0.009777519851922989,0.00761267077177763,-0.013558326289057732,0.005705584306269884,-0.00011679358431138098,0.008781688287854195
0.009777519851922989,0.00761267077177763,-0.013558326289057732,0.005705584306269884,-0.00011679358431138098,0.008781688287854195
0.010295506566762924,0.00746593251824379,-0.013471352867782116,0.0060760569758713245,-0.00011384245590306818,0.008314698934555054
0.009966774843633175,0.007052644621580839,-0.013167438097298145,0.006174524314701557,-0.00011103376891696826,0.008559918962419033
0.010849366895854473,0.0072218575514853,-0.01348905824124813,0.00561310350894928,-0.00012858198897447437,0.008595641702413559
0.010260348208248615,0.0074403127655386925,-0.013647612184286118,0.005790423601865768,-0.00012687951675616205,0.008591322228312492
0.009581046178936958,0.007823941297829151,-0.013584522530436516,0.005746541544795036,-0.000124050973681733,0.008834496140480042
0.010081197135150433,0.00736847473308444,-0.013978798873722553,0.00572909926995635,-0.00012127042282372713,0.00859274435788393
0.010646832175552845,0.007019505836069584,-0.013108324259519577,0.005608533974736929,-0.0001186073204735294,0.008537527173757553
0.009949254803359509,0.0072731273248791695,-0.013427729718387127,0.005609674844890833,-0.00011605803592829034,0.009029899723827839
0.010214271023869514,0.007554518058896065,-0.012495518662035465,0.00580752594396472,-0.00011361604265403003,0.009125802665948868
0.010307775810360909,0.007771024480462074,-0.01319112442433834,0.005920343101024628,-0.00011127486504847184,0.009028964675962925
0.010652664117515087,0.007617776747792959,-0.012948645278811455,0.005938802845776081,-0.0001259885757463053,0.009278629906475544
0.010713021270930767,0.007812556810677052,-0.013614660128951073,0.0059919594787061214,-0.00012460291327442974,0.009045273996889591
0.010103304870426655,0.007705392315983772,-0.013036707416176796,0.0060579245910048485,-0.00012225705722812563,0.009037899784743786
0.01101821381598711,0.007351896725594997,-0.01329465676099062,0.006153453141450882,-0.00011993445514235646,0.009518684819340706
0.011058163829147816,0.007310875691473484,-0.013020970858633518,0.0061558326706290245,-0.00011769417324103415,0.009401275776326656
0.010217785835266113,0.007544452790170908,-0.013583257794380188,0.0062569682486355305,-0.00011553578224265948,0.010281959548592567
0.010705114342272282,0.0081644207239151,-0.013161960989236832,0.0061311544850468636,-0.0001134550038841553,0.00988653302192688
0.010608203709125519,0.007721917238086462,-0.013189277611672878,0.006110419053584337,-0.00012326448631938547,0.009258359670639038
0.009919526986777782,0.007530620787292719,-0.013808595947921276,0.006054047495126724,-0.00012488706852309406,0.008484200574457645
0.010599066503345966,0.00826294720172882,-0.013371892273426056,0.00618550693616271,-0.00012299920490477234,0.00893662590533495
0.010353331454098225,0.0077322544530034065,-0.013144697062671185,0.006552567705512047,-0.00011895196075784042,0.009538108482956886
0.01090961042791605,0.007756866980344057,-0.013671884313225746,0.006670463364571333,-0.00011701860057655722,0.009365973062813282
0.01090961042791605,0.007756866980344057,-0.013671884313225746,0.006670463364571333,-0.00011701860057655722,0.009365973062813282
0.011062832549214363,0.007882673293352127,-0.013350711204111576,0.006289650686085224,-0.00011514731886563823,0.009644251316785812
0.010524516925215721,0.007837009616196156,-0.014078076928853989,0.006411014590412378,-0.00014560564886778593,0.009064659476280212
0.010479132644832134,0.007808432914316654,-0.013643400743603706,0.007055447902530432,-0.00015121573233045638,0.008718443103134632
0.010700076818466187,0.007704056799411774,-0.012913201004266739,0.006348751485347748,-0.00014235824346542358,0.009325636550784111
0.010700076818466187,0.007704056799411774,-0.012913201004266739,0.006348751485347748,-0.00014235824346542358,0.009325636550784111
0.010666292160749435,0.008117304183542728,-0.013615845702588558,0.006066970527172089,-0.00013799553562421352,0.009232019074261189
0.009988262318074703,0.007918184623122215,-0.013815094716846943,0.006082211621105671,-0.0001470286661060527,0.009408746846020222
0.011004053987562656,0.008027389645576477,-0.014274991117417812,0.0060171205550432205,-0.00015513414109591395,0.009531575255095959
0.011473557911813259,0.00795714557170868,-0.014585155062377453,0.005973802413791418,-0.00015158479800447822,0.009360267780721188
0.010343394242227077,0.006932591553777456,-0.014144274406135082,0.0058820536360144615,-0.00014749688853044063,0.00985716748982668
0.010689780116081238,0.007036891300231218,-0.013568548485636711,0.006221158895641565,-0.0001435780868632719,0.009791309013962746
0.010710439644753933,0.007462258450686932,-0.013417926616966724,0.006491784937679768,-0.00013985949044581503,0.00973137654364109
0.011418990790843964,0.008276748470962048,-0.014181767590343952,0.0063615646213293076,-0.00013632852642331272,0.00988887157291174
0.010331012308597565,0.008352871052920818,-0.01381660532206297,0.006048147100955248,-0.00014386010298039764,0.0104801831766963
0.010149804875254631,0.007974390871822834,-0.014214525930583477,0.005826281849294901,-0.00015066866762936115,0.00981225911527872
0.010410750284790993,0.007153178099542856,-0.013769807294011116,0.005813413765281439,-0.00014780322089791298,0.009496757760643959
0.010767518542706966,0.007389737758785486,-0.01419576071202755,0.0061760894022881985,-0.00014445779379457235,0.010344911366701126
0.010462958365678787,0.007353724911808968,-0.013948364183306694,0.006130388472229242,-0.00014122230641078204,0.010130604729056358
0.010381870903074741,0.007397246081382036,-0.014263925142586231,0.006355768535286188,-0.00013812622637487948,0.010027823969721794
0.010178386233747005,0.007633955217897892,-0.0138749023899436,0.005779342260211706,-0.00014948406897019595,0.00992104783654213
0.010096930898725986,0.00777152506634593,-0.014299740083515644,0.005693031474947929,-0.0001509013818576932,0.010361498221755028
0.010641597211360931,0.006881115958094597,-0.013762190006673336,0.006210921797901392,-0.00014809485583100468,0.01007959432899952
0.010225588455796242,0.007296246010810137,-0.013702255673706532,0.006299395579844713,-0.00014226269559003413,0.009065641090273857
0.010732700116932392,0.008158203214406967,-0.01411061454564333,0.00589889707043767,-0.00013950624270364642,0.009535741060972214
0.010373344644904137,0.007108001504093409,-0.013591802679002285,0.005810044705867767,-0.0001718052226351574,0.009788807481527328
0.01034318096935749,0.007013945374637842,-0.014413227327167988,0.006449566222727299,-0.0001765010820236057,0.009801995940506458
0.010847034864127636,0.007289365399628878,-0.013836097903549671,0.00665333541110158,-0.00017055751231964678,0.010501229204237461
0.010188901796936989,0.008010226301848888,-0.014161322265863419,0.006269664037972689,-0.0001643755822442472,0.010131234303116798
0.010541144758462906,0.00816209614276886,-0.013427688740193844,0.006149811204522848,-0.00015858517144806683,0.009745283052325249
0.010682371445000172,0.007174415048211813,-0.014191857539117336,0.006455663591623306,-0.0001797621516743675,0.009889009408652782
0.010682371445000172,0.007174415048211813,-0.014191857539117336,0.006455663591623306,-0.0001797621516743675,0.009889009408652782
0.01015469804406166,0.007934847846627235,-0.013684594072401524,0.006804788950830698,-0.0001775060227373615,0.010183865204453468
0.010864557698369026,0.007920182310044765,-0.01431549433618784,0.006654871162027121,-0.00017208745703101158,0.00980395171791315
0.0118699437007308,0.0074136811308562756,-0.013577565550804138,0.0065229907631874084,-0.00016678731481079012,0.010055397637188435
0.010490423068404198,0.007542348932474852,-0.01393809448927641,0.0063426862470805645,-0.0001617906818864867,0.009758480824530125
0.010625933296978474,0.007587940897792578,-0.013363705947995186,0.006599923130124807,-0.00015708412684034556,0.009491778910160065
0.010291208513081074,0.007543785963207483,-0.014100550673902035,0.006717003416270018,-0.00015264340618159622,0.010231641121208668
0.010460036806762218,0.0073269205167889595,-0.013832256197929382,0.006265159696340561,-0.00016677718667779118,0.0100003182888031
0.010517125949263573,0.007335412781685591,-0.014129502698779106,0.006490624975413084,-0.0001681357534835115,0.009390076622366905
0.010239917784929276,0.007436869200319052,-0.013803668320178986,0.007075367495417595,-0.00016413441335316747,0.009667165577411652
0.010876511223614216,0.007432146463543177,-0.013892876915633678,0.0066940514370799065,-0.00015999052266124636,0.010039991699159145
0.011006345972418785,0.007556458935141563,-0.013595365919172764,0.006536278408020735,-0.00015602998610120267,0.009841266088187695
0.010790830478072166,0.007358422502875328,-0.01357171218842268,0.006604711525142193,-0.00015225879906211048,0.010316607542335987
0.011050828732550144,0.007220742758363485,-0.013832165859639645,0.006222439929842949,-0.00014866552373860031,0.010965553112328053
0.01103758905082941,0.007785022724419832,-0.013738604262471199,0.006446256302297115,-0.00016459969629067928,0.009386385791003704
0.011156907305121422,0.007437332067638636,-0.014282331801950932,0.006678034085780382,-0.00016215532377827913,0.009616433642804623
0.011424330063164234,0.007286038715392351,-0.013904144056141376,0.006883412133902311,-0.00015866453759372234,0.009923630394041538
0.01040024682879448,0.007546012755483389,-0.014164820313453674,0.006756702903658152,-0.0001552486210130155,0.010263532400131226
0.011126703582704067,0.007326107006520033,-0.01408727653324604,0.00755039369687438,-0.00014883061521686614,0.010623556561768055
0.01059652678668499,0.007347265258431435,-0.013484739698469639,0.007577240001410246,-0.00014581636060029268,0.01058066263794899
0.010802214965224266,0.007902571931481361,-0.014132370240986347,0.006830915808677673,-0.00014292170817498118,0.01065854262560606
0.011015797965228558,0.007763535249978304,-0.01327546127140522,0.006522750947624445,-0.0001609239261597395,0.010848711244761944
0.01026192307472229,0.007216243539005518,-0.013728627003729343,0.0071335360407829285,-0.00015832606004551053,0.011291608214378357
0.010875250212848186,0.00711023947224021,-0.013211105950176716,0.007257362827658653,-0.00015313785115722567,0.011049579828977585
0.01056489534676075,0.00830837246030569,-0.013968405313789845,0.006991982460021973,-0.0001481100043747574,0.010869919322431087
0.010609007440507412,0.007968737743794918,-0.013519702479243279,0.0065639386884868145,-0.00014339093468151987,0.010927964001893997
0.010609007440507412,0.007968737743794918,-0.013519702479243279,0.0065639386884868145,-0.00014339093468151987,0.010927964001893997
0.010542803443968296,0.0075712925754487514,-0.013448068872094154,0.007000342011451721,-0.00015476546832360327,0.010976698249578476
0.010811015963554382,0.008308554999530315,-0.013906849548220634,0.006881727837026119,-0.00015659781638532877,0.010327225551009178
0.010811015963554382,0.008308554999530315,-0.013906849548220634,0.006881727837026119,-0.00015659781638532877,0.010327225551009178
0.011104892939329147,0.008002337999641895,-0.013538924045860767,0.006631714291870594,-0.00015258548955898732,0.010622650384902954
0.010688172653317451,0.007148413453251123,-0.013791617937386036,0.006841833237558603,-0.00014841847587376833,0.011188296601176262
0.01108312513679266,0.007296924479305744,-0.013254836201667786,0.007221668027341366,-0.00014444967382587492,0.011141786351799965
0.011690573766827583,0.008274823427200317,-0.013423822820186615,0.006884808652102947,-0.00016256181697826833,0.011069939471781254
0.012594470754265785,0.007804082240909338,-0.013677728362381458,0.006982322782278061,-0.00015986349899321795,0.011934299021959305
0.012827303260564804,0.007034203037619591,-0.013415957801043987,0.006391909904778004,-0.0001559980446472764,0.011508358642458916
0.012358585372567177,0.007880939170718193,-0.013769129291176796,0.006055173464119434,-0.00015223438094835728,0.011170631274580956
0.01253312174230814,0.008021524176001549,-0.013410154730081558,0.0069471062161028385,-0.00014864274999126792,0.010914605110883713
0.012067005969583988,0.0077480897307395935,-0.01353350281715393,0.007011707406491041,-0.0001645750890020281,0.010903052985668182
0.012417366728186607,0.007176453713327646,-0.013406706042587757,0.00722423754632473,-0.00016213148774113506,0.011258845217525959
0.012668211944401264,0.007208764553070068,-0.014407829381525517,0.007066737394779921,-0.00015864160377532244,0.011378361843526363
0.012455752119421959,0.007961397059261799,-0.013322494924068451,0.007359837647527456,-0.0001552266621729359,0.01079888641834259
0.012801451608538628,0.007526644505560398,-0.013784690760076046,0.006862189620733261,-0.0001519510115031153,0.011158004403114319
0.012516115792095661,0.00714676221832633,-0.013403346762061119,0.006851608399301767,-0.0001990811142604798,0.011451403610408306
0.012774444185197353,0.0071532148867845535,-0.01398816704750061,0.0068221851252019405,-0.00019758827693294734,0.011105294339358807
0.012830495834350586,0.007571785245090723,-0.01407267339527607,0.007074316963553429,-0.00018208289111498743,0.011276941746473312
0.012383418157696724,0.006839674897491932,-0.013383771292865276,0.007186452392488718,-0.00017500245303381234,0.011189179494976997
0.013289225287735462,0.007116246968507767,-0.01392051950097084,0.007314009126275778,-0.00016845051140990108,0.01120248157531023
0.012912089005112648,0.0075486451387405396,-0.013780581764876842,0.007521525956690311,-0.00016237124509643763,0.010978368110954762
0.013114121742546558,0.007200704887509346,-0.01358748972415924,0.007068894803524017,-0.0001799078454496339,0.011189866811037064
0.012973219156265259,0.0071624452248215675,-0.014237774536013603,0.007125058211386204,-0.00018119697051588446,0.01127239502966404
0.012973219156265259,0.0071624452248215675,-0.014237774536013603,0.007125058211386204,-0.00018119697051588446,0.01127239502966404
0.01313762366771698,0.007394821383059025,-0.013734274543821812,0.007852660492062569,-0.00017026557179633528,0.011575178243219852
0.01247892715036869,0.007674053311347961,-0.014941598288714886,0.007783341687172651,-0.00016506230167578906,0.011280672624707222
0.01247892715036869,0.007674053311347961,-0.014941598288714886,0.007783341687172651,-0.00016506230167578906,0.011280672624707222
0.012428158894181252,0.007249272894114256,-0.01447231788188219,0.007006344385445118,-0.0001799366291379556,0.011594661511480808
0.012463732622563839,0.007172251585870981,-0.014414814300835133,0.006959979422390461,-0.00018102538888342679,0.011159696616232395
0.012980148196220398,0.007159869652241468,-0.014385025948286057,0.0073675187304615974,-0.00017636622942518443,0.0116589879617095
0.013088765554130077,0.00722932443022728,-0.01432732306420803,0.0072770253755152225,-0.00017158901027869433,0.012156215496361256
0.013132310472428799,0.007217491511255503,-0.014138839207589626,0.006971322000026703,-0.0001670410274527967,0.011119122616946697
0.013271600008010864,0.007238780148327351,-0.0140130165964365,0.0069571263156831264,-0.00016272620996460319,0.01115858182311058
0.01306216325610876,0.007778644561767578,-0.01398745458573103,0.007387715391814709,-0.00015862868167459965,0.011216402053833008
0.012951686047017574,0.007185161579400301,-0.014013426378369331,0.00723369512706995,-0.00015473233361262828,0.011237653903663158
0.012355411425232887,0.006997722201049328,-0.014724788255989552,0.007182283792644739,-0.00017115440277848393,0.011582148261368275
0.012956748716533184,0.007332812063395977,-0.014382940717041492,0.006936739664524794,-0.00016846260405145586,0.011615130119025707
0.012556654401123524,0.007681462448090315,-0.014189666137099266,0.00669073686003685,-0.00016469485126435757,0.012002786621451378
0.013146781362593174,0.007365122903138399,-0.014196979813277721,0.0073407418094575405,-0.00016101705841720104,0.011978222988545895
0.013250023126602173,0.007333931978791952,-0.014575478620827198,0.007989058271050453,-0.0001574952621012926,0.011836536228656769
0.013097786344587803,0.007470022886991501,-0.013932800851762295,0.007852531038224697,-0.0001541238307254389,0.012141173705458641
0.013097361661493778,0.00783237162977457,-0.014788725413382053,0.008101683109998703,-0.0001508936402387917,0.011808492243289948
0.01284981518983841,0.007163594476878643,-0.01432828139513731,0.007799936458468437,-0.0001478407793911174,0.012235143221914768
0.012334027327597141,0.007683449424803257,-0.0143010588362813,0.007477068807929754,-0.00015157296729739755,0.011815630830824375
0.012334027327597141,0.007683449424803257,-0.0143010588362813,0.007477068807929754,-0.00015157296729739755,0.011815630830824375
0.012898357585072517,0.007628859486430883,-0.013728897087275982,0.007945400662720203,-0.00014206055493559688,0.011410427279770374
0.012898357585072517,0.007628859486430883,-0.013728897087275982,0.007945400662720203,-0.00014206055493559688,0.011410427279770374
0.01294754445552826,0.008032537065446377,-0.01408302504569292,0.007883017882704735,-0.0001568171282997355,0.012008286081254482
0.01294754445552826,0.008032537065446377,-0.01408302504569292,0.007883017882704735,-0.0001568171282997355,0.012008286081254482
0.013447925448417664,0.007988190278410912,-0.014347311109304428,0.008261649869382381,-0.00015549283125437796,0.01178205106407404
0.01181942317634821,0.007584609556943178,-0.014528913423418999,0.008223193697631359,-0.00015134320710785687,0.011882772669196129
0.013520135544240475,0.008091025985777378,-0.013987725600600243,0.008584944531321526,-0.00016639470413792878,0.011949477717280388
0.013520135544240475,0.008091025985777378,-0.013987725600600243,0.008584944531321526,-0.00016639470413792878,0.011949477717280388
0.013091868720948696,0.007912756875157356,-0.01414884626865387,0.008654827252030373,-0.00016283361765090376,0.011954016983509064
0.0135984281077981,0.007476864382624626,-0.014160062186419964,0.008250102400779724,-0.00016992106975521892,0.012367982417345047
0.013289147987961769,0.00760146277025342,-0.014345618896186352,0.007654719054698944,-0.000176249464857392,0.012480148114264011
0.013587091118097305,0.0077987429685890675,-0.013952384702861309,0.007586600724607706,-0.00017270667012780905,0.012818367220461369
0.01373045239597559,0.006981514859944582,-0.014487854205071926,0.007837280631065369,-0.0001687044568825513,0.012266173027455807
0.014022751711308956,0.006336549762636423,-0.014194787479937077,0.007682162337005138,-0.00016484473599120975,0.011939911171793938
0.013520796783268452,0.00590083934366703,-0.014319143258035183,0.007988900877535343,-0.0002394391194684431,0.012335984036326408
0.01427437737584114,0.005335553549230099,-0.013896912336349487,0.007885468192398548,-0.00025141346850432456,0.012147929519414902
0.013789013959467411,0.006066412199288607,-0.014548363164067268,0.00814976915717125,-0.000239677814533934,0.01251840591430664
0.014092713594436646,0.006205263547599316,-0.014053200371563435,0.007741459645330906,-0.0002276574377901852,0.012037806212902069
0.013845059089362621,0.0062905424274504185,-0.014298309572041035,0.008122656494379044,-0.0002166980702895671,0.012586619704961777
0.013898509554564953,0.005712470039725304,-0.013988038524985313,0.008841471746563911,-0.00024255590687971562,0.012408066540956497
0.013755074702203274,0.005731912329792976,-0.014431266114115715,0.008588176220655441,-0.00023682716710027307,0.012486811727285385
0.013956367038190365,0.0061464314348995686,-0.013821735046803951,0.007956580258905888,-0.00022718288528267294,0.012615352869033813
0.013662655837833881,0.006345720961689949,-0.014253593049943447,0.00845443643629551,-0.0002518949331715703,0.01241728849709034
0.014183834195137024,0.006171833258122206,-0.013896777294576168,0.00855627004057169,-0.00026143089053221047,0.012719538062810898
0.014230463653802872,0.006116817705333233,-0.013807152397930622,0.008107883855700493,-0.0003232212329749018,0.012288834899663925
0.014461015351116657,0.006184972822666168,-0.014674073085188866,0.008123034611344337,-0.000358687830157578,0.013113309629261494
0.014360209926962852,0.006648482754826546,-0.013951336964964867,0.007767530158162117,-0.0003359148104209453,0.012404031120240688
0.014360209926962852,0.006648482754826546,-0.013951336964964867,0.007767530158162117,-0.0003359148104209453,0.012404031120240688
0.014050818979740143,0.006543976254761219,-0.014575769193470478,0.007441330701112747,-0.00031281140400096774,0.012728789821267128
0.014220897108316422,0.005791226401925087,-0.014088639989495277,0.007979943417012691,-0.000292484211968258,0.0129418158903718
0.014422805048525333,0.006369245704263449,-0.014668358489871025,0.008228853344917297,-0.00032573146745562553,0.013029852882027626
0.014499426819384098,0.006235008127987385,-0.01413211040198803,0.008229484781622887,-0.0003103386552538723,0.012634971179068089
0.014582664705812931,0.0064629786647856236,-0.014835895970463753,0.008221384137868881,-0.00029367205570451915,0.012976810336112976
0.014464052394032478,0.006389313377439976,-0.013992469757795334,0.00886168610304594,-0.00031871767714619637,0.013204512186348438
0.014184647239744663,0.006003235932439566,-0.014588532038033009,0.0087291169911623,-0.0003086058422923088,0.01315363124012947
0.014659581705927849,0.006062699016183615,-0.013636505231261253,0.008246817626059055,-0.00029453382012434304,0.013662722893059254
0.014655114151537418,0.006567996460944414,-0.01457030139863491,0.008230261504650116,-0.00030104501638561487,0.013510756194591522
0.014554128050804138,0.006600506603717804,-0.014264767989516258,0.008933362551033497,-0.00030650419648736715,0.012978419661521912
0.014825190417468548,0.006406561937183142,-0.014775157906115055,0.008451866917312145,-0.0002951335918623954,0.012835823930799961
0.014891515485942364,0.006176132243126631,-0.014119145460426807,0.008462314493954182,-0.0003102571645285934,0.013203226961195469
0.014588858932256699,0.006500390358269215,-0.014747588895261288,0.009591955691576004,-0.0002991983201354742,0.01299744751304388
0.015041323378682137,0.007180741056799889,-0.014130123890936375,0.009330786764621735,-0.00032973679481074214,0.012963240966200829
0.014807953499257565,0.006891428958624601,-0.015040777623653412,0.00851206760853529,-0.00031705430592410266,0.013359541073441505
0.015020616352558136,0.006169352680444717,-0.014283068478107452,0.00826529785990715,-0.000343124644132331,0.013689711689949036
0.014837726950645447,0.006309006363153458,-0.014691672287881374,0.008271416649222374,-0.0003310358733870089,0.013454283587634563
0.015033486299216747,0.006876169238239527,-0.014162320643663406,0.007839521393179893,-0.0003368291654624045,0.013911771588027477
0.01477653719484806,0.007318905089050531,-0.014716381207108498,0.008632469922304153,-0.0003412467776797712,0.013852263800799847
0.015293458476662636,0.006910188589245081,-0.014622971415519714,0.00872822105884552,-0.00042672266135923564,0.014118744991719723
0.014820977114140987,0.006462072022259235,-0.015105661004781723,0.008698615245521069,-0.000475012551760301,0.014063702896237373
0.015340443700551987,0.006669018417596817,-0.014820958487689495,0.008678103797137737,-0.0004351766547188163,0.013898964039981365
0.014937392435967922,0.0075439284555613995,-0.014909098856151104,0.00922853872179985,-0.0004655717930290848,0.013660723343491554
0.015321079641580582,0.007008018903434277,-0.015034561976790428,0.009193379431962967,-0.00043718505185097456,0.013318990357220173
0.01555170863866806,0.006806947756558657,-0.015576671808958054,0.008214580826461315,-0.0004049842827953398,0.013516354374587536
0.01589624397456646,0.006447724997997284,-0.01578531228005886,0.008002710528671741,-0.00043513128184713423,0.013599674217402935
0.01574874110519886,0.007276645861566067,-0.015692470595240593,0.008760613389313221,-0.0004105722764506936,0.014005028642714024
0.016169823706150055,0.006584610790014267,-0.01582576520740986,0.008634500205516815,-0.0004148637526668608,0.014115558005869389
0.015870828181505203,0.006535116583108902,-0.016076765954494476,0.009127620607614517,-0.0003926573263015598,0.013895143754780293
0.015870828181505203,0.006535116583108902,-0.016076765954494476,0.009127620607614517,-0.0003926573263015598,0.013895143754780293
0.015287009067833424,0.0069206045009195805,-0.014595498330891132,0.008764857426285744,-0.0003968526725657284,0.013881697319447994
0.014862745068967342,0.007384126540273428,-0.01533731259405613,0.008807641454041004,-0.00036884393193759024,0.013610494323074818
0.015989627689123154,0.006846795789897442,-0.014845067635178566,0.008696053177118301,-0.00039126508636400104,0.014076272957026958
0.015473118051886559,0.007246209774166346,-0.015591264702379704,0.009035622701048851,-0.00037935542059130967,0.01374780759215355
0.016121817752718925,0.0067755975760519505,-0.015174147672951221,0.009081079624593258,-0.0003553964488673955,0.013851580210030079
0.01596907153725624,0.007290796842426062,-0.015619275160133839,0.008916440419852734,-0.0003815573872998357,0.013878258876502514
0.016048643738031387,0.007256430108100176,-0.015444043092429638,0.009561531245708466,-0.00036595709389075637,0.014730820432305336
0.01619812101125717,0.0071378424763679504,-0.015560260973870754,0.009713330306112766,-0.0003827357431873679,0.013151779770851135
0.016496285796165466,0.006756121758371592,-0.015646448358893394,0.009563670493662357,-0.00037428890937007964,0.01336802076548338
0.01653251051902771,0.007111611310392618,-0.01551561988890171,0.009862935170531273,-0.0003565003862604499,0.01388623658567667
0.01623925380408764,0.0069548869505524635,-0.015637651085853577,0.00932341068983078,-0.00040789469494484365,0.014490535482764244
0.0168303195387125,0.006925819907337427,-0.014791375026106834,0.009347684681415558,-0.00038380821933969855,0.014405231922864914
0.016453200951218605,0.006788779515773058,-0.015353528782725334,0.009171132929623127,-0.00035426972317509353,0.014172995463013649
0.01692664809525013,0.007465492468327284,-0.015103992074728012,0.009400831535458565,-0.00036029776674695313,0.013965734280645847
0.016393784433603287,0.006853225640952587,-0.015797419473528862,0.008424398489296436,-0.0003650947182904929,0.014113780111074448
0.016406530514359474,0.006432646419852972,-0.015109127387404442,0.00881786085665226,-0.00034375415998511016,0.013977032154798508
0.01700439117848873,0.006739556323736906,-0.015521461144089699,0.009029867127537727,-0.0003495150012895465,0.01422408502548933
0.017102964222431183,0.0070428005419671535,-0.014802549034357071,0.00868211779743433,-0.00035405956441536546,0.014232807792723179
0.017471453174948692,0.006920889485627413,-0.015649696812033653,0.009331779554486275,-0.0003367138560861349,0.014177954755723476
0.01692853309214115,0.007377889472991228,-0.015472794882953167,0.009483525529503822,-0.0003420091525185853,0.01470753364264965
0.016921186819672585,0.00671235891059041,-0.01587347872555256,0.009207022376358509,-0.0003462251625023782,0.014553287997841835
0.017264407128095627,0.006527808029204607,-0.015233686193823814,0.008534026332199574,-0.00033162577892653644,0.014271622523665428
0.017041243612766266,0.00684767821803689,-0.015778765082359314,0.009856289252638817,-0.0003486557397991419,0.01455100066959858
0.017753966152668,0.0069440919905900955,-0.015998011454939842,0.009309009648859501,-0.00032856958569027483,0.014922468923032284
0.017187921330332756,0.006296639796346426,-0.015558791346848011,0.008851010352373123,-0.0003065265773329884,0.015019294805824757
0.01735583133995533,0.006558641325682402,-0.015475422143936157,0.009104987606406212,-0.00028699004906229675,0.014620981179177761
0.01755538396537304,0.006958343088626862,-0.015308337286114693,0.009644271805882454,-0.00026977687957696617,0.014653562568128109
0.017472855746746063,0.006216062232851982,-0.015358946286141872,0.009443532675504684,-0.0002888287999667227,0.01478523202240467
0.017513824626803398,0.006060128565877676,-0.015943339094519615,0.009555472992360592,-0.00027435203082859516,0.014968489296734333
0.0176920797675848,0.006061352323740721,-0.015615666285157204,0.009173047728836536,-0.0002932166389655322,0.015015264973044395
0.017852282151579857,0.006822374649345875,-0.01587936468422413,0.010161548852920532,-0.0002898158272728324,0.014603710733354092
0.017852282151579857,0.006822374649345875,-0.01587936468422413,0.010161548852920532,-0.0002898158272728324,0.014603710733354092
0.017667971551418304,0.006852088496088982,-0.01587487757205963,0.009995200671255589,-0.0002776987093966454,0.01494498923420906
0.017576348036527634,0.0061122700572013855,-0.015954995527863503,0.009227316826581955,-0.00026601337594911456,0.015040365047752857
0.017736895009875298,0.006300612352788448,-0.015831461176276207,0.009459531866014004,-0.00025523663498461246,0.015211040154099464
0.01734676957130432,0.0068112812004983425,-0.015281453728675842,0.009475592523813248,-0.00027795898495242,0.015078991651535034
0.01772761531174183,0.006320711225271225,-0.0157270859926939,0.009652357548475266,-0.00026967647136189044,0.015433519147336483
0.017690258100628853,0.00630158931016922,-0.015485277399420738,0.009784054011106491,-0.00026007299311459064,0.015258423052728176
0.017740391194820404,0.005844691768288612,-0.01621611975133419,0.009722993709146976,-0.0002601653977762908,0.015261522494256496
0.017873788252472878,0.006112487055361271,-0.015258492901921272,0.010184632614254951,-0.00025519635528326035,0.015095439739525318
0.01773076318204403,0.006645442917943001,-0.015539978630840778,0.010233250446617603,-0.00024210284755099565,0.01569308154284954
0.018153171986341476,0.006733129732310772,-0.015061152167618275,0.010161038488149643,-0.00022977837943471968,0.015624438412487507
0.017850786447525024,0.006233310326933861,-0.015987183898687363,0.010027844458818436,-0.00025088616530410945,0.01588641293346882
0.017914531752467155,0.006384513806551695,-0.015497912652790546,0.010259337723255157,-0.0002494321670383215,0.01614721305668354
0.018353566527366638,0.006392822600901127,-0.015757698565721512,0.010596416890621185,-0.00023905069974716753,0.014861145056784153
0.018217219039797783,0.00621055718511343,-0.01611301675438881,0.00988217256963253,-0.00025715376250445843,0.014875274151563644
0.017978277057409286,0.006403150502592325,-0.015723157674074173,0.009636035189032555,-0.0002556013932917267,0.015300195664167404
0.018116552382707596,0.006169866770505905,-0.0160016231238842,0.00958529394119978,-0.00024619215400889516,0.015528415329754353
0.018040483817458153,0.006028804462403059,-0.015601880848407745,0.009317683055996895,-0.00025354415993206203,0.015328642912209034
0.018558774143457413,0.00588506693020463,-0.016221344470977783,0.00980445183813572,-0.0002598764840513468,0.01602390967309475
0.017980841919779778,0.0064653572626411915,-0.015374599024653435,0.009681003168225288,-0.00025179932708851993,0.015921220183372498
0.01826789602637291,0.00632290868088603,-0.01608310081064701,0.00933532789349556,-0.00031725899316370487,0.0159506443887949
0.018626919016242027,0.006036876235157251,-0.015843557193875313,0.010259014554321766,-0.00031908240634948015,0.015926769003272057
0.018652021884918213,0.006313445512205362,-0.01596345566213131,0.009595436975359917,-0.0003551531699486077,0.016078772023320198
0.018419044092297554,0.006257801316678524,-0.015842704102396965,0.009404604323208332,-0.000364057399565354,0.015738660469651222
0.018816128373146057,0.006620925851166248,-0.016106197610497475,0.009919118136167526,-0.00036817777436226606,0.015551259741187096
0.01818046160042286,0.006556666921824217,-0.015710942447185516,0.009940775111317635,-0.00037760098348371685,0.015913546085357666
0.01828804984688759,0.006192074157297611,-0.01630793884396553,0.010153676383197308,-0.0005327953840605915,0.016225416213274002
0.019438574090600014,0.00653464300557971,-0.01608249917626381,0.010463537648320198,-0.0005782123189419508,0.016459651291370392
0.019438574090600014,0.00653464300557971,-0.01608249917626381,0.010463537648320198,-0.0005782123189419508,0.016459651291370392
0.018735816702246666,0.006960703060030937,-0.015691624954342842,0.010755583643913269,-0.0005572488298639655,0.015658283606171608
0.018735816702246666,0.006960703060030937,-0.015691624954342842,0.010755583643913269,-0.0005572488298639655,0.015658283606171608
0.018534760922193527,0.006264489609748125,-0.01613602600991726,0.01007973775267601,-0.0005465588765218854,0.01614268869161606
0.019204914569854736,0.006013961508870125,-0.016252979636192322,0.009752543643116951,-0.0005581428995355964,0.016069356352090836
0.018610363826155663,0.006577730178833008,-0.016293002292513847,0.00995674543082714,-0.000497570785228163,0.016518330201506615
0.018610363826155663,0.006577730178833008,-0.016293002292513847,0.00995674543082714,-0.000497570785228163,0.016518330201506615
0.0191702488809824,0.006361858453601599,-0.01662023738026619,0.010489782318472862,-0.00047505414113402367,0.01608661375939846
0.01831110008060932,0.006893669720739126,-0.015943113714456558,0.010498937219381332,-0.00043023002217523754,0.015582195483148098
0.01831110008060932,0.006893669720739126,-0.015943113714456558,0.010498937219381332,-0.00043023002217523754,0.015582195483148098
0.018656231462955475,0.006317096296697855,-0.01613030955195427,0.010637134313583374,-0.00046036383719183505,0.015765994787216187
0.01898648403584957,0.0057991258800029755,-0.01635124348104,0.010766152292490005,-0.00043265995918773115,0.015841342508792877
0.019121794030070305,0.005204613320529461,-0.016457630321383476,0.010152292437851429,-0.00040110189002007246,0.01614902727305889
0.01952042430639267,0.005865658633410931,-0.016606274992227554,0.010718492791056633,-0.0004312529636081308,0.0165195744484663
0.019505005329847336,0.006059209816157818,-0.016622908413410187,0.010860844515264034,-0.00040714736678637564,0.016524014994502068
0.019057760015130043,0.006008736789226532,-0.01671716570854187,0.009839304722845554,-0.0003826530301012099,0.016440730541944504
0.019571106880903244,0.00598978390917182,-0.01608307473361492,0.01008465513586998,-0.00039872253546491265,0.016315866261720657
0.019355347380042076,0.005826466251164675,-0.016669850796461105,0.009958748705685139,-0.0003890599182341248,0.016742805019021034
0.01883225329220295,0.00618425477296114,-0.01614164188504219,0.009649478830397129,-0.0003698460932355374,0.016364363953471184
0.019670819863677025,0.005771227180957794,-0.015948515385389328,0.010331396944820881,-0.0003518194716889411,0.016581375151872635
0.019897857680916786,0.006022132467478514,-0.016131332144141197,0.010153352282941341,-0.00033735469332896173,0.01663953624665737
0.019377481192350388,0.006155973765999079,-0.016099868342280388,0.010527133010327816,-0.00031031740945763886,0.01679832860827446
0.01968350261449814,0.005505604203790426,-0.01661534607410431,0.010346311144530773,-0.0002900556137319654,0.016194110736250877
0.019639713689684868,0.006046304479241371,-0.015769213438034058,0.01042152475565672,-0.00027246843092143536,0.016204774379730225
0.019900400191545486,0.005599942523986101,-0.016385653987526894,0.010388797149062157,-0.0002819326473399997,0.016697727143764496
0.01988101191818714,0.006354435347020626,-0.016052963212132454,0.010744784027338028,-0.00028990936698392034,0.016777727752923965
0.020201005041599274,0.005759926047176123,-0.016385028138756752,0.01025161799043417,-0.0002765693352557719,0.01706823706626892
0.020206904038786888,0.005886386148631573,-0.01652841828763485,0.010161546990275383,-0.0002631848328746855,0.017362574115395546
0.020210647955536842,0.0056261420249938965,-0.016457069665193558,0.010725571773946285,-0.00028718411340378225,0.01703786849975586
0.020035207271575928,0.006446237210184336,-0.016037749126553535,0.010445019230246544,-0.00026785468799062073,0.016998786479234695
0.0199989452958107,0.006249501369893551,-0.01628872938454151,0.009846784174442291,-0.0002840802480932325,0.017093803733587265
0.020234011113643646,0.006061289459466934,-0.01604677364230156,0.009166561998426914,-0.00028152274899184704,0.01724104769527912
0.020489003509283066,0.00592379504814744,-0.016753118485212326,0.009580009616911411,-0.00030701683135703206,0.017274565994739532
0.020290957763791084,0.005829407833516598,-0.016744254156947136,0.01033126749098301,-0.00031918229069560766,0.017474884167313576
0.020574744790792465,0.006241322960704565,-0.016349676996469498,0.01011054590344429,-0.0003001102595590055,0.017346905544400215
0.02095288783311844,0.005641692318022251,-0.016756048426032066,0.010980192571878433,-0.0002814743493217975,0.017744826152920723
0.02095288783311844,0.005641692318022251,-0.016756048426032066,0.010980192571878433,-0.0002814743493217975,0.017744826152920723
0.020377356559038162,0.0056826830841600895,-0.016660969704389572,0.010599436238408089,-0.0002997395640704781,0.017255080863833427
0.020377356559038162,0.0056826830841600895,-0.016660969704389572,0.010599436238408089,-0.0002997395640704781,0.017255080863833427
0.020863061770796776,0.005520263686776161,-0.016095254570245743,0.010978438891470432,-0.0003074757696595043,0.01741074211895466
0.021176384761929512,0.005659264046698809,-0.016569748520851135,0.010793720372021198,-0.00031359726563096046,0.017152974382042885
0.020765826106071472,0.00603352440521121,-0.016766877844929695,0.010546945966780186,-0.0003000590659212321,0.01746515929698944
0.02085478976368904,0.005478234495967627,-0.016593534499406815,0.01126578263938427,-0.00032195719541050494,0.018105799332261086
0.021376270800828934,0.0058873314410448074,-0.016689224168658257,0.010610981844365597,-0.00031283346470445395,0.01757626235485077
0.021236762404441833,0.005638842936605215,-0.01597045361995697,0.010726116597652435,-0.0003009921929333359,0.017726030200719833
0.021004503592848778,0.006043011788278818,-0.016839463263750076,0.011591100133955479,-0.0003619708586484194,0.017229311168193817
0.02111510932445526,0.006346608512103558,-0.016231520101428032,0.010354818776249886,-0.00034018149017356336,0.017169835045933723
0.020368944853544235,0.005688668694347143,-0.016565758734941483,0.010914156213402748,-0.00034733267966657877,0.017344949766993523
0.021235723048448563,0.005921559873968363,-0.01668575406074524,0.010841922834515572,-0.00035282998578622937,0.017695259302854538
0.021507758647203445,0.005502357147634029,-0.01653975062072277,0.010809197090566158,-0.00035991991171613336,0.018403124064207077
0.021426476538181305,0.005899336189031601,-0.016910245642066002,0.011730512604117393,-0.0003641107468865812,0.018386682495474815
0.02178362011909485,0.006317619699984789,-0.016079125925898552,0.010453189723193645,-0.0003457569400779903,0.017634645104408264
0.02190159261226654,0.005844417959451675,-0.01655711978673935,0.010748928412795067,-0.0003684059192892164,0.01778166927397251
0.021675454452633858,0.005389879923313856,-0.016798069700598717,0.010804317891597748,-0.00035575689980760217,0.018024230375885963
0.02101828344166279,0.005606432445347309,-0.016854658722877502,0.010536040179431438,-0.0004374767595436424,0.01866336353123188
0.02123599871993065,0.006250255741178989,-0.017658114433288574,0.011341694742441177,-0.0004126047424506396,0.0188455693423748
0.02195877768099308,0.005695556756108999,-0.017321916297078133,0.01186210848391056,-0.0004186646838206798,0.01776118576526642
0.02158426120877266,0.005480916704982519,-0.016806352883577347,0.0109795480966568,-0.00038906667032279074,0.017609553411602974
0.02181227132678032,0.00560415955260396,-0.017036253586411476,0.011605462990701199,-0.0004074328171554953,0.018677882850170135
0.02220136858522892,0.00594475120306015,-0.017015784978866577,0.01234680600464344,-0.00039570548688061535,0.017702296376228333
0.022047346457839012,0.006507207173854113,-0.01702088490128517,0.01144738681614399,-0.00037316561792977154,0.017851345241069794
0.021768948063254356,0.005826463922858238,-0.01769893430173397,0.011899488046765327,-0.0003768713213503361,0.018492044880986214
0.02256469987332821,0.005510890856385231,-0.017195524647831917,0.012377283535897732,-0.00037966336822137237,0.018985236063599586
0.022168966010212898,0.005477055441588163,-0.016931673511862755,0.012096475809812546,-0.00036205010837875307,0.018355978652834892
0.022168966010212898,0.005477055441588163,-0.016931673511862755,0.012096475809812546,-0.00036205010837875307,0.018355978652834892
0.022017229348421097,0.005766265094280243,-0.016748666763305664,0.012311600148677826,-0.0003659689682535827,0.01829492300748825
0.02186620607972145,0.006149167660623789,-0.01730320043861866,0.011727365665137768,-0.00035827275132760406,0.01861526444554329
0.022451937198638916,0.00604499876499176,-0.018184280022978783,0.012017523869872093,-0.00038210084312595427,0.018196934834122658
0.022613029927015305,0.0057579586282372475,-0.01689140684902668,0.01165091898292303,-0.0003711438039317727,0.018307780846953392
0.022516027092933655,0.005686942953616381,-0.017085695639252663,0.011624185368418694,-0.00040219686343334615,0.0187892634421587
0.0223571565002203,0.0057978383265435696,-0.017358746379613876,0.01197931356728077,-0.0003814233641605824,0.018928062170743942
0.022722648456692696,0.0061408355832099915,-0.01752348244190216,0.011302143335342407,-0.00040771285421215,0.018852826207876205
0.022907789796590805,0.006071597803384066,-0.017189379781484604,0.011698189191520214,-0.00038882417720742524,0.018945273011922836
0.02265460416674614,0.005450277589261532,-0.016565002501010895,0.012040588073432446,-0.0005261390469968319,0.019214538857340813
0.02255317009985447,0.00582976033911109,-0.017422473058104515,0.011884983628988266,-0.0004924904787912965,0.01916930079460144
0.02222416363656521,0.005833066534250975,-0.017749939113855362,0.012090316973626614,-0.0005219157319515944,0.01917005516588688
0.02304372377693653,0.006350417621433735,-0.017509467899799347,0.0121473278850317,-0.0004854581493418664,0.01920076459646225
0.02276132069528103,0.005703067407011986,-0.017582135275006294,0.012657424435019493,-0.0005101176793687046,0.019010234624147415
0.023024030029773712,0.005695370025932789,-0.016852373257279396,0.012335984967648983,-0.00047999649541452527,0.018905168399214745
0.02272741124033928,0.005330492276698351,-0.017147470265626907,0.012846956960856915,-0.0005058398237451911,0.019274165853857994
0.02252012863755226,0.0056131863966584206,-0.017528746277093887,0.012514600530266762,-0.0005289873806759715,0.019881220534443855
0.02317116968333721,0.0057617840357124805,-0.01757591776549816,0.012755712494254112,-0.00047026644460856915,0.01918274350464344
0.02317116968333721,0.0057617840357124805,-0.01757591776549816,0.012755712494254112,-0.00047026644460856915,0.01918274350464344
0.023273395374417305,0.005836722906678915,-0.017081011086702347,0.013009695336222649,-0.0004664842854253948,0.019646065309643745
0.023273395374417305,0.005836722906678915,-0.017081011086702347,0.013009695336222649,-0.0004664842854253948,0.019646065309643745
0.023460520431399345,0.0053687565959990025,-0.017508583143353462,0.012522897683084011,-0.0004643400607164949,0.019722014665603638
0.023325428366661072,0.005886303726583719,-0.017535407096147537,0.01251927949488163,-0.00047770768287591636,0.020049335435032845
0.02344384975731373,0.006389298010617495,-0.016778811812400818,0.012242763303220272,-0.00046137513709254563,0.019857468083500862
0.023283876478672028,0.006134592462331057,-0.01730833388864994,0.012682968750596046,-0.0004344571498222649,0.019887687638401985
0.022981874644756317,0.005502040032297373,-0.01735447719693184,0.012400796636939049,-0.00044204414007253945,0.01971336640417576
0.022981874644756317,0.005502040032297373,-0.01735447719693184,0.012400796636939049,-0.00044204414007253945,0.01971336640417576
0.024003848433494568,0.006017635576426983,-0.016894087195396423,0.012957874685525894,-0.00040786078898236156,0.01945061795413494
0.024734321981668472,0.005792195443063974,-0.017257479950785637,0.012181255035102367,-0.0004388373636174947,0.020151803269982338
0.024125991389155388,0.005823619198054075,-0.01635589450597763,0.012288455851376057,-0.0004139839729759842,0.020352954044938087
0.02393445558845997,0.00516187958419323,-0.01706881821155548,0.012477877549827099,-0.0004321926098782569,0.020026780664920807
0.022888481616973877,0.004899146035313606,-0.016626914963126183,0.012464461848139763,-0.0004182106058578938,0.02003602683544159
0.023656830191612244,0.005253502633422613,-0.0172643531113863,0.0123930424451828,-0.00039306990220211446,0.02034449391067028
0.024220971390604973,0.005744976457208395,-0.017589019611477852,0.01180841214954853,-0.0004157530202064663,0.02007296308875084
0.024022571742534637,0.005919261835515499,-0.016984358429908752,0.01226634532213211,-0.00039896383532322943,0.020277876406908035
0.024078669026494026,0.00529892323538661,-0.01725899800658226,0.012324224226176739,-0.00037839828291907907,0.020521055907011032
0.02417585626244545,0.005434131715446711,-0.016644304618239403,0.012815847992897034,-0.000402543373638764,0.02043744921684265
0.02483142912387848,0.005542731378227472,-0.017028165981173515,0.012812492437660694,-0.0004205899313092232,0.02013944648206234
0.024162698537111282,0.005954979453235865,-0.017655277624726295,0.012924868613481522,-0.0004224657022859901,0.020081549882888794
0.023998143151402473,0.006025291979312897,-0.017092950642108917,0.01268083043396473,-0.00045496682287193835,0.020373882725834846
0.02414768561720848,0.0058434344828128815,-0.01711154170334339,0.012512724846601486,-0.00042816350469365716,0.01983495056629181
0.02456451579928398,0.005124103743582964,-0.016668865457177162,0.012556975707411766,-0.0004433377180248499,0.02015063166618347
0.025114918127655983,0.00514081260189414,-0.0177215076982975,0.012457595206797123,-0.0004066044057253748,0.021656619384884834
0.02487558126449585,0.0050866627134382725,-0.017028970643877983,0.011911721900105476,-0.0005099027184769511,0.021018052473664284
0.02492302656173706,0.0051626283675432205,-0.0170261450111866,0.012670370750129223,-0.00047530175652354956,0.0197789017111063
0.024776054546236992,0.0051905009895563126,-0.01691618375480175,0.013410110026597977,-0.00043099067988805473,0.019734229892492294
0.024735266342759132,0.004993739537894726,-0.017562516033649445,0.013340147212147713,-0.0004611490876413882,0.020570572465658188
0.025129636749625206,0.005381633527576923,-0.01780591905117035,0.01340947300195694,-0.0004333415417931974,0.021527335047721863
0.02513948455452919,0.005083173047751188,-0.017022214829921722,0.012844620272517204,-0.0004508694401010871,0.02101779542863369
0.02487846650183201,0.005278904922306538,-0.017334043979644775,0.012867508456110954,-0.00043504935456439853,0.020766768604516983
0.02487846650183201,0.005278904922306538,-0.017334043979644775,0.012867508456110954,-0.00043504935456439853,0.020766768604516983
0.026152808219194412,0.005095470231026411,-0.017092058435082436,0.012189350090920925,-0.00040787356556393206,0.021034305915236473
0.025244925171136856,0.0058046625927090645,-0.01720336452126503,0.012558058835566044,-0.0003831215435639024,0.022279921919107437
0.02488279901444912,0.005432926584035158,-0.017797168344259262,0.012075918726623058,-0.00040917194564826787,0.022124743089079857
0.025517737492918968,0.005116639193147421,-0.017345005646348,0.012353554368019104,-0.0003901260788552463,0.021159540861845016
0.02565072290599346,0.005586348939687014,-0.017497988417744637,0.012806707061827183,-0.0003724237612914294,0.02061883918941021
0.025924809277057648,0.005392550956457853,-0.01748780719935894,0.012435960583388805,-0.0003537664015311748,0.020852239802479744
0.025859737768769264,0.005272686015814543,-0.017720084637403488,0.01287293154746294,-0.00036049220943823457,0.021556340157985687
0.026203298941254616,0.005031276028603315,-0.018924115225672722,0.012766461819410324,-0.00036532225203700364,0.02224886603653431
0.026538848876953125,0.004932180512696505,-0.017746232450008392,0.013340292498469353,-0.0003439570718910545,0.022036705166101456
0.025811176747083664,0.005094914697110653,-0.017960065975785255,0.012726121582090855,-0.000373637507436797,0.02171236276626587
0.025689348578453064,0.005364250857383013,-0.01819051057100296,0.012632750906050205,-0.00039981069858185947,0.021794484928250313
0.02616826817393303,0.0056097800843417645,-0.017757713794708252,0.012924100272357464,-0.0005047453450970352,0.021803349256515503
0.025679657235741615,0.005268946755677462,-0.018208377063274384,0.012961594387888908,-0.0005561936413869262,0.0215725377202034
0.026462437584996223,0.0048037199303507805,-0.01784561574459076,0.013196631334722042,-0.0005946859600953758,0.021679386496543884
0.026565872132778168,0.005478424020111561,-0.018399091437458992,0.013635212555527687,-0.0005415537743829191,0.021767508238554
0.0260967705398798,0.00529803242534399,-0.018223993480205536,0.01406620629131794,-0.000492529128678143,0.021995211020112038
0.026940708979964256,0.00535967480391264,-0.0176356490701437,0.013978476636111736,-0.0005212087417021394,0.02173054963350296
0.026618381962180138,0.005348604638129473,-0.018558863550424576,0.014185532927513123,-0.0004855686565861106,0.021396387368440628
0.027129797264933586,0.004578701686114073,-0.01842746138572693,0.013956315815448761,-0.0004804962663911283,0.022039243951439857
0.027129797264933586,0.004578701686114073,-0.01842746138572693,0.013956315815448761,-0.0004804962663911283,0.022039243951439857
0.027022389695048332,0.004992056638002396,-0.018133454024791718,0.013520597480237484,-0.0004720129363704473,0.021837329491972923
0.0268741175532341,0.0048918211832642555,-0.017732884734869003,0.013852905482053757,-0.00044724129838868976,0.02181089110672474
0.027061454951763153,0.004873770754784346,-0.017697744071483612,0.013553408905863762,-0.00048387228162027895,0.02230200357735157
0.02759522572159767,0.005109030287712812,-0.019240140914916992,0.013488858938217163,-0.0005181909655220807,0.022467201575636864
0.0280897356569767,0.004824148956686258,-0.017833126708865166,0.012843042612075806,-0.0005429030279628932,0.02236037701368332
0.027385888621211052,0.004696614574640989,-0.01778915524482727,0.013646200299263,-0.000766799901612103,0.021983200684189796
0.025687899440526962,0.004626695532351732,-0.01892872527241707,0.013301689177751541,-0.0008345982059836388,0.02202378213405609
0.02722773142158985,0.005056286230683327,-0.018036769703030586,0.013987838290631771,-0.000815480190794915,0.021800773218274117
0.02802859991788864,0.00508391996845603,-0.01791074126958847,0.013829054310917854,-0.0007711166981607676,0.021861732006072998
0.02707730606198311,0.005413404665887356,-0.018140414729714394,0.014280548319220543,-0.0006901641609147191,0.021647151559591293
0.027260897681117058,0.004907006863504648,-0.01808672770857811,0.013533633202314377,-0.0007045751553960145,0.021536141633987427
0.027907220646739006,0.004442030098289251,-0.018511611968278885,0.013431346043944359,-0.0006466326303780079,0.021735824644565582
0.02785496972501278,0.00461230706423521,-0.018095307052135468,0.013708020560443401,-0.0006092104013077915,0.022511452436447144
0.02743854559957981,0.0051487768068909645,-0.01816278137266636,0.013743001967668533,-0.00059318303829059,0.022290999069809914
0.026761384680867195,0.004995465744286776,-0.01843278668820858,0.013515247963368893,-0.0005764272646047175,0.02207271195948124
0.027550090104341507,0.00506643857806921,-0.017642036080360413,0.013328243046998978,-0.0005235401331447065,0.02176290936768055
0.028341256082057953,0.0048500970005989075,-0.018530327826738358,0.013762854039669037,-0.0005512696225196123,0.021461039781570435
0.028190389275550842,0.00475542014464736,-0.01906667836010456,0.013506898656487465,-0.0005113245570100844,0.021598754450678825
0.02795202098786831,0.004353688098490238,-0.018200138583779335,0.013915009796619415,-0.00047320342855527997,0.02246038429439068
0.027837973088026047,0.004969371948391199,-0.018308125436306,0.013771727681159973,-0.0004986019339412451,0.022656062617897987
0.028003083541989326,0.005505911074578762,-0.018099786713719368,0.01408093050122261,-0.00046986358938738704,0.022479822859168053
0.027833927422761917,0.0048499032855033875,-0.017993254587054253,0.013521782122552395,-0.00046715675853192806,0.022626886144280434
0.02824896201491356,0.004603646695613861,-0.018295951187610626,0.013682018034160137,-0.0004691712383646518,0.02259610965847969
0.02809852734208107,0.004894961602985859,-0.01828264445066452,0.013562616892158985,-0.0004663105064537376,0.022562457248568535
0.02778395637869835,0.00498666986823082,-0.018631750717759132,0.014200038276612759,-0.0004314934485591948,0.02246999740600586
0.02785041369497776,0.004900234751403332,-0.018243614584207535,0.013790288008749485,-0.0004486270481720567,0.021963201463222504
0.027903268113732338,0.005102014634758234,-0.017501357942819595,0.014307519420981407,-0.00043300772085785866,0.02197117917239666
0.027479153126478195,0.0047164433635771275,-0.01804366149008274,0.013991700485348701,-0.00043225690023973584,0.023401429876685143
0.02771526761353016,0.004644736647605896,-0.017715169116854668,0.013471443206071854,-0.0004108919820282608,0.023296503350138664
0.02771526761353016,0.004644736647605896,-0.017715169116854668,0.013471443206071854,-0.0004108919820282608,0.023296503350138664
0.028076615184545517,0.004714630544185638,-0.018311757594347,0.014014574699103832,-0.00038890549330972135,0.023183515295386314
0.02796955406665802,0.004927028436213732,-0.018164120614528656,0.013694686815142632,-0.0003926840436179191,0.022781379520893097
0.026324739679694176,0.004457444418221712,-0.018254201859235764,0.014006543904542923,-0.0003826530301012099,0.022672241553664207
0.028711460530757904,0.00495736300945282,-0.018282845616340637,0.013893811963498592,-0.00040604756213724613,0.022887248545885086
0.028864530846476555,0.004845965653657913,-0.018120771273970604,0.01416382659226656,-0.0004245855670887977,0.02342577651143074
0.02907542884349823,0.004359699320048094,-0.01816978119313717,0.014476524665951729,-0.0004260757996235043,0.02337782271206379
0.028571436181664467,0.004506379831582308,-0.018019888550043106,0.014285323210060596,-0.0004504518583416939,0.02330806478857994
0.027659328654408455,0.004557881038635969,-0.018086988478899002,0.014354987069964409,-0.0004305792972445488,0.02326444536447525
0.028211530297994614,0.004559872206300497,-0.018671076744794846,0.014660434797406197,-0.0006077436846680939,0.02340671606361866
0.029144437983632088,0.0045726425014436245,-0.018768077716231346,0.014666478149592876,-0.0005490509211085737,0.023449020460247993
0.028476575389504433,0.004835789557546377,-0.018017301335930824,0.01428824570029974,-0.0005810233415104449,0.023864589631557465
0.028719816356897354,0.0047170426696538925,-0.018577074632048607,0.014155272394418716,-0.0005299399490468204,0.023662079125642776
0.029084106907248497,0.004736156202852726,-0.017981164157390594,0.014228045009076595,-0.0005418380023911595,0.0246330127120018
0.02908516488969326,0.004764474928379059,-0.018013639375567436,0.014046731404960155,-0.0005157004343345761,0.023003049194812775
0.028348242864012718,0.0046013095416128635,-0.01818482205271721,0.014208430424332619,-0.0005393963656388223,0.023617994040250778
0.02881794236600399,0.005076209548860788,-0.01884089596569538,0.014679748564958572,-0.0005121036665514112,0.023684851825237274
0.02898101508617401,0.005087278783321381,-0.018732838332653046,0.015002871863543987,-0.000541182525921613,0.02323945052921772
0.029311824589967728,0.004470787942409515,-0.017758818343281746,0.014894034713506699,-0.0005017705843783915,0.023469844833016396
0.029246147722005844,0.004461316857486963,-0.0185158122330904,0.014900351874530315,-0.00045972579391673207,0.023626083508133888
0.02925300784409046,0.004976400174200535,-0.018785450607538223,0.014985072426497936,-0.0004892774159088731,0.02386339195072651
0.029093872755765915,0.005363990552723408,-0.018916836008429527,0.01497319433838129,-0.0004915628815069795,0.023471558466553688
0.028930291533470154,0.005072324071079493,-0.01884060725569725,0.014124695211648941,-0.0006014809478074312,0.023399343714118004
0.029286447912454605,0.00480771204456687,-0.018456721678376198,0.014533412642776966,-0.0006384393782354891,0.023477111011743546
0.02931135520339012,0.004581309389322996,-0.018540505319833755,0.0141754150390625,-0.0006647527334280312,0.02371392771601677
0.029574383050203323,0.004971123766154051,-0.018166346475481987,0.014472158625721931,-0.0006468538194894791,0.02394910901784897
0.029574383050203323,0.004971123766154051,-0.018166346475481987,0.014472158625721931,-0.0006468538194894791,0.02394910901784897
0.02955986186861992,0.004872957710176706,-0.018511934205889702,0.013956180773675442,-0.000852051773108542,0.023866407573223114
0.029878640547394753,0.005129557568579912,-0.019594639539718628,0.01447178702801466,-0.0008900893153622746,0.023463957011699677
0.02854689583182335,0.004992274567484856,-0.018947133794426918,0.014481219463050365,-0.0008933715289458632,0.023517809808254242
0.030067306011915207,0.004811570048332214,-0.01874133199453354,0.015246322378516197,-0.0007897405885159969,0.023791348561644554
0.030166801065206528,0.004853747319430113,-0.018885310739278793,0.015149456448853016,-0.0007950427243486047,0.0241234190762043
0.02980033867061138,0.005127873737365007,-0.0182033758610487,0.015514465980231762,-0.0007213886710815132,0.024508947506546974
0.02958105131983757,0.005341872572898865,-0.018652481958270073,0.014826769940555096,-0.000663939630612731,0.024328401312232018
0.03007590025663376,0.005229642614722252,-0.01904304139316082,0.015078344382345676,-0.0005853677866980433,0.024030661210417747
0.030370164662599564,0.005263117142021656,-0.018492083996534348,0.0146060511469841,-0.0005938761751167476,0.02316214144229889
0.0301363542675972,0.005057364236563444,-0.01919061876833439,0.015642985701560974,-0.000555840611923486,0.023364728316664696
0.029805216938257217,0.004870580043643713,-0.018914707005023956,0.015294959768652916,-0.0005834525800310075,0.023891104385256767
0.03068486787378788,0.0053839972242712975,-0.018145911395549774,0.015621917322278023,-0.0005951736820861697,0.02499551884829998
0.030640820041298866,0.005228046327829361,-0.018787506967782974,0.015249901451170444,-0.0006310727912932634,0.024394987151026726
0.030730390921235085,0.0051080877892673016,-0.018840430304408073,0.015680156648159027,-0.0006122113554738462,0.024431923404335976
0.030369305983185768,0.0051661208271980286,-0.01837719976902008,0.014978297986090183,-0.0006432115915231407,0.02525055594742298
0.03058311901986599,0.004769705701619387,-0.01924234814941883,0.015179953537881374,-0.0005247264634817839,0.02429720014333725
0.030479811131954193,0.005165186710655689,-0.0187770314514637,0.01523793488740921,-0.0005469006136991084,0.023500073701143265
0.03039580024778843,0.005119956564158201,-0.018714917823672295,0.015662116929888725,-0.0005117785185575485,0.02472580596804619
0.03039580024778843,0.005119956564158201,-0.018714917823672295,0.015662116929888725,-0.0005117785185575485,0.02472580596804619
0.031562622636556625,0.005765036679804325,-0.018496543169021606,0.015814119949936867,-0.0004738669958896935,0.025361282750964165
0.03218372166156769,0.005256193224340677,-0.018672186881303787,0.016232268884778023,-0.0004407320520840585,0.0253133624792099
0.030704522505402565,0.004691328387707472,-0.019183050841093063,0.015577984042465687,-0.00041190095362253487,0.02431984432041645
0.03030509315431118,0.004852257668972015,-0.018614511936903,0.01549060270190239,-0.00043799771810881793,0.02413196861743927
0.03158692270517349,0.00527008343487978,-0.018626753240823746,0.015067454427480698,-0.0004160300886724144,0.0246257446706295
0.031608302146196365,0.005154031794518232,-0.01882360316812992,0.015734154731035233,-0.00037540338234975934,0.02468816749751568
0.03174874931573868,0.005326431710273027,-0.018444377928972244,0.015419486910104752,-0.0003452177916187793,0.025175588205456734
0.032237183302640915,0.005103196017444134,-0.018559783697128296,0.015682252123951912,-0.0003758735256269574,0.02510746568441391
0.03112901747226715,0.0050949519500136375,-0.018768219277262688,0.0152509780600667,-0.00035845761885866523,0.024916278198361397
0.031125158071517944,0.004970538895577192,-0.018267929553985596,0.015204031020402908,-0.00038879341445863247,0.02479228377342224
0.030789248645305634,0.004952709656208754,-0.018825100734829903,0.015532311983406544,-0.00040833131060935557,0.024966295808553696
0.031538546085357666,0.005099005997180939,-0.0190537441521883,0.015778524801135063,-0.00039814141928218305,0.025046207010746002
0.03244416415691376,0.005440984852612019,-0.018438143655657768,0.015854887664318085,-0.0005326145910657942,0.02556285820901394
0.03043643943965435,0.0050145587883889675,-0.018882019445300102,0.015849323943257332,-0.000522054557222873,0.025620263069868088
0.03300910070538521,0.00470990315079689,-0.018750805407762527,0.01630784012377262,-0.0005580740980803967,0.02561904489994049
0.03283052518963814,0.005114038474857807,-0.018219199031591415,0.01552025880664587,-0.0005111220525577664,0.025623869150877
0.03203335776925087,0.004979941062629223,-0.019113410264253616,0.015846073627471924,-0.0005343550583347678,0.025640860199928284
0.032039180397987366,0.005490473471581936,-0.01894005388021469,0.015478920191526413,-0.0005009868182241917,0.025591308251023293
0.03260425850749016,0.0053626494482159615,-0.018401559442281723,0.015471016056835651,-0.0005133774830028415,0.025685012340545654
0.03179694339632988,0.004976987838745117,-0.01888744719326496,0.01527299266308546,-0.0004933835589326918,0.025856442749500275
0.032098058611154556,0.005109749734401703,-0.01938472129404545,0.015647057443857193,-0.0005108537152409554,0.02583817020058632
0.0325181782245636,0.0049746367149055,-0.019809257239103317,0.015584707260131836,-0.0004755558038596064,0.02577967941761017
0.032691407948732376,0.004842681344598532,-0.020227642729878426,0.015768209472298622,-0.00047273366362787783,0.02567758969962597
0.03261825442314148,0.005429883021861315,-0.01997583545744419,0.015881482511758804,-0.0004692810762207955,0.025811893865466118
0.032375577837228775,0.005363265983760357,-0.019692718982696533,0.015922006219625473,-0.0004340053128544241,0.026896202936768532
0.033818576484918594,0.00527652632445097,-0.019570624455809593,0.01569264568388462,-0.00043573835864663124,0.026219651103019714
0.032671667635440826,0.005165085196495056,-0.019492754712700844,0.015807026997208595,-0.00045839688391424716,0.025042641907930374
0.032060228288173676,0.005313571076840162,-0.020426765084266663,0.015420515090227127,-0.00043745021685026586,0.02522147446870804
0.032060228288173676,0.005313571076840162,-0.020426765084266663,0.015420515090227127,-0.00043745021685026586,0.02522147446870804
0.03374607115983963,0.0054724919609725475,-0.020246155560016632,0.016054216772317886,-0.0004746756749227643,0.026578260585665703
0.033426109701395035,0.005545047111809254,-0.019236255437135696,0.015797769650816917,-0.0005031914333812892,0.02635478414595127
0.03303482010960579,0.005103012081235647,-0.020141467452049255,0.015901662409305573,-0.0005377094494178891,0.026195211336016655
0.03389299660921097,0.004769724328070879,-0.02066967822611332,0.016071153804659843,-0.0005489416653290391,0.02692277356982231
0.03392593935132027,0.004674446303397417,-0.02019949071109295,0.015742454677820206,-0.0005420329980552197,0.02736026607453823
0.033024586737155914,0.005025876685976982,-0.019697120413184166,0.015863612294197083,-0.0007830962422303855,0.026359733194112778
0.032817013561725616,0.0051935710944235325,-0.02005542442202568,0.015988705679774284,-0.0008127643377520144,0.02620553970336914
0.03416791558265686,0.005242486950010061,-0.019503282383084297,0.016348011791706085,-0.0007147513097152114,0.02595025673508644
0.03385273739695549,0.004892770200967789,-0.019317444413900375,0.016419878229498863,-0.0007290900684893131,0.026578929275274277
0.03326324373483658,0.0047222464345395565,-0.01959962211549282,0.016506938263773918,-0.0007044145022518933,0.027786530554294586
0.03371206670999527,0.005167975090444088,-0.0202068742364645,0.015865124762058258,-0.0006790836923755705,0.027645191177725792
0.03360029682517052,0.0049957153387367725,-0.019573992118239403,0.016064634546637535,-0.0006401360151357949,0.02685610204935074
0.03429921343922615,0.004865491762757301,-0.01997985877096653,0.01612350530922413,-0.0005782488733530045,0.026767296716570854
0.0339033342897892,0.004979817196726799,-0.019896630197763443,0.01573079824447632,-0.0006016868283040822,0.026674559339880943
0.03370505943894386,0.004852464888244867,-0.019249798730015755,0.016710935160517693,-0.0005964648444205523,0.02676413394510746
0.034011438488960266,0.004820698406547308,-0.019824357703328133,0.01671208254992962,-0.000622367428150028,0.02713339403271675
0.0339394211769104,0.004777543246746063,-0.019955335184931755,0.016983559355139732,-0.0007258565165102482,0.027481229975819588
0.034029796719551086,0.004793902859091759,-0.019472593441605568,0.016353776678442955,-0.0008506868034601212,0.027315054088830948
0.0343075655400753,0.005105891264975071,-0.02000301703810692,0.015973160043358803,-0.0009328405722044408,0.027605077251791954
0.03440215438604355,0.004955592565238476,-0.020279398187994957,0.016550447791814804,-0.0008907652809284627,0.027922362089157104
0.03439238294959068,0.004905938636511564,-0.019798632711172104,0.016790086403489113,-0.0012391123455017805,0.028092408552765846
0.033438343554735184,0.004740602802485228,-0.02009410411119461,0.01770746149122715,-0.001112462836317718,0.028167232871055603
0.03523765131831169,0.005012091249227524,-0.020060112699866295,0.017584826797246933,-0.001017849543131888,0.027868492528796196
0.03511461243033409,0.0048851873725652695,-0.01975991018116474,0.01741308905184269,-0.0008951646741479635,0.02805256098508835
0.03461209684610367,0.00418563187122345,-0.019934162497520447,0.016860883682966232,-0.0007644002325832844,0.028358271345496178
0.03454435616731644,0.0038588002789765596,-0.020113682374358177,0.016960151493549347,-0.0006511934334412217,0.028167705982923508
0.03508744016289711,0.0042930967174470425,-0.019575394690036774,0.016269972547888756,-0.0005685316282324493,0.027494139969348907
0.03507139906287193,0.004493965767323971,-0.019861647859215736,0.0166384968906641,-0.0005782197113148868,0.027868058532476425
0.03503242880105972,0.004303728695958853,-0.020300718024373055,0.016831927001476288,-0.0005426083225756884,0.02794719487428665
0.03484503552317619,0.004334595985710621,-0.019572531804442406,0.01667695678770542,-0.0004943573730997741,0.028082679957151413
0.03484503552317619,0.004334595985710621,-0.019572531804442406,0.01667695678770542,-0.0004943573730997741,0.028082679957151413
0.0351671427488327,0.004172663204371929,-0.019587868824601173,0.01710442081093788,-0.000489446334540844,0.027356117963790894
0.035712555050849915,0.00404738262295723,-0.01980186067521572,0.0167564544826746,-0.0004849660617765039,0.02828383445739746
0.03489997237920761,0.003911088686436415,-0.019361993297934532,0.016750024631619453,-0.000483664043713361,0.028761571273207664
0.0355442576110363,0.0038453186862170696,-0.019699446856975555,0.01676596887409687,-0.000480253977002576,0.02857912704348564
0.03615328297019005,0.00384565070271492,-0.019874274730682373,0.01694607175886631,-0.0004447908722795546,0.029099807143211365
0.035315465182065964,0.0038456455804407597,-0.019510328769683838,0.016923492774367332,-0.000400790071580559,0.029351696372032166
0.034516461193561554,0.003819903125986457,-0.019496766850352287,0.016465820372104645,-0.0004360284947324544,0.02836146205663681
0.03508652001619339,0.0037983388174325228,-0.02019304782152176,0.016488440334796906,-0.0004574635822791606,0.02760131098330021
0.03502072021365166,0.0038937029894441366,-0.02009299024939537,0.015965646132826805,-0.00044121459359303117,0.027706332504749298
0.03638993948698044,0.004004342015832663,-0.01952492818236351,0.016511429101228714,-0.000464317825390026,0.029299937188625336
0.036971285939216614,0.003577158320695162,-0.019775785505771637,0.016817986965179443,-0.00044580118265002966,0.02895687147974968
0.035494834184646606,0.003416780149564147,-0.020024152472615242,0.01744275912642479,-0.0007060992065817118,0.029102306813001633
0.03439278155565262,0.003537556389346719,-0.020046470686793327,0.017595766112208366,-0.0007432268466800451,0.029387885704636574
0.03611584007740021,0.0037628302816301584,-0.020518675446510315,0.016692211851477623,-0.000761384260840714,0.029339974746108055
0.036717552691698074,0.004199874121695757,-0.020410213619470596,0.01712711527943611,-0.0007101327064447105,0.02884076163172722
0.03603418171405792,0.0035329568199813366,-0.019693031907081604,0.017243649810552597,-0.0007537776837125421,0.028606871142983437
0.03621061146259308,0.004218146204948425,-0.020272070541977882,0.017077500000596046,-0.0007580977398902178,0.029468489810824394
0.03565695881843567,0.004603483248502016,-0.020269356667995453,0.016597378998994827,-0.0007748501957394183,0.029416745528578758
0.036231521517038345,0.004203927703201771,-0.02087070420384407,0.016977107152342796,-0.0007887647370807827,0.029231756925582886
0.036231521517038345,0.004203927703201771,-0.02087070420384407,0.016977107152342796,-0.0007887647370807827,0.029231756925582886
0.03590308874845505,0.00395631417632103,-0.020420236513018608,0.01719987578690052,-0.0007515149773098528,0.029241537675261497
0.035891201347112656,0.003942180424928665,-0.020418161526322365,0.018037397414445877,-0.0007366415811702609,0.029238516464829445
0.03599478676915169,0.003934155683964491,-0.02062200754880905,0.017785904929041862,-0.0006995929288677871,0.029104134067893028
0.03604355826973915,0.004300700034946203,-0.021320516243577003,0.017105676233768463,-0.0007117766654118896,0.02957860752940178
0.0365942008793354,0.004322720225900412,-0.020894208922982216,0.017516247928142548,-0.0007184923742897809,0.029497560113668442
0.037204500287771225,0.004193457774817944,-0.020421627908945084,0.01748538576066494,-0.0006785481236875057,0.029407180845737457
0.03581278398633003,0.003944717813283205,-0.020206572487950325,0.017612431198358536,-0.0007206639274954796,0.029215052723884583
0.03501991555094719,0.003758117090910673,-0.020916972309350967,0.017752185463905334,-0.000746124133002013,0.029778804630041122
0.03613247722387314,0.004173033405095339,-0.02077580615878105,0.017442811280488968,-0.0007431194535456598,0.03017532266676426
0.03590887784957886,0.004074381664395332,-0.020707864314317703,0.017741234973073006,-0.0006870751385577023,0.030178561806678772
0.03704407811164856,0.003932661842554808,-0.021198632195591927,0.01775011047720909,-0.0006972518749535084,0.02979544922709465
0.036887288093566895,0.0038908161222934723,-0.02113540843129158,0.017515091225504875,-0.0006451798835769296,0.030896971002221107
0.03528415039181709,0.0044097439385950565,-0.02130325324833393,0.017703939229249954,-0.0006394879310391843,0.03029649145901203
0.03519193083047867,0.004116437863558531,-0.020411940291523933,0.017669977620244026,-0.0006735007045790553,0.030083220452070236
0.03710469976067543,0.00432595144957304,-0.021248025819659233,0.01806807518005371,-0.0007474121521227062,0.03012160025537014
0.036853063851594925,0.004196240101009607,-0.02160857617855072,0.018032265827059746,-0.0009336945367977023,0.03037981316447258
0.036452144384384155,0.004047249909490347,-0.021300755441188812,0.017930466681718826,-0.001104101655073464,0.03052963875234127
0.0368167981505394,0.00422772066667676,-0.02077384665608406,0.01884974166750908,-0.001080141868442297,0.029825324192643166
0.03672240674495697,0.004181990399956703,-0.021370165050029755,0.018780851736664772,-0.0010363295441493392,0.03081938624382019
0.036775749176740646,0.004809715319424868,-0.021494513377547264,0.018331706523895264,-0.0009450912475585938,0.0316070057451725
0.037386275827884674,0.004469644278287888,-0.021578961983323097,0.018215732648968697,-0.0009670650470070541,0.03079758957028389
0.036863554269075394,0.004545358940958977,-0.02105669490993023,0.018663953989744186,-0.0008877676445990801,0.029224460944533348
0.03712548688054085,0.004274934064596891,-0.021739361807703972,0.018922025337815285,-0.0008635211270302534,0.03075062483549118
0.0376984067261219,0.004488013219088316,-0.021441027522087097,0.01807902194559574,-0.0007972979219630361,0.030643539503216743
0.03761542588472366,0.0046875812113285065,-0.02121831849217415,0.017843404784798622,-0.0007506664842367172,0.03137832134962082
0.03761542588472366,0.0046875812113285065,-0.02121831849217415,0.017843404784798622,-0.0007506664842367172,0.03137832134962082
0.03746117278933525,0.00477954838424921,-0.02176300622522831,0.018272841349244118,-0.0007588966400362551,0.03187480941414833
0.038056690245866776,0.0042961291037499905,-0.02176353707909584,0.0181928388774395,-0.0007757979910820723,0.030990099534392357
0.03818625211715698,0.004246285185217857,-0.021811986342072487,0.01876147836446762,-0.0007896390743553638,0.030184736475348473
0.03777702897787094,0.004517676308751106,-0.021640300750732422,0.018974430859088898,-0.0008658741717226803,0.03016543947160244
0.0381917804479599,0.004755252972245216,-0.02156650647521019,0.018547987565398216,-0.0008833169122226536,0.031469929963350296
0.03824818506836891,0.004457256756722927,-0.02171815000474453,0.018802864477038383,-0.0007908398984000087,0.031201159581542015
0.03857993707060814,0.004552024882286787,-0.021731095388531685,0.018757831305265427,-0.0007905576494522393,0.030440835282206535
0.03856394439935684,0.004408381879329681,-0.021375877782702446,0.018980812281370163,-0.0007632884662598372,0.031505029648542404
0.03865521028637886,0.004224921576678753,-0.021641043946146965,0.01899096928536892,-0.0007305236649699509,0.031492747366428375
0.03863361477851868,0.004437998868525028,-0.021806802600622177,0.0181216299533844,-0.0006947174551896751,0.031297530978918076
0.03862394019961357,0.004262189846485853,-0.021414214745163918,0.017871132120490074,-0.0006136363372206688,0.03143198788166046
0.03907465189695358,0.004521352704614401,-0.02122296392917633,0.018170954659581184,-0.0006407644832506776,0.03130153566598892
0.038514796644449234,0.0046296874061226845,-0.0219107735902071,0.018011387437582016,-0.0006490650121122599,0.031535908579826355
0.03882000595331192,0.004347863141447306,-0.021893715485930443,0.018302427604794502,-0.0006503777112811804,0.03170640394091606
0.039769161492586136,0.004423146136105061,-0.021417565643787384,0.01843205839395523,-0.0006356219528242946,0.03185116872191429
0.040558040142059326,0.004463900346308947,-0.021442247554659843,0.018212037160992622,-0.00068668182939291,0.03186008706688881
0.03857384994626045,0.004109972156584263,-0.021588191390037537,0.01831231266260147,-0.0007159814122132957,0.03203777223825455
0.038093049079179764,0.004308870993554592,-0.02237893082201481,0.018484456464648247,-0.0007377839065156877,0.03214896842837334
