davideferrari95/blind_handover_controller/data/Test 31 - [2024-02-07 -- 14-45-30]/joint_states_data.csv
shoulder_pan_joint,shoulder_lift_joint,elbow_joint,wrist_1_joint,wrist_2_joint,wrist_3_joint
0.008211336098611355,-0.004186748992651701,-0.011791771277785301,0.015016546472907066,0.0,0.007729243487119675
0.007982340641319752,-0.0035257129929959774,-0.01238190196454525,0.015370648354291916,0.0,0.00786535069346428
0.007982340641319752,-0.0035257129929959774,-0.01238190196454525,0.015370648354291916,0.0,0.00786535069346428
0.00782609824091196,-0.0036171055398881435,-0.012541323900222778,0.014873534440994263,0.0,0.00758471479639411
0.007661077193915844,-0.003836047137156129,-0.012399192899465561,0.015140033327043056,0.0,0.007871386595070362
0.007610901724547148,-0.0038994867354631424,-0.012423818930983543,0.01488792896270752,0.0,0.008256617933511734
0.007505086250603199,-0.003848071675747633,-0.012349273078143597,0.01527384016662836,0.0,0.008297845721244812
0.007900318130850792,-0.0037978675682097673,-0.012626799754798412,0.014877768233418465,0.0,0.007923603989183903
0.007594652473926544,-0.004323716275393963,-0.012172156013548374,0.015182333067059517,0.0,0.007623754907399416
0.007381512317806482,-0.004188114311546087,-0.012345103546977043,0.014392482116818428,0.0,0.007821428589522839
0.0076094865798950195,-0.0035304008051753044,-0.012513739056885242,0.014868797734379768,0.0,0.007744805421680212
0.007580258417874575,-0.003545932937413454,-0.01273080613464117,0.014626667834818363,0.0,0.007910974323749542
0.007363103795796633,-0.004111557267606258,-0.012642421759665012,0.014774893410503864,0.0,0.007879792712628841
0.00741577660664916,-0.00428513390943408,-0.012423117645084858,0.014300965704023838,0.0,0.008015160448849201
0.007403150666505098,-0.004512766841799021,-0.012507160194218159,0.014830381609499454,0.0,0.008222646079957485
0.008137385360896587,-0.004243085160851479,-0.012077250517904758,0.014901985414326191,0.0,0.00789720844477415
0.007900422438979149,-0.0039904555305838585,-0.01336719747632742,0.015167094767093658,0.0,0.008407964371144772
0.007472991943359375,-0.004030960146337748,-0.012406529858708382,0.014863694086670876,0.0,0.00834239274263382
0.008190136402845383,-0.0039137485437095165,-0.012853330001235008,0.014645990915596485,0.0,0.007758371531963348
0.007737939711660147,-0.003928277641534805,-0.012115208432078362,0.01462563220411539,0.0,0.008064556866884232
0.007362575735896826,-0.004313911776989698,-0.012043154798448086,0.014966464601457119,0.0,0.007741426583379507
0.006740492768585682,-0.004578432068228722,-0.012897667475044727,0.015116516500711441,0.0,0.007639108691364527
0.006740492768585682,-0.004578432068228722,-0.012897667475044727,0.015116516500711441,0.0,0.007639108691364527
0.007371288724243641,-0.004736464470624924,-0.012028977274894714,0.015093069523572922,0.0,0.00762431463226676
0.008172348141670227,-0.004319184459745884,-0.012859954498708248,0.015584035776555538,0.0,0.008030631579458714
0.00740480562672019,-0.004215237684547901,-0.012961228378117085,0.015368341468274593,0.0,0.007487602531909943
0.007529161404818296,-0.004834442865103483,-0.01213348750025034,0.0150389289483428,0.0,0.007839230820536613
0.008215103298425674,-0.004885615780949593,-0.011038996279239655,0.015067584812641144,0.0,0.0081781055778265
0.007785774767398834,-0.004496849607676268,-0.01287038717418909,0.014302320778369904,0.0,0.008390304632484913
0.006963639985769987,-0.004351004958152771,-0.01248308178037405,0.014882889576256275,0.0,0.0076163215562701225
0.007337634451687336,-0.004183674696832895,-0.012553577311336994,0.014665448106825352,0.0,0.007789917290210724
0.008173790760338306,-0.00441261101514101,-0.012038975954055786,0.015755273401737213,0.0,0.0077468473464250565
0.007839271798729897,-0.004732500296086073,-0.012995712459087372,0.015358051285147667,0.0,0.007725430652499199
0.007537482772022486,-0.004749899264425039,-0.012328085489571095,0.014998591504991055,0.0,0.007872543297708035
0.0076623521745204926,-0.004612818825989962,-0.01219925470650196,0.0147927301004529,0.0,0.00817915704101324
0.007681039161980152,-0.004708601627498865,-0.01291978731751442,0.015616250224411488,0.0,0.008193176239728928
0.007978204637765884,-0.004772621672600508,-0.011844814755022526,0.015001093968749046,0.0,0.007725999690592289
0.007519100792706013,-0.004729167558252811,-0.012173366732895374,0.015770532190799713,0.0,0.0075778234750032425
0.007765385787934065,-0.00455885985866189,-0.011596998199820518,0.015627508983016014,0.0,0.008016031235456467
0.0076909372583031654,-0.005069609731435776,-0.012144126929342747,0.015477037988603115,0.0,0.008247105404734612
0.007358679547905922,-0.004997144918888807,-0.012266640551388264,0.015739552676677704,0.0,0.008893320336937904
0.007234314922243357,-0.00455453060567379,-0.012203900143504143,0.015277381055057049,0.0,0.008959081023931503
0.0075706904754042625,-0.004608317743986845,-0.01256561279296875,0.016328075900673866,0.0,0.007711844984441996
0.008072145283222198,-0.004986110143363476,-0.011600753292441368,0.015317567624151707,0.0,0.007361358962953091
0.007533027324825525,-0.005006412509828806,-0.012464294210076332,0.015267225913703442,0.0,0.008077598176896572
0.008016534149646759,-0.0049095796421170235,-0.012496551498770714,0.015850059688091278,0.0,0.008721541613340378
0.00801319070160389,-0.00481762457638979,-0.012152150273323059,0.0164463073015213,0.0,0.008496584370732307
0.007955122739076614,-0.004672129638493061,-0.012361658737063408,0.015415376983582973,0.0,0.008056875318288803
0.007955122739076614,-0.004672129638493061,-0.012361658737063408,0.015415376983582973,0.0,0.008056875318288803
0.007532084360718727,-0.004716965369880199,-0.0122847780585289,0.01576649397611618,0.0,0.007877456955611706
0.00730142742395401,-0.0052168481051921844,-0.012510102242231369,0.0154988132417202,0.0,0.00820816121995449
0.007608994375914335,-0.005527188070118427,-0.012264790944755077,0.015664782375097275,0.0,0.007970079779624939
0.007676832843571901,-0.005461226217448711,-0.01228599064052105,0.015494941733777523,0.0,0.007917677983641624
0.007260770071297884,-0.004619055427610874,-0.012308654375374317,0.01590561680495739,0.0,0.007754139602184296
0.007434767205268145,-0.004585632588714361,-0.012156998738646507,0.015343869104981422,0.0,0.007817448116838932
0.0075435093604028225,-0.004648634232580662,-0.011724707670509815,0.015439304523169994,0.0,0.007600694429129362
0.007370493374764919,-0.004942433442920446,-0.012634508311748505,0.015032919123768806,0.0,0.007845084182918072
0.007059362251311541,-0.005048270337283611,-0.012475233525037766,0.015267725102603436,0.0,0.008318056352436543
0.007936212234199047,-0.004905465990304947,-0.012691440060734749,0.014895053580403328,0.0,0.008465960621833801
0.008287467062473297,-0.005272835958749056,-0.012278786860406399,0.015825262293219566,0.0,0.0081764105707407
0.007762359920889139,-0.005176063627004623,-0.012415719218552113,0.015591064468026161,0.0,0.008291605859994888
0.00767571572214365,-0.0046997396275401115,-0.012190481647849083,0.015670690685510635,0.0,0.007793766912072897
0.007615880109369755,-0.004455330315977335,-0.011700727976858616,0.015146424993872643,0.0,0.008148708380758762
0.008091708645224571,-0.004936227109283209,-0.012370784766972065,0.015222134068608284,0.0,0.008405501022934914
0.007898872718214989,-0.0050210971385240555,-0.012002135626971722,0.01521398313343525,0.0,0.008458968251943588
0.0076916334219276905,-0.005202097352594137,-0.012672320008277893,0.01517860684543848,0.0,0.007794784847646952
0.007579584140330553,-0.0052566612139344215,-0.0123937102034688,0.015154732391238213,0.0,0.007773871533572674
0.00781958270817995,-0.004606214351952076,-0.012208987027406693,0.014894263818860054,0.0,0.007742441724985838
0.0075218589045107365,-0.004461829550564289,-0.012512532994151115,0.015362495556473732,0.0,0.008111347444355488
0.007604577578604221,-0.00501277344301343,-0.011832581833004951,0.015267481096088886,0.0,0.008252056315541267
0.007442499045282602,-0.005116329528391361,-0.01211879588663578,0.015397341921925545,0.0,0.007727596443146467
0.007632537744939327,-0.005018082447350025,-0.011632628738880157,0.014794106595218182,0.0,0.00794923398643732
0.007247472647577524,-0.00506814569234848,-0.012282322160899639,0.015223491005599499,0.0,0.008088545873761177
0.007106216158717871,-0.004408880602568388,-0.012847455218434334,0.015174990519881248,0.0,0.007891346700489521
0.0077036903239786625,-0.004492668434977531,-0.012203270569443703,0.015455684624612331,0.0,0.008093461394309998
0.0077036903239786625,-0.004492668434977531,-0.012203270569443703,0.015455684624612331,0.0,0.008093461394309998
0.0077911377884447575,-0.004507881589233875,-0.012494686990976334,0.014852339401841164,0.0,0.007716764695942402
0.007803785149008036,-0.004749585408717394,-0.012679089792072773,0.01466898899525404,0.0,0.007407017983496189
0.008101759478449821,-0.004651675932109356,-0.012379142455756664,0.015311664901673794,0.0,0.007919705472886562
0.007692963816225529,-0.004559794906526804,-0.012395936995744705,0.014969131909310818,0.0,0.007892478257417679
0.007780043408274651,-0.0046167573891580105,-0.012362567707896233,0.01501332875341177,0.0,0.007596028968691826
0.007877344265580177,-0.004188410006463528,-0.01223772019147873,0.014721355400979519,0.0,0.007473339326679707
0.007918309420347214,-0.00445970194414258,-0.012666314840316772,0.014942247420549393,0.0,0.007642689161002636
0.007584167178720236,-0.004701999016106129,-0.01248873770236969,0.01475166529417038,0.0,0.00830820668488741
0.00819841306656599,-0.00476168654859066,-0.012360251508653164,0.015201373025774956,0.0,0.00784851424396038
0.008461497724056244,-0.004545795731246471,-0.012128597125411034,0.01533679012209177,0.0,0.00752547662705183
0.007909764535725117,-0.0035070779267698526,-0.01224268227815628,0.015265054069459438,0.0,0.008088920265436172
0.007796437479555607,-0.0031518603209406137,-0.012445410713553429,0.015412399545311928,0.0,0.008161398582160473
0.007785270921885967,-0.003104202216491103,-0.012080969288945198,0.015091171488165855,0.0,0.007913177832961082
0.008025047369301319,-0.0036006285808980465,-0.012774139642715454,0.015005497261881828,0.0,0.008111931383609772
0.008002126589417458,-0.003984323237091303,-0.012378486804664135,0.015051241964101791,0.0,0.008288695476949215
0.008187549188733101,-0.003992484416812658,-0.012919080443680286,0.015623689629137516,0.0,0.008133632130920887
0.007940835319459438,-0.004033543169498444,-0.01291058398783207,0.015319999307394028,0.0,0.007728456985205412
0.008042371831834316,-0.0038530321326106787,-0.012674062512814999,0.015579898841679096,0.0,0.008003032766282558
0.00802921038120985,-0.0035401745699346066,-0.013133183121681213,0.01528420764952898,0.0,0.007952033542096615
0.007819523103535175,-0.003553441958501935,-0.01259249821305275,0.01584433950483799,0.0,0.007988679222762585
0.008133847266435623,-0.003762663807719946,-0.012858487665653229,0.015768464654684067,0.0,0.007953997701406479
0.008182743564248085,-0.0034307241439819336,-0.012473789043724537,0.015921171754598618,0.0,0.007846621796488762
0.007900012657046318,-0.0034855958074331284,-0.013089974410831928,0.015209767036139965,0.0,0.008086922578513622
0.007830947637557983,-0.0036643578205257654,-0.012311512604355812,0.015349645167589188,0.0,0.008234095759689808
0.007973476313054562,-0.00386265036650002,-0.012877551838755608,0.015094893053174019,0.0,0.007959380745887756
0.008141444995999336,-0.0034512116108089685,-0.012479564175009727,0.015027636662125587,0.0,0.008191745728254318
0.007688382640480995,-0.003509347327053547,-0.012815073132514954,0.01517337467521429,0.0,0.008081522770226002
0.008187328465282917,-0.0032268385402858257,-0.0129244988784194,0.015818756073713303,0.0,0.007942982017993927
0.007719662040472031,-0.003058740636333823,-0.01294002216309309,0.01685664989054203,0.0,0.008264807984232903
0.007719662040472031,-0.003058740636333823,-0.01294002216309309,0.01685664989054203,0.0,0.008264807984232903
0.007938854396343231,-0.002919538877904415,-0.012267555110156536,0.015766358003020287,0.0,0.007844734005630016
0.008919617161154747,-0.003368689678609371,-0.012890544719994068,0.014281706884503365,0.0,0.0076921056024730206
0.008017213083803654,-0.003702480113133788,-0.012621898204088211,0.01489160768687725,0.0,0.007734406739473343
0.007484699133783579,-0.003818284720182419,-0.013102340511977673,0.014789347536861897,0.0,0.008440187200903893
0.007941558957099915,-0.0033586006611585617,-0.0128107201308012,0.01578567735850811,0.0,0.008353933691978455
0.008320032618939877,-0.0035776239819824696,-0.012702574022114277,0.01537567563354969,0.0,0.008970256894826889
0.008115232922136784,-0.003306207712739706,-0.012717444449663162,0.015549578703939915,0.0,0.00850466825067997
0.008310355246067047,-0.003246244043111801,-0.012092068791389465,0.015093481168150902,0.0,0.007496966980397701
0.008322237990796566,-0.0032221649307757616,-0.012376894243061543,0.01587022840976715,0.0,0.007488487754017115
0.00826207734644413,-0.003081683535128832,-0.01233628112822771,0.014697379432618618,0.0,0.007766467519104481
0.0077603901736438274,-0.003542849328368902,-0.012773429974913597,0.014780889265239239,0.0,0.008576017804443836
0.008136197924613953,-0.003376258537173271,-0.01231165137141943,0.015004905872046947,0.0,0.008506343699991703
0.008346609771251678,-0.003472852287814021,-0.01200402807444334,0.015244187787175179,0.0,0.00823567807674408
0.00816491711884737,-0.00362918758764863,-0.012012741528451443,0.01562969759106636,0.0,0.00834924541413784
0.0076629347167909145,-0.003324872115626931,-0.011653614230453968,0.015770278871059418,0.0,0.00837094709277153
0.008218524046242237,-0.0032454750034958124,-0.01247650757431984,0.015602217987179756,0.0,0.008387081325054169
0.008744576945900917,-0.003221318358555436,-0.012224637903273106,0.015028316527605057,0.0,0.008079207502305508
0.008311224170029163,-0.0031885073985904455,-0.012850451283156872,0.015439779497683048,0.0,0.008285821415483952
0.007814369164407253,-0.003283941885456443,-0.01204227190464735,0.015300472266972065,0.0,0.008297577500343323
0.008604208938777447,-0.0031906866934150457,-0.01195515040308237,0.015670087188482285,0.0,0.008315231651067734
0.008484547957777977,-0.0034450446255505085,-0.012311090715229511,0.015148130245506763,0.0,0.008296613581478596
0.008140293881297112,-0.0037118669133633375,-0.012142573483288288,0.015417663380503654,0.0,0.008247039280831814
0.008560056798160076,-0.0033871717751026154,-0.0130245890468359,0.014915458858013153,0.0,0.008188726380467415
0.008905138820409775,-0.003267700783908367,-0.012321819551289082,0.014997119084000587,0.0,0.00842028483748436
0.008457784540951252,-0.0032311335671693087,-0.012439850717782974,0.014825599268078804,0.0,0.008555185049772263
0.00815138965845108,-0.0034785105381160975,-0.012284955009818077,0.01528235338628292,0.0,0.007981195114552975
0.0086807357147336,-0.0037021436728537083,-0.012321075424551964,0.015294523909687996,0.0,0.008231177926063538
0.00889221578836441,-0.003311536740511656,-0.012377346865832806,0.015212086960673332,0.0,0.008746759966015816
0.008490984328091145,-0.0030474544037133455,-0.01187276840209961,0.014890657737851143,0.0,0.008656235411763191
0.008490984328091145,-0.0030474544037133455,-0.01187276840209961,0.014890657737851143,0.0,0.008656235411763191
0.00860966183245182,-0.0033013331703841686,-0.012349645607173443,0.014804360456764698,0.0,0.007987791672348976
0.008388897404074669,-0.0033356903586536646,-0.012690511532127857,0.015229257754981518,0.0,0.00821027159690857
0.00904648657888174,-0.003489616559818387,-0.012064620852470398,0.015172652900218964,0.0,0.008363517932593822
0.00852212030440569,-0.0036481430288404226,-0.012012608349323273,0.015212350524961948,0.0,0.008066564798355103
0.008594631217420101,-0.0035975310020148754,-0.012346002273261547,0.015217986889183521,0.0,0.008150595240294933
0.008248419500887394,-0.003452950855717063,-0.011588136665523052,0.014848586171865463,0.0,0.008688929490745068
0.008852999657392502,-0.003356510540470481,-0.01220954954624176,0.01543594803661108,0.0,0.008474865928292274
0.0091557577252388,-0.003601384349167347,-0.012398007325828075,0.014965884387493134,0.0,0.008335839956998825
0.008523793891072273,-0.003419153857976198,-0.012138500809669495,0.015002253465354443,0.0,0.008476716466248035
0.008662139065563679,-0.003602481447160244,-0.011937594972550869,0.014553234912455082,0.0,0.008419900201261044
0.008603046648204327,-0.0037393870297819376,-0.01154227927327156,0.015151042491197586,0.0,0.008298583328723907
0.008600861765444279,-0.0038948040455579758,-0.012186883948743343,0.015105332247912884,0.0,0.008688918314874172
0.008898831903934479,-0.003947176970541477,-0.011744902469217777,0.015520947985351086,0.0,0.008616425096988678
0.009158309549093246,-0.0034477016888558865,-0.01231936551630497,0.015053685754537582,0.0,0.00841991975903511
0.008905976079404354,-0.003144690999761224,-0.011775568127632141,0.014915346167981625,0.0,0.008413666859269142
0.008747320622205734,-0.0031443124171346426,-0.011625911109149456,0.014675598591566086,0.0,0.009358685463666916
0.008976748213171959,-0.0033905149903148413,-0.011713783256709576,0.015078593976795673,0.0,0.008837164379656315
0.009506712667644024,-0.0036303247325122356,-0.011132912710309029,0.014874598942697048,0.0,0.008550701662898064
0.008837766014039516,-0.0036477535031735897,-0.011894350871443748,0.015150601044297218,0.0,0.008679822087287903
0.009842629544436932,-0.0034961809869855642,-0.011804833076894283,0.01492919772863388,0.0,0.00876527652144432
0.009248095564544201,-0.0035075070336461067,-0.01183674018830061,0.015084298327565193,0.0,0.008657639846205711
0.009602006524801254,-0.00361269642598927,-0.012193555012345314,0.01583213359117508,0.0,0.008386030793190002
0.009909721091389656,-0.0037560893688350916,-0.011846696957945824,0.015634888783097267,0.0,0.008843190968036652
0.009704766795039177,-0.003758631180971861,-0.011597647331655025,0.015688076615333557,0.0,0.00851171649992466
0.008406510576605797,-0.003727169241756201,-0.011571369133889675,0.014950379729270935,0.0,0.008414993062615395
0.008761477656662464,-0.0036577836144715548,-0.011318779550492764,0.015633484348654747,0.0,0.008577480912208557
0.009475892409682274,-0.0038427787367254496,-0.01191454567015171,0.014639378525316715,0.0,0.009259633719921112
0.008732035756111145,-0.00355612114071846,-0.012205475941300392,0.014522243291139603,0.0,0.009371886029839516
0.008732035756111145,-0.00355612114071846,-0.012205475941300392,0.014522243291139603,0.0,0.009371886029839516
0.009701031260192394,-0.0038273227401077747,-0.011142316274344921,0.015371526591479778,0.0,0.009003957733511925
0.009701031260192394,-0.0038273227401077747,-0.011142316274344921,0.015371526591479778,0.0,0.009003957733511925
0.009467731229960918,-0.003572824178263545,-0.012270224280655384,0.015589404851198196,0.0,0.008504698053002357
0.009555828757584095,-0.0036097851116210222,-0.011713175103068352,0.014839067123830318,0.0,0.008772647008299828
0.009499850682914257,-0.0037116985768079758,-0.01239253580570221,0.015138684771955013,0.0,0.008842314593493938
0.009429344907402992,-0.0037918093148618937,-0.012102553620934486,0.014548487961292267,0.0,0.008551516570150852
0.00921611487865448,-0.003936300985515118,-0.012391411699354649,0.015560793690383434,0.0,0.008755234070122242
0.010036250576376915,-0.004002709407359362,-0.012420840561389923,0.015248787589371204,0.0,0.008931595832109451
0.009058460593223572,-0.003812261624261737,-0.011994118802249432,0.015241565182805061,0.0,0.008608369156718254
0.009481235407292843,-0.0036370684392750263,-0.012134685181081295,0.014584682881832123,0.0,0.009299859404563904
0.009977557696402073,-0.0034684042911976576,-0.010576089844107628,0.01492602564394474,0.0,0.00893220491707325
0.009579993784427643,-0.003778008511289954,-0.012861603870987892,0.014304744079709053,0.0,0.008572789840400219
0.009652676992118359,-0.003919763024896383,-0.013070699758827686,0.01465191226452589,0.0,0.008564545772969723
0.009783824905753136,-0.003839235519990325,-0.01242761593312025,0.015043185092508793,0.0,0.008972786366939545
0.009400681592524052,-0.0037184343673288822,-0.012151921167969704,0.01545016374439001,0.0,0.009074884466826916
0.009774009697139263,-0.0037094533909112215,-0.012554815039038658,0.01587982289493084,0.0,0.008918643929064274
0.009565766900777817,-0.0037455405108630657,-0.012903686612844467,0.015782080590724945,0.0,0.00911801028996706
0.009307132102549076,-0.0037242728285491467,-0.011922897771000862,0.015138576738536358,0.0,0.009226414375007153
0.00980401411652565,-0.003686745185405016,-0.012539471499621868,0.014228669926524162,0.0,0.008766497485339642
0.009682884439826012,-0.003802329069003463,-0.012613445520401001,0.014093226753175259,0.0,0.0084947869181633
0.009466931223869324,-0.0037994130980223417,-0.012087928131222725,0.013938757590949535,0.0,0.008898166008293629
0.00999492034316063,-0.004238688852638006,-0.012348789721727371,0.014103990979492664,0.0,0.009229517541825771
0.009848042391240597,-0.004163017962127924,-0.012094153091311455,0.014697691425681114,0.0,0.009205642156302929
0.009736004285514355,-0.004029839765280485,-0.012594950385391712,0.015108007937669754,0.0,0.009220510721206665
0.010492103174328804,-0.003972754813730717,-0.012026277370750904,0.015241407789289951,0.0,0.009235563687980175
0.0096571771427989,-0.004024718888103962,-0.012424059212207794,0.015077994205057621,0.0,0.009278407320380211
0.010122468695044518,-0.004377241246402264,-0.01224005687981844,0.015389728359878063,-5.941692506894469e-05,0.008919085375964642
0.010078907012939453,-0.004326289054006338,-0.012100731953978539,0.014969014562666416,-0.00010259731789119542,0.00914283748716116
0.010078907012939453,-0.004326289054006338,-0.012100731953978539,0.014969014562666416,-0.00010259731789119542,0.00914283748716116
0.010159047320485115,-0.003537682117894292,-0.012104324996471405,0.014996481128036976,-0.00010315286635886878,0.0091661112383008
0.010224136523902416,-0.0035495711490511894,-0.012816041707992554,0.014511479064822197,-0.00010102697706315666,0.00944097526371479
0.010177258402109146,-0.003682957496494055,-0.012053519487380981,0.015113335102796555,-9.882071026368067e-05,0.009394352324306965
0.010452810674905777,-0.004297616891562939,-0.012497958727180958,0.014705353416502476,-9.66980223893188e-05,0.009318642318248749
0.010264099575579166,-0.0036286350805312395,-0.012707176618278027,0.015376100316643715,-9.466384653933346e-05,0.00948055274784565
0.010399473831057549,-0.0035655833780765533,-0.012373082339763641,0.014848267659544945,-9.271330782212317e-05,0.009585399180650711
0.009727916680276394,-0.00368086458183825,-0.012462517246603966,0.014886789955198765,-9.084172052098438e-05,0.00940719060599804
0.010065046139061451,-0.0038159105461090803,-0.012371256947517395,0.014534714631736279,-0.0001045178942149505,0.00936767179518938
0.009931571781635284,-0.0038289569783955812,-0.012585585936903954,0.014781034551560879,-0.00010462709178682417,0.009694681502878666
0.010505728423595428,-0.0034143999218940735,-0.012591836042702198,0.015079925768077374,-0.00010086451948154718,0.009546879678964615
0.010505728423595428,-0.0034143999218940735,-0.012591836042702198,0.015079925768077374,-0.00010086451948154718,0.009546879678964615
0.010236487723886967,-0.003510343609377742,-0.012336382642388344,0.01477719098329544,-9.901573503157124e-05,0.009679274633526802
0.010220253840088844,-0.003610319225117564,-0.012611825950443745,0.015171888284385204,-9.723277617013082e-05,0.00947623047977686
0.010089007206261158,-0.003555896459147334,-0.011876186355948448,0.015565126203000546,-9.551293624099344e-05,0.00994777400046587
0.010482031852006912,-0.0034668867010623217,-0.01176842488348484,0.01570831425487995,-0.00010845568613149226,0.009865130297839642
0.010380282066762447,-0.003353311214596033,-0.01269349455833435,0.015874581411480904,-0.0001075566397048533,0.009395798668265343
0.010446117259562016,-0.003546144114807248,-0.011888637207448483,0.015609292313456535,-0.00010581244714558125,0.009873955510556698
0.009898749180138111,-0.003341793082654476,-0.012601811438798904,0.01526893675327301,-0.00010406860383227468,0.009709672071039677
0.009898749180138111,-0.003341793082654476,-0.012601811438798904,0.01526893675327301,-0.00010406860383227468,0.009709672071039677
0.01103136781603098,-0.003747002687305212,-0.011897828429937363,0.014864259399473667,-0.00010074060992337763,0.00972967129200697
0.009982515126466751,-0.003336454974487424,-0.01221540104597807,0.015248263254761696,-9.915507689584047e-05,0.009689195081591606
0.010227036662399769,-0.0030595827847719193,-0.011660180054605007,0.01435872446745634,-0.00010974157339660451,0.009480764158070087
0.010392711497843266,-0.003074429463595152,-0.01251237466931343,0.014197012409567833,-0.0001097429558285512,0.009751847013831139
0.010798996314406395,-0.0034983304794877768,-0.012509251944720745,0.014861560426652431,-0.0001066079712472856,0.009681088849902153
0.010306849144399166,-0.003708100877702236,-0.012397319078445435,0.015102031640708447,-0.00010505294631002471,0.009548118337988853
0.009697708301246166,-0.0035607151221483946,-0.011864935979247093,0.014741593040525913,-0.0001035422392305918,0.009664096869528294
0.009697708301246166,-0.0035607151221483946,-0.011864935979247093,0.014741593040525913,-0.0001035422392305918,0.009664096869528294
0.010058960877358913,-0.0034737701062113047,-0.012332607060670853,0.015200421214103699,-0.00010212680354015902,0.009576045908033848
0.01053656917065382,-0.0036193139385432005,-0.012441338039934635,0.01470564492046833,-0.00014581726281903684,0.010433581657707691
0.009847154840826988,-0.0038524523843079805,-0.012417797930538654,0.015295498073101044,-0.00014421418018173426,0.009965823031961918
0.010129125788807869,-0.0034105421509593725,-0.012400632724165916,0.014923878014087677,-0.00013992981985211372,0.009568416513502598
0.010249454528093338,-0.0036418798845261335,-0.012348483316600323,0.015032626688480377,-0.00013572217721957713,0.009503408335149288
0.010084955021739006,-0.0033687467221170664,-0.012051361612975597,0.014717831276357174,-0.0001317490532528609,0.009484388865530491
0.009795998223125935,-0.003374435007572174,-0.011903737671673298,0.01491188071668148,-0.00014696527796331793,0.010035370476543903
0.009618401527404785,-0.0038067568093538284,-0.012399318628013134,0.014596221037209034,-0.00014891957107465714,0.011189990676939487
0.010051204822957516,-0.0038568503223359585,-0.011950068175792694,0.015294793993234634,-0.00014530474436469376,0.01084144413471222
0.010695037432014942,-0.0023765540681779385,-0.01252606138586998,0.015008723363280296,-0.00014152179937809706,0.009147267788648605
0.010016996413469315,-0.0020315079018473625,-0.011617532931268215,0.014817762188613415,-0.0001491995935793966,0.00942545011639595
0.010105805471539497,-0.0018710179720073938,-0.011772632598876953,0.014753579162061214,-0.0001561236713314429,0.009828334674239159
0.01097183395177126,-0.0018916084663942456,-0.012407490983605385,0.014965841546654701,-0.0001530250156065449,0.010308551602065563
0.010260945186018944,-0.003234300296753645,-0.011862021870911121,0.015098068863153458,-0.00015993250417523086,0.010104045271873474
0.01024881936609745,-0.0033278262708336115,-0.012650392949581146,0.01528166513890028,-0.0001661258575040847,0.009977594017982483
0.010210377164185047,-0.002778167836368084,-0.012148769572377205,0.01571042649447918,-0.00016301048162858933,0.009746143594384193
0.009939794428646564,-0.002317965030670166,-0.012794500216841698,0.01545707881450653,-0.00015944290498737246,0.00998747069388628
0.01056394912302494,-0.0020999950356781483,-0.012630796991288662,0.015855874866247177,-0.00015615638403687626,0.010007211938500404
0.01056394912302494,-0.0020999950356781483,-0.012630796991288662,0.015855874866247177,-0.00015615638403687626,0.010007211938500404
0.010818543843925,-0.0019991814624518156,-0.012301390990614891,0.01530875451862812,-0.00024540332378819585,0.00996569823473692
0.009897371754050255,-0.002328402828425169,-0.012727883644402027,0.015495753847062588,-0.0002387727436143905,0.010411110706627369
0.010493626818060875,-0.0022789514623582363,-0.011977163143455982,0.014556117355823517,-0.00022713537327945232,0.010288816876709461
0.010111311450600624,-0.002426775638014078,-0.012883452698588371,0.014968239702284336,-0.0002373623283347115,0.010164136998355389
0.010694390162825584,-0.0021629997063428164,-0.011957544833421707,0.014892561361193657,-0.00024614910944364965,0.010068238712847233
0.010363835841417313,-0.0018863854929804802,-0.012449885718524456,0.01522473618388176,-0.0002267863164888695,0.010038110427558422
0.010839509777724743,-0.001941232942044735,-0.012536181136965752,0.014931194484233856,-0.00024909156491048634,0.010100717656314373
0.011311700567603111,-0.0018106495263054967,-0.012564781121909618,0.014283142052590847,-0.0002437687071505934,0.010051236487925053
0.010950111784040928,-0.0020276957657188177,-0.012362399138510227,0.015096067450940609,-0.00023495893401559442,0.0105946846306324
0.011621005833148956,-0.0019008766394108534,-0.013125521130859852,0.014932450838387012,-0.00024238007608801126,0.01018812507390976
0.011208551004529,-0.0019629276357591152,-0.012433542869985104,0.015513998456299305,-0.0002488253521732986,0.010414215736091137
0.011487342417240143,-0.0018521901220083237,-0.013110939413309097,0.014635073952376842,-0.00024144914641510695,0.011130884289741516
0.011767419055104256,-0.0019780383445322514,-0.012795769609510899,0.014373703859746456,-0.00023367464018519968,0.01048901304602623
0.011449565179646015,-0.0019617921207100153,-0.012793456204235554,0.014007034711539745,-0.0002820120716933161,0.010291486978530884
0.011455525644123554,-0.0019880468025803566,-0.013104434125125408,0.014840069226920605,-0.00028281001141294837,0.010266476310789585
0.011631966568529606,-0.001931545208208263,-0.01252087950706482,0.014684307388961315,-0.00026722304755821824,0.010572712868452072
0.011405701749026775,-0.001947395852766931,-0.012831849977374077,0.015022042207419872,-0.00025231268955394626,0.010260461829602718
0.011657494120299816,-0.0022009669337421656,-0.01238053385168314,0.015087852254509926,-0.00023891741875559092,0.010490181855857372
0.01120243314653635,-0.0021753397304564714,-0.01357089914381504,0.014863711781799793,-0.00026614993112161756,0.010320526547729969
0.011514746583998203,-0.002169369487091899,-0.01327228918671608,0.015284115448594093,-0.00025877400184981525,0.010686902329325676
0.011597230099141598,-0.0020010226871818304,-0.013649990782141685,0.015305270440876484,-0.00024727388517931104,0.010638458654284477
0.01167781837284565,-0.0018920599250122905,-0.012952026911079884,0.015468141995370388,-0.00023646616318728775,0.010189617052674294
0.011912526562809944,-0.0018714502220973372,-0.013880958780646324,0.015030634589493275,-0.00022654500207863748,0.010521313175559044
0.011721593327820301,-0.0020657393615692854,-0.013448003679513931,0.015431505627930164,-0.00021742140233982354,0.01037564966827631
0.011952867731451988,-0.0020211723167449236,-0.013617351651191711,0.015792272984981537,-0.0002347614208701998,0.01044023409485817
0.01158140692859888,-0.002283799462020397,-0.013960415497422218,0.014707851223647594,-0.0002341585059184581,0.010949309915304184
0.01158140692859888,-0.002283799462020397,-0.013960415497422218,0.014707851223647594,-0.0002341585059184581,0.010949309915304184
0.011690957471728325,-0.0020705261267721653,-0.014052748680114746,0.014699838124215603,-0.00022627845464739949,0.010191157460212708
0.011503656394779682,-0.0020271874964237213,-0.01352996751666069,0.015839338302612305,-0.00024026936443988234,0.011029623448848724
0.011503656394779682,-0.0020271874964237213,-0.01352996751666069,0.015839338302612305,-0.00024026936443988234,0.011029623448848724
0.012048673816025257,-0.0022510653361678123,-0.013143920339643955,0.01556385401636362,-0.00022614393674302846,0.010658852756023407
0.012048673816025257,-0.0022510653361678123,-0.013143920339643955,0.01556385401636362,-0.00022614393674302846,0.010658852756023407
0.01203114539384842,-0.0021811134647578,-0.013355761766433716,0.015458001755177975,-0.0002127802581526339,0.011067447252571583
0.011717810295522213,-0.0020947640296071768,-0.01368599385023117,0.015561899170279503,-0.00020667206263169646,0.010560767725110054
0.012310042046010494,-0.0022209249436855316,-0.013168280944228172,0.015597155317664146,-0.00020915313507430255,0.010357322171330452
0.011789490468800068,-0.0021785059943795204,-0.013883551582694054,0.015294519253075123,-0.00020123898866586387,0.010676061734557152
0.012352537363767624,-0.002348381094634533,-0.013429982587695122,0.015545629896223545,-0.00019271291967015713,0.012109759263694286
0.01293310895562172,-0.0022521698847413063,-0.01401940081268549,0.015328841283917427,-0.0001848033571150154,0.01057897973805666
0.01293310895562172,-0.0022521698847413063,-0.01401940081268549,0.015328841283917427,-0.0001848033571150154,0.01057897973805666
0.012651548720896244,-0.0020848840940743685,-0.013565601781010628,0.015372423455119133,-0.00017077480151783675,0.010458863340318203
0.011947756633162498,-0.0020556056406348944,-0.013196369633078575,0.015641599893569946,-0.00016452980344183743,0.011142643168568611
0.012323261238634586,-0.00217928783968091,-0.013369277119636536,0.015107180923223495,-0.00015872553922235966,0.011186715215444565
0.012334652245044708,-0.0019962203223258257,-0.013211439363658428,0.01556098461151123,-0.00018190735136158764,0.01131963450461626
0.012346714735031128,-0.002022419823333621,-0.013657085597515106,0.014994053170084953,-0.00017778285837266594,0.011237801052629948
0.012280928902328014,-0.00202142889611423,-0.013606015592813492,0.015264531597495079,-0.0001722336746752262,0.011695346795022488
0.011854206211864948,-0.002222493989393115,-0.013170265592634678,0.015000710263848305,-0.00019286236783955246,0.0114169642329216
0.01229812577366829,-0.002207403536885977,-0.013544599525630474,0.015171652659773827,-0.0001887752878246829,0.011277017183601856
0.011944306083023548,-0.002106938511133194,-0.013236748985946178,0.015254214406013489,-0.0001833902351791039,0.01143920049071312
0.012258671224117279,-0.0020287467632442713,-0.013813797384500504,0.015151087194681168,-0.0001782094914233312,0.01112007163465023
0.012270530685782433,-0.002040657913312316,-0.013111664913594723,0.015287254005670547,-0.00017330727132502943,0.011583165265619755
0.012485005892813206,-0.002280168468132615,-0.013458372093737125,0.015217578038573265,-0.00016866694204509258,0.01129939965903759
0.012485005892813206,-0.002280168468132615,-0.013458372093737125,0.015217578038573265,-0.00016866694204509258,0.01129939965903759
0.012408489361405373,-0.0022371732629835606,-0.01294218935072422,0.015602354891598225,-0.00016426881484221667,0.011082124896347523
0.012201689183712006,-0.002181653631851077,-0.013875368982553482,0.015156915411353111,-0.00018143252236768603,0.011546341702342033
0.012302819639444351,-0.0019748478662222624,-0.013559956103563309,0.015562954358756542,-0.00017833046149462461,0.01127100270241499
0.012226046063005924,-0.0019489453407004476,-0.013839837163686752,0.014990263618528843,-0.00017410881991963834,0.011461416259407997
0.012599295005202293,-0.0021858729887753725,-0.013716611079871655,0.015168716199696064,-0.00017000362277030945,0.01116940751671791
0.012463339604437351,-0.002146501559764147,-0.01337904017418623,0.014932521618902683,-0.0001623938442207873,0.011795241385698318
0.012921919114887714,-0.0021343680564314127,-0.013325395993888378,0.014656135812401772,-0.00018020365678239614,0.011400549672544003
0.012653633020818233,-0.0020593099761754274,-0.0137565229088068,0.014993015676736832,-0.00017479235248174518,0.011730621568858624
0.012956141494214535,-0.0019922258798033,-0.013738198205828667,0.014305202290415764,-0.00016835615679156035,0.011518830433487892
0.012521078810095787,-0.001965849893167615,-0.013854529708623886,0.014873781241476536,-0.0001622901763767004,0.011334603652358055
0.012916062027215958,-0.0019426621729508042,-0.0132848946377635,0.014419583603739738,-0.00015664064267184585,0.011690654791891575
0.012718094512820244,-0.002196625107899308,-0.013871015049517155,0.014704933390021324,-0.00017959963588509709,0.011815271340310574
0.01311670895665884,-0.0021623997017741203,-0.013514211401343346,0.01421072706580162,-0.00017559969273861498,0.011993122287094593
0.013164058327674866,-0.002121323486790061,-0.013555721379816532,0.014910167083144188,-0.00017018549260683358,0.011663294397294521
0.013196054846048355,-0.0019738064147531986,-0.012890001758933067,0.014290256425738335,-0.00016499284538440406,0.011366592720150948
0.013583612628281116,-0.0019501568749547005,-0.013813909143209457,0.015032343566417694,-0.00018498919962439686,0.011830766685307026
0.013862322084605694,-0.001869242056272924,-0.013399074785411358,0.014863726682960987,-0.00018128834199160337,0.011704470962285995
0.0137249194085598,-0.0020791811402887106,-0.013912217691540718,0.015265816822648048,-0.0001763206091709435,0.011682607233524323
0.013197465799748898,-0.002147621475160122,-0.013426056131720543,0.014809245243668556,-0.00017152649525087327,0.01175948791205883
0.013572560623288155,-0.002133881440386176,-0.01390310563147068,0.01532809343189001,-0.00018465696484781802,0.011465397663414478
0.013176189735531807,-0.002104491228237748,-0.01333608292043209,0.015692824497818947,-0.0001855037990026176,0.011682090349495411
0.013383718207478523,-0.0020243756007403135,-0.01362794078886509,0.014945157803595066,-0.00018120089953299612,0.01154070533812046
0.013126027770340443,-0.0019325631437823176,-0.013271564617753029,0.014115550555288792,-0.00017677572031971067,0.011678400449454784
0.013332759961485863,-0.0018988325027748942,-0.013500514440238476,0.014440938830375671,-0.00017254111298825592,0.011548862792551517
0.013101084157824516,-0.001841279212385416,-0.013373811729252338,0.014886750839650631,-0.0001685030001681298,0.01172566507011652
0.013704835437238216,-0.001833100221119821,-0.01272563450038433,0.015239211730659008,-0.0002187288337154314,0.012102238833904266
0.01378688681870699,-0.0018730468582361937,-0.013126112520694733,0.014680531807243824,-0.000216105196159333,0.012873677536845207
0.013761419802904129,-0.001859604730270803,-0.012580265291035175,0.014650193974375725,-0.00020669220248237252,0.012604741379618645
0.013761419802904129,-0.001859604730270803,-0.012580265291035175,0.014650193974375725,-0.00020669220248237252,0.012604741379618645
0.013858623802661896,-0.0018033375963568687,-0.013428480364382267,0.014657077379524708,-0.00018933006504084915,0.011992743238806725
0.013858623802661896,-0.0018033375963568687,-0.013428480364382267,0.014657077379524708,-0.00018933006504084915,0.011992743238806725
0.013960444368422031,-0.001955683808773756,-0.014095275662839413,0.01451206486672163,-0.00019946458633057773,0.012010481208562851
0.014002847485244274,-0.0019232055637985468,-0.013197951950132847,0.014869071543216705,-0.00020834787574131042,0.012227299623191357
0.014403621666133404,-0.0019907888490706682,-0.013436109758913517,0.015279094688594341,-0.0002016504731727764,0.012229015119373798
0.014119992963969707,-0.0018751684110611677,-0.013683712109923363,0.015815453603863716,-0.0001877031463664025,0.01230715960264206
0.015311104245483875,-0.0016903076320886612,-0.013630494475364685,0.015203811228275299,-0.00020762348140124232,0.01214778795838356
0.01415189541876316,-0.001562074408866465,-0.013434897176921368,0.015353535301983356,-0.00020449001749511808,0.011960631236433983
0.01380156259983778,-0.0015213381266221404,-0.013517535291612148,0.014800396747887135,-0.000198288238607347,0.012425918132066727
0.014507059939205647,-0.0015355133218690753,-0.013330352492630482,0.015192613005638123,-0.00021259005006868392,0.01247464306652546
0.014281663112342358,-0.0014851237647235394,-0.013621706515550613,0.014753535389900208,-0.00021274601749610156,0.01260902639478445
0.01430127490311861,-0.001561631914228201,-0.013670520856976509,0.015215168707072735,-0.0002070479531539604,0.012577547691762447
0.014452488161623478,-0.001490290160290897,-0.01399224903434515,0.014707331545650959,-0.00020128683536313474,0.012547163292765617
0.01471130084246397,-0.0017257656436413527,-0.013164585456252098,0.014891190454363823,-0.00022497626196127385,0.012663205154240131
0.014262416400015354,-0.0016234389040619135,-0.013564369641244411,0.014710723422467709,-0.0002410988527117297,0.012612304650247097
0.014736395329236984,-0.0017193463863804936,-0.01339741237461567,0.015176350250840187,-0.00023058491933625191,0.012566500343382359
0.014224258251488209,-0.001681491732597351,-0.014153792522847652,0.014707706868648529,-0.00021945788466837257,0.012821013107895851
0.014979168772697449,-0.0014937836676836014,-0.013551578857004642,0.015048102475702763,-0.00020925748685840517,0.013191726990044117
0.01459433976560831,-0.0015227177646011114,-0.014401864260435104,0.014618339017033577,-0.00019995728507637978,0.013139070011675358
0.014779120683670044,-0.0014462426770478487,-0.01339161116629839,0.01502867043018341,-0.00022712655481882393,0.013257906772196293
0.014202622696757317,-0.0018003355944529176,-0.0140016945078969,0.014861675910651684,-0.00022019047173671424,0.012787868268787861
0.014945636503398418,-0.0017177147092297673,-0.013820194639265537,0.014741174876689911,-0.00021170839318074286,0.012695112265646458
0.014682583510875702,-0.002082546940073371,-0.014434585347771645,0.014798464253544807,-0.00020372965082060546,0.012558666057884693
0.014935527928173542,-0.00187431531958282,-0.013631031848490238,0.014911899343132973,-0.0001963224494829774,0.012828935869038105
0.014935527928173542,-0.00187431531958282,-0.013631031848490238,0.014911899343132973,-0.0001963224494829774,0.012828935869038105
0.01466097217053175,-0.0017833925085142255,-0.014083663001656532,0.014882750809192657,-0.0001894343295134604,0.012653921730816364
0.01523975096642971,-0.0017265146598219872,-0.01367929857224226,0.015157368965446949,-0.00018301329691894352,0.012807078659534454
0.015209627337753773,-0.001509096473455429,-0.014298956841230392,0.015139738097786903,-0.00017701322212815285,0.012803993187844753
0.01522894762456417,-0.001531829359009862,-0.014265214093029499,0.015128441154956818,-0.00018540349265094846,0.012815090827643871
0.015034845098853111,-0.0018161331536248326,-0.013538134284317493,0.014781448990106583,-0.00018796115182340145,0.012954813428223133
0.014989932999014854,-0.0016634872881695628,-0.014376225881278515,0.015008903108537197,-0.00018256991461385041,0.01308305561542511
0.014867136254906654,-0.0016667944146320224,-0.014331878162920475,0.01471694465726614,-0.00017743156058713794,0.013257022015750408
0.01540199015289545,-0.0015368994791060686,-0.014323900453746319,0.015100723132491112,-0.00019556874758563936,0.013537480495870113
0.015273412689566612,-0.0014422627864405513,-0.014463255181908607,0.014942438341677189,-0.00019185747078154236,0.013510942459106445
0.015238898806273937,-0.001424978137947619,-0.014218788594007492,0.01554028782993555,-0.00018697268387768418,0.013276992365717888
0.014888294041156769,-0.0014533369103446603,-0.014175406657159328,0.015054733492434025,-0.00018224594532512128,0.014494952745735645
0.015717992559075356,-0.0014756121672689915,-0.013876734301447868,0.015437135472893715,-0.00019264766888227314,0.013363891281187534
0.015008912421762943,-0.0015606534434482455,-0.01425990927964449,0.01460193283855915,-0.00018697961058933288,0.013078026473522186
0.015537870116531849,-0.0014828706625849009,-0.013680567964911461,0.015078851953148842,-0.0001796659198589623,0.01265832968056202
0.015259575098752975,-0.0015553394332528114,-0.013925266452133656,0.014726348221302032,-0.00017277622828260064,0.012993349693715572
0.01544257439672947,-0.0015571907861158252,-0.013627762906253338,0.01500079408288002,-0.00018268456915393472,0.013454538770020008
0.015293673612177372,-0.0014201545855030417,-0.014232450164854527,0.015625320374965668,-0.00019143603276461363,0.013971841894090176
0.015610531903803349,-0.0014787603868171573,-0.014099947176873684,0.014749739319086075,-0.0001858424802776426,0.013744132593274117
0.015500683337450027,-0.0014473662013188004,-0.013949120417237282,0.014330023899674416,-0.00019440529285930097,0.014052127487957478
0.015788646414875984,-0.0018224711529910564,-0.01354797650128603,0.014984266832470894,-0.00020192847296129912,0.013982133008539677
0.015701694414019585,-0.001668429933488369,-0.014466988854110241,0.015050875023007393,-0.00019652768969535828,0.014144344255328178
0.015474977903068066,-0.0014736911980435252,-0.013838696293532848,0.01510673388838768,-0.00021427379397209734,0.01404258981347084
0.01590045727789402,-0.0013409634120762348,-0.014146401546895504,0.014878315851092339,-0.0002112423680955544,0.01357890572398901
0.015682583674788475,-0.0013732954394072294,-0.013628889806568623,0.01481561828404665,-0.0003140009939670563,0.013323156163096428
0.015899570658802986,-0.001263096579350531,-0.014379255473613739,0.014963733963668346,-0.0003264285915065557,0.013520179316401482
0.015899570658802986,-0.001263096579350531,-0.014379255473613739,0.014963733963668346,-0.0003264285915065557,0.013520179316401482
0.015416212379932404,-0.0013389488449320197,-0.013686864636838436,0.014943573623895645,-0.00035947520518675447,0.013826820999383926
0.015797210857272148,-0.0013034747680649161,-0.01422150433063507,0.01482741441577673,-0.0003439525025896728,0.014072752557694912
0.015786632895469666,-0.001544101512990892,-0.01378261111676693,0.014894762076437473,-0.00032380237826146185,0.014741269871592522
0.01590058207511902,-0.0016087491530925035,-0.014419748447835445,0.01512689609080553,-0.0003528999222908169,0.014389160089194775
0.016145821660757065,-0.0015466868644580245,-0.013893944211304188,0.015252611599862576,-0.00036059977719560266,0.014218284748494625
0.01631467416882515,-0.0013386672362685204,-0.014009209349751472,0.015607723034918308,-0.0003481153107713908,0.01416807807981968
0.01586868055164814,-0.0012659641215577722,-0.014449593611061573,0.01600721850991249,-0.0004001425695605576,0.014011728577315807
0.016303792595863342,-0.001219272380694747,-0.013670849613845348,0.015094103291630745,-0.0004278217675164342,0.014455455355346203
0.015682268887758255,-0.0012134030694141984,-0.014178489334881306,0.014803159050643444,-0.000462661701021716,0.014375575818121433
0.01604725606739521,-0.001193417003378272,-0.013793137855827808,0.014245708473026752,-0.0004349127411842346,0.014681870117783546
0.01586882211267948,-0.00139528454747051,-0.014484193176031113,0.014983467757701874,-0.00046549338730983436,0.01431197952479124
0.016298040747642517,-0.0014640532899647951,-0.013709889724850655,0.015387327410280704,-0.0004372825496830046,0.014293767511844635
0.016136053949594498,-0.0014238982694223523,-0.014358325861394405,0.01615082658827305,-0.0004521460796240717,0.013717974536120892
0.016326799988746643,-0.0014644128968939185,-0.013956574723124504,0.015848904848098755,-0.0004380657337605953,0.013705151155591011
0.016356997191905975,-0.0013555466430261731,-0.014555796980857849,0.015281887724995613,-0.00041376231820322573,0.014000524766743183
0.015953710302710533,-0.001258079195395112,-0.01404973678290844,0.015051320195198059,-0.0003937699366360903,0.014585601165890694
0.016410693526268005,-0.0012092854594811797,-0.01450368482619524,0.015287606976926327,-0.0004436335002537817,0.014504375867545605
0.016384463757276535,-0.0011573738884180784,-0.013668900355696678,0.015437833964824677,-0.0004796543507836759,0.014882923103868961
0.01714368537068367,-0.0011196803534403443,-0.01465974934399128,0.01537279225885868,-0.00044965921551920474,0.014562965370714664
0.016711272299289703,-0.0011913826456293464,-0.014070476405322552,0.015490343794226646,-0.00048005665303207934,0.015499096363782883
0.016418758779764175,-0.0011771789286285639,-0.014431927353143692,0.014796208590269089,-0.0005055380752310157,0.013631570152938366
0.01688559725880623,-0.0010075599420815706,-0.014165407046675682,0.015317241661250591,-0.000479696987895295,0.01397502701729536
0.015993913635611534,-0.0008687129593454301,-0.014497628435492516,0.014601027593016624,-0.0005877400981262326,0.014232604764401913
0.016386235132813454,-0.0007633639615960419,-0.014357968233525753,0.014940226450562477,-0.0006154328002594411,0.014791557565331459
0.016580089926719666,-0.0006808097241446376,-0.014664051122963428,0.01469725463539362,-0.0005983645096421242,0.014853167347609997
0.016538407653570175,-0.000614388205576688,-0.014234385453164577,0.015290278941392899,-0.0005416381754912436,0.015162982977926731
0.016901616007089615,-0.0005597678828053176,-0.014403573237359524,0.014918251894414425,-0.0005524957668967545,0.014840144664049149
0.016105642542243004,-0.0005619878647848964,-0.014094119891524315,0.015666324645280838,-0.0005249964306131005,0.01480893138796091
0.017711808905005455,-0.000542838592082262,-0.014708259142935276,0.015232390724122524,-0.00048570550279691815,0.015053709037601948
0.017711808905005455,-0.000542838592082262,-0.014708259142935276,0.015232390724122524,-0.00048570550279691815,0.015053709037601948
0.01707015372812748,-0.00047195382649078965,-0.015139020048081875,0.015087510459125042,-0.000478805392049253,0.014680098742246628
0.016838427633047104,-0.00044291658559814095,-0.014378970488905907,0.016043581068515778,-0.00045069633051753044,0.014667589217424393
0.016780762001872063,-0.00041724558104760945,-0.015403015539050102,0.016137078404426575,-0.0004285018949303776,0.015141787007451057
0.017307376489043236,-0.0003943878982681781,-0.014703229069709778,0.01567407138645649,-0.00039662307244725525,0.0156414657831192
0.017022185027599335,-0.0003739036910701543,-0.014653638005256653,0.015758153051137924,-0.0004183608980383724,0.015639876946806908
0.017621494829654694,-0.00035544438287615776,-0.013869690708816051,0.015588613227009773,-0.0004036924510728568,0.015295361168682575
0.017347147688269615,-0.00033872172934934497,-0.014630801975727081,0.015952643007040024,-0.0004308339557610452,0.015437310561537743
0.01722860522568226,-0.00032533874036744237,-0.014460669830441475,0.015272360295057297,-0.00041023665107786655,0.015267141163349152
0.017599131911993027,-0.00022742536384612322,-0.01515442505478859,0.015630299225449562,-0.0003856042167171836,0.015541642904281616
0.01772463507950306,-0.00021543999901041389,-0.014622882008552551,0.015342740342020988,-0.00038866529939696193,0.015465004369616508
0.017955362796783447,-0.00020558308460749686,-0.014787225052714348,0.01677623763680458,-0.00039090440259315073,0.015499013476073742
0.018070999532938004,-0.00019660004181787372,-0.014158341102302074,0.015573455952107906,-0.0004574946651700884,0.015324905514717102
0.017534032464027405,-0.00018837019160855561,-0.015178840607404709,0.01491935458034277,-0.0005067940801382065,0.015390116721391678
0.017910635098814964,-0.00018080143490806222,-0.014855495654046535,0.014611775055527687,-0.00048333764425478876,0.01542965229600668
0.01784435100853443,-0.0001738170685712248,-0.01567448489367962,0.015135976485908031,-0.0005138086271472275,0.015523102134466171
0.017999334260821342,-0.0001673531369306147,-0.014380243606865406,0.015346196480095387,-0.00047928758431226015,0.015971269458532333
0.01779906079173088,-0.00016135213081724942,-0.014791559427976608,0.01542526762932539,-0.0005006396095268428,0.015969451516866684
0.017299527302384377,-0.00015576655277982354,-0.014864572323858738,0.01509252842515707,-0.00047510737203992903,0.01586460880935192
0.017894530668854713,-0.00015055539552122355,-0.016073232516646385,0.01467811968177557,-0.0005628800136037171,0.015531830489635468
0.01816299557685852,-0.00017138685507234186,-0.01497433427721262,0.014747208915650845,-0.0005872105830349028,0.015347338281571865
0.01786351390182972,-0.0001692895166343078,-0.014538243412971497,0.014503085054457188,-0.0005734680453315377,0.015152395702898502
0.018236402422189713,-0.0001641865965211764,-0.014592568390071392,0.014881988987326622,-0.000563131645321846,0.016691431403160095
0.017679447308182716,-0.00015934195835143328,-0.015158550813794136,0.0145990289747715,-0.0005518216639757156,0.015908706933259964
0.018252026289701462,-0.0001547748252050951,-0.015614895150065422,0.014603719115257263,-0.0005096420063637197,0.015871580690145493
0.018244003877043724,-0.00015046261250972748,-0.015111153945326805,0.014488046988844872,-0.000471622624900192,0.016172707080841064
0.018244003877043724,-0.00015046261250972748,-0.015111153945326805,0.014488046988844872,-0.000471622624900192,0.016172707080841064
0.018395505845546722,-0.0001388556120218709,-0.015204116702079773,0.015416908077895641,-0.00038509181467816234,0.016399703919887543
0.018395505845546722,-0.0001388556120218709,-0.015204116702079773,0.015416908077895641,-0.00038509181467816234,0.016399703919887543
0.018245019018650055,-0.00013537454651668668,-0.014925744384527206,0.014746167697012424,-0.0003628997947089374,0.016346117481589317
0.018415110185742378,-0.00015149329556152225,-0.015515773557126522,0.01519542746245861,-0.0003431264194659889,0.016352105885744095
0.018242310732603073,-0.00015036181139294058,-0.01493877824395895,0.014816971495747566,-0.00032539674430154264,0.01599041372537613
0.018364325165748596,-0.00014688933151774108,-0.015329091809689999,0.015116394497454166,-0.0003420316206756979,0.0158764086663723
0.018655497580766678,-0.0001435433077858761,-0.014759252779185772,0.014429971575737,-0.00033629866084083915,0.01641765423119068
0.01848459057509899,-0.0001403454371029511,-0.01514576468616724,0.015062632039189339,-0.0003219272766727954,0.01632726937532425
0.01856546849012375,-0.00013728704652749002,-0.014483853243291378,0.015105344355106354,-0.00030818814411759377,0.016230184584856033
0.01886933110654354,-0.00013435933215077966,-0.0152291189879179,0.015581212006509304,-0.000295539473881945,0.016653623431921005
0.018740851432085037,-0.00013155372289475054,-0.01426959503442049,0.015456556342542171,-0.000283884524833411,0.016643598675727844
0.019128208979964256,-0.00012886284093838185,-0.015138493850827217,0.01564260572195053,-0.0002731136337388307,0.017406506463885307
0.01951238140463829,-6.06727808190044e-05,-0.014760060235857964,0.015342634171247482,-0.00024198830942623317,0.017400814220309258
0.0189041867852211,-5.618234717985615e-05,-0.015214315615594387,0.015386350452899933,-0.0002111054927809164,0.017269987612962723
0.01852787844836712,-5.444792259368114e-05,-0.014923798851668835,0.016011236235499382,-0.00020042256801389158,0.0171490628272295
0.0187826044857502,-5.284903454594314e-05,-0.01508339587599039,0.01639402098953724,-0.00021055174875073135,0.016641808673739433
0.018830345943570137,-5.13415398017969e-05,-0.014804615639150143,0.0167156420648098,-0.0002194574917666614,0.016747282817959785
0.019595563411712646,-4.991778405383229e-05,-0.015360862948000431,0.015985766425728798,-0.00021198297326918691,0.016898339614272118
0.019101599231362343,-4.857080057263374e-05,-0.015023292973637581,0.01614009216427803,-0.000220697489567101,0.017476752400398254
0.01890072226524353,-4.729457577923313e-05,-0.01494937390089035,0.015403610654175282,-0.00022825741325505078,0.01728041097521782
0.019803276285529137,-4.6083769120741636e-05,-0.01508050411939621,0.015521337278187275,-0.00023674857220612466,0.0169965922832489
0.019797056913375854,-4.493346932576969e-05,-0.015211721882224083,0.015156855806708336,-0.00024330575251951814,0.017028851434588432
0.019797056913375854,-4.493346932576969e-05,-0.015211721882224083,0.015156855806708336,-0.00024330575251951814,0.017028851434588432
0.02008732035756111,-4.180289397481829e-05,-0.015209167264401913,0.015416857786476612,-0.0004340562445577234,0.01665867678821087
0.02008732035756111,-4.180289397481829e-05,-0.015209167264401913,0.015416857786476612,-0.0004340562445577234,0.01665867678821087
0.01919747330248356,-3.994736835011281e-05,-0.0156173100695014,0.014834797009825706,-0.00043669622391462326,0.01821538247168064
0.01944456249475479,-3.908014696207829e-05,-0.014900516718626022,0.015209375880658627,-0.00041542178951203823,0.015890033915638924
0.01944456249475479,-3.908014696207829e-05,-0.014900516718626022,0.015209375880658627,-0.00041542178951203823,0.015890033915638924
0.020368637517094612,-3.824970553978346e-05,-0.01540178619325161,0.015117346309125423,-0.0003901757299900055,0.01593773439526558
0.0199370626360178,-3.745386493392289e-05,-0.014813418500125408,0.015310750342905521,-0.0004162919067312032,0.01618961989879608
0.019870644435286522,-3.669041325338185e-05,-0.015393812209367752,0.014979791827499866,-0.00039654423017054796,0.016800256446003914
0.02005917951464653,-3.595746966311708e-05,-0.014817056246101856,0.015331726521253586,-0.00037679384695366025,0.01690857671201229
0.01998784765601158,-3.525330248521641e-05,-0.015468070283532143,0.014758467674255371,-0.00043927697697654366,0.017065363004803658
0.02052246779203415,-3.4576107282191515e-05,-0.015333598479628563,0.01514632161706686,-0.0004061271029058844,0.017162218689918518
0.02045387588441372,-3.3924461604328826e-05,-0.015411347150802612,0.01493739616125822,-0.00044214047375135124,0.017018089070916176
0.020359408110380173,-3.3296950277872384e-05,-0.015337131917476654,0.0153347821906209,-0.00041286327177658677,0.01729060709476471
0.020577529445290565,-3.2692223612684757e-05,-0.015505306422710419,0.015113198198378086,-0.00043081564945168793,0.01732398197054863
0.020507104694843292,-1.6273825167445466e-05,-0.015345991589128971,0.015319837257266045,-0.0004169470339547843,0.017515750601887703
0.020415961742401123,-1.577610419190023e-05,-0.015299925580620766,0.015114628709852695,-0.00039195307181216776,0.017619019374251366
0.020379966124892235,-1.5501538655371405e-05,-0.01574738509953022,0.015553554520010948,-0.00040788608021102846,0.017252665013074875
0.02064947411417961,-1.5239033018588088e-05,-0.015388796105980873,0.016088906675577164,-0.00039751597796566784,0.017478464171290398
0.02100307308137417,-1.4985294910729863e-05,-0.01574750617146492,0.015434463508427143,-0.00041502699605189264,0.01747463084757328
0.020749619230628014,-1.4739883226866368e-05,-0.01516660861670971,0.015309829264879227,-0.00041344211786054075,0.01753329299390316
0.02089129388332367,-1.450237505196128e-05,-0.015692178159952164,0.01520837377756834,-0.0004515919426921755,0.01758437417447567
0.02100883610546589,-1.427241659257561e-05,-0.014967069029808044,0.01586838625371456,-0.00048173326649703085,0.017667192965745926
0.020920701324939728,-1.4049604033061769e-05,-0.015661556273698807,0.015834184363484383,-0.0005033385823480785,0.017840176820755005
0.020768385380506516,-1.3833649973093998e-05,-0.015157654881477356,0.01596783474087715,-0.0006583360955119133,0.017810381948947906
0.02103882096707821,-1.5901138112894841e-06,-0.015861641615629196,0.015298760496079922,-0.0007857138407416642,0.017668770626187325
0.02116595208644867,-2.1333407929091663e-08,-0.01563999056816101,0.015706708654761314,-0.0007479419582523406,0.018065981566905975
0.02119315229356289,-2.862148851257018e-10,-0.01599643938243389,0.015681400895118713,-0.0006609169649891555,0.017964277416467667
0.02119315229356289,-2.862148851257018e-10,-0.01599643938243389,0.015681400895118713,-0.0006609169649891555,0.017964277416467667
0.02097882144153118,-3.839937916250147e-12,-0.016704561188817024,0.016033835709095,-0.0005889973253943026,0.017884768545627594
0.021233541890978813,-5.151767209989229e-14,-0.015843097120523453,0.01567997969686985,-0.0006130939582362771,0.01809641160070896
0.02110155113041401,-9.27299906918486e-18,-0.015298045240342617,0.01521113608032465,-0.0005717986496165395,0.01811445876955986
0.021283697336912155,-1.2440912735071176e-19,-0.016118083149194717,0.01528310775756836,-0.0005452995537780225,0.018271464854478836
0.02165208011865616,-1.6691071937480727e-21,-0.015703124925494194,0.015163712203502655,-0.0005079095717519522,0.018416058272123337
0.020937560126185417,-2.23932036121698e-23,-0.01622297242283821,0.015040661208331585,-0.00045373820466920733,0.018710866570472717
0.021412210538983345,-3.004334109741535e-25,-0.015834925696253777,0.015507787466049194,-0.00040761695709079504,0.019370699301362038
0.021394673734903336,-4.030697891550382e-27,-0.016338195651769638,0.015346625819802284,-0.0003734265046659857,0.017874667420983315
0.022614145651459694,-5.407695912810965e-29,-0.015801534056663513,0.015608957037329674,-0.00040884630288928747,0.017609212547540665
0.021999720484018326,-7.255114928049153e-31,-0.015070882625877857,0.015503617003560066,-0.0004150148306507617,0.018054023385047913
0.021628055721521378,-9.73366333956869e-33,-0.015938546508550644,0.015885088592767715,-0.00041632744250819087,0.018431585282087326
0.01981315203011036,-1.3058951304424954e-34,-0.016027316451072693,0.01539253257215023,-0.0003922772011719644,0.018881822004914284
0.02195018343627453,-1.7520248607017126e-36,-0.016211040318012238,0.015588915906846523,-0.00041849998524412513,0.018801726400852203
0.022606035694479942,-2.3505650891188096e-38,-0.01612912118434906,0.015593234449625015,-0.00039853781345300376,0.01899281144142151
0.02189614437520504,-3.153580155009071e-40,-0.01656835712492466,0.01606719382107258,-0.00044676504330709577,0.01912027969956398
0.021184958517551422,-4.230520063796623e-42,-0.015726104378700256,0.016130829229950905,-0.0004280588764231652,0.01862409897148609
0.02258905954658985,-5.74532370373175e-44,-0.016431385651230812,0.01576841063797474,-0.00046513922279700637,0.018111111596226692
0.022014999762177467,-1.401298464324817e-45,-0.01580454409122467,0.015824388712644577,-0.0004676331882365048,0.018150385469198227
0.02187729999423027,-0.0,-0.01646333560347557,0.015480341389775276,-0.0004976458731107414,0.018637053668498993
0.021932406350970268,0.0,-0.01564376801252365,0.015850193798542023,-0.000495151849463582,0.018883217126131058
0.02204870991408825,0.0,-0.015755554661154747,0.015696726739406586,-0.0006309088203124702,0.019152255728840828
0.02204870991408825,0.0,-0.015755554661154747,0.015696726739406586,-0.0006309088203124702,0.019152255728840828
0.02152097597718239,0.0,-0.015845322981476784,0.016165297478437424,-0.0006376472301781178,0.01878037489950657
0.02152097597718239,0.0,-0.015845322981476784,0.016165297478437424,-0.0006376472301781178,0.01878037489950657
0.022746151313185692,0.0,-0.01604483835399151,0.01635706052184105,-0.0006032850942574441,0.019115163013339043
0.022746151313185692,0.0,-0.01604483835399151,0.01635706052184105,-0.0006032850942574441,0.019115163013339043
0.022350911051034927,0.0,-0.016271695494651794,0.015956539660692215,-0.0005518132238648832,0.019202502444386482
0.022150473669171333,0.0,-0.01620854064822197,0.015798022970557213,-0.0005274714785628021,0.018518932163715363
0.022113846614956856,0.0,-0.01617174781858921,0.016092978417873383,-0.0005000227247364819,0.01845012605190277
0.022843874990940094,0.0,-0.01580878533422947,0.01563178189098835,-0.0004808983067050576,0.018619030714035034
0.022932538762688637,0.0,-0.016451340168714523,0.015570597723126411,-0.00043645722325891256,0.018796412274241447
0.02234729751944542,0.0,-0.016054049134254456,0.015276498161256313,-0.0003979603061452508,0.01932884007692337
0.022428227588534355,0.0,-0.016516877338290215,0.015682846307754517,-0.00036560333683155477,0.01921875588595867
0.023158635944128036,0.0,-0.01624452881515026,0.016081085428595543,-0.0003708885342348367,0.019500941038131714
0.023053577169775963,0.0,-0.016637852415442467,0.01600310206413269,-0.0003750848991330713,0.01979002170264721
0.022792357951402664,0.0,-0.016572553664445877,0.016272922977805138,-0.00035254715476185083,0.019356893375515938
0.023019978776574135,0.0,-0.015883630141615868,0.015819258987903595,-0.0003578971663955599,0.01950397901237011
0.022890858352184296,0.0,-0.016447924077510834,0.01572415418922901,-0.00036206754157319665,0.02066034823656082
0.022944780066609383,0.0,-0.015581666491925716,0.015211166813969612,-0.00036786997225135565,0.018863869830965996
0.02317165583372116,0.0,-0.016561182215809822,0.015810823068022728,-0.00037116557359695435,0.018570536747574806
0.02350395731627941,0.0,-0.016319328919053078,0.015920279547572136,-0.00035529243177734315,0.019097017124295235
0.02295038104057312,0.00018261023797094822,-0.016324345022439957,0.016522470861673355,-0.0003497264988254756,0.018834222108125687
0.022788155823946,0.00018030928913503885,-0.016581295058131218,0.01602049171924591,-0.0003258344659116119,0.018942328169941902
0.02331973798573017,0.00017342744104098529,-0.016273707151412964,0.016093429177999496,-0.00036043504951521754,0.01914840191602707
0.023865317925810814,0.00016699204570613801,-0.016844812780618668,0.016219813376665115,-0.00034133653389289975,0.019162338227033615
0.02333594299852848,0.00016101697110570967,-0.01577889733016491,0.01629805378615856,-0.0003710905439220369,0.01941644586622715
0.023214071989059448,0.00015545451606158167,-0.016385234892368317,0.016383720561861992,-0.00039077523979358375,0.019530121237039566
0.023379072546958923,0.00017000017396640033,-0.016172083094716072,0.015943368896842003,-0.0003819198173005134,0.01955636963248253
0.023745747283101082,0.00017435122572351247,-0.016638213768601418,0.016383709385991096,-0.0004606596485245973,0.019726857542991638
0.023524079471826553,0.0001690257922746241,-0.017132926732301712,0.015792587772011757,-0.0005505859735421836,0.01963806338608265
0.023878952488303185,0.00018800045654643327,-0.016183145344257355,0.01602647639811039,-0.0005448522279039025,0.0196820218116045
0.023859325796365738,0.00018553821428213269,-0.016327980905771255,0.016492312774062157,-0.0005693387938663363,0.019855603575706482
0.023805266246199608,0.00018027008627541363,-0.01580565609037876,0.015683483332395554,-0.0005679631722159684,0.02012617699801922
0.023805266246199608,0.00018027008627541363,-0.01580565609037876,0.015683483332395554,-0.0005679631722159684,0.02012617699801922
0.023578932508826256,0.00019928417168557644,-0.016513172537088394,0.01531315129250288,-0.0005579967983067036,0.01988852396607399
0.024564189836382866,0.00019040345796383917,-0.016357114538550377,0.01644284464418888,-0.0006978343590162694,0.02021617256104946
0.02486215904355049,0.0002821385860443115,-0.016785889863967896,0.01578947901725769,-0.000667184533085674,0.021094704046845436
0.024866756051778793,0.00031379706342704594,-0.01665709912776947,0.015801146626472473,-0.000596975558437407,0.02058068849146366
0.024242999032139778,0.0003021775046363473,-0.017239924520254135,0.01548855472356081,-0.000614773656707257,0.02047223411500454
0.024243846535682678,0.00028623847174458206,-0.015794161707162857,0.016410043463110924,-0.0005696183070540428,0.019926082342863083
0.023386389017105103,0.00031649431912228465,-0.01680590771138668,0.01629956252872944,-0.0005923676071688533,0.019863974303007126
0.0239347442984581,0.00030192668782547116,-0.016342539340257645,0.016337580978870392,-0.000551533536054194,0.020012855529785156
0.02463015541434288,0.00032440535142086446,-0.01636567898094654,0.016163134947419167,-0.0005243246559984982,0.020121565088629723
0.024564018473029137,0.0003148182586301118,-0.016750236973166466,0.015884222462773323,-0.0004731242370326072,0.020388608798384666
0.02378128282725811,0.00030298446654342115,-0.01650157943367958,0.01620396226644516,-0.0004282914742361754,0.01963619701564312
0.02440679259598255,0.0004444084770511836,-0.01680705137550831,0.016043247655034065,-0.0004636642406694591,0.019922718405723572
0.025239814072847366,0.00048443645937368274,-0.016357487067580223,0.01637614518404007,-0.00048413651529699564,0.0202545877546072
0.024716433137655258,0.0005129816709086299,-0.016686808317899704,0.016554825007915497,-0.0005140075809322298,0.02085503563284874
0.024765700101852417,0.00048196499119512737,-0.016566410660743713,0.016581756994128227,-0.000581498141400516,0.02084183506667614
0.02454124391078949,0.000509115750901401,-0.017172636464238167,0.016419745981693268,-0.0005895589711144567,0.02066289633512497
0.02446303516626358,0.00047851220006123185,-0.017538750544190407,0.016258856281638145,-0.0006236053304746747,0.020212268456816673
0.024269163608551025,0.0006375624798238277,-0.01726813055574894,0.017015937715768814,-0.0006103233899921179,0.021352598443627357
0.02485797367990017,0.000659456301946193,-0.017143921926617622,0.016839973628520966,-0.0005939428810961545,0.019915789365768433
0.02442091703414917,0.0005984787130728364,-0.016728466376662254,0.01650780253112316,-0.0006175455637276173,0.020309552550315857
0.02479952573776245,0.0006248755962587893,-0.017062921077013016,0.015603232197463512,-0.0006849917699582875,0.020671678707003593
0.025026164948940277,0.0005715792067348957,-0.01695527881383896,0.015977831557393074,-0.0007372364052571356,0.02105795592069626
0.024986952543258667,0.0005978350527584553,-0.016693824902176857,0.015828417614102364,-0.0007167262374423444,0.020602868869900703
0.024986952543258667,0.0005978350527584553,-0.016693824902176857,0.015828417614102364,-0.0007167262374423444,0.020602868869900703
0.02487642876803875,0.0006155887385830283,-0.017208414152264595,0.01559743657708168,-0.0006868552300147712,0.02028067596256733
0.02475767955183983,0.0006690733716823161,-0.017139675095677376,0.016310645267367363,-0.000664933177176863,0.02023402601480484
0.024713872000575066,0.0006953406264074147,-0.01728610321879387,0.017332030460238457,-0.0006625588284805417,0.0208288561552763
0.024402644485235214,0.0006641463842242956,-0.016418887302279472,0.01667204312980175,-0.0006011267541907728,0.020440643653273582
0.02479683980345726,0.0008448872831650078,-0.016872785985469818,0.01646357774734497,-0.0006302361143752933,0.02053654007613659
0.024747423827648163,0.0008553958614356816,-0.01612229458987713,0.01599818654358387,-0.0005701550398953259,0.020902207121253014
0.024907974526286125,0.0008614405523985624,-0.017075762152671814,0.015494143590331078,-0.0005900633404962718,0.02109498716890812
0.02526215836405754,0.0008629775838926435,-0.017167840152978897,0.015680672600865364,-0.0005487058078870177,0.021009353920817375
0.024875065311789513,0.0008980193524621427,-0.017105497419834137,0.01580256037414074,-0.0005582874291576445,0.021418051794171333
0.024689143523573875,0.0009029196226038039,-0.017341528087854385,0.01641734503209591,-0.0005333820590749383,0.02133191004395485
0.02555597573518753,0.000986014143563807,-0.01657472550868988,0.016482235863804817,-0.000527305353898555,0.02103661559522152
0.025311900302767754,0.0011074731592088938,-0.017018945887684822,0.01665525697171688,-0.0005293573485687375,0.02109535224735737
0.025196116417646408,0.0012823139550164342,-0.016877945512533188,0.016140971332788467,-0.0005208229995332658,0.02134481817483902
0.025139810517430305,0.0012177946045994759,-0.017321255058050156,0.016409404575824738,-0.0005461229593493044,0.02104354463517666
0.02526549994945526,0.0011073407949879766,-0.017392735928297043,0.016375994309782982,-0.0005466780858114362,0.02111835777759552
0.0249248705804348,0.0012162517523393035,-0.01714007556438446,0.016682321205735207,-0.0005386295961216092,0.02181563526391983
0.025914723053574562,0.0011591408401727676,-0.017229732125997543,0.01687818020582199,-0.0006416153046302497,0.02162725292146206
0.025042304769158363,0.0011328071122989058,-0.017079532146453857,0.015720633789896965,-0.0006609495612792671,0.021729758009314537
0.02573288045823574,0.0012876606779173017,-0.017260150983929634,0.0165438000112772,-0.0006372492061927915,0.02163495495915413
0.024523861706256866,0.0013476600870490074,-0.017023354768753052,0.015829669311642647,-0.0006190232816152275,0.021808085963129997
0.02515222132205963,0.001494245370849967,-0.01679583080112934,0.01578732766211033,-0.0006013924139551818,0.021627962589263916
0.025783611461520195,0.0015870031202211976,-0.01747891493141651,0.015654778108000755,-0.0005514284130185843,0.021590083837509155
0.025866765528917313,0.0014994250377640128,-0.01714434288442135,0.015811225399374962,-0.0005071715568192303,0.021294012665748596
0.025567060336470604,0.0017379263881593943,-0.017014579847455025,0.016388079151511192,-0.0005316872266121209,0.02183034084737301
0.025567060336470604,0.0017379263881593943,-0.017014579847455025,0.016388079151511192,-0.0005316872266121209,0.02183034084737301
0.025616319850087166,0.001958245877176523,-0.017276136204600334,0.01638214662671089,-0.0004988903529010713,0.02233767695724964
0.026443032547831535,0.002029872266575694,-0.01719684712588787,0.016319802030920982,-0.00046874399413354695,0.022512251511216164
0.025698617100715637,0.0019046207889914513,-0.017353402450680733,0.015902884304523468,-0.0004711459332611412,0.022166740149259567
0.02566548064351082,0.001875828136689961,-0.017054397612810135,0.016214152798056602,-0.0005321052158251405,0.022757308557629585
0.02566548064351082,0.001875828136689961,-0.017054397612810135,0.016214152798056602,-0.0005321052158251405,0.022757308557629585
0.026723582297563553,0.001788671943359077,-0.016897911205887794,0.016148511320352554,-0.0008315512677654624,0.022364813834428787
0.026768701151013374,0.0022673506755381823,-0.017378700897097588,0.016249826177954674,-0.0008159253047779202,0.022141989320516586
0.02642010524868965,0.0023372177965939045,-0.016585025936365128,0.0164483655244112,-0.000765201635658741,0.0221469234675169
0.026306992396712303,0.0022669488098472357,-0.017044557258486748,0.016299370676279068,-0.0006738037336617708,0.02250373177230358
0.02612965926527977,0.002129463478922844,-0.01673484779894352,0.01639876514673233,-0.0006849572528153658,0.02199322171509266
0.026475895196199417,0.002039482584223151,-0.017086103558540344,0.0158078670501709,-0.0006282101385295391,0.022281287238001823
0.026602735742926598,0.002171505009755492,-0.017264127731323242,0.01653127558529377,-0.0006477148272097111,0.023278644308447838
0.024993253871798515,0.0020318683236837387,-0.01673216186463833,0.016846399754285812,-0.0005914903013035655,0.023538269102573395
0.027135470882058144,0.002488038269802928,-0.01761944778263569,0.017128698527812958,-0.0005196784622967243,0.022251591086387634
0.02689608559012413,0.002785760210826993,-0.017210517078638077,0.017038995400071144,-0.0004655861121136695,0.02133706957101822
0.026944098994135857,0.0028363210149109364,-0.017158953472971916,0.016655489802360535,-0.0004945077234879136,0.02209661528468132
0.027227269485592842,0.0026389467529952526,-0.017378762364387512,0.01691010408103466,-0.000499305606354028,0.023517660796642303
0.0272164698690176,0.0025585193652659655,-0.01724911853671074,0.016374729573726654,-0.0004946158733218908,0.02328859642148018
0.02741742879152298,0.0026547047309577465,-0.017549680545926094,0.016546158120036125,-0.000517527456395328,0.022786464542150497
0.02745867893099785,0.0025519980117678642,-0.017714863643050194,0.016759922727942467,-0.0004908322589471936,0.022853082045912743
0.027881678193807602,0.002739771269261837,-0.01765122264623642,0.016534453257918358,-0.0005430376040749252,0.02419140934944153
0.028031963855028152,0.0029163076542317867,-0.017809037119150162,0.016613800078630447,-0.0005382674280554056,0.023943167179822922
0.027782557532191277,0.0028950562700629234,-0.017347276210784912,0.01617591269314289,-0.0005284075741656125,0.02309824526309967
0.028034517541527748,0.003148187417536974,-0.017425591126084328,0.016378872096538544,-0.0005587188643403351,0.02239091321825981
0.028326619416475296,0.002868215087801218,-0.01706119067966938,0.01609627716243267,-0.0005865946295671165,0.02288062311708927
0.028326619416475296,0.002868215087801218,-0.01706119067966938,0.01609627716243267,-0.0005865946295671165,0.02288062311708927
0.028281845152378082,0.0030745412223041058,-0.018053647130727768,0.016506070271134377,-0.0007090171566233039,0.02375313639640808
0.02841929905116558,0.0034815280232578516,-0.018762953579425812,0.016840623691678047,-0.000757112808059901,0.02391166239976883
0.028278913348913193,0.0032835472375154495,-0.017908379435539246,0.016846103593707085,-0.0006927209906280041,0.02356117032468319
0.028702860698103905,0.0028792275115847588,-0.01833387091755867,0.017240062355995178,-0.0007112348102964461,0.023856021463871002
0.028934530913829803,0.0030625315848737955,-0.01774231530725956,0.017224464565515518,-0.0006685670814476907,0.023769725114107132
0.029604675248265266,0.003262670012190938,-0.018567577004432678,0.017003722488880157,-0.0006876203697174788,0.023692887276411057
0.029487432911992073,0.003264499129727483,-0.018134353682398796,0.016562778502702713,-0.0006608670810237527,0.02376067452132702
0.029310118407011032,0.0033686833921819925,-0.017988216131925583,0.016929563134908676,-0.0006346133886836469,0.024118999019265175
0.029576007276773453,0.003646580269560218,-0.018777508288621902,0.0162994172424078,-0.0005708234966732562,0.023988686501979828
0.0304331723600626,0.003359738038852811,-0.017586523666977882,0.016504069790244102,-0.0005793479504063725,0.02394118160009384
0.03069169446825981,0.0034931721165776253,-0.017864586785435677,0.017422664910554886,-0.0005483116256073117,0.024431804195046425
0.027933429926633835,0.00374109810218215,-0.018519407138228416,0.016741937026381493,-0.0005726555828005075,0.024344706907868385
0.029284643009305,0.003382281167432666,-0.017983518540859222,0.016420062631368637,-0.0005620982847176492,0.024065308272838593
0.03012368641793728,0.0034406238701194525,-0.018804168328642845,0.016295721754431725,-0.0005857775686308742,0.024299588054418564
0.030049586668610573,0.0035480125807225704,-0.018720747902989388,0.01695147156715393,-0.0005497999954968691,0.02461051382124424
0.030219484120607376,0.0037079218309372663,-0.017993846908211708,0.01708868145942688,-0.0005777633632533252,0.024348195642232895
0.030872458592057228,0.004274692386388779,-0.018307361751794815,0.017650818452239037,-0.000533913669642061,0.024416234344244003
0.030687324702739716,0.004047720693051815,-0.018647590652108192,0.017246898263692856,-0.0005441213143058121,0.024416523054242134
0.029844798147678375,0.0038749887607991695,-0.018324561417102814,0.016870712861418724,-0.0005207941285334527,0.023878812789916992
0.02912607230246067,0.003868572413921356,-0.018365267664194107,0.017175694927573204,-0.0005777477636002004,0.02409292757511139
0.030079657211899757,0.004377999342978001,-0.017847152426838875,0.016804426908493042,-0.0005410551675595343,0.023746691644191742
0.030821077525615692,0.004151743371039629,-0.018336096778512,0.016973551362752914,-0.0005681951297447085,0.02427656389772892
0.030577268451452255,0.004235855303704739,-0.018692772835493088,0.01685078628361225,-0.0005243977066129446,0.025159835815429688
0.03031862899661064,0.004294949118047953,-0.01806667260825634,0.017131144180893898,-0.0005370592698454857,0.025030452758073807
0.03031862899661064,0.004294949118047953,-0.01806667260825634,0.017131144180893898,-0.0005370592698454857,0.025030452758073807
0.030787605792284012,0.004422258120030165,-0.018396621569991112,0.01717682182788849,-0.0005115414969623089,0.02448532171547413
0.03069894388318062,0.004590101074427366,-0.018501127138733864,0.01674713008105755,-0.0005326748359948397,0.023911910131573677
0.030933255329728127,0.0044739022850990295,-0.01834258995950222,0.016648486256599426,-0.0005363689851947129,0.02444070391356945
0.030938556417822838,0.004626928362995386,-0.01803855411708355,0.016669802367687225,-0.0005743740475736558,0.0252994317561388
0.03092428483068943,0.004566183313727379,-0.017972035333514214,0.016496391966938972,-0.0006000993889756501,0.025009727105498314
0.030889756977558136,0.004747501574456692,-0.01835600845515728,0.016966359689831734,-0.0006160183111205697,0.025388896465301514
0.031249409541487694,0.005125374533236027,-0.018001873046159744,0.0176149383187294,-0.000585023604799062,0.025329632684588432
0.030994802713394165,0.004647355526685715,-0.018201913684606552,0.017801502719521523,-0.0008113550720736384,0.02518535777926445
0.03126869723200798,0.0046108500100672245,-0.01871347427368164,0.018079493194818497,-0.0007741531007923186,0.024980327114462852
0.03084423951804638,0.0049428921192884445,-0.01806103065609932,0.017843913286924362,-0.0007866353262215853,0.02434713765978813
0.02958998829126358,0.004925443325191736,-0.018508167937397957,0.017087789252400398,-0.0007791707757860422,0.024614961817860603
0.03170677646994591,0.005261087324470282,-0.018127745017409325,0.017089001834392548,-0.0007237773388624191,0.025565985590219498
0.032526593655347824,0.005281581077724695,-0.018003540113568306,0.016796058043837547,-0.000712810899131,0.02571967989206314
0.03266964852809906,0.004620404448360205,-0.018776820972561836,0.016905007883906364,-0.0006635250756517053,0.025653088465332985
0.03135104849934578,0.0046088905073702335,-0.018451858311891556,0.0170674379914999,-0.0005813055904582143,0.02543431892991066
0.03105102851986885,0.004967927932739258,-0.018501007929444313,0.01762467995285988,-0.000610272865742445,0.025454379618167877
0.03204798698425293,0.004890188109129667,-0.018585944548249245,0.017970353364944458,-0.0005982847069390118,0.02547200210392475
0.03223665803670883,0.005357894115149975,-0.018234282732009888,0.01754671148955822,-0.0005832830793224275,0.025464575737714767
0.03195597231388092,0.006014121696352959,-0.018942732363939285,0.01784072071313858,-0.0005362431984394789,0.02549535408616066
0.032577261328697205,0.0054191239178180695,-0.019154077395796776,0.018282834440469742,-0.000494304986204952,0.025696689262986183
0.032126884907484055,0.0045685311779379845,-0.01807360164821148,0.01815701276063919,-0.0005191898089833558,0.026078833267092705
0.03123290464282036,0.004938851576298475,-0.01862272247672081,0.01832541450858116,-0.0004889588453806937,0.025909006595611572
0.031247228384017944,0.005074209533631802,-0.019077878445386887,0.0176863931119442,-0.0004879270272795111,0.02625538595020771
0.032064832746982574,0.005425041075795889,-0.018867775797843933,0.01673685945570469,-0.0005223574698902667,0.026172468438744545
0.03221308812499046,0.005560244433581829,-0.019440477713942528,0.016841448843479156,-0.000517469656188041,0.02731258235871792
0.03221308812499046,0.005560244433581829,-0.019440477713942528,0.016841448843479156,-0.000517469656188041,0.02731258235871792
0.03194882348179817,0.005020368378609419,-0.019337238743901253,0.0162649042904377,-0.0005397266941145062,0.025578055530786514
0.03229084238409996,0.005151594989001751,-0.018483968451619148,0.016630014404654503,-0.0005105638410896063,0.025223592296242714
0.03167097270488739,0.0051442296244204044,-0.018497006967663765,0.017127884551882744,-0.0007169467280618846,0.02596479281783104
0.031774166971445084,0.005825540982186794,-0.01891207881271839,0.017143119126558304,-0.00074913224671036,0.026293914765119553
0.032247453927993774,0.004826563410460949,-0.019914742559194565,0.016574956476688385,-0.0006920642335899174,0.026385238394141197
0.032357536256313324,0.0026767426170408726,-0.019582487642765045,0.016979066655039787,-0.000624974025413394,0.02628391794860363
0.032473694533109665,0.0022616563364863396,-0.018594544380903244,0.017041556537151337,-0.0006440019351430237,0.026270724833011627
0.03267737850546837,0.002051315736025572,-0.019493447616696358,0.017635798081755638,-0.000623589672613889,0.026289651170372963
0.03281165286898613,0.003153120866045356,-0.019819771870970726,0.017947042360901833,-0.0005763217923231423,0.026233848184347153
0.032249756157398224,0.0039409855380654335,-0.01934291049838066,0.01724812388420105,-0.0006077021243982017,0.02616960182785988
0.03296460583806038,0.003860779106616974,-0.018815206363797188,0.01800358109176159,-0.0006310443859547377,0.026281464844942093
0.032848846167325974,0.0036723725497722626,-0.019103020429611206,0.017746301367878914,-0.0006555903237313032,0.026444047689437866
0.032559335231781006,0.003130677854642272,-0.019066980108618736,0.017079906538128853,-0.0007356317946687341,0.026624301448464394
0.03301453962922096,0.003052235348150134,-0.01979784667491913,0.017266280949115753,-0.0007373779662884772,0.0267929844558239
0.033371806144714355,0.003405441762879491,-0.018951132893562317,0.016657495871186256,-0.0007587448344565928,0.02651672065258026
0.033073339611291885,0.003481455845758319,-0.018829386681318283,0.017381953075528145,-0.0007539614452980459,0.02663569338619709
0.033286202698946,0.0034517385065555573,-0.020235935226082802,0.017573963850736618,-0.0006959959282539785,0.027340015396475792
0.03346022218465805,0.003172852797433734,-0.02011098526418209,0.01754624955356121,-0.0007114126929081976,0.027587540447711945
0.03319403529167175,0.00292557617649436,-0.019449403509497643,0.017309945076704025,-0.0006524258060380816,0.02675742469727993
0.03370823711156845,0.002880730200558901,-0.019549349322915077,0.01722441427409649,-0.0006243007373996079,0.025781691074371338
0.03407653421163559,0.00290352338925004,-0.019384639337658882,0.017880335450172424,-0.0005591340595856309,0.026017075404524803
0.03405452519655228,0.003342871554195881,-0.01945560984313488,0.018140733242034912,-0.00057062110863626,0.027345973998308182
0.033746495842933655,0.003702575108036399,-0.02025200054049492,0.017681056633591652,-0.0005362305091693997,0.027249889448285103
0.03402680531144142,0.0033377744257450104,-0.020402781665325165,0.01758013851940632,-0.0004890753189101815,0.027236931025981903
0.034845076501369476,0.002995262388139963,-0.019865205511450768,0.01662193424999714,-0.0005179360159672797,0.028387201949954033
0.0358717180788517,0.0029577428940683603,-0.019838623702526093,0.016741322353482246,-0.0005334294983185828,0.027903323993086815
0.0358717180788517,0.0029577428940683603,-0.019838623702526093,0.016741322353482246,-0.0005334294983185828,0.027903323993086815
0.03384052589535713,0.0033108890056610107,-0.020314758643507957,0.016883647069334984,-0.0005132001242600381,0.026390817016363144
0.03370009362697601,0.0037214690819382668,-0.020036598667502403,0.016618937253952026,-0.0005325950914993882,0.02682623080909252
0.03495682030916214,0.0038846395909786224,-0.019807394593954086,0.016988040879368782,-0.0006163576035760343,0.027819251641631126
0.03570251539349556,0.003561844350770116,-0.020556122064590454,0.01751149818301201,-0.0006283100228756666,0.02794666960835457
0.035343606024980545,0.003760451916605234,-0.019810350611805916,0.017767250537872314,-0.0007387786754406989,0.02713204175233841
0.03464742377400398,0.0037757146637886763,-0.020145820453763008,0.018297787755727768,-0.0007614852511323988,0.027549592778086662
0.03434117138385773,0.0037163859233260155,-0.020596325397491455,0.019022881984710693,-0.0007813636912032962,0.02749788574874401
0.03533906117081642,0.0036845137365162373,-0.020009122788906097,0.018666014075279236,-0.0007449222030118108,0.027812957763671875
0.03631308302283287,0.004188786260783672,-0.019972307607531548,0.018446575850248337,-0.0007102448143996298,0.027835996821522713
0.035106461495161057,0.004109004978090525,-0.020234301686286926,0.018840843811631203,-0.0007080670329742134,0.02783392369747162
0.03626002371311188,0.003480936400592327,-0.019716059789061546,0.017785733565688133,-0.0006635596510022879,0.0279469583183527
0.03631514683365822,0.00386956799775362,-0.019641149789094925,0.017654109746217728,-0.0006224370445124805,0.027922319248318672
0.035743825137615204,0.004194391425698996,-0.02046920731663704,0.017813876271247864,-0.0006070068920962512,0.028075212612748146
0.03617887571454048,0.004047064576297998,-0.020681971684098244,0.017725715413689613,-0.0005885744467377663,0.028277043253183365
0.03612927719950676,0.0038298852741718292,-0.020263558253645897,0.0186748206615448,-0.000616008008364588,0.02840927243232727
0.036000460386276245,0.0040219854563474655,-0.020395932719111443,0.018762653693556786,-0.0006254681502468884,0.028372660279273987
0.03630046173930168,0.0040497551672160625,-0.020651431754231453,0.01851162500679493,-0.0005935298395343125,0.02842075563967228
0.03611922636628151,0.004377809353172779,-0.02035353146493435,0.018672514706850052,-0.0006878808490000665,0.028180919587612152
0.03610077500343323,0.004691764246672392,-0.020463760942220688,0.01822449453175068,-0.0007113093161024153,0.02873217687010765
0.03608792647719383,0.00476839067414403,-0.02066073752939701,0.018345773220062256,-0.0007334525580517948,0.028872579336166382
0.03759279474616051,0.004450931679457426,-0.020932406187057495,0.018544206395745277,-0.0007387606310658157,0.029024925082921982
0.036901894956827164,0.004251856356859207,-0.020180758088827133,0.0178640428930521,-0.0006982302293181419,0.028672803193330765
0.03528573736548424,0.004497840069234371,-0.02095143124461174,0.018095722422003746,-0.0008782792137935758,0.028751984238624573
0.03683716058731079,0.004663056693971157,-0.021101031452417374,0.01825566031038761,-0.0009087820071727037,0.029643988236784935
0.03708308935165405,0.004640584345906973,-0.02121015638113022,0.018044589087367058,-0.0009260051301680505,0.029987532645463943
0.03714756295084953,0.004696359392255545,-0.020939165726304054,0.01860813982784748,-0.0012602893402799964,0.02910451591014862
0.03780963644385338,0.005019673611968756,-0.021484840661287308,0.018586566671729088,-0.0011661415919661522,0.02796817757189274
0.03790191188454628,0.0049618203192949295,-0.021239345893263817,0.01837477833032608,-0.0010488630505278707,0.028434783220291138
0.03516364470124245,0.0047384751960635185,-0.02015206590294838,0.018680710345506668,-0.0010135263437405229,0.029161905869841576
0.03516364470124245,0.0047384751960635185,-0.02015206590294838,0.018680710345506668,-0.0010135263437405229,0.029161905869841576
0.036774106323719025,0.004744647070765495,-0.020473698154091835,0.01839602179825306,-0.0009015505202114582,0.02873588725924492
0.03806612640619278,0.005149353761225939,-0.022614264860749245,0.018341761082410812,-0.000801934627816081,0.02943895384669304
0.03746671602129936,0.005327403079718351,-0.019732696935534477,0.01798824779689312,-0.0005715660518035293,0.029626304283738136
0.037062082439661026,0.005128779448568821,-0.02090580388903618,0.01846013031899929,-0.0005067365127615631,0.028983479365706444
0.03735781088471413,0.004915721248835325,-0.02216668799519539,0.018408620730042458,-0.0005336821195669472,0.028384879231452942
0.037137821316719055,0.005321366246789694,-0.02209852635860443,0.018018199130892754,-0.0004953104653395712,0.02960062026977539
0.037441980093717575,0.005242799408733845,-0.020501287654042244,0.018235960975289345,-0.0005246206419542432,0.031031694263219833
0.03771212324500084,0.005827547982335091,-0.021514343097805977,0.018104350194334984,-0.0005398164503276348,0.03056621551513672
0.037437692284584045,0.0052046095952391624,-0.021305933594703674,0.01786799542605877,-0.0005172388628125191,0.029973672702908516
0.03780858963727951,0.004861032124608755,-0.021150900050997734,0.018007852137088776,-0.0005194272380322218,0.03019191324710846
0.037990957498550415,0.005115597043186426,-0.021316183730959892,0.018078772351145744,-0.000605038192588836,0.029781872406601906
0.03780768811702728,0.005262613296508789,-0.02161485329270363,0.01840868405997753,-0.0006361545529216528,0.02995576523244381
0.037445127964019775,0.005563409999012947,-0.02153627946972847,0.018064673990011215,-0.0008869438315741718,0.03028150089085102
0.036985352635383606,0.0053364988416433334,-0.021404927596449852,0.018255844712257385,-0.0011088245082646608,0.030503634363412857
0.03839542344212532,0.005331267137080431,-0.021143844351172447,0.01884671486914158,-0.0011726360535249114,0.0306811835616827
0.03849983960390091,0.004840586334466934,-0.021229568868875504,0.018494578078389168,-0.001078128581866622,0.03044901415705681
0.03801653906702995,0.005085199140012264,-0.021592147648334503,0.01810009963810444,-0.0010634297505021095,0.030091209337115288
0.037783633917570114,0.005578696262091398,-0.021305054426193237,0.018193326890468597,-0.0009542240295559168,0.030523989349603653
0.03804542496800423,0.005615560803562403,-0.021060694009065628,0.017792439088225365,-0.0008711590780876577,0.030736055225133896
0.0384199321269989,0.005644455552101135,-0.021528737619519234,0.018145443871617317,-0.0008614587131887674,0.030702661722898483
0.03863612189888954,0.005095232743769884,-0.02198963426053524,0.018580948933959007,-0.0008234155829995871,0.03089071437716484
0.038298770785331726,0.004862033296376467,-0.0210929736495018,0.018113121390342712,-0.0007832354167476296,0.03118298575282097
0.03843780606985092,0.005457109306007624,-0.021415729075670242,0.017919745296239853,-0.0007278947741724551,0.030820196494460106
0.03817840293049812,0.005291857291013002,-0.021449461579322815,0.017941150814294815,-0.0007741902954876423,0.03123410791158676
0.03896493837237358,0.005753303878009319,-0.02166810631752014,0.018073009327054024,-0.0008035087957978249,0.031214473769068718
0.04008270427584648,0.005119665060192347,-0.021150631830096245,0.018334046006202698,-0.0012226258404552937,0.031207090243697166
0.038224007934331894,0.004590151831507683,-0.02123630791902542,0.018206054344773293,-0.0012592111015692353,0.030338862910866737
0.037607479840517044,0.004711193963885307,-0.0214447733014822,0.01799953356385231,-0.0012242607772350311,0.03162170201539993
0.03903531655669212,0.00536817591637373,-0.021551862359046936,0.01828671805560589,-0.0011943450663238764,0.03140503913164139
0.03903531655669212,0.00536817591637373,-0.021551862359046936,0.01828671805560589,-0.0011943450663238764,0.03140503913164139
0.03923521935939789,0.005290444474667311,-0.02092568390071392,0.018077809363603592,-0.0011569728376343846,0.03195062652230263
0.04043543338775635,0.004959064070135355,-0.02190808579325676,0.018634812906384468,-0.0009605840314179659,0.03167375549674034
0.03824219852685928,0.004711768589913845,-0.021592432633042336,0.018098244443535805,-0.0008352744043804705,0.031002908945083618
0.03924468904733658,0.004994814749807119,-0.02064017578959465,0.01872546412050724,-0.0008278489112854004,0.031133243814110756
0.03978128358721733,0.005274523515254259,-0.021304672583937645,0.018343782052397728,-0.0006270449957810342,0.031608425080776215
0.03978128358721733,0.005274523515254259,-0.021304672583937645,0.018343782052397728,-0.0006270449957810342,0.031608425080776215
0.03997858613729477,0.005443413741886616,-0.021555103361606598,0.018963003531098366,-0.0005385144031606615,0.032701339572668076
0.03961466625332832,0.004902362357825041,-0.020993657410144806,0.018730806186795235,-0.0005625798366963863,0.03281904011964798
0.03969065099954605,0.004456070251762867,-0.02077210508286953,0.018502691760659218,-0.0005829667788930237,0.032068006694316864
0.040405236184597015,0.004873368423432112,-0.021297365427017212,0.018893400207161903,-0.0006202837103046477,0.031120629981160164
0.04003335162997246,0.0051094964146614075,-0.021890880540013313,0.01913471706211567,-0.0007990740123204887,0.03181372955441475
0.03998643904924393,0.004888138733804226,-0.021416282281279564,0.019413702189922333,-0.0009083730401471257,0.032957639545202255
0.039722807705402374,0.004800118040293455,-0.02144245058298111,0.020092690363526344,-0.0009135885629802942,0.03305276483297348
0.040387168526649475,0.005141936242580414,-0.021221237257122993,0.020275743678212166,-0.0008679376333020627,0.03260602429509163
0.04168029502034187,0.0046622259542346,-0.0211138017475605,0.01879657432436943,-0.0010719250421971083,0.03251737356185913
0.03900230675935745,0.004994446877390146,-0.0214531347155571,0.018123585730791092,-0.0009769578464329243,0.03180099278688431
0.03930807113647461,0.004898236133158207,-0.022121721878647804,0.018153702840209007,-0.0009605210507288575,0.0323236919939518
0.04026002809405327,0.005087368655949831,-0.021954583004117012,0.01849997788667679,-0.0008981429855339229,0.032471414655447006
0.04029526934027672,0.005726414266973734,-0.02106408029794693,0.019434578716754913,-0.0008503528079017997,0.03256415203213692
0.04186440631747246,0.005536278244107962,-0.021821055561304092,0.019344395026564598,-0.0008347112452611327,0.032581280916929245
0.0400485061109066,0.005057738162577152,-0.02268420346081257,0.0189624335616827,-0.0007805045461282134,0.032757118344306946
0.03917272388935089,0.005338470917195082,-0.022353967651724815,0.019284050911664963,-0.0007913614390417933,0.03330039605498314
0.040981475263834,0.005024997517466545,-0.02195487543940544,0.018915103748440742,-0.0007964123506098986,0.031767796725034714
0.04110635071992874,0.005256811156868935,-0.021170150488615036,0.019097497686743736,-0.0008151722140610218,0.03304936736822128
0.040904659777879715,0.005563517101109028,-0.02161187306046486,0.01944858953356743,-0.0008926874725148082,0.033263009041547775
0.040904659777879715,0.005563517101109028,-0.02161187306046486,0.01944858953356743,-0.0008926874725148082,0.033263009041547775
0.04091831296682358,0.005042283795773983,-0.02251524291932583,0.01778419129550457,-0.0008990720380097628,0.033602938055992126
0.04120137542486191,0.005295679904520512,-0.022026557475328445,0.017580395564436913,-0.0009807473979890347,0.03351737558841705
0.04106590896844864,0.005649222526699305,-0.02189481444656849,0.01738252118229866,-0.001016809605062008,0.03358035907149315
0.04099288210272789,0.006202357355505228,-0.021942371502518654,0.018145674839615822,-0.0010011979611590505,0.032995183020830154
0.04120311141014099,0.005745347123593092,-0.022475440055131912,0.01885082758963108,-0.000931328337173909,0.03423640877008438
0.04181274026632309,0.005744064226746559,-0.021854562684893608,0.01929870992898941,-0.000871493830345571,0.03496018797159195
0.042024530470371246,0.005245138891041279,-0.021888667717576027,0.019577812403440475,-0.000817124848254025,0.03397032618522644
0.041886791586875916,0.004979811143130064,-0.022586369886994362,0.019581981003284454,-0.0008098137914203107,0.03245937451720238
0.04238051548600197,0.00583675829693675,-0.022554701194167137,0.018225880339741707,-0.0007903106743469834,0.03331673517823219
0.04187193140387535,0.005640243645757437,-0.022220445796847343,0.019812697544693947,-0.0007498487248085439,0.03369399905204773
0.041952945291996,0.005718640983104706,-0.02191491238772869,0.020009947940707207,-0.0007623157580383122,0.03444152697920799
0.04247979819774628,0.005136324092745781,-0.022559527307748795,0.01930723339319229,-0.0008098293328657746,0.03545292839407921
0.042637407779693604,0.005465072579681873,-0.022552084177732468,0.018849993124604225,-0.0008254878339357674,0.034263066947460175
0.04190946742892265,0.005334403365850449,-0.02223450504243374,0.018632512539625168,-0.0008440516539849341,0.032807208597660065
0.04262448474764824,0.006147298030555248,-0.02211587317287922,0.018401125445961952,-0.0008512222557328641,0.032986193895339966
0.042507246136665344,0.006009251810610294,-0.022408990189433098,0.018716629594564438,-0.0008591532823629677,0.0344461128115654
0.04262775927782059,0.005629031918942928,-0.022714296355843544,0.01848987489938736,-0.0008016868960112333,0.03354690596461296
0.0430840440094471,0.005509709008038044,-0.023285435512661934,0.018292410299181938,-0.000812155194580555,0.034656379371881485
0.04290306568145752,0.006144301500171423,-0.023726684972643852,0.018993733450770378,-0.0008233834523707628,0.03552788868546486
0.042601145803928375,0.006246828939765692,-0.023025760427117348,0.019818181172013283,-0.0008424918632954359,0.034707650542259216
0.043894555419683456,0.006028828211128712,-0.022634699940681458,0.019619418308138847,-0.001032022526487708,0.034489668905735016
0.04144184663891792,0.0057009742595255375,-0.02327197603881359,0.019075408577919006,-0.0012334662023931742,0.03459037095308304
0.043242696672677994,0.005505695007741451,-0.023370638489723206,0.018028900027275085,-0.0012897157575935125,0.0347420796751976
0.043242696672677994,0.005505695007741451,-0.023370638489723206,0.018028900027275085,-0.0012897157575935125,0.0347420796751976
0.04376911744475365,0.005645978730171919,-0.022911643609404564,0.018184570595622063,-0.0011748098768293858,0.034553151577711105
0.04387689754366875,0.006124882493168116,-0.02306167408823967,0.01843029260635376,-0.0010544916149228811,0.03489317372441292
0.04462052881717682,0.006549622863531113,-0.023432239890098572,0.019060727208852768,-0.0010181048419326544,0.03541935980319977
0.04222661629319191,0.006134631112217903,-0.023436125367879868,0.01931539550423622,-0.0008825187687762082,0.035192620009183884
0.0439445860683918,0.0057317884638905525,-0.023407934233546257,0.018910899758338928,-0.0007965390686877072,0.035472460091114044
0.043551936745643616,0.006274254061281681,-0.02342119812965393,0.01895006187260151,-0.0007455750019289553,0.03524249792098999
0.04398677870631218,0.00614061439409852,-0.023208335041999817,0.019621629267930984,-0.0007599995587952435,0.0353875532746315
0.04341079294681549,0.006520412862300873,-0.023521915078163147,0.019593849778175354,-0.0007748923380859196,0.03530013933777809
