davideferrari95/blind_handover_controller/data/Test 251 - [2024-02-08 -- 12-43-08]/joint_states_data.csv
shoulder_pan_joint,shoulder_lift_joint,elbow_joint,wrist_1_joint,wrist_2_joint,wrist_3_joint
0.0007104777614586055,0.012806116603314877,-0.011402545496821404,0.00028200162341818213,0.00042418192606419325,8.052264456637204e-05
0.0006135079311206937,0.013242947869002819,-0.011900734156370163,0.0002713896974455565,0.00045622148900292814,7.950646977405995e-05
0.0006135079311206937,0.013242947869002819,-0.011900734156370163,0.0002713896974455565,0.00045622148900292814,7.950646977405995e-05
0.00057424750411883,0.012956293299794197,-0.011814153753221035,0.0004055103927385062,0.0004553996550384909,7.754912076052278e-05
0.0005790313007310033,0.012739275582134724,-0.011844132095575333,0.00037336265086196363,0.00043200768413953483,7.6606149377767e-05
0.0005552773363888264,0.013478130102157593,-0.011448954232037067,0.00034482762566767633,0.0004328653740230948,7.568585715489462e-05
0.0005747570539824665,0.012820428237318993,-0.012110785581171513,0.00032027397537603974,0.00043272963375784457,7.478743646061048e-05
0.0005396949127316475,0.012456163763999939,-0.01153324544429779,0.0002989821368828416,0.0004097889468539506,7.391004328383133e-05
0.00045548556954599917,0.012022087350487709,-0.012090718373656273,0.00028034549904987216,0.0003878183488268405,7.305304461624473e-05
0.00039267755346372724,0.011843117885291576,-0.011541188694536686,0.0002638966834638268,0.00036799642839469016,7.221564737847075e-05
0.0004079676291439682,0.012459831312298775,-0.011015390045940876,0.0002492736093699932,0.0003777893725782633,7.139725494198501e-05
0.0004005407390650362,0.012203027494251728,-0.011654320172965527,0.00023618432169314474,0.000353169918525964,7.059720519464463e-05
0.0004005407390650362,0.012203027494251728,-0.011654320172965527,0.00023618432169314474,0.000353169918525964,7.059720519464463e-05
0.00043277067015878856,0.012779870070517063,-0.011650633066892624,0.00022440325119532645,0.0003277600626461208,6.981487240409479e-05
0.00044522626558318734,0.012097279541194439,-0.01131477952003479,0.00021374040807131678,0.00030551329837180674,8.992967195808887e-06
0.00043685970013029873,0.012164825573563576,-0.011337785050272942,0.00020404640235938132,0.0002860816312022507,5.87176486988028e-07
0.0005886417347937822,0.011902819387614727,-0.011607471853494644,0.0001951941812876612,0.00030859667458571494,3.8338431096462955e-08
0.0005411439924500883,0.011569933034479618,-0.01197409350425005,0.0001870772393886,0.000303630658891052,2.5032254047374636e-09
0.0005785141256637871,0.012278132140636444,-0.011526462621986866,0.00017960892000701278,0.00028822929016314447,1.6344274544888293e-10
0.000523678376339376,0.01209317147731781,-0.011210205964744091,0.0001727142371237278,0.0002736703318078071,1.0671644123938506e-11
0.0005557716940529644,0.012103050947189331,-0.011844797059893608,0.00016632908955216408,0.00028166701667942107,6.967820959970228e-13
0.0005116754909977317,0.011985018849372864,-0.011899800971150398,0.00018822168931365013,0.00028844349435530603,4.549489176228563e-14
0.0004732428933493793,0.011632799170911312,-0.0118036437779665,0.0001855759328464046,0.0002770436694845557,2.9704911829451543e-15
0.0004401725600473583,0.01226784847676754,-0.01174191478639841,0.00017965142615139484,0.00026545205037109554,1.9395184402194618e-16
0.000411419925512746,0.011971288360655308,-0.01230851374566555,0.00017388213018421084,0.00025472239940427244,1.2663669475501986e-17
0.0003861956356558949,0.012635774910449982,-0.011832693591713905,0.00016845822392497212,0.00027514356770552695,8.2684710366980395e-19
0.0004137264331802726,0.011744874529540539,-0.01142164133489132,0.00016336147382389754,0.00026902524405159056,5.398721252976059e-20
0.0003931288083549589,0.012063226662576199,-0.012416258454322815,0.0001389900135109201,0.00025959633057937026,3.52497928940001e-21
0.00036312543670646846,0.012140701524913311,-0.011800292879343033,0.00012881461589131504,0.0002505783049855381,2.3015596249271814e-22
0.00033147892099805176,0.011757436208426952,-0.011810236610472202,0.00012483583122957498,0.00024215065059252083,1.5027539920361552e-23
0.00030867112218402326,0.012141452170908451,-0.011991647072136402,0.00012144020001869649,0.00023427067208103836,9.811909131554573e-25
0.00032663787715137005,0.011974863708019257,-0.011235525831580162,0.00011824716784758493,0.00022062091738916934,6.406475613065504e-26
0.00032544342684559524,0.01233841385692358,-0.011907695792615414,0.00011521924898261204,0.00020890372979920357,4.182970772231381e-27
0.0003071782412007451,0.012177776545286179,-0.011659442447125912,0.0001123425317928195,0.0001995421916944906,2.731180754176226e-28
0.0003622588119469583,0.012239310890436172,-0.011924633756279945,0.00010699979611672461,0.0001832779380492866,1.1643451160431563e-30
0.00047046373947523534,0.012127065099775791,-0.01155164372175932,0.00010451453272253275,0.00017610435315873474,7.602341618250977e-32
0.0005428941803984344,0.012600727379322052,-0.011827756650745869,0.00010214224312221631,0.0001694708626018837,4.963786443840167e-33
0.0005211972747929394,0.012141288258135319,-0.011606203392148018,9.987514204112813e-05,0.00016331927326973528,3.240997948569102e-34
0.0005537942633964121,0.012337780557572842,-0.0127799604088068,9.770654287422076e-05,0.00015759859525132924,2.116140083207148e-35
0.0005798146594315767,0.012236573733389378,-0.011697543784976006,9.56300282268785e-05,0.0001748024660628289,1.3816883573034241e-36
0.0008262844639830291,0.01201475691050291,-0.01145971566438675,9.364006109535694e-05,0.00017622050654608756,9.021437320097083e-38
0.0008249285165220499,0.012401302345097065,-0.012110908515751362,9.173117723548785e-05,0.00017110224871430546,5.890353890893976e-39
0.0007539612124674022,0.01198428776115179,-0.011952732689678669,8.989852358354256e-05,0.00016587611753493547,3.8459757392166064e-40
0.0007539612124674022,0.01198428776115179,-0.011952732689678669,8.989852358354256e-05,0.00016587611753493547,3.8459757392166064e-40
0.0007707010372541845,0.012433907017111778,-0.012682750821113586,8.813774911686778e-05,0.00016093417070806026,2.511126848070072e-41
0.000687972002197057,0.011916889809072018,-0.012780148535966873,8.644460467621684e-05,0.0001562763936817646,1.639519203260036e-42
0.0007075057947076857,0.011844812892377377,-0.012172764167189598,8.481524855596945e-05,0.00015188091492746025,1.064986832886861e-43
0.0006509287049993873,0.01233799196779728,-0.012063499540090561,8.324617374455556e-05,0.0001477254118071869,2.8607175408978947e-05
0.0006075274432078004,0.011770735494792461,-0.011351526714861393,8.173412061296403e-05,0.00014379173808265477,1.8678441620068043e-06
0.0006296962383203208,0.012129338458180428,-0.012287880294024944,8.027606236282736e-05,0.00014006177661940455,1.2195688725569198e-07
0.0006365521112456918,0.012245646677911282,-0.011752720922231674,7.886909588705748e-05,0.00013652056804858148,7.96291299565155e-09
0.0006052887765690684,0.012241116724908352,-0.012396499514579773,7.751059456495568e-05,0.00013315399701241404,5.19921328212547e-10
0.000630360736977309,0.011891449801623821,-0.011893758550286293,7.619807729497552e-05,0.00012994956341572106,3.394714717663838e-11
0.0007242323481477797,0.011659447103738785,-0.011952481232583523,6.380482955137268e-05,0.000126895698485896,2.2165064922363698e-12
0.0007639204268343747,0.012379693798720837,-0.012225830927491188,5.921382035012357e-05,0.0001239821722265333,1.4472201648879635e-13
0.0007842517807148397,0.011797329410910606,-0.011745824478566647,5.802801751997322e-05,0.00012119932944187894,3.1442486942978576e-05
0.0007970975711941719,0.012677188962697983,-0.012292953208088875,5.7092609495157376e-05,0.00011853881005663425,0.0005526217282749712
0.0009973853593692183,0.012120846658945084,-0.01184223871678114,5.620034789899364e-05,0.00011599246499827132,0.0006162353092804551
0.000990209518931806,0.012301397509872913,-0.011928906664252281,5.533642615773715e-05,0.00011355322931194678,0.0006552975974045694
0.0009721629903651774,0.012472420930862427,-0.011349550448358059,5.44986869499553e-05,0.00011121454008389264,0.0011661365861073136
0.0009526332723908126,0.011826400645077229,-0.011140248738229275,5.368596612242982e-05,0.00010897014726651832,0.0011774366721510887
0.0009148152312263846,0.01256643794476986,-0.011920742690563202,4.140002783969976e-05,0.00010681465937523171,0.0010626573348417878
0.000890214170794934,0.011867636814713478,-0.011801887303590775,3.9211132389027625e-05,0.00010474266309756786,0.0010342387249693274
0.0009221847867593169,0.012592039071023464,-0.012144322507083416,3.854761234833859e-05,0.00010274964006384835,0.0009407884790562093
0.0009197594481520355,0.012647850438952446,-0.011423745192587376,3.799834303208627e-05,0.00010083121742354706,0.0008883815607987344
0.0010311801452189684,0.012724895030260086,-0.011888657696545124,3.695763734867796e-05,9.720104571897537e-05,0.0008888778975233436
0.0010102587984874845,0.012023922987282276,-0.011455340310931206,4.782794349011965e-06,9.548237721901387e-05,0.0010158700169995427
0.0009948736988008022,0.012482239864766598,-0.0109922606498003,-2.53359667112818e-05,9.382342977914959e-05,0.0011346369283273816
0.0009948736988008022,0.012482239864766598,-0.0109922606498003,-2.53359667112818e-05,9.382342977914959e-05,0.0011346369283273816
0.0011342329671606421,0.012419731356203556,-0.011392563581466675,-2.691740337468218e-05,9.222107473760843e-05,0.0011054689530283213
0.0010979077778756618,0.012653947807848454,-0.010927858762443066,-2.664694875420537e-05,9.067255450645462e-05,0.0011697792215272784
0.0010993349133059382,0.012790007516741753,-0.011576260440051556,-3.601933713071048e-05,8.91752279130742e-05,0.0012331122998148203
0.0011399199720472097,0.01224077120423317,-0.011546623893082142,-3.861312143271789e-05,8.772641740506515e-05,0.0012704523978754878
0.001233627088367939,0.012727471999824047,-0.011232857592403889,-3.826882311841473e-05,8.632415847387165e-05,0.001157084945589304
0.001226469175890088,0.011812268756330013,-0.011680607683956623,-3.774707511183806e-05,8.496575901517645e-05,0.0011793120065703988
0.0015136434230953455,0.012434850446879864,-0.010847524739801884,-4.881510540144518e-05,8.36496619740501e-05,0.0011304502841085196
0.0015874698292464018,0.012063983827829361,-0.011016933247447014,-4.890802301815711e-05,8.237362635554746e-05,0.0011297871824353933
0.0017408397980034351,0.012556150555610657,-0.01179743092507124,-5.7270750403404236e-05,8.113592775771394e-05,0.0012242445955052972
0.0016118772327899933,0.012176698073744774,-0.011539075523614883,-5.93783515796531e-05,7.993489998625591e-05,0.0012457557022571564
0.0014809172134846449,0.01217783335596323,-0.011762779206037521,-0.00032507561263628304,7.876894233049825e-05,0.0012124697677791119
0.0014366530813276768,0.012082607485353947,-0.0110083669424057,-0.00033740897197276354,7.763642497593537e-05,0.0014572057407349348
0.001384920091368258,0.011488988995552063,-0.011104274541139603,-0.0003707323339767754,7.653611828573048e-05,0.001493560615926981
0.0015086466446518898,0.011966620571911335,-0.011332261376082897,-0.00035402769572101533,7.546653796453029e-05,0.001523321378044784
0.0016595710767433047,0.011648054234683514,-0.010889207944273949,-0.000373536633560434,7.442638889187947e-05,0.0015441339928656816
0.0015403885627165437,0.011981845833361149,-0.011322787031531334,-0.00036469806218519807,7.341459422605112e-05,0.0014924000715836883
0.0016649398021399975,0.012044918723404408,-0.011321584694087505,-0.00039148522773757577,7.242985157063231e-05,0.0014832444721832871
0.0016790550434961915,0.011274810880422592,-0.011137839406728745,-0.00047354665002785623,7.147120049921796e-05,0.001420496148057282
0.0016957353800535202,0.011962260119616985,-0.011223098263144493,-0.0005130366771481931,7.053768786136061e-05,0.0013810419477522373
0.001721175853163004,0.011429994367063046,-0.010856656357645988,-0.0005525085143744946,6.962810584809631e-05,0.0014536540256813169
0.0018501441227272153,0.011452705599367619,-0.011732915416359901,-0.0005474294885061681,6.874176324345171e-05,0.0015002295840531588
0.0016839787131175399,0.011707779951393604,-0.01146078109741211,-0.0005379296489991248,6.787771417293698e-05,0.0015914097893983126
0.0017272797413170338,0.010925600305199623,-0.011149155907332897,-0.0005592109519056976,6.70350855216384e-05,0.0015707938000559807
0.0019909616094082594,0.011159434914588928,-0.011345540173351765,-0.0005288325482979417,6.621317152166739e-05,0.0016128506977111101
0.002214323729276657,0.010803951881825924,-0.01070689782500267,-0.0006143392529338598,6.541106995427981e-05,0.001749014831148088
0.0020307470113039017,0.011273941025137901,-0.011088723316788673,-0.0006589244585484266,6.386393215507269e-05,0.002155946334823966
0.0019128191052004695,0.01179024949669838,-0.010743612423539162,-0.0006597393075935543,6.311744800768793e-05,0.0021943680476397276
0.0019312560325488448,0.011768326163291931,-0.011587902903556824,-0.0006465349579229951,6.238825881155208e-05,0.0020377282053232193
0.0019410253735259175,0.011459024623036385,-0.010992267169058323,-0.0008263482013717294,6.16756733506918e-05,0.001706991926766932
0.0019410253735259175,0.011459024623036385,-0.010992267169058323,-0.0008263482013717294,6.16756733506918e-05,0.001706991926766932
0.0023587343748658895,0.010330351069569588,-0.010739635676145554,-0.0007839000900276005,6.0979247791692615e-05,0.0016813201364129782
0.002379652811214328,0.010570582933723927,-0.011749470606446266,-0.0007997928187251091,5.963245712337084e-05,0.0017757669556885958
0.0021490061189979315,0.01017334870994091,-0.011382152326405048,-0.0008106521563604474,3.893573193636257e-06,0.001842818921431899
0.002107092412188649,0.010832901112735271,-0.010956699028611183,-0.0008627285715192556,2.542224990520481e-07,0.0019817764405161142
0.002107092412188649,0.010832901112735271,-0.010956699028611183,-0.0008627285715192556,2.542224990520481e-07,0.0019817764405161142
0.0022924423683434725,0.010593388229608536,-0.011242176406085491,-0.0008383338572457433,1.6598912466747606e-08,0.0019500019261613488
0.0025131874717772007,0.010456972755491734,-0.011448772624135017,-0.0007899866905063391,1.083790390765671e-09,0.002126687904819846
0.0025499132461845875,0.01071375235915184,-0.011308901011943817,-0.000798526220023632,7.076376984382904e-11,0.001971540739759803
0.0028304513543844223,0.01049731019884348,-0.011757751926779747,-0.0008365516550838947,4.620368324048663e-12,0.0019174442859366536
0.0027718099299818277,0.01032990776002407,-0.011377613991498947,-0.0008576097898185253,3.01677031879638e-13,0.0018277917988598347
0.0028401559684425592,0.01061967946588993,-0.010353794321417809,-0.0008640919113531709,1.9697356471045334e-14,0.001963220303878188
0.0026530236937105656,0.010822405107319355,-0.01184324361383915,-0.0008684253552928567,1.2860967106283032e-15,0.0018851232016459107
0.0029743697959929705,0.011275348253548145,-0.01129781361669302,-0.0009437076514586806,8.397292071432531e-17,0.001866584992967546
0.002754068234935403,0.010652096010744572,-0.011091592721641064,-0.00103021040558815,5.482831032687285e-18,0.0020370734855532646
0.0026135563384741545,0.010378365404903889,-0.011149004101753235,-0.001016845926642418,3.579896553437487e-19,0.0020874098408967257
0.0027507871855050325,0.010667111724615097,-0.01039524283260107,-0.0009530871175229549,2.337416440355515e-20,0.0023572188802063465
0.0031707189045846462,0.009888374246656895,-0.011037858203053474,-0.0010646048467606306,1.526165900644613e-21,0.0021973797120153904
0.003167130285874009,0.010129728354513645,-0.011226274073123932,-0.0010434233117848635,9.964773572249124e-23,0.0022207486908882856
0.0026884269900619984,0.010908280499279499,-0.010749520733952522,-0.0009569048997946084,6.506285326978171e-24,0.002015428151935339
0.002646177774295211,0.010096527636051178,-0.011323744431138039,-0.0009497562423348427,4.248139234131589e-25,0.0018165871733799577
0.0026367981918156147,0.010177894495427608,-0.010886226780712605,-0.0009143813513219357,2.7737313933286924e-26,0.0017705234931781888
0.0028909456450492144,0.010268738493323326,-0.010637970641255379,-0.0009099015151150525,1.8110484157975317e-27,0.0017124027945101261
0.002805734286084771,0.010057852603495121,-0.011267285794019699,-0.0008991319919005036,1.1824852357791701e-28,0.0017981496639549732
0.0029529936145991087,0.010191335342824459,-0.010677309706807137,-0.0008985978784039617,7.720783065466384e-30,0.002387667540460825
0.0028882757760584354,0.010448351502418518,-0.011211102828383446,-0.0008898715022951365,5.0411197486426285e-31,0.0027448260225355625
0.0028589079156517982,0.009960002265870571,-0.010960416868329048,-0.0008844959083944559,3.2914905645411544e-32,0.0028839849401265383
0.0029330726247280836,0.01013763714581728,-0.011216926388442516,-0.0008594333194196224,1.4032141240760802e-34,0.002675814088433981
0.0030729833524674177,0.01045966986566782,-0.010954663157463074,-0.0008132143993861973,9.161984775892709e-36,0.002397269709035754
0.0032809365075081587,0.010274366475641727,-0.011214682832360268,-0.0008339430205523968,5.982121620258232e-37,0.0022245789878070354
0.003121812827885151,0.009890337474644184,-0.011400338262319565,-0.0008245924836955965,3.9058980641480643e-38,0.002248705830425024
0.0034448490478098392,0.009766294620931149,-0.01181549858301878,-0.0007435593870468438,2.550272120670986e-39,0.0022745963651686907
0.0034448490478098392,0.009766294620931149,-0.01181549858301878,-0.0007435593870468438,2.550272120670986e-39,0.0022745963651686907
0.0032423052471131086,0.010598137974739075,-0.011418494395911694,-0.0007489927229471505,1.6651489521725369e-40,0.0027707573026418686
0.0031920364126563072,0.009779487736523151,-0.011141135357320309,-0.0006807537865824997,1.0872674784696256e-41,0.0030062564183026552
0.0031945991795510054,0.009471914730966091,-0.011113448068499565,-0.0006965508218854666,7.1045832141268225e-43,0.0026112550403922796
0.0034724946599453688,0.010235927999019623,-0.0116406986489892,-0.0006399551639333367,4.624284932271896e-44,0.0025217244401574135
0.0034060541074723005,0.010587307624518871,-0.011093937791883945,-0.0005887431325390935,2.802596928649634e-45,0.0022334144450724125
0.003512779949232936,0.009550100192427635,-0.011986829340457916,-0.000573985802475363,0.0,0.0021887551993131638
0.0033978205174207687,0.010235904715955257,-0.01164382416754961,-0.000559580628760159,0.0,0.002298432169482112
0.0033810415770858526,0.010223438031971455,-0.011235584504902363,-0.000571858836337924,0.0,0.002799502806738019
0.0036524266470223665,0.010606574825942516,-0.01173737645149231,-0.0005420034867711365,0.0,0.0031375442631542683
0.00394845986738801,0.01072539109736681,-0.011147168464958668,-0.0005618573050014675,0.0,0.003005322767421603
0.003597844624891877,0.010117481462657452,-0.011446768417954445,-0.0005290279514156282,0.0,0.0030855259392410517
0.0034788877237588167,0.010599387809634209,-0.011626972816884518,-0.000494244450237602,0.0,0.0029371227137744427
0.0034899592865258455,0.01082610059529543,-0.011987810954451561,-0.0005281296325847507,0.0,0.0029451160226017237
0.003665414173156023,0.010550305247306824,-0.011493048630654812,-0.0004780168819706887,0.0,0.0028580250218510628
0.00429855240508914,0.010490023531019688,-0.011157160624861717,-0.0004956845659762621,0.0,0.0028607721906155348
0.004177098628133535,0.010426070541143417,-0.011866818182170391,-0.0004718709387816489,0.0,0.0027926829643547535
0.0035931633319705725,0.010185807012021542,-0.01160462573170662,-0.0004350976669229567,0.0,0.00286575173959136
0.004133325070142746,0.010812223888933659,-0.011245219968259335,-0.00040270862518809736,0.0,0.0033215992152690887
0.004153999499976635,0.010517257265746593,-0.012251263484358788,-0.00042066851165145636,0.0,0.0031890426762402058
0.003953446634113789,0.011015431955456734,-0.011589770205318928,-0.0004077353223692626,0.0,0.0030869953334331512
0.004410440567880869,0.010509330779314041,-0.011705495417118073,-0.00038382012280635536,0.0,0.0030511454679071903
0.004351383075118065,0.010348062962293625,-0.011010858230292797,-0.0003421717556193471,0.0,0.0035673133097589016
0.004231261555105448,0.010661283507943153,-0.012058654800057411,-0.0003245392581447959,0.0,0.0034792518708854914
0.004507515113800764,0.010130372829735279,-0.011405077762901783,-0.0003086349170189351,0.0,0.00305411359295249
0.004294775892049074,0.01053781807422638,-0.011567769572138786,-0.00029421690851449966,0.0,0.0028506407979875803
0.004475827794522047,0.010647212155163288,-0.01119016669690609,-0.0002810862206388265,0.0,0.0027572240214794874
0.004502431023865938,0.009990083053708076,-0.01080940943211317,-0.00026907844585366547,0.0,0.003234909614548087
0.004502431023865938,0.009990083053708076,-0.01080940943211317,-0.00026907844585366547,0.0,0.003234909614548087
0.004347732290625572,0.01057573314756155,-0.011250011622905731,-0.00025805417681112885,0.0,0.003731160657480359
0.0044399104081094265,0.009945432655513287,-0.011015246622264385,-0.0002478978130966425,0.0,0.003966992255300283
0.004576216451823711,0.009918156079947948,-0.011051133275032043,-0.00023851134756114334,0.0,0.00396502623334527
0.004645323846489191,0.010546742007136345,-0.011391419917345047,-0.00022980938956607133,0.0,0.0036394342314451933
0.004689852707087994,0.010162577033042908,-0.010812131687998772,-0.00022172012540977448,0.0,0.0034106927923858166
0.004389791749417782,0.010538454167544842,-0.011183944530785084,-0.00021418157848529518,0.0,0.0030906395986676216
0.0044894348829984665,0.01073172315955162,-0.011730831116437912,-0.00020713856793008745,0.0,0.0032034285832196474
0.0050773704424500465,0.009941762313246727,-0.011113437823951244,-0.00020054403285030276,0.0,0.0033098128624260426
0.00486415671184659,0.009772703982889652,-0.011781764216721058,-0.00019435644207987934,0.0,0.003840625286102295
0.004484879318624735,0.010782881639897823,-0.011170634999871254,-0.00018853956134989858,0.0,0.00399764534085989
0.004501322750002146,0.010007203556597233,-0.011296690441668034,-0.00018306054698769003,0.0,0.003867539344355464
0.004577514249831438,0.010099891573190689,-0.011131462641060352,-0.00017789094999898225,0.0,0.003791067749261856
0.004653945565223694,0.010398134589195251,-0.011029592715203762,-0.00017300553736276925,0.0,0.0038442681543529034
0.0047684027813375,0.01003780122846365,-0.01179975550621748,-0.00016838130250107497,0.0,0.004245009273290634
0.005067631136626005,0.011178702116012573,-0.011474687606096268,-0.00016399785818066448,0.0,0.004037294536828995
0.005015235859900713,0.01027860026806593,-0.0120040038600564,-0.0001598367962287739,0.0,0.0034738858230412006
0.0050895377062261105,0.009755723178386688,-0.01171457301825285,-0.00015588186215609312,0.0,0.003474264405667782
0.005013854708522558,0.010093346238136292,-0.011560255661606789,-0.00015211771824397147,0.0,0.004153057932853699
0.0053227562457323074,0.010382315143942833,-0.011955255642533302,-0.00014853123866487294,0.0,0.004573443438857794
0.005250399000942707,0.009704562835395336,-0.01099246647208929,-0.00014510980690829456,0.0,0.004488016478717327
0.005462652537971735,0.009730649180710316,-0.011568163521587849,-0.00013871933333575726,0.0,0.0042771389707922935
0.005648348014801741,0.009424608200788498,-0.011381324380636215,-0.00013573039905168116,0.0,0.004340105690062046
0.005280192010104656,0.00981035828590393,-0.012141586281359196,-0.0001328677753917873,0.0,0.0041105919517576694
0.005007544532418251,0.009977540001273155,-0.011364929378032684,-0.00013012341514695436,0.0,0.00419657165184617
0.005881499033421278,0.009130911901593208,-0.011518212035298347,-6.484340701717883e-05,3.893328994308831e-06,0.004548288881778717
0.0056938533671200275,0.009914977476000786,-0.011785273440182209,-4.348164293332957e-05,2.542065544730576e-07,0.004815521650016308
0.0056938533671200275,0.009914977476000786,-0.011785273440182209,-4.348164293332957e-05,2.542065544730576e-07,0.004815521650016308
0.0058936323039233685,0.010380907915532589,-0.011152714490890503,-4.119219374842942e-05,1.6597871521639718e-08,0.00461434805765748
0.005214653443545103,0.00962196383625269,-0.011695601977407932,-4.0187896956922486e-05,1.0837223340942614e-09,0.004608383867889643
0.005272536538541317,0.009951339103281498,-0.011187928728759289,-3.9304813981289044e-05,7.075932895173054e-11,0.004500205162912607
0.005539055448025465,0.009929352439939976,-0.011528130620718002,-2.9006512704654597e-05,4.6200781915473055e-12,0.0041094375774264336
0.006216350011527538,0.009801045060157776,-0.012036720290780067,-1.9468036043690518e-05,3.0165808544667383e-13,0.004007416777312756
0.005729273892939091,0.0099404975771904,-0.011274266988039017,-1.848561441875063e-05,1.9696119802942343e-14,0.004381560254842043
0.00584872392937541,0.009648951701819897,-0.01183139905333519,-1.807627995731309e-05,1.286015713102722e-15,0.004824911244213581
0.0054747858084738255,0.009388895705342293,-0.011013250797986984,-4.572504622046836e-06,8.396763999329477e-17,0.0045923152938485146
0.006015189923346043,0.009612149558961391,-0.01091980841010809,-2.9855189609406807e-07,5.4824873391427695e-18,0.004417971707880497
0.005718505010008812,0.009679666720330715,-0.011326505802571774,-1.9493306524509535e-08,3.5796724391902733e-19,0.004589842166751623
0.005848935339599848,0.009251964278519154,-0.011326858773827553,-1.2727736642403897e-09,2.3372702297198977e-20,0.004721648525446653
0.0059928931295871735,0.009562474675476551,-0.011699492111802101,-8.310301752301186e-11,1.5260703790553216e-21,0.005313138011842966
0.005696730222553015,0.009356671012938023,-0.011543630622327328,-5.426033320571344e-12,9.964148794412189e-23,0.005667691119015217
0.006079852115362883,0.009216838516294956,-0.011453554965555668,-3.542811931409734e-13,-0.00025768604245968163,0.0054924702271819115
0.006517659407109022,0.010071106255054474,-0.011435398831963539,0.0002173327375203371,-0.000316327263135463,0.005031852517277002
0.006189303006976843,0.009636953473091125,-0.011143011972308159,0.001060900161974132,-0.00031297089299187064,0.005130379926413298
0.00634652329608798,0.009095563553273678,-0.011835235171020031,0.0010912246070802212,-0.00033955168328247964,0.004911888390779495
0.006073393858969212,0.009380937553942204,-0.012039151974022388,0.001066252589225769,-0.00032780104083940387,0.005338000599294901
0.006148727145045996,0.009519942104816437,-0.011421858333051205,0.0010859649628400803,-0.0003337083326186985,0.005355771631002426
0.006688434164971113,0.010012948885560036,-0.011653957888484001,0.0010807957733049989,-0.0003382301074452698,0.005820038262754679
0.006467869970947504,0.009544634260237217,-0.011403746902942657,0.0010519272182136774,-0.00044906354742124677,0.005474878009408712
0.006529994308948517,0.009111760184168816,-0.012078429572284222,0.001364507945254445,-0.0005544631858356297,0.005588307045400143
0.006798468064516783,0.009143379516899586,-0.012244196608662605,0.00164842011872679,-0.0005083831492811441,0.006297120824456215
0.0067298938520252705,0.009529545903205872,-0.012578718364238739,0.0020871663000434637,-0.0005317630129866302,0.005830841604620218
0.006558145396411419,0.009076878428459167,-0.012551025487482548,0.0019707661122083664,-0.0004987480351701379,0.00502262357622385
0.006350320298224688,0.008901833556592464,-0.012503075413405895,0.0019252083729952574,-0.0004626864683814347,0.0048384531401097775
0.006931444630026817,0.009408862330019474,-0.01278814859688282,0.001802276005037129,-0.0004883109941147268,0.005357271526008844
0.006572684273123741,0.009813024662435055,-0.012141264043748379,0.0018157477024942636,-0.0004989684675820172,0.00529945082962513
0.006572684273123741,0.009813024662435055,-0.012141264043748379,0.0018157477024942636,-0.0004989684675820172,0.00529945082962513
0.0068608359433710575,0.009041624143719673,-0.012199361808598042,0.001852343324571848,-0.0004845712974201888,0.0058905896730721
0.006802347023040056,0.009708787314593792,-0.011706691235303879,0.0021166852675378323,-0.0005040983087383211,0.006122524384409189
0.0073488811030983925,0.009054526686668396,-0.012632075697183609,0.0022525463718920946,-0.00047931604785844684,0.005642268806695938
0.007662697695195675,0.009463823400437832,-0.012330135330557823,0.002263345755636692,-0.0004414117138367146,0.005858524236828089
0.006800759118050337,0.00968148559331894,-0.012858429923653603,0.0023712918628007174,-0.00046681443927809596,0.005763831548392773
0.007065739948302507,0.009150221943855286,-0.01281236857175827,0.0023942349944263697,-0.0004420471377670765,0.006107246037572622
0.007327071391046047,0.008733955211937428,-0.012699010781943798,0.0022946009412407875,-0.0004135394701734185,0.0058737024664878845
0.0073046269826591015,0.009460021741688251,-0.012213149107992649,0.0022922642529010773,-0.0003880855510942638,0.005815137177705765
0.00705261854454875,0.009450542740523815,-0.01219081599265337,0.0022907883394509554,-0.00041415999294258654,0.006059522740542889
0.007242878433316946,0.00899980217218399,-0.01270570419728756,0.002580449916422367,-0.0003946235519833863,0.006357446778565645
0.007303574122488499,0.009031681343913078,-0.012702342122793198,0.0027074464596807957,-0.0003743090492207557,0.006207487545907497
0.007720304653048515,0.009087223559617996,-0.013002517633140087,0.002774888416752219,-0.00035581793054006994,0.005996042396873236
0.007654351647943258,0.00868672039359808,-0.012372692115604877,0.0033829226158559322,-0.0003390578494872898,0.006263706833124161
0.007435333449393511,0.008932497352361679,-0.012493587099015713,0.003822483355179429,-0.0003238060453440994,0.0061958786100149155
0.008171649649739265,0.009184714406728745,-0.013037369586527348,0.003913864493370056,-0.0003008581988979131,0.006486908998340368
0.008274476043879986,0.009863334707915783,-0.012584976851940155,0.003961338195949793,-0.0002804254472721368,0.007039607036858797
0.007900433614850044,0.008884248323738575,-0.013019349426031113,0.004088289104402065,-0.00026386408717371523,0.006421191152185202
0.007527925074100494,0.009878547862172127,-0.011978648602962494,0.004368322901427746,-0.0002492358034942299,0.006469059269875288
0.008151538670063019,0.00895713735371828,-0.012384852394461632,0.004586571361869574,-0.00023615195823367685,0.006578577216714621
0.008352521806955338,0.00889394711703062,-0.012070709839463234,0.004469631239771843,-0.00022437314328271896,0.0068966420367360115
0.008182428777217865,0.009057569317519665,-0.012649775482714176,0.004097653087228537,-0.000213713850826025,0.006892099976539612
0.007829386740922928,0.009233073331415653,-0.012127231806516647,0.004246799740940332,-0.00020402242080308497,0.006621553562581539
0.00832009594887495,0.008613772690296173,-0.012335548177361488,0.004961673635989428,-0.00022400915622711182,0.006809305865317583
0.007988055236637592,0.009030207060277462,-0.012757912278175354,0.005246093962341547,-0.00022380198061000556,0.006757527124136686
0.007849275134503841,0.00913394894450903,-0.012744822539389133,0.004795679356902838,-0.0002072326315101236,0.007100836373865604
0.00896432064473629,0.009184112772345543,-0.012052707374095917,0.004640553146600723,-0.00019957510812673718,0.006964296568185091
0.008236303925514221,0.009318576194345951,-0.012443143874406815,0.004651234485208988,-0.00019246125884819776,0.006560714915394783
0.007952677085995674,0.009019581601023674,-0.012231566943228245,0.004529790487140417,-0.00018583684868644923,0.006964570377022028
0.008915206417441368,0.008675110526382923,-0.012230625376105309,0.004625908099114895,-0.00020757297170348465,0.00681868102401495
0.008915206417441368,0.008675110526382923,-0.012230625376105309,0.004625908099114895,-0.00020757297170348465,0.00681868102401495
0.00891051348298788,0.009740795008838177,-0.012852023355662823,0.004864091984927654,-0.00020271458197385073,0.007058175280690193
0.0085897883400321,0.008677849546074867,-0.012188884429633617,0.004492207895964384,-0.00019650976173579693,0.007032811176031828
0.009088428691029549,0.00878174975514412,-0.013332569971680641,0.004442884121090174,-0.00019057259487453848,0.00744797196239233
0.008869168348610401,0.009147260338068008,-0.012398934923112392,0.004260169807821512,-0.000204549272893928,0.007479303516447544
0.008737086318433285,0.009414863772690296,-0.012761936523020267,0.003662238596007228,-0.00020492455223575234,0.007322567515075207
0.008605110459029675,0.009077505208551884,-0.012062018737196922,0.0034866766072809696,-0.0001996468345168978,0.00731657026335597
0.009193509817123413,0.009388810023665428,-0.012077690102159977,0.004036719910800457,-0.0001942852686624974,0.007566303480416536
0.009272300638258457,0.009058384224772453,-0.01253923773765564,0.004155486356467009,-0.00018918215937446803,0.007667333818972111
0.009405749849975109,0.00918476190418005,-0.012004857882857323,0.00402372470125556,-0.00018433858349453658,0.007742440328001976
0.009143384173512459,0.009304171428084373,-0.012930787168443203,0.003900428768247366,-0.0001797364093363285,0.007680380716919899
0.010190777480602264,0.009723624214529991,-0.012112320400774479,0.0038280056323856115,-0.00017535878578200936,0.007953847758471966
0.00907448586076498,0.00902540609240532,-0.012889174744486809,0.003969606012105942,-0.00017118915275204927,0.008157070726156235
0.009914773516356945,0.00968878623098135,-0.012290708720684052,0.004077873192727566,-0.0001612053019925952,0.007805297151207924
0.009806087240576744,0.009069654159247875,-0.012324199080467224,0.004016510210931301,-0.00015396953676827252,0.007778399158269167
0.009253955446183681,0.008887234143912792,-0.012626143172383308,0.004401330836117268,-0.00014876635395921767,0.007852110080420971
0.009100863710045815,0.008748014457523823,-0.012395922094583511,0.0046165380626916885,-0.00014399820065591484,0.008064194582402706
0.009800054132938385,0.009294015355408192,-0.012807796709239483,0.004637829028069973,-0.00013953217421658337,0.007730885408818722
0.009831798262894154,0.009011462330818176,-0.012361557222902775,0.004156548995524645,-0.00015538008301518857,0.008061952888965607
0.00997254066169262,0.00888911820948124,-0.01298090722411871,0.004133886657655239,-0.00015720195369794965,0.007905347272753716
0.009891766123473644,0.009434117004275322,-0.01280120201408863,0.0041242060251533985,-0.00016569040599279106,0.007936389185488224
0.009662115015089512,0.009199205785989761,-0.012853744439780712,0.0043914178386330605,-0.00017293784185312688,0.007945066317915916
0.009575770236551762,0.008925470523536205,-0.012737363576889038,0.004698328673839569,-0.000169067396200262,0.007880388759076595
0.010081003420054913,0.010245949029922485,-0.012195799499750137,0.004762715194374323,-0.000186648903763853,0.00858877133578062
0.010161479003727436,0.009734747000038624,-0.012886487878859043,0.004531851038336754,-0.00018333105253987014,0.008287579752504826
0.010584741830825806,0.009520012885332108,-0.012945568189024925,0.003985934425145388,-0.0001745396584738046,0.008555293083190918
0.009809580631554127,0.009392294101417065,-0.012052606791257858,0.004183844663202763,-0.00023760709154885262,0.008491231128573418
0.010263663716614246,0.009366434067487717,-0.012754682451486588,0.004572570789605379,-0.00028594385366886854,0.008694512769579887
0.010699102655053139,0.009061397053301334,-0.012755336239933968,0.004980751778930426,-0.0002727608080022037,0.009206905961036682
0.010333261452615261,0.009502669796347618,-0.012648162432014942,0.004743427038192749,-0.0002574230602476746,0.00887039490044117
0.010333261452615261,0.009502669796347618,-0.012648162432014942,0.004743427038192749,-0.0002574230602476746,0.00887039490044117
0.010312517173588276,0.008957795798778534,-0.012886673212051392,0.004453565925359726,-0.0002794152242131531,0.009351401589810848
0.010555802844464779,0.010333596728742123,-0.012289521284401417,0.0044303713366389275,-0.00027636688901111484,0.008823544718325138
0.01022307388484478,0.009933127090334892,-0.012835892848670483,0.004576409701257944,-0.00026360974879935384,0.009053204208612442
0.010706981644034386,0.009323757141828537,-0.012525594793260098,0.004544113762676716,-0.00025138171622529626,0.008637160994112492
0.010591060854494572,0.009410535916686058,-0.012591732665896416,0.004477934446185827,-0.00027749850414693356,0.008766652084887028
0.010637849569320679,0.009806503541767597,-0.01255313865840435,0.004921664018183947,-0.00026811828138306737,0.009215730242431164
0.010393956676125526,0.009199796244502068,-0.012978985905647278,0.004796803463250399,-0.0002573237579781562,0.009040361270308495
0.010144581086933613,0.009046711958944798,-0.013146904297173023,0.004832928068935871,-0.00026452168822288513,0.0095431013032794
0.010375013574957848,0.009799890220165253,-0.012459837831556797,0.004484486300498247,-0.0002707056701183319,0.00938372127711773
0.010893147438764572,0.009583807550370693,-0.012591605074703693,0.004448023159056902,-0.0002619112201500684,0.009547635912895203
0.010346800088882446,0.009453522972762585,-0.012064081616699696,0.004507233388721943,-0.00025278396788053215,0.00994789507240057
0.010542938485741615,0.009882795624434948,-0.012972603552043438,0.004690501838922501,-0.0002442131226416677,0.009164046496152878
0.010715758427977562,0.009636882692575455,-0.012550052255392075,0.004727751947939396,-0.00027453279471956193,0.008489039726555347
0.010199245065450668,0.009587708860635757,-0.013410020619630814,0.004669907968491316,-0.0002643120533321053,0.009095042943954468
0.010577854700386524,0.01010335236787796,-0.01272983755916357,0.00486284913495183,-0.00025000827736221254,0.0098390132188797
0.010237579233944416,0.010368253104388714,-0.013318317010998726,0.004896565806120634,-0.000271809782134369,0.009786957874894142
0.010541694238781929,0.009255727753043175,-0.012701746076345444,0.0048543172888457775,-0.0002692143898457289,0.009846721775829792
0.011151275597512722,0.009708489291369915,-0.013012541458010674,0.00506167858839035,-0.00027804210549220443,0.010190031491219997
0.010324569419026375,0.009783671237528324,-0.01297141332179308,0.005373540334403515,-0.0002849476004485041,0.009904499165713787
0.01020077895373106,0.009436694905161858,-0.012767120264470577,0.00516105443239212,-0.00029296521097421646,0.010119070298969746
0.010581890121102333,0.009661403484642506,-0.01358078233897686,0.005232941824942827,-0.0002987009647767991,0.00951527152210474
0.010386408306658268,0.009378423914313316,-0.012820183299481869,0.005013726186007261,-0.00028792282682843506,0.009822867810726166
0.010555090382695198,0.009233668446540833,-0.013108850456774235,0.005059295799583197,-0.00038287267670966685,0.009640456177294254
0.010375144891440868,0.009281333535909653,-0.013772152364253998,0.005163040477782488,-0.00041838432662189007,0.0101016815751791
0.01062654610723257,0.009485217742621899,-0.01341782696545124,0.005756669212132692,-0.00044480449287220836,0.009933349676430225
0.010785712860524654,0.009740117006003857,-0.014157786034047604,0.005464755464345217,-0.00043009675573557615,0.010552451014518738
0.011278258636593819,0.008792031556367874,-0.013654577545821667,0.005151441786438227,-0.0004571996396407485,0.010158003307878971
0.01066882535815239,0.007875287905335426,-0.013304844498634338,0.005578555632382631,-0.0006644765380769968,0.009896913543343544
0.010744687169790268,0.008755436167120934,-0.013566493056714535,0.005493569653481245,-0.000714833615347743,0.010134286247193813
0.010904258117079735,0.008504903875291348,-0.013510584831237793,0.005158295854926109,-0.00069737050216645,0.01019278634339571
0.010904258117079735,0.008504903875291348,-0.013510584831237793,0.005158295854926109,-0.00069737050216645,0.01019278634339571
0.011897103860974312,0.008361687883734703,-0.01397773064672947,0.004988787230104208,-0.0006702456739731133,0.009479660540819168
0.011546911671757698,0.007786066271364689,-0.013613971881568432,0.0049846721813082695,-0.0006721359095536172,0.010250183753669262
0.011376318521797657,0.008687085472047329,-0.014016924425959587,0.005692342296242714,-0.0006385110900737345,0.010054764337837696
0.011310512199997902,0.008248681202530861,-0.013170259073376656,0.0057422444224357605,-0.0007679121335968375,0.01051190122961998
0.011218537576496601,0.008216830901801586,-0.013993993401527405,0.006044862326234579,-0.0007913821027614176,0.01040121354162693
0.011487043462693691,0.008331377059221268,-0.013654629699885845,0.006032291799783707,-0.0007784308982081711,0.010117880068719387
0.011096097528934479,0.008279827423393726,-0.013936174102127552,0.0056162988767027855,-0.0007444637594744563,0.010211089625954628
0.011436160653829575,0.008340690284967422,-0.013658678159117699,0.0053925891406834126,-0.0008683495107106864,0.010110143572092056
0.011298045516014099,0.00853845477104187,-0.014515972696244717,0.005701954010874033,-0.0007557637291029096,0.00975089892745018
0.01136755384504795,0.008105883374810219,-0.013987867161631584,0.006419004872441292,-0.0007596383802592754,0.009999802336096764
0.012214790098369122,0.007971486076712608,-0.014116261154413223,0.006107369437813759,-0.0007332030800171196,0.010607242584228516
0.011325836181640625,0.00767281511798501,-0.013925879262387753,0.005971308797597885,-0.0007007253589108586,0.010719506070017815
0.01162400096654892,0.007693791296333075,-0.014258405193686485,0.0060320645570755005,-0.0006769836763851345,0.010614232160151005
0.011926091276109219,0.007943560369312763,-0.01391562819480896,0.005851514637470245,-0.000654842471703887,0.010431232862174511
0.011861981824040413,0.008156274445354939,-0.01483842171728611,0.006333018187433481,-0.0006025821785442531,0.010412574745714664
0.011899051256477833,0.00785855296999216,-0.013659012503921986,0.0058920420706272125,-0.0005341884680092335,0.010956700891256332
0.011581077240407467,0.007975546643137932,-0.014032517559826374,0.005970518104732037,-0.0004743299214169383,0.010828634724020958
0.012780603021383286,0.007777755614370108,-0.014298835769295692,0.006143373902887106,-0.0004915783065371215,0.010550304315984249
0.014764044433832169,0.008070901036262512,-0.013472319580614567,0.006208939012140036,-0.00046825670870020986,0.01092058327049017
0.014729054644703865,0.007752230856567621,-0.013767832890152931,0.006405617110431194,-0.0004320286971051246,0.011210682801902294
0.01406911201775074,0.008212869986891747,-0.014871085993945599,0.006170733366161585,-0.0004000784829258919,0.011404871009290218
0.014412583783268929,0.007737038191407919,-0.01398429274559021,0.006566087249666452,-0.0004044072702527046,0.01098246406763792
0.015149866230785847,0.008088814094662666,-0.013888067565858364,0.006885495036840439,-0.00042887142626568675,0.011327710933983326
0.014787726104259491,0.008362782187759876,-0.014018280431628227,0.006831254810094833,-0.00044378999155014753,0.011104689911007881
0.01447236631065607,0.008245390839874744,-0.014275068417191505,0.0065801204182207584,-0.0004349311930127442,0.01125495508313179
0.013267953880131245,0.008185612969100475,-0.01396495196968317,0.0061730677261948586,-0.00039860804099589586,0.011986007913947105
0.013267953880131245,0.008185612969100475,-0.01396495196968317,0.0061730677261948586,-0.00039860804099589586,0.011986007913947105
0.015264131128787994,0.008378991857171059,-0.014507737942039967,0.006600779946893454,-0.00036627621739171445,0.011982804164290428
0.015465342439711094,0.008514489978551865,-0.014216471463441849,0.0069763860665261745,-0.00038844344089739025,0.011752291582524776
0.01538592018187046,0.008030405268073082,-0.014265095815062523,0.007022813893854618,-0.0003767908492591232,0.011496723629534245
0.014946996234357357,0.008104600943624973,-0.013960707001388073,0.00654809782281518,-0.00035314864362590015,0.011111585423350334
0.015354359522461891,0.008955482393503189,-0.014365574344992638,0.007017733529210091,-0.0003584086080081761,0.011855848133563995
0.0152458930388093,0.008232034742832184,-0.014086700975894928,0.007132789120078087,-0.0003625487443059683,0.012055612169206142
0.015736272558569908,0.007908495143055916,-0.014210174791514874,0.006867370568215847,-0.00034434697590768337,0.012017223052680492
0.015046515502035618,0.007992724888026714,-0.01425743568688631,0.00654450012370944,-0.00032659518183209,0.01198312547057867
0.015684841200709343,0.008268737234175205,-0.014825022779405117,0.0067888167686760426,-0.0003432362573221326,0.011828739196062088
0.015515593811869621,0.008170289918780327,-0.014081867411732674,0.007506019901484251,-0.00033742847153916955,0.012984503991901875
0.015571855008602142,0.00794582162052393,-0.014181416481733322,0.007334206253290176,-0.00032296046265400946,0.011758459731936455
0.015413044951856136,0.007957926951348782,-0.013713392429053783,0.00714845210313797,-0.00031070102704688907,0.012019079178571701
0.014992829412221909,0.008680924773216248,-0.014193573966622353,0.006839166861027479,-0.0002985835017170757,0.012221546843647957
0.015241295099258423,0.007900788448750973,-0.013576616533100605,0.006955197546631098,-0.0003218308265786618,0.012474263086915016
0.01492160651832819,0.008159046061336994,-0.01448883954435587,0.0074193524196743965,-0.0003159371844958514,0.01254517026245594
0.015560565516352654,0.00832157302647829,-0.014210967347025871,0.007873144932091236,-0.0003360446135047823,0.012376858852803707
0.015552043914794922,0.008086063899099827,-0.014573786407709122,0.006888283416628838,-0.0003300115931779146,0.012690394185483456
0.01584780216217041,0.007829515263438225,-0.014042491093277931,0.007177032995969057,-0.00034743998548947275,0.012452945113182068
0.015252047218382359,0.008319644257426262,-0.014370177872478962,0.007579789496958256,-0.00034322834108024836,0.012847641482949257
0.015896959230303764,0.008535590954124928,-0.013822441920638084,0.007352462504059076,-0.0005989866913296282,0.012796992436051369
0.015881875529885292,0.008062725886702538,-0.014600432477891445,0.006779898423701525,-0.0005968607147224247,0.01303922850638628
0.016027254983782768,0.008024136535823345,-0.014277571812272072,0.007149464450776577,-0.0006248907884582877,0.013030663132667542
0.015992658212780952,0.009084232151508331,-0.01468712743371725,0.0075414483435451984,-0.0005736780585721135,0.012751364149153233
0.016364889219403267,0.007937805727124214,-0.01452880073338747,0.007281539496034384,-0.0005545521853491664,0.01325948629528284
0.016364889219403267,0.007937805727124214,-0.01452880073338747,0.007281539496034384,-0.0005545521853491664,0.01325948629528284
0.016397828236222267,0.009144398383796215,-0.014459377154707909,0.008511539548635483,-0.000564148067496717,0.013263707049190998
0.0157428327947855,0.008055129088461399,-0.01412801444530487,0.0077772485092282295,-0.0005885818391107023,0.013436535373330116
0.016365669667720795,0.007987361401319504,-0.014976827427744865,0.007167504634708166,-0.0005412810714915395,0.013245710171759129
0.016329245641827583,0.008499594405293465,-0.015096325427293777,0.008140587247908115,-0.0005633367109112442,0.013621719554066658
0.016337452456355095,0.00885319896042347,-0.01481314655393362,0.008473561145365238,-0.0005623251781798899,0.013376597315073013
0.016583016142249107,0.0079156793653965,-0.014150572009384632,0.007862661965191364,-0.0005528603796847165,0.013573850505053997
0.016159258782863617,0.008075094781816006,-0.014587225392460823,0.007405939046293497,-0.0005158273852430284,0.013494590297341347
0.016159258782863617,0.008075094781816006,-0.014587225392460823,0.007405939046293497,-0.0005158273852430284,0.013494590297341347
0.01704513654112816,0.008637052029371262,-0.014577305875718594,0.008056274615228176,-0.0005195470293983817,0.013803760521113873
0.016951784491539,0.008051409386098385,-0.014852337539196014,0.007956038229167461,-0.0005146264447830617,0.01378236897289753
0.01707034558057785,0.008154156617820263,-0.015257964842021465,0.007424409035593271,-0.0005071689374744892,0.014100154861807823
0.016851268708705902,0.00860302522778511,-0.015097808092832565,0.007341419346630573,-0.0005035998183302581,0.014547519385814667
0.016909664496779442,0.009330421686172485,-0.015032499097287655,0.007738743908703327,-0.0004980546655133367,0.01491681206971407
0.016978640109300613,0.00815521739423275,-0.015040752477943897,0.008120370097458363,-0.0005208266084082425,0.014467651024460793
0.01686273142695427,0.007719050627201796,-0.014818420633673668,0.007648779544979334,-0.000494878098834306,0.014392860233783722
0.017363211140036583,0.008744086138904095,-0.014404593966901302,0.007943079806864262,-0.0005696479929611087,0.01433954294770956
0.017034657299518585,0.008231631480157375,-0.014624862000346184,0.007985987700521946,-0.0005629518418572843,0.014079514890909195
0.01726844720542431,0.008207900449633598,-0.015043879859149456,0.008383038453757763,-0.0005502671119756997,0.014030400663614273
0.017451444640755653,0.007882104255259037,-0.015368298627436161,0.007944834418594837,-0.000542375142686069,0.014175101183354855
0.017437666654586792,0.008063266053795815,-0.015246568247675896,0.008188923820853233,-0.000533178448677063,0.014434206299483776
0.0178392194211483,0.00758423563092947,-0.015244083479046822,0.008404753170907497,-0.0005455671343952417,0.014688298106193542
0.017493929713964462,0.007423107046633959,-0.014299064874649048,0.008437981829047203,-0.0005222086329013109,0.015283780172467232
0.017466086894273758,0.008088244125247002,-0.01505335234105587,0.008667049929499626,-0.0005587402265518904,0.01518782414495945
0.017804240807890892,0.008334026671946049,-0.01517853606492281,0.008695850148797035,-0.000582351116463542,0.014534112997353077
0.017752470448613167,0.008270515128970146,-0.016229355707764626,0.008276139385998249,-0.0005468869348987937,0.014551013708114624
0.018085751682519913,0.007830274291336536,-0.015421726740896702,0.00789592880755663,-0.0005749865085817873,0.014725451357662678
0.01827830635011196,0.008307757787406445,-0.015572609379887581,0.008655866608023643,-0.0005970736965537071,0.015217750333249569
0.017629867419600487,0.008164430968463421,-0.015188625082373619,0.00881339143961668,-0.0006701552192680538,0.015445339493453503
0.018260011449456215,0.007699507288634777,-0.015641942620277405,0.008800837211310863,-0.0006760447286069393,0.01532917469739914
0.01832212507724762,0.008627936244010925,-0.01527403388172388,0.008336305618286133,-0.0006789401522837579,0.015041990205645561
0.0183811467140913,0.007993057370185852,-0.015722541138529778,0.008220954798161983,-0.0006542420014739037,0.014681478962302208
0.01822284422814846,0.007708047982305288,-0.015465761534869671,0.008058424107730389,-0.0006686107954010367,0.014726098626852036
0.018174882978200912,0.0076974122785031796,-0.01587226614356041,0.008525407873094082,-0.0006210370338521898,0.015399071387946606
0.01896778494119644,0.007708780933171511,-0.015142074786126614,0.008900772780179977,-0.0005772465956397355,0.014825978316366673
0.018734551966190338,0.007880222983658314,-0.015607059933245182,0.008772055618464947,-0.0005525649175979197,0.015017037279903889
0.018933624029159546,0.007911398075520992,-0.015099454671144485,0.008934247307479382,-0.0004947662819176912,0.015700967982411385
0.018933624029159546,0.007911398075520992,-0.015099454671144485,0.008934247307479382,-0.0004947662819176912,0.015700967982411385
0.019121600314974785,0.007950273342430592,-0.0157880000770092,0.009347397834062576,-0.0005110632046125829,0.01549463253468275
0.01876695640385151,0.008794841356575489,-0.015255028381943703,0.009230956435203552,-0.00048519542906433344,0.015596668235957623
0.019202379509806633,0.008074057288467884,-0.01619490422308445,0.008733322843909264,-0.00044637254904955626,0.015577348880469799
0.018656671047210693,0.007639977149665356,-0.015720494091510773,0.008991546928882599,-0.0004762096796184778,0.015718432143330574
0.01782144233584404,0.007578076794743538,-0.015389596112072468,0.008984706364572048,-0.0004466045356821269,0.01578427292406559
0.01916183903813362,0.007190008647739887,-0.015163208357989788,0.00891624391078949,-0.00046879154979251325,0.015828175470232964
0.019700171425938606,0.00735625671222806,-0.015902014449238777,0.008863307535648346,-0.00044674071250483394,0.01630350574851036
0.019520802423357964,0.006996267940849066,-0.015910819172859192,0.008980809710919857,-0.0004213018692098558,0.016331272199749947
0.019196314737200737,0.007422402501106262,-0.01543361321091652,0.009059274569153786,-0.00040868145879358053,0.01630687154829502
0.019422154873609543,0.0074453046545386314,-0.016140121966600418,0.008956445381045341,-0.0003761730913538486,0.01612302102148533
0.019558697938919067,0.007428575307130814,-0.016113584861159325,0.009381505660712719,-0.00040715737850405276,0.016403496265411377
0.02054413966834545,0.007626304402947426,-0.016341062262654305,0.00938443187624216,-0.00038619516999460757,0.016581181436777115
0.019431672990322113,0.00797319132834673,-0.015195542015135288,0.009360811673104763,-0.00041287843487225473,0.016576385125517845
0.019097404554486275,0.007029004395008087,-0.01566637121140957,0.010618828237056732,-0.00039416749496012926,0.016726601868867874
0.02023831382393837,0.007055058144032955,-0.01547742448747158,0.01043777633458376,-0.00041047617560252547,0.0163931492716074
0.020700369030237198,0.007255724165588617,-0.01624453440308571,0.010522640310227871,-0.00039992545498535037,0.01699155382812023
0.02019743248820305,0.007453730795532465,-0.015888502821326256,0.010272121988236904,-0.0003800170961767435,0.01682521030306816
0.020157625898718834,0.00718633783981204,-0.015959421172738075,0.00975958164781332,-0.00045276182936504483,0.016784682869911194
0.021137766540050507,0.0070252809673547745,-0.016272203996777534,0.009669187478721142,-0.0004179719544481486,0.017121031880378723
0.021709758788347244,0.006867885589599609,-0.016059044748544693,0.010030529461801052,-0.0003828550106845796,0.017113501206040382
0.020792394876480103,0.007209311705082655,-0.015503499656915665,0.01018889807164669,-0.0003922723699361086,0.017274148762226105
0.021126236766576767,0.007082599215209484,-0.016254127025604248,0.010528658516705036,-0.0004108143912162632,0.01715429313480854
0.021280162036418915,0.006880250759422779,-0.015953928232192993,0.009973128326237202,-0.0004265791503712535,0.01752002164721489
0.020913856104016304,0.007162339519709349,-0.016152843832969666,0.010082368738949299,-0.00042770683648996055,0.017485912889242172
0.02144412323832512,0.007345884572714567,-0.016157157719135284,0.010091104544699192,-0.000495629501529038,0.01737348921597004
0.021415840834379196,0.0073950020596385,-0.016090668737888336,0.010083649307489395,-0.0005386887351050973,0.0174738597124815
0.02158680558204651,0.006711176596581936,-0.016332337632775307,0.010002904571592808,-0.0005004203994758427,0.01777392067015171
0.021044723689556122,0.007015103008598089,-0.016077790409326553,0.010027642361819744,-0.0005296384915709496,0.017903558909893036
0.021044723689556122,0.007015103008598089,-0.016077790409326553,0.010027642361819744,-0.0005296384915709496,0.017903558909893036
0.02129916474223137,0.006996811833232641,-0.01633095182478428,0.010179951786994934,-0.0004928578855469823,0.017582684755325317
0.021756770089268684,0.0068183173425495625,-0.015823109075427055,0.010556714609265327,-0.0005137707339599729,0.01786016672849655
0.021687373518943787,0.006908162962645292,-0.016859501600265503,0.010544718243181705,-0.00048673528362996876,0.017761437222361565
0.021167365834116936,0.0066927652806043625,-0.016875706613063812,0.01100171823054552,-0.0005148640484549105,0.01777300052344799
0.02211526408791542,0.007237425073981285,-0.01684938557446003,0.011181358247995377,-0.0005127089098095894,0.018043221905827522
0.022082047536969185,0.007592718116939068,-0.016833264380693436,0.010343020781874657,-0.0005433321348391473,0.018092799931764603
0.02037617936730385,0.006954476237297058,-0.01624569296836853,0.010137676261365414,-0.0005036680959165096,0.018361492082476616
0.02190832607448101,0.006482301279902458,-0.01695355959236622,0.010335935279726982,-0.0005276025622151792,0.018739737570285797
0.022757284343242645,0.007068028673529625,-0.016750741750001907,0.009761991910636425,-0.0004951675655320287,0.018674489110708237
0.022662214934825897,0.0072903404943645,-0.016758015379309654,0.01007109135389328,-0.0005078596877865493,0.018811559304594994
0.022478941828012466,0.00699849845841527,-0.01698918454349041,0.010037960484623909,-0.0004884381778538227,0.018536075949668884
0.02224784530699253,0.006980082020163536,-0.016987191513180733,0.00967828743159771,-0.0005000917590223253,0.018743526190519333
0.022217247635126114,0.006686526816338301,-0.017473600804805756,0.010349035263061523,-0.00048800342483446,0.018979091197252274
0.022220375016331673,0.007252238225191832,-0.017332984134554863,0.01039675809442997,-0.0005189395742490888,0.01877838559448719
0.0232408344745636,0.006656962912529707,-0.017589358612895012,0.010447378270328045,-0.00048300917842425406,0.018908686935901642
0.023960575461387634,0.006244922522455454,-0.017709920182824135,0.011091567575931549,-0.0005126868491061032,0.019071020185947418
0.022969139739871025,0.0061125243082642555,-0.017734121531248093,0.010279146023094654,-0.0004782705509569496,0.019832009449601173
0.023181287571787834,0.007214603014290333,-0.01773432083427906,0.009543519467115402,-0.0004447770188562572,0.018174804747104645
0.02249443344771862,0.006494210567325354,-0.016941847279667854,0.010338756255805492,-0.00047064953832887113,0.018669381737709045
0.022927770391106606,0.006280634086579084,-0.017595389857888222,0.009861829690635204,-0.00044514008914120495,0.01959899626672268
0.023693589493632317,0.006661686580628157,-0.017985356971621513,0.00977741926908493,-0.0004545214760582894,0.01998092420399189
0.02364874817430973,0.0063287438824772835,-0.01759018562734127,0.011002461425960064,-0.0004439718322828412,0.02053397335112095
0.023936575278639793,0.006257882807403803,-0.017381420359015465,0.010620941407978535,-0.00044438449549488723,0.01868802309036255
0.024516787379980087,0.006154016125947237,-0.01795046217739582,0.011453887447714806,-0.0004766932688653469,0.019160497933626175
0.024073544889688492,0.00622048182412982,-0.018182728439569473,0.011275914497673512,-0.0004941526567563415,0.020260460674762726
0.024255724623799324,0.006604556925594807,-0.017238304018974304,0.011418872512876987,-0.0004763558099512011,0.020545432344079018
0.02388135902583599,0.007130044512450695,-0.01774904504418373,0.011862259358167648,-0.0005740071646869183,0.019973130896687508
0.02390941232442856,0.006275751627981663,-0.01798129267990589,0.010841737501323223,-0.0005471155163832009,0.019887013360857964
0.024229155853390694,0.006046497728675604,-0.01700172759592533,0.011579460464417934,-0.0005811540177091956,0.02006499655544758
0.024922391399741173,0.006499961018562317,-0.017660772427916527,0.01127400528639555,-0.000572756165638566,0.02118224836885929
0.024922391399741173,0.006499961018562317,-0.017660772427916527,0.01127400528639555,-0.000572756165638566,0.02118224836885929
0.025293953716754913,0.006799462251365185,-0.017569057643413544,0.01177169568836689,-0.0005605998449027538,0.02068355306982994
0.02490631863474846,0.006608912255614996,-0.01728486269712448,0.012183507904410362,-0.0005713014397770166,0.019762810319662094
0.025086935609579086,0.006286078132688999,-0.018021197989583015,0.011857783421874046,-0.00054500054102391,0.019514603540301323
0.02509729191660881,0.006538690999150276,-0.017748849466443062,0.012386135756969452,-0.0005873148911632597,0.019930336624383926
0.024973781779408455,0.006554521154612303,-0.017909005284309387,0.012131994590163231,-0.0006230814615264535,0.020448992028832436
0.024763595312833786,0.00713508203625679,-0.017333999276161194,0.012348330579698086,-0.0006162434001453221,0.0208793506026268
0.02415875904262066,0.006523728836327791,-0.017438918352127075,0.012232648208737373,-0.0005995698156766593,0.021217525005340576
0.025773154571652412,0.006380968727171421,-0.017999766394495964,0.012514661066234112,-0.0005499440594576299,0.021097782999277115
0.02606866881251335,0.006669043097645044,-0.017339210957288742,0.012016169726848602,-0.0005730631528422236,0.021006418392062187
0.02569892816245556,0.006807590834796429,-0.017542488873004913,0.011589687317609787,-0.0005972415092401206,0.02090323716402054
0.026153121143579483,0.006540671922266483,-0.01759498007595539,0.012107429094612598,-0.0006665756227448583,0.020845701918005943
0.02566039189696312,0.006300868466496468,-0.017867106944322586,0.011722574941813946,-0.0006199769559316337,0.021090857684612274
0.025544973090291023,0.006561206188052893,-0.018063711002469063,0.012076900340616703,-0.0006440295255742967,0.020955491811037064
0.02579243667423725,0.007268358487635851,-0.017209593206644058,0.012350410223007202,-0.0006676724879071116,0.02102503925561905
0.02587081678211689,0.007031586952507496,-0.01775537058711052,0.011768794618546963,-0.0007937317714095116,0.02146902121603489
0.02664239890873432,0.006378514226526022,-0.018246162682771683,0.01195082813501358,-0.0007283854065462947,0.021363919600844383
0.026416996493935585,0.006416757591068745,-0.017542248591780663,0.011628320440649986,-0.0007468138355761766,0.021331602707505226
0.026372341439127922,0.00678951246663928,-0.01799043081700802,0.011835506185889244,-0.0006628624978475273,0.02168838120996952
0.027097580954432487,0.006686197128146887,-0.017885033041238785,0.011743567883968353,-0.000681961071677506,0.02191314287483692
0.02726767770946026,0.0064207869581878185,-0.018039174377918243,0.011683695018291473,-0.0006206894177012146,0.021924206987023354
0.027212290093302727,0.00612242566421628,-0.018356408923864365,0.012198098935186863,-0.0006402852013707161,0.021815838292241096
0.027669724076986313,0.006578982342034578,-0.01759186200797558,0.012181093916296959,-0.0005924722063355148,0.022068219259381294
0.027183562517166138,0.00680897431448102,-0.01782400533556938,0.012675960548222065,-0.0005493434146046638,0.02210824377834797
0.02783399447798729,0.00618983618915081,-0.0178824570029974,0.012369559146463871,-0.0004788969235960394,0.02202538773417473
0.02783399447798729,0.00618983618915081,-0.0178824570029974,0.012369559146463871,-0.0004788969235960394,0.02202538773417473
0.02827267535030842,0.00646812142804265,-0.01773722469806671,0.012557483278214931,-0.0005017295479774475,0.022328287363052368
0.02816208079457283,0.0067595262080430984,-0.018027639016509056,0.01327555812895298,-0.0004728020285256207,0.02254626341164112
0.02791103906929493,0.0066567533649504185,-0.018249735236167908,0.012801829725503922,-0.0004946421249769628,0.02238498255610466
0.02845344878733158,0.006508577615022659,-0.017728298902511597,0.01319678220897913,-0.0005568232154473662,0.022291269153356552
0.029117554426193237,0.0065606264397501945,-0.01823335327208042,0.013018378987908363,-0.0005694334977306426,0.022529546171426773
0.029117554426193237,0.0065606264397501945,-0.01823335327208042,0.013018378987908363,-0.0005694334977306426,0.022529546171426773
0.029852036386728287,0.007279707118868828,-0.01848388835787773,0.01326264999806881,-0.0006048687500879169,0.022651970386505127
0.02877233736217022,0.0069808028638362885,-0.017883319407701492,0.013207010924816132,-0.0006167705869302154,0.022900637239217758
0.027527470141649246,0.0063224853947758675,-0.018489863723516464,0.01361437514424324,-0.000580897438339889,0.02255432680249214
0.029575390741229057,0.006509231403470039,-0.01806066557765007,0.013177168555557728,-0.0005330772255547345,0.021981295198202133
0.02976435236632824,0.006637315731495619,-0.01793239638209343,0.013467797078192234,-0.0005567853804677725,0.02163265086710453
0.02879166789352894,0.007260232698172331,-0.018213778734207153,0.013411224819719791,-0.0005207516369409859,0.022556861862540245
0.029663745313882828,0.007582095451653004,-0.018279146403074265,0.013199657201766968,-0.000538811378646642,0.023256869986653328
0.030713189393281937,0.006658296566456556,-0.01877214014530182,0.013389918021857738,-0.0005370217841118574,0.02303776890039444
0.030448807403445244,0.0067222826182842255,-0.019391993060708046,0.0132478391751647,-0.0005274592549540102,0.023413188755512238
0.028938928619027138,0.0072397287003695965,-0.018512926995754242,0.013709288090467453,-0.0005578151321969926,0.023860884830355644
0.029365016147494316,0.007230056449770927,-0.019097590819001198,0.013395809568464756,-0.0005528306355699897,0.023801276460289955
0.030558552592992783,0.006784370634704828,-0.019012585282325745,0.013909448869526386,-0.0005439374363049865,0.023553309962153435
0.029971566051244736,0.006560062523931265,-0.018106162548065186,0.013260015286505222,-0.0006300267996266484,0.023011047393083572
0.02999759279191494,0.007143958937376738,-0.01897572912275791,0.013181806541979313,-0.0005907340673729777,0.022747593000531197
0.030128464102745056,0.006923072971403599,-0.019437221810221672,0.01303787063807249,-0.0005749204428866506,0.023633575066924095
0.030123814940452576,0.0066343042999506,-0.019170057028532028,0.013674072921276093,-0.0005603304598480463,0.02479504607617855
0.03013688325881958,0.006542402319610119,-0.019024118781089783,0.01370725966989994,-0.0005513170617632568,0.024725932627916336
0.030027136206626892,0.006873393896967173,-0.019634967669844627,0.014088702388107777,-0.0005412173341028392,0.024376560002565384
0.030065739527344704,0.007431912701576948,-0.019220462068915367,0.013751355931162834,-0.0005623402539640665,0.024018699303269386
0.03027474135160446,0.006901039741933346,-0.01980607397854328,0.013527270406484604,-0.0005295228911563754,0.024072840809822083
0.030115609988570213,0.006527095567435026,-0.019727956503629684,0.013798019848763943,-0.0005352096632122993,0.024135587736964226
0.030347729101777077,0.0065411850810050964,-0.018404114991426468,0.014001228846609592,-0.0005324943922460079,0.02436729148030281
0.030364399775862694,0.0068156542256474495,-0.019229073077440262,0.014079594053328037,-0.0005233545671217144,0.02457287721335888
0.030227433890104294,0.00681685796007514,-0.01981263980269432,0.01400615181773901,-0.000553858233615756,0.024426795542240143
0.030510004609823227,0.0065209995955228806,-0.018694227561354637,0.013708999380469322,-0.0005675637512467802,0.024729784578084946
0.029336702078580856,0.006815724074840546,-0.02025255188345909,0.014409997500479221,-0.000662097823806107,0.024816619232296944
0.029336702078580856,0.006815724074840546,-0.02025255188345909,0.014409997500479221,-0.000662097823806107,0.024816619232296944
0.03278419375419617,0.006561373360455036,-0.01967126689851284,0.01482817716896534,-0.0006353083299472928,0.025635289028286934
0.032628558576107025,0.0067064822651445866,-0.02004467137157917,0.014579789713025093,-0.0006572058191522956,0.02486252598464489
0.030820606276392937,0.006652390118688345,-0.019171535968780518,0.01483936607837677,-0.0006631168071180582,0.02460143156349659
0.031235110014677048,0.007372580002993345,-0.019550645723938942,0.016013242304325104,-0.0007071346044540405,0.025290627032518387
0.032243017107248306,0.0067021786235272884,-0.02031310275197029,0.016283713281154633,-0.0007493979064747691,0.025326978415250778
0.032243017107248306,0.0067021786235272884,-0.02031310275197029,0.016283713281154633,-0.0007493979064747691,0.025326978415250778
0.031523630023002625,0.006366238929331303,-0.01986018195748329,0.015369067899882793,-0.0007133111939765513,0.025065403431653976
0.03191259503364563,0.006619643419981003,-0.01982768252491951,0.015021907165646553,-0.0007105811964720488,0.025423692539334297
0.03248320892453194,0.006762993987649679,-0.02008712850511074,0.015318752266466618,-0.0006598803447559476,0.025365503504872322
0.03330010548233986,0.007213528733700514,-0.01991669461131096,0.015054521150887012,-0.0006723009864799678,0.025355976074934006
0.032444875687360764,0.006513694766908884,-0.019639139994978905,0.01525795552879572,-0.000707390601746738,0.025427501648664474
0.03183358907699585,0.006411366630345583,-0.02032286487519741,0.014972140081226826,-0.0007326037157326937,0.02550998143851757
0.03263600170612335,0.006788224447518587,-0.02038070745766163,0.015375860035419464,-0.0006717363721691072,0.02563321217894554
0.03294359892606735,0.006891066674143076,-0.020387068390846252,0.015346067026257515,-0.0006916127749718726,0.025721311569213867
0.0331241674721241,0.007127275690436363,-0.02055387943983078,0.01533960085362196,-0.0006286845891736448,0.025689786300063133
0.03294335678219795,0.006380772218108177,-0.020514320582151413,0.01455172710120678,-0.0006114605348557234,0.025643358007073402
0.032937612384557724,0.006295073311775923,-0.020617537200450897,0.014903840608894825,-0.0005964659503661096,0.02546241320669651
0.033208973705768585,0.006588202901184559,-0.020286446437239647,0.014997228980064392,-0.0006029240903444588,0.02572680450975895
0.03332548961043358,0.007351817097514868,-0.020505275577306747,0.015933072194457054,-0.0006333542405627668,0.02607710100710392
0.033611442893743515,0.0065481639467179775,-0.02056175097823143,0.015611916780471802,-0.0007146018324419856,0.026363877579569817
0.033341746777296066,0.006440422963351011,-0.01992073655128479,0.015684766694903374,-0.0006960779428482056,0.026963144540786743
0.03338233381509781,0.006770620122551918,-0.020133530721068382,0.015377230942249298,-0.0010357809951528907,0.0267931018024683
0.0341573990881443,0.007416815962642431,-0.02028263919055462,0.015012403950095177,-0.0009561752085573971,0.026092879474163055
0.032521024346351624,0.0070333038456737995,-0.02063467726111412,0.01471796166151762,-0.0009164665825664997,0.025801969692111015
0.034691330045461655,0.0063712457194924355,-0.02046702243387699,0.014543677680194378,-0.000882773834746331,0.026293985545635223
0.0343315452337265,0.006512441206723452,-0.020605042576789856,0.014445600099861622,-0.0008340955246239901,0.02710997872054577
0.03443455323576927,0.006813185755163431,-0.020930828526616096,0.014383549802005291,-0.0007713658269494772,0.026808394119143486
0.034169360995292664,0.0073614525608718395,-0.020112590864300728,0.015176194719970226,-0.0007853347342461348,0.02697821892797947
0.03465159982442856,0.006892743054777384,-0.020779095590114594,0.016317881643772125,-0.0007995039341039956,0.027902066707611084
0.03492046892642975,0.006220230832695961,-0.021116621792316437,0.015972888097167015,-0.0007906514802016318,0.027397891506552696
0.034837089478969574,0.006343023385852575,-0.021111831068992615,0.015472161583602428,-0.0008244698983617127,0.024989783763885498
0.03505532070994377,0.006645141169428825,-0.020353741943836212,0.01564781926572323,-0.0009081955067813396,0.026519300416111946
0.035111863166093826,0.007097107358276844,-0.02087223157286644,0.015245470218360424,-0.0009210642892867327,0.027235595509409904
0.03562027961015701,0.006236365530639887,-0.02148308791220188,0.016098307445645332,-0.0010449870023876429,0.027694446966052055
0.03540214151144028,0.006574607919901609,-0.021423215046525,0.016196375712752342,-0.0010431432165205479,0.027175629511475563
0.03525993600487709,0.006686839275062084,-0.02162044681608677,0.01633523963391781,-0.0009547423105686903,0.027500860393047333
0.035864729434251785,0.006551393773406744,-0.021380895748734474,0.016516439616680145,-0.0008824925171211362,0.027509264647960663
0.03684341907501221,0.00632792292162776,-0.020627902820706367,0.01663784682750702,-0.0008581022266298532,0.027544384822249413
0.036707803606987,0.006586418487131596,-0.02114841900765896,0.015944605693221092,-0.0007888704421930015,0.02751203067600727
0.036707803606987,0.006586418487131596,-0.02114841900765896,0.015944605693221092,-0.0007888704421930015,0.02751203067600727
0.03469850495457649,0.006744079757481813,-0.023098338395357132,0.016047917306423187,-0.0007124233525246382,0.027699310332536697
0.036088019609451294,0.006667195353657007,-0.02166108600795269,0.015796899795532227,-0.0005956523236818612,0.027808906510472298
0.036435700953006744,0.006407609675079584,-0.020261308178305626,0.016273045912384987,-0.0005974554806016386,0.02801097184419632
0.03656502440571785,0.006316719111055136,-0.021747324615716934,0.01654083840548992,-0.0006267150747589767,0.02807409130036831
0.0373951718211174,0.006235387176275253,-0.022967159748077393,0.016761120408773422,-0.0005904145655222237,0.028011204674839973
0.03702232986688614,0.006653026677668095,-0.022401543334126472,0.016971979290246964,-0.000612979696597904,0.027869639918208122
0.035932060331106186,0.006396752316504717,-0.020975327119231224,0.01661701872944832,-0.0007236918318085372,0.028314005583524704
0.03627629205584526,0.005722441710531712,-0.02168355882167816,0.016535773873329163,-0.0007857962045818567,0.028558026999235153
0.037630096077919006,0.005034907255321741,-0.021481089293956757,0.016157856211066246,-0.0007877981406636536,0.02839432656764984
0.03661595657467842,0.0049214051105082035,-0.021579833701252937,0.016406092792749405,-0.0007742047309875488,0.028912600129842758
0.037821900099515915,0.005809090565890074,-0.021857712417840958,0.01600862294435501,-0.0007407692028209567,0.02899841219186783
0.037761788815259933,0.005506877321749926,-0.02185014635324478,0.016214389353990555,-0.0008180641452781856,0.028970515355467796
0.03751026839017868,0.005722562782466412,-0.021835606545209885,0.016331017017364502,-0.0008365334942936897,0.028620941564440727
0.038054149597883224,0.005224867258220911,-0.02203224040567875,0.016744712367653847,-0.0008293250575661659,0.028881587088108063
0.03743896260857582,0.00495733181014657,-0.021791307255625725,0.017102649435400963,-0.0008368692942894995,0.029873644933104515
0.0379985049366951,0.0056917681358754635,-0.021778523921966553,0.016866374760866165,-0.0009229470742866397,0.030400225892663002
0.03826826438307762,0.005471863318234682,-0.021879790350794792,0.016821885481476784,-0.0009544798522256315,0.02991420589387417
0.03784067928791046,0.005282026715576649,-0.022012222558259964,0.01684139296412468,-0.0009484288166277111,0.028778519481420517
0.03800073638558388,0.00510331429541111,-0.021673288196325302,0.016994960606098175,-0.00089648348512128,0.029178619384765625
0.038047630339860916,0.004932048264890909,-0.021839965134859085,0.017413103953003883,-0.0008432122995145619,0.030048253014683723
0.039574116468429565,0.005216391757130623,-0.022185320034623146,0.01696097105741501,-0.0008232043473981321,0.029694698750972748
0.0382288321852684,0.005254083313047886,-0.022326961159706116,0.017324265092611313,-0.0007881232886575162,0.030396277084946632
0.037489116191864014,0.00572475278750062,-0.022234216332435608,0.01759040169417858,-0.0007413339335471392,0.03123069368302822
0.03882358968257904,0.005220691207796335,-0.021882686764001846,0.017414117231965065,-0.0007563605904579163,0.03029472939670086
0.03869405761361122,0.004924909211695194,-0.022088926285505295,0.01748032309114933,-0.0007715912652201951,0.03002255968749523
0.0394040010869503,0.005163353867828846,-0.02231660671532154,0.017100811004638672,-0.0008146922918967903,0.029356611892580986
0.038355883210897446,0.005614985711872578,-0.02191270887851715,0.018685949966311455,-0.000941132428124547,0.03126918524503708
0.03811213746666908,0.005115181673318148,-0.022175170481204987,0.017988154664635658,-0.0011271178955212235,0.030647030100226402
0.039701320230960846,0.0047983089461922646,-0.022367583587765694,0.018327195197343826,-0.0011495548533275723,0.030586861073970795
0.039165105670690536,0.005094443913549185,-0.02253660373389721,0.017905136570334435,-0.0009711565217003226,0.030567962676286697
0.03950783237814903,0.005118912551552057,-0.021850012242794037,0.017465680837631226,-0.0009233873570337892,0.030136939138174057
0.03944885730743408,0.005741690285503864,-0.021780364215373993,0.018115682527422905,-0.0008883504197001457,0.030311821028590202
0.03944885730743408,0.005741690285503864,-0.021780364215373993,0.018115682527422905,-0.0008883504197001457,0.030311821028590202
0.03976263850927353,0.005406211130321026,-0.022106057032942772,0.017975660040974617,-0.0008405391126871109,0.030850207433104515
0.039626091718673706,0.0052946521900594234,-0.022279350087046623,0.018495803698897362,-0.0007900242344476283,0.030763398855924606
0.039809755980968475,0.004946220200508833,-0.02237454243004322,0.018377138301730156,-0.0008013707119971514,0.030999697744846344
0.03984557464718819,0.005191719625145197,-0.02178410068154335,0.017664911225438118,-0.0008403253159485757,0.031018583104014397
0.0399419404566288,0.005481446627527475,-0.021851032972335815,0.018464185297489166,-0.0009508246439509094,0.03091396763920784
0.040190260857343674,0.005317686591297388,-0.022611325606703758,0.0187581405043602,-0.0010596101637929678,0.031588975340127945
0.04013947397470474,0.005728343967348337,-0.02317805401980877,0.01883818581700325,-0.0010402076877653599,0.03169689700007439
0.040832772850990295,0.005249492824077606,-0.02289739064872265,0.01850602589547634,-0.0010201388504356146,0.03160468116402626
0.04039166122674942,0.004866473842412233,-0.022222764790058136,0.01760515756905079,-0.0009993877029046416,0.031881172209978104
0.04079383984208107,0.005253857932984829,-0.021948549896478653,0.01805107109248638,-0.001016260706819594,0.031755317002534866
0.041555438190698624,0.005219552665948868,-0.022806143388152122,0.018029548227787018,-0.0010193437337875366,0.03206254541873932
0.04050733521580696,0.005175665020942688,-0.022405799478292465,0.017317425459623337,-0.0010125602129846811,0.031983617693185806
0.040941983461380005,0.0057396600022912025,-0.02234659530222416,0.01790640316903591,-0.0010591766331344843,0.0320064052939415
0.04102800041437149,0.0053080604411661625,-0.02235271967947483,0.018399273976683617,-0.0010345523478463292,0.031027475371956825
0.04100087657570839,0.004719121847301722,-0.0226803719997406,0.018220309168100357,-0.0008866963325999677,0.032396506518125534
0.04138029366731644,0.005085739307105541,-0.023333163931965828,0.018421905115246773,-0.0008799737552180886,0.032264262437820435
0.041208766400814056,0.005064190831035376,-0.02286682464182377,0.018120616674423218,-0.000859585590660572,0.03248175233602524
0.04112391918897629,0.0054623219184577465,-0.0224105603992939,0.018183566629886627,-0.0007904391968622804,0.033586133271455765
0.04076733812689781,0.005459303501993418,-0.02269832044839859,0.0183328278362751,-0.0007169906748458743,0.03280464932322502
0.042971085757017136,0.005432201083749533,-0.02255084551870823,0.0179640743881464,-0.000601904233917594,0.03161361441016197
0.0423642061650753,0.005126434378325939,-0.022451801225543022,0.018350308761000633,-0.0006205174140632153,0.031813085079193115
0.04080567881464958,0.004754102323204279,-0.022473372519016266,0.018440911546349525,-0.0006488861399702728,0.033142343163490295
0.041614092886447906,0.0055173649452626705,-0.023161588236689568,0.018564168363809586,-0.0006802758434787393,0.03281332552433014
0.04175589233636856,0.005366590805351734,-0.02323712781071663,0.019387803971767426,-0.0009899836732074618,0.033908549696207047
0.043649256229400635,0.005350147373974323,-0.0231668408960104,0.01953534595668316,-0.000992693123407662,0.03380406275391579
0.04100363701581955,0.005039250943809748,-0.02286684140563011,0.019896818324923515,-0.0009034292888827622,0.0324268639087677
0.04185495153069496,0.005460081156343222,-0.023070359602570534,0.01950504630804062,-0.0008965684683062136,0.033387649804353714
0.04332854598760605,0.005378837697207928,-0.02360096573829651,0.01927093043923378,-0.001031629042699933,0.034576982259750366
0.04262921214103699,0.005894658621400595,-0.02312098816037178,0.01959827169775963,-0.0010389410890638828,0.034093067049980164
0.04292965307831764,0.005305665545165539,-0.023216672241687775,0.019560476765036583,-0.0011815507896244526,0.033479806035757065
0.042831581085920334,0.005038604140281677,-0.0231296606361866,0.019249871373176575,-0.0011842240346595645,0.03363024443387985
0.04337553307414055,0.00566971767693758,-0.023403245955705643,0.019465884193778038,-0.0011474905768409371,0.03362475335597992
0.04281584918498993,0.006401004269719124,-0.023440862074494362,0.019479651004076004,-0.0010999637888744473,0.03432023525238037
0.04292350634932518,0.005832862574607134,-0.02335551753640175,0.019371366128325462,-0.0009904741309583187,0.034365881234407425
0.04270310327410698,0.005845197476446629,-0.023782772943377495,0.01962081342935562,-0.0009558186284266412,0.03401242569088936
0.04270310327410698,0.005845197476446629,-0.023782772943377495,0.01962081342935562,-0.0009558186284266412,0.03401242569088936
0.043248288333415985,0.00535335298627615,-0.023749057203531265,0.019863180816173553,-0.0009459345601499081,0.03391911834478378
0.0443512424826622,0.005089305341243744,-0.023197432979941368,0.019581610336899757,-0.0009555769502185285,0.03432080149650574
0.042834341526031494,0.005840763449668884,-0.023196423426270485,0.01962120831012726,-0.001004484947770834,0.03469644859433174
0.04218684136867523,0.005700564477592707,-0.02430078759789467,0.020149514079093933,-0.0011096276575699449,0.03442148491740227
0.04310339316725731,0.005783078260719776,-0.024255940690636635,0.019841434434056282,-0.001139670261181891,0.035535793751478195
0.04362965747714043,0.005274734925478697,-0.024025149643421173,0.019610580056905746,-0.0013668471947312355,0.035303667187690735
0.04474291950464249,0.005319424904882908,-0.02418041229248047,0.020091481506824493,-0.0012085615890100598,0.03538140282034874
0.042367298156023026,0.00520350830629468,-0.02391127124428749,0.020255114883184433,-0.0011356626637279987,0.0352252796292305
0.042424507439136505,0.005520033184438944,-0.023914143443107605,0.02037450671195984,-0.000978228752501309,0.03528871759772301
0.0444788783788681,0.005684254691004753,-0.024292973801493645,0.020601121708750725,-0.0009594499715603888,0.034698449075222015
0.04430827498435974,0.005380313377827406,-0.0247102752327919,0.02059168554842472,-0.0008288077660836279,0.03617444261908531
0.044046398252248764,0.005462589208036661,-0.024881551042199135,0.019973868504166603,-0.0007838206365704536,0.03711425140500069
0.04373788461089134,0.005303054116666317,-0.02458781935274601,0.019866641610860825,-0.000810955767519772,0.03530392423272133
0.04434256628155708,0.00532066123560071,-0.024733029305934906,0.020025815814733505,-0.0008221147581934929,0.03405994176864624
0.0452316477894783,0.005531318485736847,-0.024496810510754585,0.020929019898176193,-0.0011701877228915691,0.035781294107437134
0.04459810629487038,0.005521579645574093,-0.024462221190333366,0.021062416955828667,-0.0011845759581774473,0.03627829626202583
0.044522352516651154,0.005175886210054159,-0.024669954553246498,0.021034985780715942,-0.0011427266290411353,0.037197504192590714
0.04495924711227417,0.005701093934476376,-0.025129247456789017,0.020569821819663048,-0.0010184354614466429,0.03652237728238106
0.045143164694309235,0.0053866468369960785,-0.02583596482872963,0.020414553582668304,-0.0010090668220072985,0.03467772901058197
0.04567701369524002,0.005652285646647215,-0.025115003809332848,0.02067979983985424,-0.0009976491564884782,0.03631258010864258
0.04548024758696556,0.005971275735646486,-0.02450442872941494,0.02099195495247841,-0.0010119875660166144,0.03659562021493912
0.04610395058989525,0.005433027166873217,-0.024551603943109512,0.02030249685049057,-0.0011369424173608422,0.036588214337825775
0.045811403542757034,0.005052023101598024,-0.025164244696497917,0.021143870428204536,-0.0011554877273738384,0.037705015391111374
0.04597531631588936,0.005186780355870724,-0.024878133088350296,0.02173384092748165,-0.0012904582545161247,0.03689839690923691
0.046301085501909256,0.0054834336042404175,-0.025039179250597954,0.021591294556856155,-0.001380600268021226,0.03677910193800926
0.046301085501909256,0.0054834336042404175,-0.025039179250597954,0.021591294556856155,-0.001380600268021226,0.03677910193800926
0.046582113951444626,0.005618971772491932,-0.025976745411753654,0.02143223024904728,-0.0013429720420390368,0.03669964522123337
0.04643111303448677,0.005106980446726084,-0.026269150897860527,0.021529963240027428,-0.0011686607031151652,0.03708115965127945
0.04718076065182686,0.004824123810976744,-0.02549312822520733,0.020677434280514717,-0.0010089105926454067,0.03714006766676903
0.04679686576128006,0.005197585094720125,-0.025046933442354202,0.021018745377659798,-0.0009494361001998186,0.03716730698943138
0.046852029860019684,0.00555689400061965,-0.024942096322774887,0.021079884842038155,-0.0009391492349095643,0.03775065764784813
0.04802626371383667,0.006058708298951387,-0.025103861466050148,0.02154909260571003,-0.0009574274881742895,0.037632834166288376
0.046644728630781174,0.005510412622243166,-0.026599431410431862,0.021578168496489525,-0.0011121794814243913,0.0375230573117733
0.045852042734622955,0.005119966808706522,-0.02646598219871521,0.021501291543245316,-0.0012113138800486922,0.03809122368693352
0.04732640087604523,0.005094846710562706,-0.026442497968673706,0.021806566044688225,-0.0013978200731799006,0.038243114948272705
0.0479019470512867,0.005680559203028679,-0.026321588084101677,0.022387787699699402,-0.0013282510917633772,0.03802158311009407
0.04993158206343651,0.005506634712219238,-0.028121542185544968,0.022445019334554672,-0.0011105588637292385,0.03854837641119957
0.04693984612822533,0.005849506705999374,-0.025926247239112854,0.022222384810447693,-0.0009959980379790068,0.03860217705368996
0.04806256666779518,0.005283697042614222,-0.02606198750436306,0.02163621224462986,-0.0009143545757979155,0.03814665600657463
0.04837142676115036,0.005252443719655275,-0.026281097903847694,0.0219305157661438,-0.000900096376426518,0.04016397148370743
0.04818597808480263,0.005396566353738308,-0.02629884146153927,0.022322947159409523,-0.0007388658705167472,0.040655653923749924
0.047942839562892914,0.005125151015818119,-0.026366516947746277,0.022536596283316612,-0.0007274243980646133,0.03777427598834038
0.04858836159110069,0.005496950354427099,-0.026904946193099022,0.02254740707576275,-0.0007461055647581816,0.0382409393787384
0.0487290695309639,0.005558442790061235,-0.026972666382789612,0.022433936595916748,-0.0007784495246596634,0.03864603117108345
0.048169948160648346,0.005540578160434961,-0.02659783326089382,0.02268659695982933,-0.0012069980148226023,0.039712678641080856
0.049692705273628235,0.005227323155850172,-0.026775242760777473,0.02293034829199314,-0.001268284278921783,0.040765829384326935
0.04979458451271057,0.005768555216491222,-0.026788396760821342,0.02239249460399151,-0.0011638411087915301,0.03986188769340515
0.04713696613907814,0.005376498680561781,-0.026841772720217705,0.021942559629678726,-0.0012813521316275,0.038380734622478485
0.04986148327589035,0.005354646593332291,-0.02737458236515522,0.02246277965605259,-0.0010466673411428928,0.04031391814351082
0.050729911774396896,0.004937231540679932,-0.02770175039768219,0.02231782115995884,-0.0010158884106203914,0.04026433825492859
0.04897409304976463,0.005504867061972618,-0.026916565373539925,0.022625045850872993,-0.0009047735948115587,0.03945580869913101
0.0488414466381073,0.005346899386495352,-0.026822427287697792,0.022695399820804596,-0.0008729250985197723,0.03892853856086731
0.0488414466381073,0.005346899386495352,-0.026822427287697792,0.022695399820804596,-0.0008729250985197723,0.03892853856086731
0.05027671903371811,0.005186067428439856,-0.02755104936659336,0.022539058700203896,-0.0008748828549869359,0.04060443118214607
0.049770765006542206,0.005603269673883915,-0.027718180790543556,0.022687260061502457,-0.0008779939962550998,0.041005246341228485
0.049835022538900375,0.005052924156188965,-0.026818230748176575,0.022827299311757088,-0.001102821552194655,0.04074830189347267
0.049858640879392624,0.004959465470165014,-0.026782387867569923,0.02250823937356472,-0.0011733358260244131,0.040864285081624985
0.050288181751966476,0.004933578427881002,-0.02739117480814457,0.022772200405597687,-0.0011586756445467472,0.041070833802223206
0.05001635476946831,0.004860876593738794,-0.02746565267443657,0.02345021441578865,-0.0014459602534770966,0.041118696331977844
0.05017763376235962,0.00573682552203536,-0.026869997382164,0.02422143891453743,-0.0013750637881457806,0.04114734008908272
0.05059637501835823,0.005405569449067116,-0.027622375637292862,0.024439796805381775,-0.0013057418400421739,0.041094034910202026
0.05065363273024559,0.004743977449834347,-0.028194375336170197,0.023446951061487198,-0.0012919374275952578,0.041491247713565826
0.050581082701683044,0.004836695268750191,-0.027672231197357178,0.02286272495985031,-0.001215656753629446,0.04119202494621277
0.0508352629840374,0.005353093147277832,-0.028114819899201393,0.02334243431687355,-0.0010874756844714284,0.041647862643003464
0.05054460093379021,0.005003936123102903,-0.027712127193808556,0.0240017157047987,-0.0010544960387051105,0.042217716574668884
0.05098191648721695,0.005023247096687555,-0.027839256450533867,0.023982075974345207,-0.0009346796432510018,0.041599445044994354
0.05151790380477905,0.005202825181186199,-0.02864445373415947,0.0234150942414999,-0.0009155187872238457,0.04133620113134384
0.05165332555770874,0.004852921236306429,-0.028518564999103546,0.02376297116279602,-0.0009122703922912478,0.04151516035199165
0.05192811042070389,0.0049796500243246555,-0.028295977041125298,0.024589085951447487,-0.0009105956414714456,0.04234066233038902
0.05160852149128914,0.0052922978065907955,-0.028481489047408104,0.024383544921875,-0.00106321950443089,0.043362416326999664
0.05175826698541641,0.005004280712455511,-0.028948606923222542,0.024408690631389618,-0.0010572409955784678,0.041903305798769
0.05157371237874031,0.005426447372883558,-0.02888384833931923,0.024555565789341927,-0.0010874929139390588,0.04095427691936493
0.051379553973674774,0.0051935454830527306,-0.0283614881336689,0.023368986323475838,-0.0013876468874514103,0.041976653039455414
0.053673744201660156,0.004696513060480356,-0.028497401624917984,0.023831253871321678,-0.0013515895698219538,0.043122708797454834
0.05312660336494446,0.004829220939427614,-0.028479302302002907,0.025008173659443855,-0.0012933812104165554,0.04277976229786873
0.05111677199602127,0.004928638227283955,-0.028464987874031067,0.024853918701410294,-0.0012285422999411821,0.04290906339883804
0.05193888768553734,0.004765118006616831,-0.028781216591596603,0.024748248979449272,-0.0012498890282586217,0.041693270206451416
0.053437333554029465,0.005221141502261162,-0.029379384592175484,0.024990001693367958,-0.0011935989605262876,0.04307450354099274
0.05419055372476578,0.005063454620540142,-0.02930619940161705,0.025507748126983643,-0.0011231094831600785,0.0438777320086956
0.051295291632413864,0.0048355842009186745,-0.02853991463780403,0.025243576616048813,-0.0011967788450419903,0.04366085305809975
0.05359767749905586,0.004971373360604048,-0.02897770144045353,0.02482033334672451,-0.0015310273738577962,0.04366861656308174
0.05331796780228615,0.004999374505132437,-0.029020655900239944,0.025007124990224838,-0.0016302705043926835,0.043367862701416016
0.05324741452932358,0.004911778494715691,-0.028742611408233643,0.02506105974316597,-0.0015116964932531118,0.04349658638238907
0.052851222455501556,0.005176878999918699,-0.02909245900809765,0.025264564901590347,-0.0014070033794268966,0.04332661256194115
0.054316550493240356,0.00490274652838707,-0.028823712840676308,0.025520695373415947,-0.0012527864892035723,0.043963100761175156
0.05471093952655792,0.004417698364704847,-0.028956998139619827,0.025202099233865738,-0.0011117112590000033,0.04387472942471504
0.05471093952655792,0.004417698364704847,-0.028956998139619827,0.025202099233865738,-0.0011117112590000033,0.04387472942471504
0.05172443762421608,0.004558899439871311,-0.028787976130843163,0.02578340843319893,-0.0010648369789123535,0.044278617948293686
0.05308597907423973,0.004670450463891029,-0.028907662257552147,0.025738388299942017,-0.000896727666258812,0.04335571452975273
0.05583731085062027,0.00497760996222496,-0.029699787497520447,0.025529906153678894,-0.0007260044803842902,0.04494646191596985
0.05489824712276459,0.0044840131886303425,-0.029073776677250862,0.025569748133420944,-0.0007385424105450511,0.046479273587465286
0.052396975457668304,0.00450660428032279,-0.028955115005373955,0.025527404621243477,-0.0008097108802758157,0.0446186438202858
0.05415681004524231,0.004433372989296913,-0.03074762225151062,0.025683265179395676,-0.0009250084403902292,0.043864279985427856
0.05468843877315521,0.004382007755339146,-0.02869570627808571,0.025851286947727203,-0.0011841055238619447,0.04432305321097374
0.054687291383743286,0.0048980796709656715,-0.029299406334757805,0.025705689564347267,-0.001197081059217453,0.04623670503497124
0.05469115450978279,0.0049314652569592,-0.03033985197544098,0.02616925723850727,-0.0015987757360562682,0.04698093235492706
0.05493391305208206,0.004861864261329174,-0.029750928282737732,0.025990813970565796,-0.001462849322706461,0.04486069828271866
0.05452536419034004,0.004970123991370201,-0.028710152953863144,0.025520863011479378,-0.0013106648111715913,0.044368498027324677
0.05469055101275444,0.00520391296595335,-0.02886572666466236,0.02565772272646427,-0.0011590436333790421,0.046195246279239655
0.05489305779337883,0.004628527443856001,-0.02974380925297737,0.025547707453370094,-0.001085401396267116,0.04522702097892761
0.055163200944662094,0.004541270900517702,-0.029291203245520592,0.0255606509745121,-0.0011736095184460282,0.04635635390877724
0.055274367332458496,0.005076433531939983,-0.028866218402981758,0.025954624637961388,-0.001567775965668261,0.04609454423189163
0.05541083961725235,0.004553636536002159,-0.029924413189291954,0.025961123406887054,-0.001665990217588842,0.04601164162158966
0.0556703545153141,0.003578492905944586,-0.029899314045906067,0.026325207203626633,-0.001748331356793642,0.046175070106983185
0.055455245077610016,0.0035123140551149845,-0.029241949319839478,0.02761968784034252,-0.0016557464841753244,0.04642031341791153
0.05573931708931923,0.003848177846521139,-0.02875932864844799,0.027656611055135727,-0.0015263401437550783,0.046550292521715164
0.05564633756875992,0.004051577299833298,-0.02937040664255619,0.02635628916323185,-0.001299003604799509,0.0465347021818161
0.05609985068440437,0.003990866243839264,-0.03002164140343666,0.02559657394886017,-0.0013041638303548098,0.04706256091594696
0.05603112652897835,0.0038359430618584156,-0.029303058981895447,0.02622341178357601,-0.0012357482919469476,0.046836405992507935
0.05611881986260414,0.003785820910707116,-0.02918410860002041,0.028497016057372093,-0.0011187369236722589,0.04583846032619476
0.05628795549273491,0.003933091647922993,-0.02923668548464775,0.026340309530496597,-0.0010793894762173295,0.048224251717329025
0.057958830147981644,0.0035747401416301727,-0.02936631627380848,0.027645710855722427,-0.0010593989863991737,0.04614640399813652
0.05548331141471863,0.004146134946495295,-0.029158687219023705,0.027571503072977066,-0.0011129057966172695,0.046443402767181396
0.05607038363814354,0.004086576867848635,-0.02959105558693409,0.027036789804697037,-0.0011064133141189814,0.048999980092048645
0.05657055228948593,0.0035126935690641403,-0.02990887500345707,0.026031356304883957,-0.0010727767366915941,0.048978447914123535
0.05787579342722893,0.0033204839564859867,-0.02999456413090229,0.026367414742708206,-0.0010563416872173548,0.04651482775807381
0.05566105991601944,0.003436898346990347,-0.029865505173802376,0.027782024815678596,-0.0011155483080074191,0.0473623089492321
0.058052908629179,0.003669159021228552,-0.029693547636270523,0.02788269892334938,-0.0011322502978146076,0.04836411029100418
0.058052908629179,0.003669159021228552,-0.029693547636270523,0.02788269892334938,-0.0011322502978146076,0.04836411029100418
0.05591171607375145,0.0037665576674044132,-0.029993657022714615,0.02789713442325592,-0.0011179683497175574,0.04806487262248993
0.056511566042900085,0.0035811758134514093,-0.030577167868614197,0.027993610128760338,-0.0013027637032791972,0.047384537756443024
0.05741921067237854,0.0035127662122249603,-0.03092818893492222,0.02791735902428627,-0.0012987185036763549,0.048773009330034256
0.05627850443124771,0.0036489921621978283,-0.03018127754330635,0.02772941067814827,-0.0012331606121733785,0.04873434454202652
0.05894928798079491,0.003426186041906476,-0.030243605375289917,0.027957510203123093,-0.0011835821205750108,0.04845516383647919
0.05635387450456619,0.003535285359248519,-0.03136059641838074,0.027987366542220116,-0.0012472873786464334,0.04856538400053978
0.056452587246894836,0.003660851391032338,-0.031187590211629868,0.027722589671611786,-0.0012337127700448036,0.04894745349884033
0.05852934345602989,0.003696058876812458,-0.029683666303753853,0.027719631791114807,-0.0013876352459192276,0.04903578385710716
0.058815475553274155,0.004189177881926298,-0.029866483062505722,0.027519386261701584,-0.0015172064304351807,0.048983871936798096
0.05606670677661896,0.00417095934972167,-0.030920807272195816,0.027971452102065086,-0.0016447370871901512,0.04895121976733208
0.057865314185619354,0.003521932754665613,-0.03053036332130432,0.027767296880483627,-0.0017232239479199052,0.04866013303399086
0.058432258665561676,0.003535658121109009,-0.030546080321073532,0.028018908575177193,-0.0015989034436643124,0.04849003255367279
0.058661896735429764,0.003739629639312625,-0.031867615878582,0.028329363092780113,-0.0014920688699930906,0.04938660189509392
0.05866086483001709,0.003923187032341957,-0.031084755435585976,0.02861654944717884,-0.0012610984267666936,0.050535667687654495
0.05850491672754288,0.003949567675590515,-0.03146468847990036,0.028451675549149513,-0.001265403931029141,0.04916121065616608
0.05883992835879326,0.003835940035060048,-0.030129192396998405,0.028301211073994637,-0.001156952348537743,0.049984123557806015
0.05827474594116211,0.004132552538067102,-0.03184811770915985,0.02756715938448906,-0.0012016926193609834,0.05034472048282623
0.0584573894739151,0.004221426788717508,-0.03222256526350975,0.0271618515253067,-0.0012060293229296803,0.047891244292259216
0.05876226723194122,0.004072114825248718,-0.03185310587286949,0.027763716876506805,-0.0016129447612911463,0.04860874265432358
0.05868053808808327,0.003922232426702976,-0.031790733337402344,0.02831554412841797,-0.0017037070356309414,0.05016704648733139
0.058764420449733734,0.003957855049520731,-0.031958673149347305,0.02848649211227894,-0.001588960993103683,0.05140414088964462
0.059159573167562485,0.0039529805071651936,-0.031978216022253036,0.02876606583595276,-0.0014588437043130398,0.0492333360016346
0.05897097662091255,0.0038803694769740105,-0.03205440938472748,0.027684712782502174,-0.0013406595680862665,0.04924330487847328
0.05925213545560837,0.003989547025412321,-0.03294701129198074,0.028347397223114967,-0.0010338564170524478,0.05133405700325966
0.05937925726175308,0.004349132068455219,-0.032649196684360504,0.028601424768567085,-0.0009609232074581087,0.051377877593040466
0.06004882976412773,0.004144804086536169,-0.03314608708024025,0.029924800619482994,-0.0009667081176303327,0.050899166613817215
0.05958272144198418,0.003983626142144203,-0.03303621709346771,0.02936115860939026,-0.0009673369349911809,0.0512692853808403
0.06079840287566185,0.003870859509333968,-0.03273334726691246,0.02847745642066002,-0.00119097123388201,0.05141201615333557
0.0602688193321228,0.004278287291526794,-0.03273212909698486,0.028093159198760986,-0.0011517148232087493,0.051018454134464264
0.0602688193321228,0.004278287291526794,-0.03273212909698486,0.028093159198760986,-0.0011517148232087493,0.051018454134464264
0.05867756903171539,0.004304191097617149,-0.03313000872731209,0.028605308383703232,-0.0011312771821394563,0.051288142800331116
0.05948159843683243,0.004581706132739782,-0.033564526587724686,0.029650822281837463,-0.0011308907996863127,0.05086236074566841
0.06196059659123421,0.004437888041138649,-0.033136848360300064,0.029153114184737206,-0.0011239309096708894,0.051856476813554764
0.05963915213942528,0.004086785949766636,-0.0333775095641613,0.028801413252949715,-0.001161219784989953,0.0525687001645565
0.060272179543972015,0.003877026028931141,-0.033074382692575455,0.02910361811518669,-0.0011660164454951882,0.0503937266767025
0.0608440637588501,0.004388667643070221,-0.03310811147093773,0.0293491892516613,-0.0013434087159112096,0.05196850001811981
0.06087907776236534,0.004617293365299702,-0.03314247354865074,0.029407573863863945,-0.0015998022863641381,0.05332527682185173
0.060957878828048706,0.004694146104156971,-0.033018823713064194,0.029120583087205887,-0.0018513186369091272,0.05389653518795967
0.06082063168287277,0.004411723930388689,-0.03339124098420143,0.029124945402145386,-0.0017204523319378495,0.05117166042327881
0.062852643430233,0.004533480387181044,-0.03380535915493965,0.029412293806672096,-0.001418132334947586,0.05152135714888573
0.06255467236042023,0.00450544711202383,-0.03386450931429863,0.029630156233906746,-0.0012870208593085408,0.05267241597175598
0.06124842166900635,0.004068189766258001,-0.033446814864873886,0.02988700196146965,-0.0011979966657236218,0.052914831787347794
