davideferrari95/blind_handover_controller/data/Test 148 - [2024-02-07 -- 17-29-41]/joint_states_data.csv
shoulder_pan_joint,shoulder_lift_joint,elbow_joint,wrist_1_joint,wrist_2_joint,wrist_3_joint
0.00807645358145237,-0.0007186586735770106,-0.011541053652763367,0.013365483842790127,0.0,0.007088875863701105
0.00807645358145237,-0.0007186586735770106,-0.011541053652763367,0.013365483842790127,0.0,0.007088875863701105
0.007902720011770725,-0.0006322628469206393,-0.011278900317847729,0.013307522051036358,0.0,0.006968321278691292
0.007902720011770725,-0.0006322628469206393,-0.011278900317847729,0.013307522051036358,0.0,0.006968321278691292
0.007069732993841171,-0.0006633273442275822,-0.011523294262588024,0.013146408833563328,0.0,0.0067934091202914715
0.007508038077503443,-0.0006892194505780935,-0.01176226045936346,0.013119980692863464,0.0,0.006669729016721249
0.007800028659403324,-0.0007195461075752974,-0.0115420026704669,0.012992280535399914,0.0,0.006870926823467016
0.0067606898956000805,-0.0010899959597736597,-0.01133344043046236,0.013178912922739983,0.0,0.007054289802908897
0.006648007780313492,-0.0011786933755502105,-0.010490589775145054,0.01288105919957161,0.0,0.006885753013193607
0.00689945463091135,-0.00107286823913455,-0.011135644279420376,0.013117117807269096,0.0,0.006613375153392553
0.00693900790065527,-0.0012945308117195964,-0.010909013450145721,0.012539546936750412,0.0,0.006534887477755547
0.007252379320561886,-0.0012203505029901862,-0.010773720219731331,0.013122815638780594,0.0,0.006593021564185619
0.006999502889811993,-0.0011675739660859108,-0.011421741917729378,0.012943882495164871,0.0,0.006438597571104765
0.006591607350856066,-0.0010384100023657084,-0.011096474714577198,0.013251456432044506,0.0,0.006504032760858536
0.00695017259567976,-0.0010468560503795743,-0.01146745216101408,0.01335699949413538,0.0,0.007031720597296953
0.007157731335610151,-0.0010351981036365032,-0.01151877362281084,0.013227904215455055,0.0,0.007004517130553722
0.00714972335845232,-0.001030443818308413,-0.010865282267332077,0.013569378294050694,0.0,0.006637082435190678
0.0067819105461239815,-0.0012918295105919242,-0.011584100313484669,0.013351709581911564,0.0,0.006255765911191702
0.007191665004938841,-0.001352360937744379,-0.01121671125292778,0.013528624549508095,0.0,0.006551685743033886
0.007225638721138239,-0.0014986030291765928,-0.011356941424310207,0.013401017524302006,0.0,0.006455141585320234
0.0070146843791007996,-0.001423274865373969,-0.010653158649802208,0.013092981651425362,0.0,0.006356399971991777
0.006507652346044779,-0.0013242518762126565,-0.011291147209703922,0.013399551622569561,0.0,0.00638217618688941
0.007057130802422762,-0.0013778215507045388,-0.011417967267334461,0.012707745656371117,0.0,0.007017592433840036
0.00677510304376483,-0.0013291483046486974,-0.011533909477293491,0.013020194135606289,0.0,0.006703482009470463
0.0067357406951487064,-0.001522816251963377,-0.011928022839128971,0.012682910077273846,0.0,0.00638895109295845
0.0067357406951487064,-0.001522816251963377,-0.011928022839128971,0.012682910077273846,0.0,0.00638895109295845
0.0071694329380989075,-0.0018051785882562399,-0.011411953717470169,0.012881840579211712,0.0,0.006860896944999695
0.0071694329380989075,-0.0018051785882562399,-0.011411953717470169,0.012881840579211712,0.0,0.006860896944999695
0.007310992572456598,-0.0016827948857098818,-0.01110673975199461,0.012657771818339825,0.0,0.0066939727403223515
0.007416578009724617,-0.0016813332913443446,-0.011433971114456654,0.012895694002509117,0.0,0.006821966264396906
0.0065193697810173035,-0.0017015632474794984,-0.011677729897201061,0.012637178413569927,0.0,0.00664276909083128
0.006649239454418421,-0.0015954221598803997,-0.01083196047693491,0.012822817079722881,0.0,0.006415787152945995
0.007071888539940119,-0.001654847408644855,-0.011134931817650795,0.012483533471822739,0.0,0.006867609452456236
0.007226414047181606,-0.001693328027613461,-0.01145403552800417,0.013240554369986057,0.0,0.006657004356384277
0.006836388260126114,-0.0018332615727558732,-0.011111238040030003,0.012921681627631187,0.0,0.006455800496041775
0.007357629016041756,-0.0018327761208638549,-0.012088930234313011,0.012638493441045284,0.0,0.006733487825840712
0.007155314553529024,-0.0018066276097670197,-0.011351581662893295,0.012668725103139877,0.0,0.006880993954837322
0.007259963545948267,-0.0016427504597231746,-0.011368362233042717,0.012567498721182346,0.0,0.006662990897893906
0.006958858575671911,-0.0016238878015428782,-0.011246896348893642,0.013292286545038223,0.0,0.006630100775510073
0.006639587227255106,-0.001647877972573042,-0.01072756014764309,0.013108901679515839,0.0,0.006837174296379089
0.006798497401177883,-0.0015991070540621877,-0.011636385694146156,0.012964803725481033,0.0,0.006957279052585363
0.007070936728268862,-0.0018982372712343931,-0.011355338618159294,0.012564626522362232,0.0,0.006786194164305925
0.006350268609821796,-0.0019863415509462357,-0.011148526333272457,0.013019738718867302,0.0,0.006680571008473635
0.006142270285636187,-0.002018179977312684,-0.011448745615780354,0.012840320356190205,0.0,0.006567751057446003
0.006931648589670658,-0.001831607660278678,-0.011759836226701736,0.012755158357322216,0.0,0.006779502145946026
0.006836335640400648,-0.0017574032535776496,-0.011401789262890816,0.012407890520989895,0.0,0.007193397730588913
0.0065504442900419235,-0.0019287626491859555,-0.011694161221385002,0.012668058276176453,0.0,0.006932360120117664
0.007227090187370777,-0.0020148048643022776,-0.011968735605478287,0.012904352508485317,0.0,0.006608165334910154
0.007072284817695618,-0.002049640053883195,-0.010913212783634663,0.013222209177911282,0.0,0.007000491954386234
0.007143782917410135,-0.002290638629347086,-0.012260210700333118,0.01285122986882925,0.0,0.006966731511056423
0.006742680445313454,-0.0021715196780860424,-0.011620813980698586,0.013439008966088295,0.0,0.007123514078557491
0.006836365442723036,-0.0021995448041707277,-0.011412576772272587,0.012889042496681213,0.0,0.006883019115775824
0.007246869616210461,-0.0020911507308483124,-0.011497852392494678,0.012788168154656887,0.0,0.006727280095219612
0.007246869616210461,-0.0020911507308483124,-0.011497852392494678,0.012788168154656887,0.0,0.006727280095219612
0.006782147102057934,-0.0019414958078414202,-0.012284296564757824,0.011838188394904137,0.0,0.006692246533930302
0.006782147102057934,-0.0019414958078414202,-0.012284296564757824,0.011838188394904137,0.0,0.006692246533930302
0.007003341801464558,-0.0019664608407765627,-0.011839788407087326,0.012208644300699234,0.0,0.006361396051943302
0.008058380335569382,-0.0019716829992830753,-0.011559991165995598,0.011804806999862194,0.0,0.006443394813686609
0.0075096203945577145,-0.0021613717544823885,-0.011817272752523422,0.012389309704303741,0.0,0.006372186820954084
0.007159484084695578,-0.002148951403796673,-0.011343399994075298,0.012730615213513374,0.0,0.006892075762152672
0.006728669628500938,-0.002326719928532839,-0.01180464681237936,0.012706330046057701,0.0,0.006710406392812729
0.0071720825508236885,-0.0022204446140676737,-0.011807956732809544,0.012920141220092773,0.0,0.006326626054942608
0.007371391169726849,-0.002180524403229356,-0.011327845975756645,0.012734625488519669,0.0,0.006117173936218023
0.007308700121939182,-0.002323013497516513,-0.01132185384631157,0.013196777552366257,0.0,0.00650494871661067
0.006679832469671965,-0.002244124421849847,-0.01127284113317728,0.013058001175522804,0.0,0.007255425676703453
0.0068441880866885185,-0.0023907888680696487,-0.01224606204777956,0.014125747606158257,0.0,0.007227690890431404
0.00713436771184206,-0.002254725666716695,-0.010995409451425076,0.01363200880587101,0.0,0.007101469207555056
0.007882924750447273,-0.0022034752182662487,-0.011812383309006691,0.013788051903247833,0.0,0.006910244934260845
0.006582946982234716,-0.0019967942498624325,-0.011597012169659138,0.012921234592795372,0.0,0.0071954927407205105
0.0067960238084197044,-0.001997277606278658,-0.011109180748462677,0.013082298450171947,0.0,0.0073449574410915375
0.007490730378776789,-0.0019932265859097242,-0.011488883756101131,0.012372768484055996,0.0,0.007280309218913317
0.007440216839313507,-0.0019470943370833993,-0.011068383231759071,0.012172973714768887,0.0,0.006862693466246128
0.007338801398873329,-0.0021946062333881855,-0.011705148033797741,0.011964439414441586,0.0,0.007648412138223648
0.007336237467825413,-0.0021571109537035227,-0.010862479917705059,0.012365625239908695,0.0,0.007000996731221676
0.007293977774679661,-0.001991867320612073,-0.01112458948045969,0.01233387365937233,0.0,0.006953592412173748
0.007235719356685877,-0.0019707432948052883,-0.011418469250202179,0.012717747129499912,0.0,0.006920079700648785
0.00745867844671011,-0.001918405876494944,-0.011365635320544243,0.012557978741824627,0.0,0.007044754456728697
0.00707164965569973,-0.0019312616204842925,-0.01172284409403801,0.012359208427369595,0.0,0.006877640262246132
0.00707164965569973,-0.0019312616204842925,-0.01172284409403801,0.012359208427369595,0.0,0.006877640262246132
0.00725173344835639,-0.0018603255739435554,-0.010561500675976276,0.012436331249773502,0.0,0.007090635597705841
0.007543711923062801,-0.0020698884036391973,-0.010834463872015476,0.012597438879311085,0.0,0.0069016278721392155
0.006884298287332058,-0.002118597272783518,-0.011189276352524757,0.013063600286841393,0.0,0.007334020920097828
0.00706794997677207,-0.0020498083904385567,-0.010760148987174034,0.012195603922009468,0.0,0.006995724979788065
0.0072734118439257145,-0.0020307956729084253,-0.011220291256904602,0.01247254479676485,0.0,0.0067709037102758884
0.007167174015194178,-0.0019800642039626837,-0.010546176694333553,0.012188011780381203,0.0,0.0065092360600829124
0.006766183767467737,-0.0019756646361202,-0.010717661119997501,0.012263704091310501,0.0,0.00648416206240654
0.007246244233101606,-0.0019394262926653028,-0.011837046593427658,0.012541779316961765,0.0,0.006486936006695032
0.007297914940863848,-0.0016492379363626242,-0.011801790446043015,0.012345132417976856,0.0,0.006681904196739197
0.007051930762827396,-0.0012587298406288028,-0.010683165863156319,0.012863023206591606,0.0,0.00669432757422328
0.006714189425110817,-0.0011093593202531338,-0.010914166457951069,0.012253555469214916,0.0,0.00646722549572587
0.00719054602086544,-0.000967219180893153,-0.01069069653749466,0.012672923505306244,0.0,0.007002739701420069
0.007318960037082434,-0.001043748459778726,-0.011226305738091469,0.012115628458559513,0.0,0.0074057187885046005
0.007237657904624939,-0.0008853346225805581,-0.011659848503768444,0.012096832506358624,0.0,0.006989558693021536
0.007303464692085981,-0.0009766051080077887,-0.011451760306954384,0.012566834688186646,0.0,0.006840032991021872
0.007556616794317961,-0.0010091078002005816,-0.011476428247988224,0.012013633735477924,0.0,0.007181247230619192
0.007460303138941526,-0.0015500695444643497,-0.01117465179413557,0.012254022993147373,0.0,0.00719499820843339
0.0067207347601652145,-0.0014567977050319314,-0.01137001533061266,0.012481257319450378,0.0,0.00661791767925024
0.007186414208263159,-0.0013037117896601558,-0.01029001735150814,0.012432179413735867,0.0,0.007066090125590563
0.007261900696903467,-0.001103207585401833,-0.011004778556525707,0.012264157645404339,0.0,0.0069639310240745544
0.007140186615288258,-0.001066790777258575,-0.010389644652605057,0.012519165873527527,0.0,0.007344001438468695
0.0068397121503949165,-0.0010487399995326996,-0.010176918469369411,0.012350833043456078,0.0,0.0068816253915429115
0.007301532197743654,-0.001028865692205727,-0.01094021089375019,0.0124491723254323,0.0,0.007198408246040344
0.007270775269716978,-0.0010199369862675667,-0.010413636453449726,0.012034248560667038,0.0,0.007230432704091072
0.007270775269716978,-0.0010199369862675667,-0.010413636453449726,0.012034248560667038,0.0,0.007230432704091072
0.007229415699839592,-0.0013234493089839816,-0.01036133710294962,0.012227105908095837,0.0,0.007200249470770359
0.007058159913867712,-0.0013631893089041114,-0.010696182027459145,0.012342259287834167,0.0,0.007046041078865528
0.006951239425688982,-0.00139337545260787,-0.009799975901842117,0.012507334351539612,0.0,0.007134728133678436
0.007219361141324043,-0.001245349645614624,-0.009905939921736717,0.012375845573842525,0.0,0.00682853115722537
0.007424117997288704,-0.0012218428310006857,-0.010774397291243076,0.01209614984691143,0.0,0.006828231271356344
0.006961268372833729,-0.0012005004100501537,-0.010159078985452652,0.012084259651601315,0.0,0.006987441331148148
0.006581778638064861,-0.0011186725459992886,-0.010314895771443844,0.011938558891415596,0.0,0.006895681377500296
0.007131299935281277,-0.0010062888031825423,-0.010845488868653774,0.012038596905767918,0.0,0.006778424140065908
0.007160527165979147,-0.0008813167805783451,-0.010063016787171364,0.012197732925415039,0.0,0.007393317762762308
0.006743579637259245,-0.0008794514578767121,-0.01104611437767744,0.012171149253845215,0.0,0.006993289105594158
0.006815001368522644,-0.0008822347735986114,-0.010903283953666687,0.01216584350913763,0.0,0.006718823220580816
0.00728854164481163,-0.0008875266066752374,-0.009835531935095787,0.011874428950250149,0.0,0.007256230339407921
0.007111676968634129,-0.0010811507236212492,-0.010339309461414814,0.01224152185022831,0.0,0.007042997982352972
0.007318832911550999,-0.001093946280889213,-0.010465605184435844,0.012668550945818424,0.0,0.007449545431882143
0.007523704785853624,-0.0010654068319126964,-0.01107979565858841,0.012313371524214745,0.0,0.006820715498179197
0.007793084252625704,-0.0011049244785681367,-0.011296858079731464,0.012334248051047325,0.0,0.007092517334967852
0.00716150738298893,-0.0011319315526634455,-0.010310003533959389,0.012084445916116238,0.0,0.006790148094296455
0.007172617595642805,-0.0010922480141744018,-0.010806385427713394,0.012619903311133385,0.0,0.006760863587260246
0.006634680554270744,-0.0010635961079970002,-0.010939777828752995,0.012510749511420727,0.0,0.006706942338496447
0.0071352082304656506,-0.0010182244004681706,-0.010310019366443157,0.012966274283826351,0.0,0.007018606178462505
0.007089579477906227,-0.0010818352457135916,-0.010478148236870766,0.012992065399885178,0.0,0.006891708355396986
0.006602578330785036,-0.0011405033292248845,-0.010320878587663174,0.012618622742593288,0.0,0.006708209868520498
0.0071528335101902485,-0.0011498669628053904,-0.010940696112811565,0.012445732951164246,0.0,0.006613738369196653
0.007361588533967733,-0.0011191923404112458,-0.010550557635724545,0.012122957035899162,0.0,0.007168639916926622
0.007100171409547329,-0.0010978290811181068,-0.009844648651778698,0.011317148804664612,0.0,0.007014586124569178
0.006916584447026253,-0.0012784237042069435,-0.010819279588758945,0.011546376161277294,0.0,0.007448022719472647
0.006916584447026253,-0.0012784237042069435,-0.010819279588758945,0.011546376161277294,0.0,0.007448022719472647
0.006774520967155695,-0.001207683002576232,-0.01027042418718338,0.011364847421646118,0.0,0.007699191104620695
0.008006240241229534,-0.0011693775886669755,-0.01032679621130228,0.011364998295903206,0.0,0.007117908913642168
0.007806987967342138,-0.0012800947297364473,-0.010841820389032364,0.012378258630633354,0.0,0.00725058326497674
0.006519679445773363,-0.0012522891629487276,-0.010325798764824867,0.012087401933968067,0.0,0.007015978917479515
0.006676815915852785,-0.0012059285072609782,-0.010875852778553963,0.012787639163434505,0.0,0.006666595581918955
0.007451668847352266,-0.0013318898854777217,-0.010686246678233147,0.01192147471010685,0.0,0.006382959894835949
0.0074085211381316185,-0.0013087480328977108,-0.010435170494019985,0.01201661303639412,0.0,0.0066232830286026
0.007236819248646498,-0.0012432456715032458,-0.010927709750831127,0.011696549132466316,0.0,0.007093815598636866
0.007114657666534185,-0.001184094580821693,-0.010860851034522057,0.011814155615866184,0.0,0.0074796369299292564
0.007785428315401077,-0.0011288212845101953,-0.010814395733177662,0.012295195832848549,0.0,0.007111960090696812
0.007858354598283768,-0.0010843898635357618,-0.011507982388138771,0.012125898152589798,0.0,0.0070949215441942215
0.007079133298248053,-0.0010570012964308262,-0.010760749690234661,0.012130971066653728,0.0,0.007110880222171545
0.007179745938628912,-0.0009290503221563995,-0.01112089678645134,0.012347211129963398,0.0,0.007264794781804085
0.007712826132774353,-0.0010243509896099567,-0.01087704487144947,0.011608836241066456,0.0,0.007229673210531473
0.007760065607726574,-0.0010377824073657393,-0.010589668527245522,0.012155214324593544,0.0,0.007343912962824106
0.006805972661823034,-0.0014172021765261889,-0.01129929255694151,0.011409290134906769,0.0,0.0071111503057181835
0.006567518692463636,-0.0013822301989421248,-0.010806828737258911,0.011873554438352585,0.0,0.006948230322450399
0.00709365913644433,-0.0012957332655787468,-0.010320927016437054,0.012066321447491646,0.0,0.00727388821542263
0.007394720800220966,-0.0011391905136406422,-0.01040907297283411,0.012201021425426006,0.0,0.00751546211540699
0.007221870124340057,-0.0012033265084028244,-0.01060592569410801,0.01220061257481575,0.0,0.0070536076091229916
0.007268090732395649,-0.0010976563207805157,-0.010887018404901028,0.012510368600487709,0.0,0.007100798189640045
0.007283606566488743,-0.0011744413059204817,-0.011326106265187263,0.012223935686051846,0.0,0.007356883492320776
0.007090591359883547,-0.001311893225647509,-0.01154058426618576,0.012108729220926762,0.0,0.007309610489755869
0.007090591359883547,-0.001311893225647509,-0.01154058426618576,0.012108729220926762,0.0,0.007309610489755869
0.007257591001689434,-0.0013072300935164094,-0.010700980201363564,0.011896914802491665,0.0,0.007490368094295263
0.007343726698309183,-0.0012335136998444796,-0.01076536625623703,0.01210751198232174,0.0,0.007491144817322493
0.007513612043112516,-0.0011952860513702035,-0.010505052283406258,0.011670045554637909,0.0,0.0073424638248980045
0.007513612043112516,-0.0011952860513702035,-0.010505052283406258,0.011670045554637909,0.0,0.0073424638248980045
0.006912584416568279,-0.00123348378110677,-0.010993137024343014,0.011561667546629906,0.0,0.007002007681876421
0.007157294545322657,-0.001295296591706574,-0.010984406806528568,0.011363369412720203,0.0,0.007136456668376923
0.007556790020316839,-0.0013616012874990702,-0.010169955901801586,0.01179815735667944,0.0,0.007578879129141569
0.007348904386162758,-0.0015433443477377295,-0.01076726894825697,0.011895311996340752,0.0,0.007080367300659418
0.007095774170011282,-0.001482880674302578,-0.010565442964434624,0.011300353333353996,0.0,0.006888346280902624
0.007368984166532755,-0.0016156841302290559,-0.009890427812933922,0.011738229542970657,0.0,0.00688680075109005
0.007287245709449053,-0.0014530093176290393,-0.010790255852043629,0.011457044631242752,0.0,0.007111507002264261
0.007155480328947306,-0.001348468940705061,-0.010989110916852951,0.01136061456054449,0.0,0.007202410604804754
0.00720544159412384,-0.0011068867752328515,-0.011228778399527073,0.011330237612128258,0.0,0.007278510835021734
0.007486093323677778,-0.0010376384016126394,-0.011420151218771935,0.011055600829422474,0.0,0.007067766971886158
0.007688948418945074,-0.0010266783647239208,-0.010372784920036793,0.012043273076415062,0.0,0.007210223935544491
0.007309036795049906,-0.0012610477861016989,-0.01064818724989891,0.012010659091174603,0.0,0.007438167463988066
0.0072138323448598385,-0.001429230673238635,-0.010931425727903843,0.011774735525250435,0.0,0.007368540856987238
0.007509066257625818,-0.0013976404443383217,-0.010185100138187408,0.01188050489872694,0.0,0.007319025695323944
0.007445516064763069,-0.0016614224296063185,-0.010768333449959755,0.011337049305438995,0.0,0.007346194703131914
0.007362601812928915,-0.001502231345511973,-0.01057556364685297,0.011576307006180286,0.0,0.007752812933176756
0.007347908336669207,-0.001148161361925304,-0.010787616483867168,0.011614374816417694,0.0,0.006904862821102142
0.00784627441316843,-0.0010926706017926335,-0.010761839337646961,0.012168452143669128,0.0,0.007185403257608414
0.007631930522620678,-0.0011624270118772984,-0.011164224706590176,0.011796283535659313,0.0,0.007564983796328306
0.007172640413045883,-0.0012760100653395057,-0.0117062758654356,0.011449304409325123,0.0,0.007437930442392826
0.0073549640364944935,-0.0014017864596098661,-0.010545793920755386,0.01159389317035675,0.0,0.007546938955783844
0.007363573648035526,-0.0013368218205869198,-0.010715206153690815,0.011620269156992435,0.0,0.007241303566843271
0.007366281934082508,-0.0015481282025575638,-0.010640066117048264,0.01195686124265194,0.0,0.0072267078794538975
0.007277391850948334,-0.0014223377220332623,-0.01034404244273901,0.011739804409444332,0.0,0.007351687643676996
0.007512364070862532,-0.0013632933842018247,-0.010965807363390923,0.011705015785992146,0.0,0.007400538772344589
0.007684682495892048,-0.001361084752716124,-0.010806232690811157,0.011900904588401318,0.0,0.007524492219090462
0.00744083384051919,-0.0013911970891058445,-0.010020332410931587,0.011631361208856106,0.0,0.007660227827727795
0.00744083384051919,-0.0013911970891058445,-0.010020332410931587,0.011631361208856106,0.0,0.007660227827727795
0.006899718195199966,-0.0013674587244167924,-0.010721494443714619,0.012205278500914574,0.0,0.007547912187874317
0.007483534514904022,-0.0014589284546673298,-0.01044453214854002,0.011824315413832664,0.0,0.0070948004722595215
0.007827892899513245,-0.001356984255835414,-0.010990925133228302,0.012042796239256859,0.0,0.007400372065603733
0.0076159401796758175,-0.0012764256680384278,-0.011636786162853241,0.011509450152516365,0.0,0.00766880065202713
0.007180298678576946,-0.0012197491014376283,-0.010600259527564049,0.011743729934096336,0.0,0.007101839873939753
0.007455009035766125,-0.0011601392179727554,-0.01072369609028101,0.011465726420283318,0.0,0.0068444060161709785
0.007523294538259506,-0.0011305722873657942,-0.011052100919187069,0.01105110440403223,0.0,0.0071229166351258755
0.007497887592762709,-0.0012234376044943929,-0.010483810678124428,0.011319651268422604,0.0,0.0071695707738399506
0.008148374035954475,-0.0012211990542709827,-0.01101696863770485,0.011495964601635933,0.0,0.0072198291309177876
0.007938208989799023,-0.0011736506130546331,-0.010615282692015171,0.011503741145133972,0.0,0.007750639691948891
0.008229514583945274,-0.0013240128755569458,-0.010561707429587841,0.012036750093102455,0.0,0.007588037755340338
0.007713111117482185,-0.001244459068402648,-0.011316380463540554,0.011662384495139122,0.0,0.0075173950754106045
0.007342486176639795,-0.0011853090254589915,-0.011169223114848137,0.011886870488524437,0.0,0.007465623319149017
0.007850103080272675,-0.0011193944374099374,-0.010911516845226288,0.011820729821920395,0.0,0.007988759316504002
0.007586563937366009,-0.001091182348318398,-0.010568075813353062,0.01196433324366808,0.0,0.0076988390646874905
0.007748972624540329,-0.0009241540683433414,-0.010462500154972076,0.0121496906504035,0.0,0.00804214645177126
0.007562765385955572,-0.0008025823044590652,-0.010702547617256641,0.011585799045860767,0.0,0.007140441797673702
0.007511164993047714,-0.0007123106042854488,-0.010530759580433369,0.011460643261671066,0.0,0.007179304026067257
0.007948974147439003,-0.0007274374947883189,-0.011001013219356537,0.01158866286277771,0.0,0.00786613579839468
0.00820091087371111,-0.0006701454985886812,-0.01056731678545475,0.011917113326489925,0.0,0.007892242632806301
0.007851746864616871,-0.0005544347804971039,-0.010385647416114807,0.011750025674700737,0.0,0.007780175190418959
0.007525246124714613,-0.0006544215721078217,-0.010809674859046936,0.012326191179454327,0.0,0.007719746790826321
0.007525246124714613,-0.0006544215721078217,-0.010809674859046936,0.012326191179454327,0.0,0.007719746790826321
0.00804927758872509,-0.0009403926087543368,-0.010886773467063904,0.011660559102892876,0.0,0.007144568022340536
0.007726532872766256,-0.0010655930964276195,-0.010904880240559578,0.011808793060481548,0.0,0.0072953407652676105
0.007726532872766256,-0.0010655930964276195,-0.010904880240559578,0.011808793060481548,0.0,0.0072953407652676105
0.007434928324073553,-0.00103979732375592,-0.010863682255148888,0.011615550145506859,0.0,0.008058743551373482
0.007413147483021021,-0.0008972990908659995,-0.011439098976552486,0.012176870368421078,0.0,0.008098585531115532
0.009877280332148075,-0.0008927210583351552,-0.01029838528484106,0.01182379387319088,0.0,0.007404102943837643
0.008094549179077148,-0.0007979803485795856,-0.009960692375898361,0.012065540067851543,0.0,0.007029272615909576
0.0071172756142914295,-0.0007202884298749268,-0.011012797243893147,0.011892200447618961,0.0,0.00716312974691391
0.008027102798223495,-0.0007312068482860923,-0.010451390407979488,0.011964304372668266,0.0,0.00789713580161333
0.008219953626394272,-0.0007515767938457429,-0.01025612372905016,0.012410588562488556,0.0,0.00821317546069622
0.008267998695373535,-0.0007676734239794314,-0.010976658202707767,0.011952935717999935,0.0,0.007762792054563761
0.00754731148481369,-0.0008752110879868269,-0.010625972412526608,0.011979292146861553,0.0,0.007463093847036362
0.0074374498799443245,-0.0009437092230655253,-0.011344597674906254,0.011737060733139515,0.0,0.007418815512210131
0.008357967250049114,-0.0009068016079254448,-0.011158441193401814,0.011853770352900028,0.0,0.007973069325089455
0.008538296446204185,-0.0008288363460451365,-0.010441087186336517,0.011976368725299835,0.0,0.007663223426789045
0.007959291338920593,-0.0008330752607434988,-0.011255352757871151,0.011664042249321938,0.0,0.008140028454363346
0.007752249948680401,-0.0008114611264318228,-0.01110663078725338,0.012275801971554756,0.0,0.007295409217476845
0.007885332219302654,-0.0007164080743677914,-0.010957712307572365,0.012153568677604198,0.0,0.007144301198422909
0.007579516619443893,-0.0007400515605695546,-0.011180502362549305,0.011682444252073765,0.0,0.00751124182716012
0.0073104482144117355,-0.0006522558978758752,-0.011137859895825386,0.011985963210463524,0.0,0.00823188852518797
0.0079642990604043,-0.0006774704670533538,-0.011411622166633606,0.011321199126541615,0.0,0.007721172645688057
0.007761276792734861,-0.0006897168350405991,-0.01113941427320242,0.011655953712761402,0.0,0.007665465585887432
0.00828678160905838,-0.0006466138293035328,-0.011012870818376541,0.011015398427844048,0.0,0.007664867676794529
0.008410039357841015,-0.0006585923256352544,-0.01121712476015091,0.011477842926979065,0.0,0.007399961352348328
0.007805406581610441,-0.0006848582997918129,-0.011640229262411594,0.01143429521471262,0.0,0.007711208891123533
0.007882853969931602,-0.0007059693452902138,-0.011549211107194424,0.011616147123277187,0.0,0.007618471048772335
0.007551487069576979,-0.0008711505215615034,-0.010976258665323257,0.011941942386329174,0.0,0.007565375417470932
0.007551487069576979,-0.0008711505215615034,-0.010976258665323257,0.011941942386329174,0.0,0.007565375417470932
0.008342206478118896,-0.0007613743655383587,-0.011698773130774498,0.011651220731437206,0.0,0.00805035699158907
0.007913805544376373,-0.0007395459688268602,-0.011571595445275307,0.011171061545610428,0.0,0.008787786588072777
0.0077796573750674725,-0.0006924102199263871,-0.011153456754982471,0.011411843821406364,0.0,0.007211050949990749
0.0077796573750674725,-0.0006924102199263871,-0.011153456754982471,0.011411843821406364,0.0,0.007211050949990749
0.008251717314124107,-0.000647876295261085,-0.011318800039589405,0.010920536704361439,0.0,0.006951369810849428
0.008251717314124107,-0.000647876295261085,-0.011318800039589405,0.010920536704361439,0.0,0.006951369810849428
0.00796152837574482,-0.0005801613442599773,-0.01134177204221487,0.011216457933187485,0.0,0.007680042181164026
0.007857805117964745,-0.000603353779297322,-0.01184916216880083,0.01103503443300724,0.0,0.00836780946701765
0.008948885835707188,-0.0006335749640129507,-0.01208394207060337,0.011386580765247345,0.0,0.008310379460453987
0.008145824074745178,-0.0006583448266610503,-0.011600656434893608,0.011371457949280739,0.0,0.007894611917436123
0.00759347015991807,-0.0009459767607040703,-0.011820162646472454,0.011301136575639248,0.0,0.00761967059224844
0.008529207669198513,-0.0009751811157912016,-0.011460202746093273,0.01186427939683199,0.0,0.007560719270259142
0.00856923870742321,-0.000831602665130049,-0.011429536156356335,0.011652089655399323,0.0,0.00765205267816782
0.00830324087291956,-0.000839250220451504,-0.011599316261708736,0.010884092189371586,0.0,0.007915674708783627
0.008179002441465855,-0.0008345710230059922,-0.011023693718016148,0.010962078347802162,0.0,0.00866511557251215
0.00818437896668911,-0.0007677585235796869,-0.011796992272138596,0.011175504885613918,0.0,0.008498230949044228
0.008354787714779377,-0.0007899132324382663,-0.011157575994729996,0.011815489269793034,0.0,0.00803196057677269
0.008271495811641216,-0.0008048879681155086,-0.011033644899725914,0.011302563361823559,0.0,0.007910000160336494
0.008009335026144981,-0.000816651270724833,-0.011628253385424614,0.01144776027649641,0.0,0.007873399183154106
0.008537218905985355,-0.0007666529854759574,-0.011249328963458538,0.01212215144187212,0.0,0.007843635976314545
0.00845981016755104,-0.0010439821053296328,-0.011482215486466885,0.011461958289146423,0.0,0.00840984471142292
0.008100312203168869,-0.001006200909614563,-0.010569563135504723,0.01091969758272171,0.0,0.008036917075514793
0.00852200761437416,-0.0010494880843907595,-0.011089818552136421,0.010728239081799984,0.0,0.007655686233192682
0.007829060778021812,-0.0010723273735493422,-0.011804339475929737,0.011134480126202106,0.0,0.007892636582255363
0.009074102155864239,-0.001008588937111199,-0.011335817165672779,0.010974383912980556,0.0,0.008754986338317394
0.008347921073436737,-0.0009090310195460916,-0.011282003484666348,0.011088857427239418,0.0,0.00860653631389141
0.008452366106212139,-0.0009066791390068829,-0.010548524558544159,0.011204851791262627,0.0,0.007948004640638828
0.007969389669597149,-0.0008446640567854047,-0.01101183146238327,0.011137391440570354,0.0,0.007898001000285149
0.007969389669597149,-0.0008446640567854047,-0.01101183146238327,0.011137391440570354,0.0,0.007898001000285149
0.008797861635684967,-0.0008579573477618396,-0.0108077023178339,0.011351708322763443,0.0,0.00812319852411747
0.0082484045997262,-0.0008637036080472171,-0.010849926620721817,0.010740433819591999,0.0,0.0077948616817593575
0.00844626221805811,-0.000868028262630105,-0.011518987827003002,0.010711037553846836,0.0,0.00759712653234601
0.00856750551611185,-0.0009678108035586774,-0.01083853654563427,0.011171286925673485,0.0,0.008034740574657917
0.00843852199614048,-0.0009582302300259471,-0.010870607569813728,0.011137868277728558,0.0,0.008253251202404499
0.008327586576342583,-0.00094934634398669,-0.010641410015523434,0.011648624204099178,0.0,0.008193028159439564
0.008124688640236855,-0.0009333581547252834,-0.010376974940299988,0.011670907959342003,0.0,0.008180479519069195
0.008705793879926205,-0.0009130145190283656,-0.011278416961431503,0.011266771703958511,0.0,0.008381524123251438
0.00861071515828371,-0.0009316180949099362,-0.010931447148323059,0.011913166381418705,0.0,0.008468789048492908
0.008343875408172607,-0.0009381240233778954,-0.01089609507471323,0.011759846471250057,0.0,0.008140774443745613
0.009013119153678417,-0.0009332678164355457,-0.010963281616568565,0.012197579257190228,0.0,0.008142524398863316
0.008360188454389572,-0.0010333684040233493,-0.010284855961799622,0.011904893442988396,0.0,0.00799679383635521
0.00857679545879364,-0.001029599574394524,-0.011060181073844433,0.011436613276600838,0.0,0.008104529231786728
0.009200670756399632,-0.0009971229592338204,-0.01120222918689251,0.011277391575276852,0.0,0.008492804132401943
0.008453854359686375,-0.0009550143731757998,-0.010883537121117115,0.010894539766013622,0.0,0.008149117231369019
0.00847078301012516,-0.0008884135750122368,-0.011667427606880665,0.010875948704779148,0.0,0.008091184310615063
0.009121151641011238,-0.0009307446889579296,-0.010745893232524395,0.011227810755372047,0.0,0.00795399397611618
0.008537768386304379,-0.0009512121323496103,-0.011105237528681755,0.011216812767088413,0.0,0.008655652403831482
0.008811554871499538,-0.0010164054110646248,-0.01114442478865385,0.010559327900409698,0.0,0.008165406994521618
0.00893127266317606,-0.0010498773772269487,-0.011597564443945885,0.010463436134159565,0.0,0.008208968676626682
0.008938497863709927,-0.0010258258553221822,-0.010969745926558971,0.010981656610965729,0.0,0.00784980971366167
0.00867447629570961,-0.0008959223050624132,-0.010578160174190998,0.010999669320881367,0.0,0.008159172721207142
0.00867447629570961,-0.0008959223050624132,-0.010578160174190998,0.010999669320881367,0.0,0.008159172721207142
0.00939046498388052,-0.0008948266040533781,-0.011366460472345352,0.011202297173440456,0.0,0.008395867422223091
0.00894502829760313,-0.0009488972136750817,-0.010930170305073261,0.011003280989825726,0.0,0.008752546273171902
0.008999890647828579,-0.0009761943947523832,-0.011114031076431274,0.01066557876765728,0.0,0.008623664267361164
0.009014397859573364,-0.000982823665253818,-0.011589225381612778,0.011538146995007992,0.0,0.008367270231246948
0.009489566087722778,-0.0013670098269358277,-0.011004073545336723,0.01141360029578209,0.0,0.007777905557304621
0.009026993997395039,-0.0012916309060528874,-0.01119683962315321,0.011441566050052643,0.0,0.007929617539048195
0.008657085709273815,-0.0012246824335306883,-0.010922329500317574,0.011338967829942703,0.0,0.008119889535009861
0.009248358197510242,-0.0011025056010112166,-0.010821749456226826,0.010680056177079678,0.0,0.007901947014033794
0.009325635619461536,-0.0010696406243368983,-0.011508156545460224,0.010949583724141121,0.0,0.007995613850653172
0.008964157663285732,-0.0010412217816337943,-0.010945714078843594,0.01087096892297268,0.0,0.008210751228034496
0.009557399898767471,-0.0010313589591532946,-0.011441972106695175,0.01037574652582407,0.0,0.008327595889568329
0.00942265149205923,-0.0010462492937222123,-0.011621687561273575,0.011557106859982014,0.0,0.00810074433684349
0.009782794862985611,-0.0010312939994037151,-0.010409173555672169,0.011279282160103321,0.0,0.008197298273444176
0.00936821661889553,-0.0009651556028984487,-0.011119154281914234,0.011152730323374271,0.0,0.008423552848398685
0.009661600925028324,-0.0008746540988795459,-0.011317671276628971,0.01153111457824707,0.0,0.008105151355266571
0.00947730615735054,-0.0008734795264899731,-0.011008257046341896,0.011114126071333885,0.0,0.008214971050620079
0.009309803135693073,-0.0007980584050528705,-0.011202317662537098,0.011384707875549793,0.0,0.00859750248491764
0.010484735481441021,-0.0008066391455940902,-0.01166611723601818,0.011523938737809658,0.0,0.008739328943192959
0.009283673949539661,-0.0008189530926756561,-0.011750967241823673,0.01173464860767126,0.0,0.008462746627628803
0.00888507068157196,-0.0008368624839931726,-0.01051065232604742,0.01211116649210453,0.0,0.008295517414808273
0.009548460133373737,-0.0010292537044733763,-0.011351489461958408,0.01198523584753275,0.0,0.008690861985087395
0.009151145815849304,-0.001007016166113317,-0.010975494049489498,0.01145443506538868,0.0,0.008880983106791973
0.009455929510295391,-0.0008697757730260491,-0.011060073040425777,0.011626261286437511,0.0,0.008489636704325676
0.009378611110150814,-0.0007641962147317827,-0.011568350717425346,0.011764807626605034,0.0,0.008485352620482445
0.009067721664905548,-0.0006814849330112338,-0.011232591234147549,0.01130156684666872,0.0,0.008391774259507656
0.009775929152965546,-0.0006149258115328848,-0.011294672265648842,0.011267605237662792,0.0,0.00832430087029934
0.009909708984196186,-0.0006305498536676168,-0.010947729460895061,0.01099272072315216,0.0,0.008457100950181484
0.009208095259964466,-0.000587821239605546,-0.011262178421020508,0.01080123521387577,0.0,0.008288144133985043
0.009208095259964466,-0.000587821239605546,-0.011262178421020508,0.01080123521387577,0.0,0.008288144133985043
0.009769218042492867,-0.0005435522180050611,-0.012017803266644478,0.011378739029169083,0.0,0.008490068838000298
0.0096694091334939,-0.0004292564117349684,-0.01081915758550167,0.010779605247080326,0.0,0.008655065670609474
0.009509602561593056,-0.0003837243129964918,-0.011088406667113304,0.010811557993292809,0.0,0.009044719859957695
0.009998043067753315,-0.00042118545388802886,-0.011035032570362091,0.011063301004469395,0.0,0.008646451868116856
0.009860675781965256,-0.0004360239836387336,-0.011103015393018723,0.010749675333499908,0.0,0.008522589690983295
0.009439465589821339,-0.00042733471491374075,-0.011252743192017078,0.0109539944678545,0.0,0.009034451097249985
0.009774794802069664,-0.00045081012649461627,-0.01098998449742794,0.01098933070898056,2.48901778832078e-06,0.00891520082950592
0.010060901753604412,-0.0004302126180846244,-0.01114974170923233,0.010784696787595749,1.6251509293851996e-07,0.008699923753738403
0.009849121794104576,-0.0004062765510752797,-0.011966042220592499,0.011554444208741188,1.0611073797406334e-08,0.009314409457147121
0.010198633186519146,-0.0005311735440045595,-0.01057555340230465,0.011041167192161083,6.92827240023064e-10,0.008865687064826488
0.010182319208979607,-0.0004771750536747277,-0.011905234307050705,0.011142820119857788,4.523666510825031e-11,0.008645954541862011
0.009196546860039234,-0.0004314339021220803,-0.011403598822653294,0.011361625045537949,2.953631046340166e-12,0.008755412884056568
0.009755583480000496,-0.00046908174408599734,-0.011321843601763248,0.010535648092627525,1.9285099775792625e-13,0.008654139935970306
0.010195388458669186,-0.00043435092084109783,-0.011404147371649742,0.011490832082927227,1.2591791894106877e-14,0.008886182680726051
0.009761855006217957,-0.0004020444757770747,-0.011046718806028366,0.010942109860479832,8.221540543462246e-16,0.009041822515428066
0.009819025173783302,-0.0004356423451099545,-0.01124593336135149,0.01036135759204626,5.368078582413519e-17,0.008107980713248253
0.010618289932608604,-0.0004359074227977544,-0.01085574459284544,0.01065700314939022,2.288495977265106e-19,0.008257199078798294
0.010343581438064575,-0.0004130001470912248,-0.011957818642258644,0.01096469908952713,1.494224389953331e-20,0.008729761466383934
0.009882406331598759,-0.0004120540979783982,-0.01180329266935587,0.010767879895865917,9.756217681570414e-22,0.008698747493326664
0.009865771979093552,-0.0003786770103033632,-0.011659587733447552,0.010271206498146057,6.370113025265915e-23,0.00843089073896408
0.010371224954724312,-0.0004162272089160979,-0.011841955594718456,0.010840783827006817,4.159228496441166e-24,0.008964868262410164
0.009876003488898277,-0.00038891303120180964,-0.010888682678341866,0.011000695638358593,2.715678811164687e-25,0.008911551907658577
0.010345282033085823,-0.000362815655535087,-0.011483186855912209,0.010801761411130428,1.7731440730062498e-26,0.009398464113473892
0.010345282033085823,-0.000362815655535087,-0.011483186855912209,0.010801761411130428,1.7731440730062498e-26,0.009398464113473892
0.010149998590350151,-0.0003731031611096114,-0.011270411312580109,0.010946479625999928,7.559191975991049e-29,0.009278533048927784
0.010149998590350151,-0.0003731031611096114,-0.011270411312580109,0.010946479625999928,7.559191975991049e-29,0.009278533048927784
0.010258863680064678,-0.00035226819454692304,-0.01161785889416933,0.011528205126523972,4.9356122657693194e-30,0.008816392160952091
0.010752970352768898,-0.00038059576763771474,-0.011387261562049389,0.011796337552368641,3.2226022462538703e-31,0.008775988593697548
0.010213864035904408,-0.00036208535311743617,-0.01148013211786747,0.011046964675188065,2.1041288635633467e-32,0.009075311943888664
0.01072623673826456,-0.0004135099588893354,-0.011191966943442822,0.011152581311762333,1.3738457982121018e-33,0.00871723797172308
0.010638127103447914,-0.0003871838853228837,-0.011142204515635967,0.01080029271543026,8.970230681492233e-35,0.008612729609012604
0.010116943158209324,-0.00042494916124269366,-0.012429755181074142,0.010773014277219772,5.8569199745220183e-36,0.008789683692157269
0.01058484148234129,-0.00039646856021136045,-0.011301049031317234,0.01098419725894928,3.8241502353750545e-37,0.009316145442426205
0.010569831356406212,-0.0003693792677950114,-0.011551906354725361,0.010747851803898811,2.4968969424245465e-38,0.009335875511169434
0.010176233947277069,-0.0004025234084110707,-0.011415675282478333,0.011238095350563526,1.63029585676785e-39,0.008849858306348324
0.010501283220946789,-0.0003790641494560987,-0.011327985674142838,0.010977605357766151,1.0644683524550608e-40,0.00901690125465393
0.010829748585820198,-0.00040791017818264663,-0.011545361019670963,0.010868151672184467,6.950440383051093e-42,0.008502268232405186
0.01042285654693842,-0.00038667736225761473,-0.011036497540771961,0.011132955551147461,4.540207024412407e-43,0.008672134950757027
0.010671759955585003,-0.00046406470937654376,-0.012070059776306152,0.011019058525562286,2.942726775082116e-44,0.00898684561252594
0.00986383855342865,-0.0004246702592354268,-0.01140918955206871,0.011207465082406998,1.401298464324817e-45,0.008908070623874664
0.0099991075694561,-0.00038809271063655615,-0.011325949802994728,0.011390659026801586,0.0,0.009366141632199287
0.009971694089472294,-0.0003971429541707039,-0.010742530226707458,0.011582858860492706,0.0,0.00948564987629652
0.01068416889756918,-0.00042906211456283927,-0.011161178350448608,0.011254667304456234,0.0,0.009242922998964787
0.01068416889756918,-0.00042906211456283927,-0.011161178350448608,0.011254667304456234,0.0,0.009242922998964787
0.009963548742234707,-0.0004330575466156006,-0.011001468636095524,0.011296321637928486,0.0,0.009342395700514317
0.010272184386849403,-0.0004107397689949721,-0.011389612220227718,0.01117419172078371,0.0,0.009146224707365036
0.010272184386849403,-0.0004107397689949721,-0.011389612220227718,0.01117419172078371,0.0,0.009146224707365036
0.010465887375175953,-0.0004619101819116622,-0.011065270751714706,0.011205491609871387,0.0,0.008842064999043941
0.01080044824630022,-0.0004938407801091671,-0.012047110125422478,0.011463499628007412,0.0,0.008986989967525005
0.011324428953230381,-0.00046088488306850195,-0.011350296437740326,0.010905950330197811,0.0,0.008870607241988182
0.010445216670632362,-0.00042474569636397064,-0.01037280261516571,0.011660910211503506,0.0,0.00918911024928093
0.01058125775307417,-0.0003937663568649441,-0.011833583004772663,0.011319196783006191,0.0,0.008864019066095352
0.0103179095312953,-0.0003669980796985328,-0.011314096860587597,0.011618059128522873,0.0,0.008651564829051495
0.010132229886949062,-0.0003985405492130667,-0.010884690098464489,0.011703446507453918,0.0,0.008510427549481392
0.01037598866969347,-0.0003768903552554548,-0.011230923235416412,0.011047540232539177,0.0,0.008846924640238285
0.010556208901107311,-0.0003556414449121803,-0.010697748512029648,0.011750769801437855,0.0,0.009766687639057636
0.010963615961372852,-0.0003790022456087172,-0.01109002623707056,0.011493638157844543,0.0,0.009022144600749016
0.010721917264163494,-0.00036513435770757496,-0.01117930468171835,0.011127403005957603,0.0,0.00865443516522646
0.010705152526497841,-0.00034757843241095543,-0.010972503572702408,0.010887823067605495,0.0,0.009029538370668888
0.010467602871358395,-0.0003315712383482605,-0.011451699770987034,0.01080006267875433,0.0,0.009071607142686844
0.011038687080144882,-0.00031697333906777203,-0.011287151835858822,0.01066885981708765,0.0,0.00918108131736517
0.010187790729105473,-0.00030360621167346835,-0.010600804351270199,0.010741040110588074,0.0,0.01010387483984232
0.010265931487083435,-0.0002913220669142902,-0.01089702732861042,0.01058948878198862,0.0,0.009209160692989826
0.01061735674738884,-0.00027999229496344924,-0.010638461448252201,0.01116364635527134,0.0,0.009072273038327694
0.010369195602834225,-0.0002695114817470312,-0.01116576325148344,0.010828893631696701,0.0,0.009122315794229507
0.0112019507214427,-0.0002597867278382182,-0.011395811103284359,0.01024945080280304,0.0,0.009358685463666916
0.010400941595435143,-0.0002423012483632192,-0.011149715632200241,0.010699735023081303,0.0,0.009330439381301403
0.010958504863083363,-0.0002148065686924383,-0.010897723957896233,0.010718666948378086,0.0,0.010186715051531792
0.010454373434185982,-0.00019602544489316642,-0.010902158915996552,0.010772733017802238,0.0,0.009398517198860645
0.010003295727074146,-0.00018772149633150548,-0.011650701984763145,0.010154412128031254,0.0,0.008644666522741318
0.010219428688287735,-0.00018020195420831442,-0.011171914637088776,0.010696026496589184,0.0,0.009371255524456501
0.010784134268760681,-0.00017326332454103976,-0.011335372924804688,0.010687043890357018,0.0,0.009462476707994938
0.010260911658406258,-0.00019885398796759546,-0.010979017242789268,0.010167312808334827,0.0,0.009291641414165497
0.010260911658406258,-0.00019885398796759546,-0.010979017242789268,0.010167312808334827,0.0,0.009291641414165497
0.010754482820630074,-0.00019303124281577766,-0.010994544252753258,0.010790404863655567,0.0,0.009431454353034496
0.010480682365596294,-0.0001863863435573876,-0.011188137345016003,0.010809374041855335,0.0,0.00935196503996849
0.010241493582725525,-0.00018016775720752776,-0.01102375891059637,0.01078447699546814,0.0,0.009087437763810158
0.010762405581772327,-0.0001743504253681749,-0.010482817888259888,0.011027180589735508,0.0,0.009319600649178028
0.010165086016058922,-0.0001873900619102642,-0.01082809828221798,0.010418565943837166,0.0,0.009974556043744087
0.010479060932993889,-0.00019094115123152733,-0.010707090608775616,0.010796234011650085,0.0,0.009696375578641891
0.011054961010813713,-0.00018544432532507926,-0.011858304031193256,0.010942195542156696,0.0,0.009349706582725048
0.010173891671001911,-0.00020552260684780777,-0.010697257705032825,0.010739482007920742,0.0,0.009357541799545288
0.010036392137408257,-0.00020015031623188406,-0.010455952025949955,0.011073943227529526,0.0,0.009210141375660896
0.010567995719611645,-0.00019474128203000873,-0.011041278950870037,0.010796736925840378,0.0,0.010290533304214478
0.010060074739158154,-0.00018961276509799063,-0.010728930123150349,0.010854898020625114,0.0,0.010112741030752659
0.011161248199641705,-0.00018483612802810967,-0.010450675152242184,0.011067033745348454,0.0,0.009584540501236916
0.010482748970389366,-0.00024679352645762265,-0.010912577621638775,0.010933216661214828,0.0,0.01022823341190815
0.009814569726586342,-0.0002348814159631729,-0.010481327772140503,0.011217735707759857,0.0,0.01043192483484745
0.010360158048570156,-0.00022324080055113882,-0.010841448791325092,0.01134784147143364,0.0,0.008933513425290585
0.010228864848613739,-0.000212688886676915,-0.010575043968856335,0.011012948118150234,0.0,0.009033173322677612
0.010673888958990574,-0.0002297237515449524,-0.010268863290548325,0.011931787244975567,0.0,0.009816928766667843
0.0110232038423419,-0.00023299551685340703,-0.0111592598259449,0.010829207487404346,0.0,0.009658358991146088
0.010175294242799282,-0.0002146438491763547,-0.010949142277240753,0.011135821230709553,-0.00019240206165704876,0.010365483351051807
0.01041342131793499,-0.0002064384170807898,-0.01133391261100769,0.011011393740773201,-0.00019408286607358605,0.009957654401659966
0.01041342131793499,-0.0002064384170807898,-0.01133391261100769,0.011011393740773201,-0.00019408286607358605,0.009957654401659966
0.01020714920014143,-0.00019883672939613461,-0.01060390193015337,0.012642822228372097,-0.00018668276607058942,0.009733936749398708
0.011094165034592152,-0.00021605787333101034,-0.01136314868927002,0.010919165797531605,-0.00017241871682927012,0.009767577052116394
0.01007254607975483,-0.00020889965526293963,-0.01065965835005045,0.011185080744326115,-0.0001660556299611926,0.009648194536566734
0.01009663101285696,-0.00020219512225594372,-0.01124866958707571,0.011027530767023563,-0.00016014528227970004,0.009683126583695412
0.01009663101285696,-0.00020219512225594372,-0.01124866958707571,0.011027530767023563,-0.00016014528227970004,0.009683126583695412
0.010434309020638466,-0.00019590755982790142,-0.01091340184211731,0.01121662836521864,-0.0001546405692351982,0.00947466678917408
0.010108803398907185,-0.00018999926396645606,-0.010942940600216389,0.010904143564403057,-0.000149502870044671,0.009562306106090546
0.011077853851020336,-0.00020768736430909485,-0.01151802483946085,0.010565790347754955,-0.0001446951791876927,0.009900437667965889
0.010496965609490871,-0.00020474808115977794,-0.011785519309341908,0.010717285796999931,-0.00014018689398653805,0.01008742768317461
0.01050063781440258,-0.00019912520656362176,-0.01158533152192831,0.010740169323980808,-0.00013595150085166097,0.009962198324501514
0.01098461914807558,-0.00019376695854589343,-0.01120288111269474,0.010998629033565521,-0.0001319641451118514,0.010093891993165016
0.009661445394158363,-0.00018868916959036142,-0.010761789977550507,0.011454472318291664,-0.00014078969252295792,0.009736132808029652
0.010291771031916142,-0.00018387027375865728,-0.012163068167865276,0.011403794400393963,-0.00014873084728606045,0.009734761901199818
0.010981399565935135,-0.00019036383309867233,-0.011416646651923656,0.010730325244367123,-0.00014549550542142242,0.010022278875112534
0.010268318466842175,-0.00018822724814526737,-0.01131652295589447,0.010745737701654434,-0.00014172679220791906,0.010394814424216747
0.010858682915568352,-0.0001807456137612462,-0.010970906354486942,0.010554207488894463,-0.00013810541713610291,0.010033643804490566
0.01111603993922472,-0.00017376667528878897,-0.010721445083618164,0.010797031223773956,-0.00013466151722241193,0.009922287426888943
0.010029377415776253,-0.0001673058286542073,-0.01178997103124857,0.010711087845265865,-0.00013138476060703397,0.00973606389015913
0.0107681043446064,-0.0001613087224541232,-0.011574462056159973,0.010145707055926323,-0.00012826407328248024,0.01048976555466652
0.010301095433533192,-0.0001761777966748923,-0.011516135185956955,0.01083370205014944,-0.0001252880465472117,0.010129064321517944
0.010156848467886448,-0.00018047764024231583,-0.011260775849223137,0.010896873660385609,-0.00012244706158526242,0.009639647789299488
0.010694933123886585,-0.00016929565754253417,-0.011328283697366714,0.010986424051225185,-0.00011713465210050344,0.01056827511638403
0.010643133893609047,-0.00016414928541053087,-0.011317029595375061,0.010426154360175133,-0.00013248085451778024,0.010145841166377068
0.010705055668950081,-0.00018273567548021674,-0.010921747423708439,0.011223940178751945,-0.00013089165440760553,0.010026215575635433
0.01064254529774189,-0.00018048971833195537,-0.011280280537903309,0.011567412875592709,-0.00012830195191781968,0.009955763816833496
0.01064254529774189,-0.00018048971833195537,-0.011280280537903309,0.011567412875592709,-0.00012830195191781968,0.009955763816833496
0.010382000356912613,-0.0001755020348355174,-0.01132986880838871,0.011033867485821247,-0.00012574584980029613,0.01046252716332674
0.010858933441340923,-0.00017074606148526073,-0.012285642325878143,0.011311000213027,-0.00012328549928497523,0.010177850723266602
0.01046053972095251,-0.00016624059935566038,-0.011636544950306416,0.011029450222849846,-0.00012091919779777527,0.009717277251183987
0.010522776283323765,-0.0001619665272301063,-0.011278915219008923,0.01170075498521328,-0.00012698207865469158,0.009888901375234127
0.010833603329956532,-0.00018015463137999177,-0.011329461820423603,0.011740239337086678,-0.0001325224293395877,0.010022781789302826
0.01028243638575077,-0.00017604854656383395,-0.010980441235005856,0.011115600354969501,-0.00013063260121271014,0.010477983392775059
0.010675674304366112,-0.00017185039178002626,-0.011524664238095284,0.011233216151595116,-0.00012833757500629872,0.009962272830307484
0.010341865941882133,-0.00016784439503680915,-0.012280088849365711,0.011076354421675205,-0.00012609227269422263,0.009965945966541767
0.010476567782461643,-0.00016402096662204713,-0.011484034359455109,0.010626748204231262,-0.00012392224743962288,0.01060109306126833
0.011193221434950829,-0.00016036783927120268,-0.011791990138590336,0.01062855962663889,-0.00012182533100713044,0.010190357454121113
0.011366748251020908,-0.00015687354607507586,-0.011851143091917038,0.010485269129276276,-0.0001161390682682395,0.01003941334784031
0.011656579561531544,-0.00013658427633345127,-0.011994600296020508,0.010774390771985054,-0.00011281235492788255,0.010112293064594269
0.011512737721204758,-0.00013156316708773375,-0.012059622444212437,0.011106989346444607,-0.00011002657993230969,0.010068008676171303
0.010397900827229023,-0.00012884331226814538,-0.011569902300834656,0.010800151154398918,-0.00010739877325249836,0.010629814118146896
0.010900776833295822,-0.0001421875786036253,-0.011692782863974571,0.011186596937477589,-0.00010489506530575454,0.01015041209757328
0.011097048409283161,-0.00014143473526928574,-0.010708755813539028,0.011140065267682076,-0.00010250554623780772,0.010633003897964954
0.011236106976866722,-0.00013873678108211607,-0.01122892927378416,0.010886350646615028,-0.00010022243804996833,0.01048077829182148
0.01205500029027462,-0.00013611456961371005,-0.011874851770699024,0.011381087824702263,-0.00011633805115707219,0.010441466234624386
0.012067850679159164,-0.00013115581532474607,-0.011912541463971138,0.011478371918201447,-0.0001127288123825565,0.010576548054814339
0.012067850679159164,-0.00013115581532474607,-0.011912541463971138,0.011478371918201447,-0.0001127288123825565,0.010576548054814339
0.011604049243032932,-0.00012654547754209489,-0.011703980155289173,0.011248218826949596,-0.00010821601608768106,0.010766036808490753
0.011604049243032932,-0.00012654547754209489,-0.011703980155289173,0.011248218826949596,-0.00010821601608768106,0.010766036808490753
0.012198369950056076,-0.00012435986718628556,-0.011415073648095131,0.011243822984397411,-0.00011920862743863836,0.010502890683710575
0.011845465749502182,-0.0001222483697347343,-0.010923761874437332,0.010692695155739784,-0.00012108890223316848,0.010742135345935822
0.012054920196533203,-0.00012020756548736244,-0.011877226643264294,0.010775698348879814,-0.00011907266889465973,0.011057163588702679
0.011991837993264198,-0.00011823353997897357,-0.01111206877976656,0.010923461988568306,-0.00011688132508425042,0.011840013787150383
0.011947317980229855,-0.0001163233318948187,-0.011022636666893959,0.010777441784739494,-0.00011475347127998248,0.011699683964252472
0.011977779679000378,-0.0001144741618190892,-0.01192544586956501,0.010993700474500656,-0.00011270066897850484,0.010268558748066425
0.012007713317871094,-0.00011094615911133587,-0.011462572030723095,0.010338125750422478,-0.0001088078279281035,0.01056655403226614
0.012007713317871094,-0.00011094615911133587,-0.011462572030723095,0.010338125750422478,-0.0001088078279281035,0.01056655403226614
0.011741210706532001,-0.00010926268441835418,-0.011364882811903954,0.010447598993778229,-0.00012024121679132804,0.010842129588127136
0.011952112428843975,-0.0001076294356607832,-0.011214599944651127,0.01058034598827362,-0.00012006922042928636,0.010714119300246239
0.011817201972007751,-0.0001060441936715506,-0.011682625859975815,0.010630613192915916,-0.00011821756925201043,0.010937288403511047
0.011378975585103035,-0.00010450507397763431,-0.010941826738417149,0.011395541951060295,-0.00011631551024038345,0.010633409954607487
0.012486576102674007,-0.00010301007569069043,-0.011739159934222698,0.010720635764300823,-0.00011446692224126309,0.010591171681880951
0.011422272771596909,-0.00010155707423109561,-0.011910341680049896,0.010624878108501434,-0.00011267555237282068,0.010873934254050255
0.011726252734661102,-0.0001001445998554118,-0.01135269831866026,0.011077729053795338,-0.000110939348815009,0.011180993169546127
0.01186832319945097,-9.877073898678645e-05,-0.011396205052733421,0.010245098732411861,-0.00010925603419309482,0.01098466943949461
0.011570753529667854,-9.743421105667949e-05,-0.011357705108821392,0.010835867375135422,-0.00014383257075678557,0.010577468201518059
0.011958013288676739,-9.613338625058532e-05,-0.011787810362875462,0.011020445264875889,-0.00015078276919666678,0.010622096247971058
0.011566810309886932,-9.486677299719304e-05,-0.011534452438354492,0.010726415552198887,-0.00014663803449366242,0.01047597173601389
0.011852228082716465,-9.363309072796255e-05,-0.011058621108531952,0.011068747378885746,-0.0001420588669134304,0.010619314387440681
0.012439312413334846,-9.2431073426269e-05,-0.01168761495500803,0.010646935552358627,-0.00013771391240879893,0.010877585969865322
0.01218428835272789,-9.011746442411095e-05,-0.011684027500450611,0.01080962922424078,-0.00012977095320820808,0.011401268653571606
0.011715459637343884,-8.900345710571855e-05,-0.01149283442646265,0.010610225610435009,-0.00014803111844230443,0.01150653138756752
0.011715459637343884,-8.900345710571855e-05,-0.01149283442646265,0.010610225610435009,-0.00014803111844230443,0.01150653138756752
0.012094317935407162,-8.791668369667605e-05,-0.011493325233459473,0.010932994075119495,-0.0001470152783440426,0.011480010114610195
0.01164251659065485,-8.685609645908698e-05,-0.012152502313256264,0.010814482346177101,-0.00014331024431157857,0.011377335526049137
0.011753029190003872,-8.582095324527472e-05,-0.01173806469887495,0.010725951753556728,-0.00013961789954919368,0.011457827873528004
0.012636050581932068,-8.4809995314572e-05,-0.012375494465231895,0.011045068502426147,-0.00013609963934868574,0.010739145800471306
0.011936341412365437,-8.285814692499116e-05,-0.01144707202911377,0.01088569313287735,-0.00012956830323673785,0.01097896508872509
0.011936341412365437,-8.285814692499116e-05,-0.01144707202911377,0.01088569313287735,-0.00012956830323673785,0.01097896508872509
0.011986586265265942,-8.191548113245517e-05,-0.011929485015571117,0.010988155379891396,-0.00014484798884950578,0.011016139760613441
0.011981318704783916,-8.09940102044493e-05,-0.011323682963848114,0.01077535841614008,-0.00014405976980924606,0.011057173833251
0.01226663589477539,-8.009307930478826e-05,-0.012723270803689957,0.01095157116651535,-0.00014100038970354944,0.01148368138819933
0.01137379091233015,-2.703285099414643e-05,-0.011728497222065926,0.01098084170371294,-0.000137924071168527,0.01118007767945528
0.012306428514420986,-3.6268019698582066e-07,-0.01155121996998787,0.011155983433127403,-0.00013497003237716854,0.011387234553694725
0.011642646044492722,-4.865817526678029e-09,-0.012270240113139153,0.011262759566307068,-0.00014142270083539188,0.011009612120687962
0.01201215572655201,-6.528114854242872e-11,-0.011745497584342957,0.011026435531675816,-0.00014728715177625418,0.011016396805644035
0.012690424919128418,-8.758299532667102e-13,-0.011746012605726719,0.011216703802347183,-0.00014489500608760864,0.01112661138176918
0.0118123609572649,-1.175037562232582e-14,-0.011835232377052307,0.011166940443217754,-0.00014207325875759125,0.010993069969117641
0.01236512791365385,-1.5764630460184256e-16,-0.012278053909540176,0.010992760770022869,-0.00013946543913334608,0.0111092459410429
0.012365778908133507,-2.115026173247809e-18,-0.01217740960419178,0.011271169409155846,-0.00018180547340307385,0.011101056821644306
0.012278653681278229,-2.8375774985255254e-20,-0.011724638752639294,0.011272701434791088,-0.00017775845481082797,0.010814329609274864
0.012330508790910244,-3.806972299094985e-22,-0.012053675949573517,0.010514020919799805,-0.00017119967378675938,0.011161698959767818
0.012376868166029453,-5.1075390954213325e-24,-0.011610565707087517,0.011038086377084255,-0.00016493706789333373,0.011579624377191067
0.012700002640485764,-6.852414985001449e-26,-0.012428001500666142,0.010872802697122097,-0.00015910585352685302,0.011933168396353722
0.012016146443784237,-9.193389996863527e-28,-0.012251587584614754,0.010808536782860756,-0.00015367155720014125,0.011342569254338741
0.012524246238172054,-1.2334105249053805e-29,-0.011946838349103928,0.011217644438147545,-0.0001485970278736204,0.01124932523816824
0.012716160155832767,-2.7953195967711508e-05,-0.012590399011969566,0.011000770144164562,-0.00016514421440660954,0.011795304715633392
0.012404647655785084,-2.138687705155462e-05,-0.012518455274403095,0.01116577722132206,-0.00016221031546592712,0.011034899391233921
0.012833344750106335,-2.113470145559404e-05,-0.012195846065878868,0.010892889462411404,-0.0001575069036334753,0.011474384926259518
0.013139721937477589,-2.088943074340932e-05,-0.012110546231269836,0.011525291949510574,-0.00015304461703635752,0.011266717687249184
0.01264018565416336,-2.0649795260396786e-05,-0.012263165786862373,0.011001985520124435,-0.0001672039070399478,0.011801927350461483
0.01288185641169548,-2.0415600374690257e-05,-0.012038249522447586,0.011197753250598907,-0.00016855385911185294,0.01149909757077694
0.012664604000747204,-2.0186642359476537e-05,-0.012561780400574207,0.011950965039432049,-0.0001645323500270024,0.012691110372543335
0.012664604000747204,-2.0186642359476537e-05,-0.012561780400574207,0.011950965039432049,-0.0001645323500270024,0.012691110372543335
0.013435930013656616,-1.996277023863513e-05,-0.012290149927139282,0.011001418344676495,-0.00016036875604186207,0.011584727093577385
0.012987121939659119,-2.299511152159539e-06,-0.012799136340618134,0.011535472236573696,-0.00015638936019968241,0.010946512222290039
0.01364937238395214,-3.085087385557017e-08,-0.01270992960780859,0.011173009872436523,-0.00017153279623016715,0.011719315312802792
0.012395249679684639,-4.139038556338903e-10,-0.01289799902588129,0.011116779409348965,-0.00017008923168759793,0.011729637160897255
0.013121294789016247,-5.55304803875889e-12,-0.01318941731005907,0.012004503980278969,-0.00016633026825729758,0.011942681856453419
0.013575943186879158,-7.450123010914814e-14,-0.012422670610249043,0.010581777431070805,-0.00016258521645795554,0.011685619130730629
0.013330252841114998,-9.995291591879387e-16,-0.012893390841782093,0.010678274556994438,-0.00015899573918431997,0.011539556086063385
0.013294936157763004,-1.3409960095953453e-17,-0.012249769642949104,0.011255109682679176,-0.00015556038124486804,0.011844396591186523
0.013220055028796196,-1.7991173153149523e-19,-0.013210530392825603,0.010602828115224838,-0.00015230067947413772,0.011940687894821167
0.013340949080884457,-2.4137455411208043e-21,-0.012445361353456974,0.010722694918513298,-0.0001787653163773939,0.011910848319530487
0.01310759223997593,-3.238347853312982e-23,-0.013187908567488194,0.010769553482532501,-0.00017397807096131146,0.012241946533322334
0.013513600453734398,-4.344656858923446e-25,-0.012623834423720837,0.01166122779250145,-0.0001676354877417907,0.011651486158370972
0.013008758425712585,-5.828911717605522e-27,-0.012909726239740849,0.01190402265638113,-0.00016162279644049704,0.011568097397685051
0.013221551664173603,-7.820228909534649e-29,-0.0127168083563447,0.011337761767208576,-0.00018308393191546202,0.011389598250389099
0.012978089042007923,-1.0491834391258659e-30,-0.012618104927241802,0.011767471209168434,-0.0001806782092899084,0.011577450670301914
0.013545761816203594,-1.4076134897442044e-32,-0.012964889407157898,0.011445840820670128,-0.00017506330914329737,0.012099766172468662
0.013655210845172405,-1.8884930895840605e-34,-0.012452368624508381,0.011296938173472881,-0.0001695807877695188,0.011675497516989708
0.013714396394789219,-2.5336545257565157e-36,-0.013325654901564121,0.011648491956293583,-0.0001644178992137313,0.011947725899517536
0.013456225395202637,-3.399221049572583e-38,-0.012381133623421192,0.011496718972921371,-0.00015955930575728416,0.012018165551126003
0.013472853228449821,-4.5604838131911874e-40,-0.013022026047110558,0.011398752219974995,-0.00016765724285505712,0.011986940167844296
0.01362502109259367,-8.267660939516421e-44,-0.012048058211803436,0.011084995232522488,-0.00017093804490286857,0.012132358737289906
0.013927065767347813,-1.401298464324817e-45,-0.01269896887242794,0.01124799158424139,-0.00016647123266011477,0.01216151937842369
0.013519855216145515,-0.0,-0.012134362012147903,0.010505222715437412,-0.0001621890696696937,0.01211953442543745
0.013663681223988533,0.0,-0.012631159275770187,0.010698184370994568,-0.00015811836055945605,0.012720823287963867
0.013377329334616661,0.0,-0.011900597251951694,0.010957399383187294,-0.00016507373948115855,0.012260538525879383
0.01370553020387888,0.0,-0.012499697506427765,0.010989051312208176,-0.00017133723304141313,0.01225251518189907
0.01370553020387888,0.0,-0.012499697506427765,0.010989051312208176,-0.00017133723304141313,0.01225251518189907
0.013939247466623783,0.0,-0.012368607334792614,0.011022498831152916,-0.00016421632608398795,0.012395384721457958
0.013939247466623783,0.0,-0.012368607334792614,0.011022498831152916,-0.00016421632608398795,0.012395384721457958
0.01344388909637928,0.0,-0.012399391271173954,0.01100282371044159,-0.0001605572469998151,0.012429055757820606
0.01400888990610838,0.0,-0.01167072169482708,0.011737200431525707,-0.00019980277284048498,0.0121799660846591
0.013803144916892052,0.0,-0.012475601397454739,0.011349680833518505,-0.0001972924656001851,0.012414990924298763
0.013978114351630211,0.0,-0.011934665031731129,0.011248137801885605,-0.00020792431314475834,0.01218216959387064
0.013718892820179462,0.0,-0.01247331965714693,0.011513801291584969,-0.00021686131367459893,0.012521222233772278
0.013943522237241268,0.0,-0.012474201619625092,0.011173561215400696,-0.00020957413653377444,0.012272250838577747
0.013771449215710163,0.0,-0.012104162015020847,0.011291107162833214,-0.00023098046949598938,0.012251142412424088
0.013708892278373241,0.0,-0.012899620458483696,0.01065327599644661,-0.00022667997109238058,0.012194153852760792
0.013857226818799973,0.0,-0.012206478975713253,0.01082666777074337,-0.00021905927860643715,0.011903916485607624
0.014300176873803139,0.0,-0.012693379074335098,0.01106563862413168,-0.0002117142576025799,0.012079334817826748
0.014259399846196175,0.0,-0.011743833310902119,0.01073814183473587,-0.00022649115999229252,0.012183453887701035
0.01428617537021637,0.0,-0.012045608833432198,0.011069015599787235,-0.00022622395772486925,0.012310446240007877
0.014204268343746662,0.0,-0.012869610451161861,0.010820294730365276,-0.0002197659050580114,0.012755200266838074
0.014311868697404861,0.0,-0.01264736708253622,0.010634423233568668,-0.00021328481670934707,0.01329085510224104
0.014207117259502411,0.0,-0.012664027512073517,0.010821440257132053,-0.00029829650884494185,0.01290918793529272
0.013653738424181938,0.0,-0.011529910378158092,0.010322289541363716,-0.00030764416442252696,0.012162839062511921
0.014052502810955048,0.0,-0.012368892319500446,0.011491235345602036,-0.00027235475135967135,0.012328098528087139
0.01416628435254097,0.0,-0.012466019950807095,0.011383064091205597,-0.0002946649619843811,0.012267032638192177
0.014024429954588413,0.0,-0.012321979738771915,0.011694884859025478,-0.0002906497393269092,0.012409568764269352
0.014529933221638203,0.0,-0.012121486477553844,0.011769733391702175,-0.0002765365643426776,0.012235221453011036
0.014614873565733433,0.0,-0.012293249368667603,0.011492774821817875,-0.00028451712569221854,0.012646502815186977
0.014223730191588402,0.0,-0.01209108904004097,0.011829368770122528,-0.0002912330091930926,0.012591486796736717
0.014257032424211502,0.0,-0.012607823126018047,0.011417687870562077,-0.00027960530132986605,0.012857304885983467
0.014733849093317986,0.0,-0.012340409681200981,0.011421998962759972,-0.00026780160260386765,0.013142979703843594
0.014227141626179218,0.0,-0.012559406459331512,0.011261007748544216,-0.00027483890880830586,0.01303053181618452
0.014935488812625408,0.0,-0.011857517063617706,0.011081315577030182,-0.000280855834716931,0.012717022560536861
0.014935488812625408,0.0,-0.011857517063617706,0.011081315577030182,-0.000280855834716931,0.012717022560536861
0.01492214947938919,0.0,-0.0117943761870265,0.011206268332898617,-0.00027136330027133226,0.012889708392322063
0.014758466742932796,0.0,-0.01192895695567131,0.01077770721167326,-0.00025240826653316617,0.012815041467547417
0.014758466742932796,0.0,-0.01192895695567131,0.01077770721167326,-0.00025240826653316617,0.012815041467547417
0.014749902300536633,0.0,-0.012333434075117111,0.011012192815542221,-0.00026638878625817597,0.013273248448967934
0.014609045349061489,0.0,-0.012230056338012218,0.011095818132162094,-0.00025909210671670735,0.01294222753494978
0.014577419497072697,0.0,-0.011921619065105915,0.0113814203068614,-0.00024547954672016203,0.013089951127767563
0.014500662684440613,0.0,-0.01227802224457264,0.011329072527587414,-0.00023280987807083875,0.012881233356893063
0.014441482722759247,0.0,-0.01207762211561203,0.010813616216182709,-0.00022135648760013282,0.01280044112354517
0.014966053888201714,0.0,-0.012332734651863575,0.010865938849747181,-0.00021097510762047023,0.013306574895977974
0.014958254061639309,0.0,-0.011826771311461926,0.010606375522911549,-0.00023644189059268683,0.012780248187482357
0.014827309176325798,0.0001621899427846074,-0.011702594347298145,0.01111016608774662,-0.0002311098505742848,0.013012287206947803
0.014317247085273266,0.00020372030849102885,-0.012266336008906364,0.011292943730950356,-0.00022192325559444726,0.012896210886538029
0.014814135618507862,0.0001873910950962454,-0.012280884198844433,0.011390567757189274,-0.00023910767049528658,0.013278219848871231
0.014762278646230698,0.00017989941989071667,-0.011762657202780247,0.011066844686865807,-0.00023049931041896343,0.013595701195299625
0.014331021346151829,0.00017298385500907898,-0.012561257928609848,0.011101385578513145,-0.00024992297403514385,0.01274939812719822
0.015058529563248158,0.00016657989181112498,-0.012322588823735714,0.011683646589517593,-0.0002451983164064586,0.012802200391888618
0.015138055197894573,0.00018897098198067397,-0.011817536316812038,0.011800159700214863,-0.0002373614115640521,0.012814253568649292
0.015339793637394905,0.0001860657794168219,-0.012169292196631432,0.011714784428477287,-0.00026067838189192116,0.013147174380719662
0.015339793637394905,0.0001860657794168219,-0.012169292196631432,0.011714784428477287,-0.00026067838189192116,0.013147174380719662
0.015306380577385426,0.000174114087712951,-0.01248307153582573,0.01133816223591566,-0.0002856604696717113,0.012977908365428448
0.015306380577385426,0.000174114087712951,-0.01248307153582573,0.01133816223591566,-0.0002856604696717113,0.012977908365428448
0.014756233431398869,0.0001686754112597555,-0.012021666392683983,0.011667766608297825,-0.0002936669625341892,0.01342194713652134
0.01536558661609888,0.00018972749239765108,-0.012263360433280468,0.011252490803599358,-0.00027997783035971224,0.01325113233178854
0.01502226572483778,0.00018520212324801832,-0.012252913787961006,0.01201634481549263,-0.0002879304811358452,0.013010772876441479
0.015381352975964546,0.0002026101719820872,-0.011693631298840046,0.011438874527812004,-0.0002945683663710952,0.013004383072257042
0.015147499740123749,0.00019988107669632882,-0.01233617402613163,0.011374244466423988,-0.0002826643467415124,0.013938181102275848
0.0155101353302598,0.0001945195981534198,-0.012203740887343884,0.011540134437382221,-0.00027060622232966125,0.01320939976722002
0.01496973168104887,0.0001894032902782783,-0.012673350051045418,0.010854404419660568,-0.0002594643156044185,0.01267730351537466
0.015244336798787117,0.0002255481231259182,-0.012127276510000229,0.01123451255261898,-0.0002823794784490019,0.012873297557234764
0.015757907181978226,0.0002344645035918802,-0.012782691977918148,0.011640578508377075,-0.00027380321989767253,0.013812914490699768
0.015388770960271358,0.0002231170074082911,-0.012419670820236206,0.010992825962603092,-0.00026390713173896074,0.014027614146471024
0.015291178598999977,0.0002544968156144023,-0.012048108503222466,0.01126202940940857,-0.00025458307936787605,0.01386234164237976
0.015149536542594433,0.00024358001246582717,-0.012786895036697388,0.011057478375732899,-0.00030622113263234496,0.013580400496721268
0.01539828721433878,0.00023307300580199808,-0.012250869534909725,0.011136711575090885,-0.0002951682254206389,0.013279265724122524
0.014968075789511204,0.00022342937882058322,-0.012672528624534607,0.011239972896873951,-0.0002775467874016613,0.013357388786971569
0.01540558971464634,0.00021455169189721346,-0.01247614435851574,0.010973528027534485,-0.0002614530094433576,0.013256076723337173
0.015303805470466614,0.00023142207646742463,-0.01289497409015894,0.011421510949730873,-0.00028063732315786183,0.013255700469017029
0.015303805470466614,0.00023142207646742463,-0.01289497409015894,0.011421510949730873,-0.00028063732315786183,0.013255700469017029
0.01490714494138956,0.0002446225844323635,-0.012681134045124054,0.011540895327925682,-0.0002671331458259374,0.01348868478089571
0.016078311949968338,0.00024669160484336317,-0.01299073826521635,0.010905398055911064,-0.00029408090631477535,0.013596723787486553
0.015539385378360748,0.00023981044068932533,-0.01215584110468626,0.010901255533099174,-0.0002834275073837489,0.013988030143082142
0.015612205490469933,0.0003384646843187511,-0.012898360379040241,0.01137526798993349,-0.00027138410951010883,0.013731020502746105
0.015244314447045326,0.00031624716939404607,-0.012166764587163925,0.011776481755077839,-0.0002876552171073854,0.014116022735834122
0.015446731820702553,0.0003537479497026652,-0.012777837924659252,0.011037292890250683,-0.00028492597630247474,0.013787186704576015
0.01547711156308651,0.0003327325393911451,-0.012379719875752926,0.01140226423740387,-0.00031185237457975745,0.013999802060425282
0.015457073226571083,0.000359432480763644,-0.01215959619730711,0.011656898073852062,-0.0003253192699048668,0.013858981430530548
0.01551045011729002,0.0003455200931057334,-0.013197253458201885,0.011368885636329651,-0.0003055788984056562,0.013475082814693451
0.015315329656004906,0.000373770366422832,-0.012574409134685993,0.011929013766348362,-0.00033954778336919844,0.013204159215092659
0.01568756066262722,0.0003560483455657959,-0.012920639477670193,0.011413398198783398,-0.00034893423435278237,0.013514209538698196
0.015530441887676716,0.0004926029359921813,-0.012472712434828281,0.011565253138542175,-0.00035372847924008965,0.013770276680588722
0.015900231897830963,0.0005041917902417481,-0.012810003943741322,0.011457827873528004,-0.0003598709008656442,0.013857169076800346
0.015659719705581665,0.00048665134818293154,-0.012432446703314781,0.01109587773680687,-0.0003634984896052629,0.014068207703530788
0.015964671969413757,0.0004467606486286968,-0.012648910284042358,0.011265039443969727,-0.0004952484159730375,0.013760192319750786
0.015838153660297394,0.00048038113163784146,-0.012488599866628647,0.01124064065515995,-0.0004904289380647242,0.013717049732804298
0.01610625721514225,0.0004889325937256217,-0.012159233912825584,0.011402330361306667,-0.0004450988781172782,0.013696005567908287
0.016210617497563362,0.0004769126826431602,-0.012430940754711628,0.011561655439436436,-0.00047499427455477417,0.014219499193131924
0.016077833250164986,0.0005543183069676161,-0.0125509575009346,0.011601889505982399,-0.00044530091690830886,0.01373461913317442
0.016754088923335075,0.0005956526729278266,-0.012897128239274025,0.012048830278217793,-0.00046234589535743,0.014643416740000248
0.01593310944736004,0.0006265342817641795,-0.012715313583612442,0.011716723442077637,-0.00044535021879710257,0.014309221878647804
0.016329970210790634,0.0006516983266919851,-0.012279986403882504,0.011752668768167496,-0.0004683614824898541,0.01386778149753809
0.016170568764209747,0.0006104236235842109,-0.01250386144965887,0.011485366150736809,-0.00044640537817031145,0.013652730733156204
0.015672756358981133,0.0008434621850028634,-0.012952513992786407,0.01164111029356718,-0.00043558728066273034,0.013215992599725723
0.016182010993361473,0.0008476183284074068,-0.012105311267077923,0.011296363547444344,-0.00039807442226447165,0.01339392364025116
0.016182010993361473,0.0008476183284074068,-0.012105311267077923,0.011296363547444344,-0.00039807442226447165,0.01339392364025116
0.016308119520545006,0.0008207806968130171,-0.01276747789233923,0.01162923127412796,-0.0004288417985662818,0.013867219910025597
0.016370590776205063,0.000766497862059623,-0.012540522962808609,0.011380240321159363,-0.0004052350122947246,0.014367991127073765
0.016350863501429558,0.0007470744894817472,-0.013080473989248276,0.011623868718743324,-0.0003774534270633012,0.014069080352783203
0.015789007768034935,0.0008534499793313444,-0.012648539617657661,0.011474061757326126,-0.00038139300886541605,0.014478829689323902
0.01676269806921482,0.0011275927536189556,-0.012749074958264828,0.011011517606675625,-0.00036389767774380744,0.014508167281746864
0.016644958406686783,0.001186311594210565,-0.01304648071527481,0.010809638537466526,-0.000372073584003374,0.014523928984999657
0.016644958406686783,0.001186311594210565,-0.01304648071527481,0.010809638537466526,-0.000372073584003374,0.014523928984999657
0.016601597890257835,0.0012096689315512776,-0.012480986304581165,0.011158904992043972,-0.00035449283313937485,0.014172188006341457
0.017250802367925644,0.0011944936122745275,-0.012827339582145214,0.011381654068827629,-0.0003379001282155514,0.01454996783286333
0.015744701027870178,0.0011408982099965215,-0.012500212527811527,0.011481164954602718,-0.0003227523702662438,0.01436177734285593
0.01668950542807579,0.0011033794144168496,-0.013102464377880096,0.012254353612661362,-0.00030943300225771964,0.014700078405439854
0.016740089282393456,0.0010598223889246583,-0.012948593124747276,0.011827177368104458,-0.0002923332795035094,0.014256680384278297
0.01685500144958496,0.0011531385825946927,-0.01296366285532713,0.011966162361204624,-0.0002746768295764923,0.01449353713542223
0.017244992777705193,0.0011473738122731447,-0.013023655861616135,0.011825326830148697,-0.0002588813076727092,0.014467742294073105
0.01680298149585724,0.0012343859998509288,-0.012177885510027409,0.01158133801072836,-0.00026865809923037887,0.014641743153333664
0.01710977591574192,0.0011908733285963535,-0.01274887565523386,0.011860627681016922,-0.0002769528073258698,0.014227994717657566
0.01672758162021637,0.0011382439406588674,-0.012303387746214867,0.01136734802275896,-0.000264812377281487,0.014379664324223995
0.017079170793294907,0.001110878656618297,-0.013252678327262402,0.011255545541644096,-0.0002525201125536114,0.014258844777941704
0.016891412436962128,0.0011570350034162402,-0.012937412597239017,0.011355855502188206,-0.00024124195624608546,0.014510185457766056
0.01666269637644291,0.001229443121701479,-0.013249846175312996,0.01144108921289444,-0.0002642738400027156,0.014260970987379551
0.017359048128128052,0.0016486903186887503,-0.012292101979255676,0.01172550581395626,-0.0002580246073193848,0.014646568335592747
0.01704355515539646,0.0015655277529731393,-0.012181675992906094,0.011541069485247135,-0.0002481580013409257,0.014394689351320267
0.017058823257684708,0.0016803416656330228,-0.012975123710930347,0.011836841702461243,-0.0002705662918742746,0.014603485353291035
0.01701643131673336,0.001598742906935513,-0.013026406988501549,0.011260316707193851,-0.00025364302564412355,0.014617137610912323
0.01701643131673336,0.001598742906935513,-0.013026406988501549,0.011260316707193851,-0.00025364302564412355,0.014617137610912323
0.017693592235445976,0.0015679590869694948,-0.012672962620854378,0.011570436879992485,-0.0002450190659146756,0.014236029237508774
0.017364291474223137,0.0014891421888023615,-0.013038313016295433,0.011095186695456505,-0.00023695494746789336,0.014616944827139378
0.0172169990837574,0.001870286068879068,-0.013162140734493732,0.011866835877299309,-0.0002440433599986136,0.015088195912539959
0.0172169990837574,0.001870286068879068,-0.013162140734493732,0.011866835877299309,-0.0002440433599986136,0.015088195912539959
0.017040807753801346,0.0021187257952988148,-0.013013132847845554,0.011587558314204216,-0.00023857792257331312,0.016096899285912514
0.017537079751491547,0.002063601277768612,-0.012508670799434185,0.01149053405970335,-0.00022702733986079693,0.014335843734443188
0.01724001206457615,0.0020462649408727884,-0.012857021763920784,0.011320916935801506,-0.00021615081641357392,0.013943072408437729
0.01727774739265442,0.0019923036452382803,-0.012767990119755268,0.011830596253275871,-0.0002419738011667505,0.014743962325155735
0.017330868169665337,0.0019941607024520636,-0.013134200125932693,0.011869365349411964,-0.00023628321650903672,0.014904862269759178
0.017049269750714302,0.001956545514985919,-0.012455583550035954,0.011628653854131699,-0.00022668296878691763,0.015116039663553238
0.017644699662923813,0.0020050029270350933,-0.013452116400003433,0.011571623384952545,-0.0002513635263312608,0.014648526906967163
0.017225082963705063,0.001967361895367503,-0.012693997472524643,0.010911238379776478,-0.00024383843992836773,0.014746729284524918
0.01747293211519718,0.0019927797839045525,-0.013813852332532406,0.010786605067551136,-0.00023488991428166628,0.014485174790024757
0.017373012378811836,0.002022586530074477,-0.013178683817386627,0.010984980501234531,-0.00025451049441471696,0.015116254799067974
0.017148058861494064,0.0020422283560037613,-0.012905986979603767,0.01072356104850769,-0.00024954439140856266,0.015180070884525776
0.017520753666758537,0.0020515236537903547,-0.012915633618831635,0.011518827639520168,-0.00024142779875546694,0.015039977617561817
0.017461800947785378,0.002180324401706457,-0.012493937276303768,0.011406541801989079,-0.00023360989871434867,0.01478940062224865
0.01748548075556755,0.002111075446009636,-0.01357349194586277,0.011626015417277813,-0.0002666469954419881,0.01469139102846384
0.017452510073781013,0.002276904881000519,-0.013162508606910706,0.01158920582383871,-0.000288499693851918,0.014529869891703129
0.01740802824497223,0.002305824076756835,-0.013951443135738373,0.011100261472165585,-0.0002735094749368727,0.014906644821166992
0.017941700294613838,0.0022184301633387804,-0.013209251686930656,0.011959856376051903,-0.00029601395362988114,0.015190662816166878
0.017653757706284523,0.0024166363291442394,-0.013595623895525932,0.011609316803514957,-0.00029191956855356693,0.01530526764690876
0.01759541593492031,0.0025254853535443544,-0.013054873794317245,0.011658677831292152,-0.0002776836045086384,0.015465114265680313
0.017145853489637375,0.002487787278369069,-0.013597995042800903,0.011108155362308025,-0.0002909245085902512,0.015334700234234333
0.017145853489637375,0.002487787278369069,-0.013597995042800903,0.011108155362308025,-0.0002909245085902512,0.015334700234234333
0.0179476048797369,0.002193992491811514,-0.014190632849931717,0.011033843271434307,-0.00028051825938746333,0.0151687515899539
0.018055588006973267,0.002301644068211317,-0.013567909598350525,0.011290958151221275,-0.0002687172091100365,0.015320960432291031
0.017711613327264786,0.002297635655850172,-0.01375130470842123,0.011561575345695019,-0.00026491336757317185,0.015486589632928371
0.017711613327264786,0.002297635655850172,-0.01375130470842123,0.011561575345695019,-0.00026491336757317185,0.015486589632928371
0.017269819974899292,0.0026199710555374622,-0.013982253149151802,0.011337186209857464,-0.00027109176153317094,0.015350216999650002
0.017560791224241257,0.0027859515976160765,-0.013881330378353596,0.011638169176876545,-0.0002622717875055969,0.015535757876932621
0.017428521066904068,0.002461995230987668,-0.013287871144711971,0.011312522925436497,-0.000253119069384411,0.01532824244350195
0.017679041251540184,0.002497831592336297,-0.013143707066774368,0.011613751761615276,-0.0002445257850922644,0.015564450062811375
0.017827751114964485,0.0023422043304890394,-0.013139317743480206,0.012108087539672852,-0.00027424845029599965,0.015645621344447136
0.01756957173347473,0.0022925683297216892,-0.01358829252421856,0.012011917307972908,-0.00026403655647300184,0.015423526987433434
0.017226485535502434,0.0025556436739861965,-0.013260338455438614,0.01225096732378006,-0.0002497614186722785,0.015293598175048828
0.017659714445471764,0.002815777435898781,-0.013865478336811066,0.012350929901003838,-0.00028071398264728487,0.01631634496152401
0.017558569088578224,0.002556965220719576,-0.013045961037278175,0.012047878466546535,-0.00026957306545227766,0.014991032890975475
0.01854811981320381,0.002599516650661826,-0.013508531264960766,0.011430992744863033,-0.0002940181002486497,0.015205612406134605
0.01785586215555668,0.0026511752512305975,-0.01286014448851347,0.010913487523794174,-0.0002857744402717799,0.015452646650373936
0.017601240426301956,0.0024789164308458567,-0.01350547093898058,0.011311028152704239,-0.0002736901515163481,0.015654945746064186
0.017895210534334183,0.0025688468012958765,-0.013283604755997658,0.011140421964228153,-0.00028064209618605673,0.016018971800804138
0.01726624369621277,0.002844768576323986,-0.01357347797602415,0.011082910932600498,-0.0002865529095288366,0.016152793541550636
0.017568400129675865,0.002778655616566539,-0.01342452596873045,0.011591748334467411,-0.0002766572288237512,0.016399944201111794
0.01767772063612938,0.002696029609069228,-0.013604002073407173,0.011468818411231041,-0.00026648896164260805,0.01618804968893528
0.01768934540450573,0.0027586077339947224,-0.013480889610946178,0.011861045844852924,-0.00025804369943216443,0.01617407239973545
0.01811726577579975,0.0028134100139141083,-0.013187854550778866,0.011423052288591862,-0.0003264588303864002,0.015912821516394615
0.017663396894931793,0.0029036295600235462,-0.013442901894450188,0.011439814232289791,-0.0003096924629062414,0.015353187918663025
0.018024867400527,0.0030198530294001102,-0.013822440057992935,0.011240553110837936,-0.00027253798907622695,0.016041647642850876
0.017977476119995117,0.002993309171870351,-0.013241847045719624,0.011245861649513245,-0.0002569697389844805,0.016491739079356194
0.017977476119995117,0.002993309171870351,-0.013241847045719624,0.011245861649513245,-0.0002569697389844805,0.016491739079356194
0.01820104941725731,0.0027668755501508713,-0.013113784603774548,0.011654655449092388,-0.0002751177526079118,0.016381964087486267
0.01820104941725731,0.0027668755501508713,-0.013113784603774548,0.011654655449092388,-0.0002751177526079118,0.016381964087486267
0.01839635893702507,0.003032068256288767,-0.01348603144288063,0.01204703003168106,-0.0002631428651511669,0.016103293746709824
0.018384026363492012,0.00312746106646955,-0.013288830406963825,0.011584211140871048,-0.0002398558717686683,0.016475634649395943
0.018429892137646675,0.0029883659444749355,-0.013253974728286266,0.011563112959265709,-0.00022965330572333187,0.01654098927974701
0.018429892137646675,0.0029883659444749355,-0.013253974728286266,0.011563112959265709,-0.00022965330572333187,0.01654098927974701
0.018646767362952232,0.002842321526259184,-0.01373990811407566,0.011442935094237328,-0.0002202831528848037,0.016629287973046303
0.018530314788222313,0.0029364239890128374,-0.013382425531744957,0.01154253538697958,-0.00024222741194535047,0.016305601224303246
0.018605787307024002,0.0032075855415314436,-0.013200419954955578,0.011296073906123638,-0.00023730125394649804,0.01640334725379944
0.018729856237769127,0.0031575006432831287,-0.013316744938492775,0.011842222884297371,-0.00022895079746376723,0.01579565554857254
0.01853702962398529,0.002678042044863105,-0.013141169212758541,0.01175312977284193,-0.00022093841107562184,0.01574781909584999
0.019012153148651123,0.0027240768540650606,-0.013751004822552204,0.011385837569832802,-0.00021345257118809968,0.016332777217030525
0.01881478726863861,0.002783803269267082,-0.013097118586301804,0.01196043100208044,-0.00020645676704589278,0.01642576791346073
0.01830594427883625,0.002358504105359316,-0.013640576042234898,0.0113914143294096,-0.00019990505825262517,0.017055973410606384
0.019026216119527817,0.001614374341443181,-0.013326449319720268,0.011731584556400776,-0.00019375640840735286,0.016696522012352943
0.01880483515560627,0.0011871889000758529,-0.013582917861640453,0.011717364192008972,-0.00021127988293301314,0.01759168691933155
0.018654555082321167,0.0009386852034367621,-0.01275460422039032,0.011733352206647396,-0.0002083718281937763,0.015787532553076744
0.019247794523835182,0.0009119543246924877,-0.013358081690967083,0.012222622521221638,-0.00020271424727980047,0.0157476793974638
0.01902950555086136,0.0010100286453962326,-0.01309712789952755,0.011498715728521347,-0.00019717625400517136,0.016221582889556885
0.018516074866056442,0.0008901701658032835,-0.013394657522439957,0.011818020604550838,-0.00018306994752492756,0.016826195642352104
0.019276585429906845,0.001003136159852147,-0.013215060345828533,0.01178232952952385,-0.00017343815125059336,0.01736629568040371
0.01923293061554432,0.0022517498582601547,-0.012781700119376183,0.01165997888892889,-0.00019577056809794158,0.01677846349775791
0.019380606710910797,0.0015345453284680843,-0.012717679142951965,0.01161821186542511,-0.00021329461014829576,0.01667770929634571
0.019152047112584114,0.0013450501719489694,-0.013307095505297184,0.011806818656623363,-0.00020990785560570657,0.016930077224969864
0.019021688029170036,0.0010951546719297767,-0.013288548216223717,0.011587513610720634,-0.00023046950809657574,0.016990726813673973
0.019606932997703552,0.0010553575120866299,-0.01338228490203619,0.011582265608012676,-0.0002250480029033497,0.016766512766480446
0.019592123106122017,0.0010417557787150145,-0.012914720922708511,0.012214620597660542,-0.0004848106182180345,0.01737075112760067
0.018833719193935394,0.0009193465230055153,-0.013721810653805733,0.011329440400004387,-0.0004719967837445438,0.017132112756371498
0.01949439011514187,0.00104623194783926,-0.013439197093248367,0.011638544499874115,-0.00047082299715839326,0.016904955729842186
0.01949439011514187,0.00104623194783926,-0.013439197093248367,0.011638544499874115,-0.00047082299715839326,0.016904955729842186
0.019305262714624405,0.0016435985453426838,-0.013592347502708435,0.011750299483537674,-0.00046763158752582967,0.017279157415032387
0.019249146804213524,0.0015970409149304032,-0.013362610712647438,0.011875109747052193,-0.00043260902748443186,0.016941091045737267
0.020093539729714394,0.001462070271372795,-0.013858568854629993,0.012241927906870842,-0.000458288675872609,0.01724657043814659
0.020198458805680275,0.0012464188039302826,-0.013437014073133469,0.01174764335155487,-0.00043452956015244126,0.01710057072341442
0.019513556733727455,0.001153378514572978,-0.013054287992417812,0.012221084907650948,-0.0004069599090144038,0.01689906232059002
0.01995772123336792,0.00112090352922678,-0.013816684484481812,0.011866172775626183,-0.00043310216278769076,0.016875555738806725
0.019371233880519867,0.0011908605229109526,-0.013541526161134243,0.01171113271266222,-0.00041164804133586586,0.01675407402217388
0.019335368648171425,0.00135438097640872,-0.01375134289264679,0.011840744875371456,-0.00038958288496360183,0.01727052964270115
0.019942810758948326,0.00175057677552104,-0.013187624514102936,0.011725819669663906,-0.0003695913474075496,0.0173557847738266
0.02004752680659294,0.0019435331923887134,-0.013854961842298508,0.011962482705712318,-0.00035495791235007346,0.017618453130126
0.020187318325042725,0.0018843772122636437,-0.01315222680568695,0.012473118491470814,-0.0003304336278233677,0.017454415559768677
0.01981952413916588,0.0018457742407917976,-0.01364521961659193,0.012198739685118198,-0.00030791014432907104,0.016878975555300713
0.020464127883315086,0.0016924375668168068,-0.013337535783648491,0.011812346987426281,-0.00033060548594221473,0.016597652807831764
0.020268835127353668,0.0016418660525232553,-0.014115765690803528,0.011539360508322716,-0.0003240056976210326,0.01653311960399151
0.0204281285405159,0.001679835026152432,-0.013795921579003334,0.011887311935424805,-0.0003441287553869188,0.01835446059703827
0.020746979862451553,0.0018411721102893353,-0.014720376580953598,0.011870013549923897,-0.0003375320229679346,0.01726401224732399
0.02024044468998909,0.0019185248529538512,-0.013782034628093243,0.012262661010026932,-0.0003434825630392879,0.017494548112154007
0.020037507638335228,0.00245996774174273,-0.014636818319559097,0.012203124351799488,-0.0003476891142781824,0.01779135689139366
0.020476466044783592,0.0020253383554518223,-0.014239266514778137,0.01250663585960865,-0.0004640217812266201,0.01831585168838501
0.020964331924915314,0.00181926682125777,-0.013939172960817814,0.01175940316170454,-0.0004653855285141617,0.018440335988998413
0.02061157487332821,0.0018069588113576174,-0.014029555022716522,0.012149390764534473,-0.0004976919153705239,0.018377263098955154
0.020866531878709793,0.0018335067434236407,-0.013942060992121696,0.01211452204734087,-0.0005282091442495584,0.017636846750974655
0.021081168204545975,0.0020659249275922775,-0.014363587833940983,0.011686771176755428,-0.0009189716656692326,0.01750873029232025
0.02076335996389389,0.0022861051838845015,-0.014435233548283577,0.011932420544326305,-0.0009741055546328425,0.017907723784446716
0.020815515890717506,0.002177253132686019,-0.014305874705314636,0.011674000881612301,-0.0009363910066895187,0.017457230016589165
0.020876308903098106,0.0020817634649574757,-0.01386290229856968,0.011943640187382698,-0.0008774446323513985,0.01742096059024334
0.020876308903098106,0.0020817634649574757,-0.01386290229856968,0.011943640187382698,-0.0008774446323513985,0.01742096059024334
0.020695749670267105,0.0021419613622128963,-0.014111042022705078,0.011898183263838291,-0.0007782098255120218,0.018671615049242973
0.020814571529626846,0.0021517546847462654,-0.013896472752094269,0.01210398506373167,-0.0007781148888170719,0.018761157989501953
0.020814571529626846,0.0021517546847462654,-0.013896472752094269,0.01210398506373167,-0.0007781148888170719,0.018761157989501953
0.0209483839571476,0.0023290016688406467,-0.014572517946362495,0.012127275578677654,-0.0006933899712748826,0.018685877323150635
0.021005209535360336,0.002393629401922226,-0.01448963861912489,0.012292642146348953,-0.000615235767327249,0.018539050593972206
0.021043669432401657,0.0023097083903849125,-0.014279459603130817,0.011833772994577885,-0.0005522709107026458,0.018409810960292816
0.021272629499435425,0.002417290350422263,-0.01384743396192789,0.012182420119643211,-0.0005784504464827478,0.018094589933753014
0.021212490275502205,0.002176081296056509,-0.014294164255261421,0.012095690704882145,-0.0005343981902115047,0.01813201978802681
0.02102646417915821,0.002273805206641555,-0.013529866933822632,0.011948885396122932,-0.0004928834387101233,0.018818173557519913
0.02121761068701744,0.002183678327128291,-0.015492415986955166,0.011864857748150826,-0.000513493490871042,0.01870863325893879
0.021605247631669044,0.0021491728257387877,-0.013441656716167927,0.01163039356470108,-0.0004864704969804734,0.018044982105493546
0.021454786881804466,0.002433574525639415,-0.013901970349252224,0.01230253279209137,-0.0004566374991554767,0.018131475895643234
0.021326430141925812,0.0026606994215399027,-0.014279051683843136,0.012193241156637669,-0.0003615589812397957,0.018412500619888306
0.021249106153845787,0.002468737540766597,-0.014273254200816154,0.012785173021256924,-0.0003310923639219254,0.018095768988132477
0.021586205810308456,0.002565909642726183,-0.013396705500781536,0.012688037939369678,-0.00036138424184173346,0.018170420080423355
0.02157646045088768,0.0022866062354296446,-0.013828366994857788,0.012996147386729717,-0.00034550231066532433,0.018979866057634354
0.021373199298977852,0.0027691801078617573,-0.014299750328063965,0.011859596706926823,-0.0003573576104827225,0.017822397872805595
0.021373199298977852,0.0027691801078617573,-0.014299750328063965,0.011859596706926823,-0.0003573576104827225,0.017822397872805595
0.02137008123099804,0.002935931785032153,-0.013793199323117733,0.01217131782323122,-0.0003742349217645824,0.017557142302393913
0.021532541140913963,0.0027189336251467466,-0.014475744217634201,0.012201830744743347,-0.00036639446625486016,0.018293559551239014
0.02108856476843357,0.0026393248699605465,-0.013625305145978928,0.012927846983075142,-0.00034934477298520505,0.0185119416564703
0.021588999778032303,0.0023212148807942867,-0.014231580309569836,0.012878322042524815,-0.00039311277214437723,0.018452011048793793
0.021634288132190704,0.0023956240620464087,-0.01381627842783928,0.012715122662484646,-0.00041356543079018593,0.01836729235947132
0.022242428734898567,0.0024535052943974733,-0.014812588691711426,0.011800161562860012,-0.0004382060724310577,0.018171515315771103
0.021571610122919083,0.002976307412609458,-0.01421249471604824,0.01126587949693203,-0.0004215813532937318,0.01802695542573929
0.02176535874605179,0.0027771522291004658,-0.014483170583844185,0.011916828341782093,-0.00039210388786159456,0.018279999494552612
0.021224550902843475,0.0028193306643515825,-0.013764210045337677,0.012274600565433502,-0.00036561349406838417,0.018399108201265335
0.020437486469745636,0.0026708655059337616,-0.014342949725687504,0.01239765528589487,-0.0003955121210310608,0.018386926501989365
0.022162985056638718,0.0025996046606451273,-0.013730901293456554,0.013215448707342148,-0.00037539852201007307,0.018661394715309143
0.02226083353161812,0.0027938925195485353,-0.014194951392710209,0.012438967823982239,-0.00035449236747808754,0.018793601542711258
0.02181454934179783,0.0028925868682563305,-0.013927852734923363,0.012142719700932503,-0.00033561515738256276,0.018449051305651665
0.021869618445634842,0.0028262792620807886,-0.0146287577226758,0.011594656854867935,-0.0003186363319400698,0.018374469131231308
0.021718816831707954,0.0026653343811631203,-0.013688642531633377,0.01237490400671959,-0.000340811675414443,0.018513699993491173
0.021796228364109993,0.0028300608973950148,-0.013879714533686638,0.012734965421259403,-0.0003303153207525611,0.01859993301331997
0.021986402571201324,0.002883186098188162,-0.013355054892599583,0.012204132042825222,-0.00031614481122232974,0.018698638305068016
0.022030670195817947,0.0029334400314837694,-0.013720649294555187,0.012575097382068634,-0.0003028650244232267,0.018447143957018852
0.02122909389436245,0.0028518671169877052,-0.014029099605977535,0.012266937643289566,-0.00029340636683627963,0.018631579354405403
0.021307047456502914,0.002908014692366123,-0.014199462719261646,0.012453985400497913,-0.00027707265689969063,0.0184291061013937
0.02195223979651928,0.002853095531463623,-0.013922926038503647,0.012354421429336071,-0.0002611028612591326,0.01839430443942547
0.02249104157090187,0.003285285783931613,-0.01405058242380619,0.012678172439336777,-0.00024678531917743385,0.018957531079649925
0.022022776305675507,0.0035096590872853994,-0.013910737819969654,0.012497026473283768,-0.0002552084333728999,0.018772803246974945
0.022251317277550697,0.0031201185192912817,-0.014052920043468475,0.01250653900206089,-0.0002535311214160174,0.018816234543919563
0.02182001620531082,0.0031285251025110483,-0.01395705621689558,0.012131556868553162,-0.00024280298384837806,0.018764277920126915
0.021828684955835342,0.003101692534983158,-0.01414883229881525,0.012409691698849201,-0.0002659577876329422,0.01908012293279171
0.021828684955835342,0.003101692534983158,-0.01414883229881525,0.012409691698849201,-0.0002659577876329422,0.01908012293279171
0.021855399012565613,0.0033065530005842447,-0.013761268928647041,0.01253552921116352,-0.00025960447965189815,0.01929003931581974
0.022157711908221245,0.003201247425749898,-0.013818997889757156,0.012497463263571262,-0.00026707089273259044,0.01818411983549595
0.022054383531212807,0.0034630948211997747,-0.013609017245471478,0.011934611015021801,-0.00027323627728037536,0.01865256018936634
0.022155029699206352,0.0031566424295306206,-0.014073912054300308,0.011943635530769825,-0.00026427156990393996,0.018938645720481873
0.022261664271354675,0.0033038638066500425,-0.013843294233083725,0.012456638738512993,-0.00025498110335320234,0.019095489755272865
0.02228855900466442,0.00341695174574852,-0.014421975240111351,0.012545191682875156,-0.0003027331840712577,0.019471637904644012
0.022694749757647514,0.0034099321346729994,-0.013715540990233421,0.012815591879189014,-0.00029163548606447875,0.01956697553396225
0.022695839405059814,0.0031857213471084833,-0.01423655916005373,0.012578385882079601,-0.0002744024677667767,0.019315559417009354
0.022154422476887703,0.003069567261263728,-0.013552410528063774,0.013154082000255585,-0.0003034071414731443,0.019122425466775894
0.02211153693497181,0.003358305199071765,-0.014028442092239857,0.012768587097525597,-0.00029306040960364044,0.018894288688898087
0.022561613470315933,0.0031759440898895264,-0.013955226168036461,0.012810270301997662,-0.00031851092353463173,0.018501129001379013
0.02284182235598564,0.003144979476928711,-0.014780588448047638,0.012687459588050842,-0.0003084403870161623,0.018991217017173767
0.022453274577856064,0.0031873630359768867,-0.01383868046104908,0.012505706399679184,-0.00032543891575187445,0.019200406968593597
