davideferrari95/blind_handover_controller/data/Test 293 - [2024-02-08 -- 14-00-36]/joint_states_data.csv
shoulder_pan_joint,shoulder_lift_joint,elbow_joint,wrist_1_joint,wrist_2_joint,wrist_3_joint
0.004620633088052273,0.008931487798690796,-0.011354455724358559,0.0027714590542018414,-9.8533397894918e-37,0.0046829101629555225
0.004719543736428022,0.008931291289627552,-0.010452569462358952,0.0027723521925508976,-6.433526602934026e-38,0.0046338788233697414
0.004719543736428022,0.008931291289627552,-0.010452569462358952,0.0027723521925508976,-6.433526602934026e-38,0.0046338788233697414
0.004960766527801752,0.008419379591941833,-0.01058488991111517,0.002651037648320198,-4.200633170149503e-39,0.004566377494484186
0.004820156376808882,0.008654237724840641,-0.009983192197978497,0.002619287231937051,-2.7427194452690347e-40,0.0042653377167880535
0.004494955763220787,0.008828287944197655,-0.01047601643949747,0.0025190934538841248,-1.7908594374071162e-41,0.004489019047468901
0.0047925738617777824,0.008755682036280632,-0.010555972345173359,0.002436248119920492,-1.1686829192468974e-42,0.004634032025933266
0.004801624454557896,0.009112870320677757,-0.010537628084421158,0.00262649729847908,-7.567011707354012e-44,0.004682769067585468
0.0048540374264121056,0.008788074366748333,-0.010264868848025799,0.002448749030008912,-5.605193857299268e-45,0.004730322398245335
0.0047635543160140514,0.008774836547672749,-0.010227454826235771,0.002367955632507801,-0.0,0.004607473500072956
0.0049278624355793,0.008679834194481373,-0.010083627887070179,0.0023627523332834244,-0.0,0.004293164238333702
0.004842456430196762,0.009179231710731983,-0.010463216342031956,0.002525377320125699,-0.0,0.00431085005402565
0.004787435755133629,0.008970541879534721,-0.010362648405134678,0.002429652726277709,-0.0,0.0044837938621640205
0.0049720280803740025,0.009011181071400642,-0.010626604780554771,0.0022481069900095463,-0.0,0.004952757153660059
0.0049726031720638275,0.008554663509130478,-0.010167202912271023,0.0023327460512518883,-0.0,0.004850428085774183
0.0048676952719688416,0.00824861228466034,-0.010525455698370934,0.0024774824269115925,-0.0,0.004195683635771275
0.004604212939739227,0.009036801755428314,-0.010883648879826069,0.0024292566813528538,-0.0,0.004154052585363388
0.004579784814268351,0.00857765693217516,-0.009866395965218544,0.0024506649933755398,-0.0,0.004113089758902788
0.004185035824775696,0.008605405688285828,-0.009713124483823776,0.002307538641616702,-0.0,0.0047168671153485775
0.004452425520867109,0.008576840162277222,-0.010398604907095432,0.0024682655930519104,-0.0,0.004986134357750416
0.004452425520867109,0.008576840162277222,-0.010398604907095432,0.0024682655930519104,-0.0,0.004986134357750416
0.004519206006079912,0.008497964590787888,-0.010170786641538143,0.0026616223622113466,-0.0,0.004464579280465841
0.004436382092535496,0.008435752242803574,-0.010574468411505222,0.002472194842994213,-0.0,0.004291960503906012
0.004436382092535496,0.008435752242803574,-0.010574468411505222,0.002472194842994213,-0.0,0.004291960503906012
0.004872667137533426,0.008688892237842083,-0.009897866286337376,0.0021924024913460016,-0.0,0.0040799593552947044
0.004451350308954716,0.008282211609184742,-0.010411680676043034,0.002138841664418578,-0.0,0.004324797540903091
0.0044845822267234325,0.007663366850465536,-0.01024277601391077,0.0022507908288389444,-0.0,0.004389581736177206
0.004100032150745392,0.007620892953127623,-0.009801776148378849,0.0023020661901682615,-0.0,0.004684860352426767
0.004117771051824093,0.008848708122968674,-0.010961894877254963,0.002495744964107871,-0.0,0.005125480238348246
0.004576683510094881,0.007984553463757038,-0.010143172927200794,0.0026118974201381207,-0.0,0.0048986938782036304
0.004514696076512337,0.007570730522274971,-0.009347857907414436,0.002382787177339196,-0.0,0.004624275490641594
0.004058422055095434,0.0081973597407341,-0.010220744647085667,0.002312831813469529,-0.0,0.0045046452432870865
0.004015394486486912,0.00878133624792099,-0.009937692433595657,0.002301280153915286,-0.0,0.004689675755798817
0.004452388267964125,0.007934072986245155,-0.009896541945636272,0.0022095232270658016,-0.0,0.004809204954653978
0.004870895761996508,0.008156678639352322,-0.010518803261220455,0.002426832914352417,-0.0,0.004960799589753151
0.00439936900511384,0.008036833256483078,-0.009877155534923077,0.002252640202641487,-0.0,0.005129493772983551
0.004389758221805096,0.00771196698769927,-0.010534542612731457,0.0024879504926502705,-0.0,0.004790162667632103
0.00453414348885417,0.007631012704223394,-0.010358484461903572,0.0025123003870248795,-0.0,0.004620424937456846
0.004657597281038761,0.007568792439997196,-0.009823296219110489,0.0024329747539013624,-0.0,0.004542226437479258
0.004733746405690908,0.008156750351190567,-0.01018352247774601,0.0023458118084818125,-0.0,0.004804734606295824
0.004260895773768425,0.00822101254016161,-0.01007581315934658,0.0024154074490070343,-0.0,0.004923592321574688
0.004077326972037554,0.007035043090581894,-0.00995364598929882,0.00265682814642787,-0.0,0.004709863103926182
0.004515647888183594,0.008171615190804005,-0.010490848682820797,0.0026607203762978315,-0.0,0.004493811167776585
0.004740072414278984,0.007787749171257019,-0.010096922516822815,0.0024226955138146877,-0.0,0.0045137773267924786
0.004728863015770912,0.006800089031457901,-0.010337375104427338,0.002218810375779867,-0.0,0.004360851366072893
0.0045076836831867695,0.00712207518517971,-0.01005473267287016,0.002114824717864394,-0.0,0.004529242403805256
0.004121135920286179,0.008221188560128212,-0.009712685830891132,0.0023412134032696486,-0.0,0.0046079144813120365
0.0038800567854195833,0.007555858697742224,-0.010612000711262226,0.002528400393202901,-0.0,0.004692318383604288
0.0038800567854195833,0.007555858697742224,-0.010612000711262226,0.002528400393202901,-0.0,0.004692318383604288
0.004643925931304693,0.00765681266784668,-0.009997173212468624,0.0025401245802640915,-0.0,0.00425020232796669
0.004643925931304693,0.00765681266784668,-0.009997173212468624,0.0025401245802640915,-0.0,0.00425020232796669
0.004664225969463587,0.007561034522950649,-0.011188799515366554,0.00249087275005877,-0.0,0.004207814112305641
0.004621627740561962,0.007273607887327671,-0.010492248460650444,0.0023801263887435198,-0.0,0.0042788139544427395
0.004195539280772209,0.00746824499219656,-0.010674132034182549,0.0026044826954603195,-0.0,0.005176944192498922
0.004195539280772209,0.00746824499219656,-0.010674132034182549,0.0026044826954603195,-0.0,0.005176944192498922
0.0043528033420443535,0.007670961786061525,-0.010091052390635014,0.0025905249640345573,-0.0,0.004979116376489401
0.00481442641466856,0.007660155184566975,-0.010391324758529663,0.002550517674535513,-0.0,0.004511777777224779
0.0047540864907205105,0.006962274666875601,-0.01034586038440466,0.002571919234469533,-0.0,0.004387225955724716
0.004789639264345169,0.007042782846838236,-0.010545170865952969,0.002479208167642355,-0.0,0.004238024819642305
0.004776566755026579,0.00816215667873621,-0.010316534899175167,0.0025376067496836185,-0.0,0.0047731040976941586
0.004339637700468302,0.007627704180777073,-0.010461472906172276,0.0026930056046694517,-0.0,0.005058587994426489
0.004432433284819126,0.0072693247348070145,-0.009872372262179852,0.0025920725893229246,-0.0,0.005306299310177565
0.004229444079101086,0.007980884984135628,-0.010757680982351303,0.002579656895250082,-0.0,0.005358831491321325
0.0043686768040061,0.007901276461780071,-0.010700591839849949,0.002560566645115614,-0.0,0.004711646120995283
0.004407020285725594,0.007470973767340183,-0.009985394775867462,0.0024371000472456217,-0.0,0.004514447413384914
0.004627144429832697,0.0076620131731033325,-0.010835092514753342,0.0024650569539517164,-0.0,0.00494376290589571
0.00471211364492774,0.0075636813417077065,-0.010726027190685272,0.002641940489411354,-0.0,0.005412932485342026
0.004583480767905712,0.00761568546295166,-0.009996030479669571,0.00254136323928833,-0.0,0.0048341648653149605
0.004294996149837971,0.007465706672519445,-0.010310030542314053,0.002502898219972849,-0.0,0.004555135034024715
0.004953006748110056,0.007549973204731941,-0.010722623206675053,0.0024965559132397175,-0.0,0.005269904155284166
0.004754278808832169,0.007421540562063456,-0.011338023468852043,0.002747567603364587,-0.0,0.0050111087039113045
0.004928516689687967,0.007322190795093775,-0.010284822434186935,0.0028705932199954987,-0.0,0.005305788945406675
0.004931164905428886,0.007395065855234861,-0.010018392466008663,0.002780947834253311,-0.0,0.005339541006833315
0.004658528603613377,0.008125477470457554,-0.009756069630384445,0.0028418602887541056,-0.0,0.004866818897426128
0.00439379783347249,0.007772847078740597,-0.009965522214770317,0.0028861123137176037,-0.0,0.00477534718811512
0.004476514179259539,0.006941408384591341,-0.010775167495012283,0.0028621407691389322,-0.0,0.004947693087160587
0.004588578827679157,0.00696939742192626,-0.010575327090919018,0.003024703823029995,-0.0,0.004920642357319593
0.004527288023382425,0.007532334420830011,-0.009303992614150047,0.0028486805967986584,-0.0,0.00558493984863162
0.004527288023382425,0.007532334420830011,-0.009303992614150047,0.0028486805967986584,-0.0,0.00558493984863162
0.004874896723777056,0.008035525679588318,-0.010032767429947853,0.0030460895504802465,-0.0,0.00541964266449213
0.004700503312051296,0.007613844238221645,-0.010448569431900978,0.0030256863683462143,-0.0,0.00458180159330368
0.0048453970812261105,0.007616469636559486,-0.009941079653799534,0.002971874549984932,-0.0,0.0044614775106310844
0.004779001697897911,0.007786720525473356,-0.010647240094840527,0.002849128097295761,-0.0,0.00492476299405098
0.004872127901762724,0.007523691281676292,-0.010624628514051437,0.002930574119091034,-0.0,0.005063112359493971
0.004807870835065842,0.008064323104918003,-0.009571521542966366,0.0029049781151115894,-0.0,0.004889240954071283
0.005034409463405609,0.007836380042135715,-0.010077988728880882,0.0033555373083800077,-0.0,0.005095452535897493
0.00499125849455595,0.007930592633783817,-0.009909066371619701,0.0032242240849882364,-0.0,0.004888005554676056
0.0048547666519880295,0.00783975888043642,-0.009631691500544548,0.0029017559718340635,-0.0,0.004572527017444372
0.005152700934559107,0.007120167370885611,-0.01046944409608841,0.0027477177791297436,-0.0,0.004488262347877026
0.005056094378232956,0.007899162359535694,-0.009854288771748543,0.0026566863525658846,-0.0,0.004712916444987059
0.004813780076801777,0.008005240932106972,-0.009421119466423988,0.002662358805537224,-0.0,0.004803773481398821
0.005129958502948284,0.00755307637155056,-0.00997662078589201,0.003014284186065197,-0.0,0.004862763918936253
0.005044837016612291,0.007323026191443205,-0.00967288576066494,0.0034070995170623064,-0.0,0.005074649583548307
0.005198076833039522,0.007310356013476849,-0.009053075686097145,0.0034029383677989244,-0.0,0.0049682301469147205
0.005123952869325876,0.007303662598133087,-0.010027935728430748,0.002608118113130331,-0.0,0.004696615040302277
0.005482859909534454,0.007165905088186264,-0.010153716430068016,0.002660579513758421,-0.0,0.004572061821818352
0.00534070236608386,0.007058710791170597,-0.009978873655200005,0.002865526592358947,-0.0,0.004934739787131548
0.004926423542201519,0.007814403623342514,-0.009579919278621674,0.0026751626282930374,-0.0,0.004942520055919886
0.00481029087677598,0.007445864845067263,-0.009980126284062862,0.002773894229903817,-0.0,0.004915704019367695
0.005321546923369169,0.0072945901192724705,-0.00950885284692049,0.002702938159927726,-0.0,0.0048279426991939545
0.005204580724239349,0.007369972299784422,-0.009366058744490147,0.0027561411261558533,-0.0,0.004826563410460949
0.005611749365925789,0.007668320555239916,-0.009273773059248924,0.0028602294623851776,-0.0,0.00509602902457118
0.004916873760521412,0.007609009742736816,-0.0096487607806921,0.002950316062197089,-0.0,0.005445822607725859
0.004916873760521412,0.007609009742736816,-0.0096487607806921,0.002950316062197089,-0.0,0.005445822607725859
0.0050485399551689625,0.007057317532598972,-0.00994258001446724,0.0029217510018497705,-0.0,0.005158510524779558
0.005309762433171272,0.00710881594568491,-0.009018332697451115,0.003073089988902211,-0.0,0.004803509917110205
0.005200723186135292,0.00789453461766243,-0.009731638245284557,0.0030535482801496983,-0.0,0.00497793685644865
0.005315275397151709,0.0076383124105632305,-0.010768628679215908,0.0029123248532414436,-0.0,0.004918977618217468
0.005464042536914349,0.007196167949587107,-0.009389849379658699,0.0029345876537263393,-0.0,0.004981367848813534
0.005559936165809631,0.0072015575133264065,-0.009731130674481392,0.0029292867984622717,-0.0,0.005268761422485113
0.005103125236928463,0.007572458125650883,-0.009778289124369621,0.0029795211739838123,-0.0,0.005055753514170647
0.005293538793921471,0.007180407643318176,-0.009527161717414856,0.0029762156773358583,-0.0,0.005004458595067263
0.005606258288025856,0.006942929700016975,-0.009843013249337673,0.0029918462969362736,-0.0,0.005352821201086044
0.00603372510522604,0.007157297804951668,-0.009695718996226788,0.002910166746005416,-0.0,0.005145969334989786
0.00547665823251009,0.007953707128763199,-0.00930881779640913,0.002866495866328478,-0.0,0.0052156029269099236
0.004954291041940451,0.007469005882740021,-0.009764628484845161,0.002651635091751814,-0.0,0.0051727332174777985
0.005312458146363497,0.007264478597790003,-0.009912221692502499,0.0025118589401245117,-0.0,0.005184427369385958
0.0057482635602355,0.007369610480964184,-0.00942402146756649,0.0024990227539092302,-0.0,0.005516030825674534
0.005567594897001982,0.00808133464306593,-0.01039405632764101,0.0025544764939695597,-0.0,0.005195911508053541
0.005340196192264557,0.007522496860474348,-0.010197237133979797,0.0028903780039399862,-0.0,0.004963300656527281
0.0054869865998625755,0.007411167956888676,-0.009209980256855488,0.0028269642498344183,-0.0,0.004699596669524908
0.005182058084756136,0.007457546889781952,-0.010188650339841843,0.0027443598955869675,-0.0,0.004771989304572344
0.005718259606510401,0.007582878228276968,-0.009240400046110153,0.0028144330717623234,-1.9264725779066794e-06,0.006102144718170166
0.006028146017342806,0.007399728521704674,-0.01019127108156681,0.0029368381947278976,-1.2578489361203538e-07,0.005484371911734343
0.0054505267180502415,0.007493951357901096,-0.00996333733201027,0.002983532380312681,-8.212854396560942e-09,0.0049241529777646065
0.005023633595556021,0.00772371981292963,-0.009108583442866802,0.0029584357980638742,-5.362406629849659e-10,0.004769366700202227
0.005248373840004206,0.007288680411875248,-0.010074843652546406,0.0030911376234143972,-3.5012683724522375e-11,0.00552253657951951
0.0057153296656906605,0.007156764157116413,-0.01013226993381977,0.003205153625458479,-2.2860780109212886e-12,0.005525385960936546
0.005887909792363644,0.007104352582246065,-0.009085938334465027,0.003150569973513484,-1.492645525409675e-13,0.005666613113135099
0.005421894136816263,0.0078134099021554,-0.009669152088463306,0.003297985764220357,-9.745909422098197e-15,0.005370169412344694
0.005421894136816263,0.0078134099021554,-0.009669152088463306,0.003297985764220357,-9.745909422098197e-15,0.005370169412344694
0.005093470681458712,0.007128030993044376,-0.009127837605774403,0.0029376482125371695,-4.154834249136272e-17,0.005199282430112362
0.005093470681458712,0.007128030993044376,-0.009127837605774403,0.0029376482125371695,-4.154834249136272e-17,0.005199282430112362
0.005974271334707737,0.007557455915957689,-0.010315841995179653,0.002976445946842432,-2.7128095428100275e-18,0.0053871325217187405
0.005759323015809059,0.007629533298313618,-0.009317532181739807,0.0030595397111028433,-1.7712707969812375e-19,0.005603184923529625
0.0057817683555185795,0.007392067927867174,-0.009555707685649395,0.003247068030759692,-1.1565133645943525e-20,0.005221914499998093
0.005543720442801714,0.007743909955024719,-0.011119337752461433,0.0030986792407929897,-7.551205796200146e-22,0.005194427911192179
0.005080307833850384,0.007832451723515987,-0.009918653406202793,0.002840878441929817,-4.9303976970268766e-23,0.005161662120372057
0.005407602526247501,0.008165605366230011,-0.009240667335689068,0.0030181242618709803,-3.2191969926612937e-24,0.005061604082584381
0.006154053378850222,0.007802396547049284,-0.009985658340156078,0.0030353544279932976,-2.101905583857479e-25,0.005237762350589037
0.005610826425254345,0.007796806283295155,-0.010267063044011593,0.0030325923580676317,-1.3723942590622205e-26,0.00514038885012269
0.005980716552585363,0.007853029295802116,-0.009644043631851673,0.0029350908007472754,-8.960753067021104e-28,0.005825830157846212
0.005471350625157356,0.007514511700719595,-0.01035298965871334,0.00294496794231236,-5.850731420539836e-29,0.00542388204485178
0.005479792598634958,0.00747290812432766,-0.009594932198524475,0.0029353995341807604,-3.8201095042401175e-30,0.005303086247295141
0.005815885029733181,0.007459322921931744,-0.009282859973609447,0.0032707280479371548,-2.494258658419406e-31,0.0056100161746144295
0.0060895588248968124,0.007593340240418911,-0.01097854319959879,0.0031586673576384783,-1.628572779173002e-32,0.005575535353273153
0.005697939544916153,0.008074183017015457,-0.010081957094371319,0.0029141034465283155,-1.0633417205072793e-33,0.005540694110095501
0.005511603783816099,0.0072144996374845505,-0.009150763973593712,0.0029763479251414537,-6.942861084758803e-35,0.0053581479005515575
0.005569953937083483,0.007269571535289288,-0.01010013185441494,0.0029594176448881626,-4.53319201219612e-36,0.005310332402586937
0.006125479005277157,0.008119508624076843,-0.010527768172323704,0.0029986139852553606,-2.9598501939006565e-37,0.005439096130430698
0.005751726217567921,0.0075609199702739716,-0.00982194859534502,0.003286034567281604,-1.9325706491565885e-38,0.005980896297842264
0.005923595745116472,0.007378220092505217,-0.01050113420933485,0.003115531522780657,-1.2618300307674967e-39,0.0056644342839717865
0.005783973261713982,0.00785164162516594,-0.009724203497171402,0.002873612567782402,-5.379584804542973e-42,0.005816418211907148
0.005988736171275377,0.007122788578271866,-0.010647420771420002,0.0033490434288978577,-3.517259145455291e-43,0.00588716845959425
0.005896194372326136,0.007175290957093239,-0.010252215899527073,0.0038020722568035126,-2.2420775429197073e-44,0.005639025941491127
0.006166371982544661,0.006905213464051485,-0.010304693132638931,0.003474733093753457,-1.401298464324817e-45,0.005494127050042152
0.005944410804659128,0.00802684761583805,-0.010712542571127415,0.0032206785399466753,-0.0,0.005382001865655184
0.005831369198858738,0.007217239588499069,-0.010034766979515553,0.0030934857204556465,-0.0,0.005772456061094999
0.005964087788015604,0.0068053267896175385,-0.010904673486948013,0.0031330869533121586,-0.0,0.005686611868441105
0.0061493488028645515,0.006789022590965033,-0.01034075953066349,0.0031675854697823524,-0.0,0.006018908694386482
0.0061928280629217625,0.007270218804478645,-0.010270792990922928,0.00316005595959723,-0.0,0.005623101722449064
0.0061928280629217625,0.007270218804478645,-0.010270792990922928,0.00316005595959723,-0.0,0.005623101722449064
0.006084139924496412,0.0075685977935791016,-0.010485446080565453,0.0031999496277421713,-0.0,0.005703195929527283
0.005990880541503429,0.006831327918916941,-0.010433479212224483,0.0035376253072172403,-0.0,0.005986571777611971
0.0061812628991901875,0.006942845415323973,-0.009721890091896057,0.003336262656375766,-0.0,0.0061723110266029835
0.006123695522546768,0.007036190014332533,-0.01069879811257124,0.00342740910127759,-0.0,0.006323999259620905
0.006323781330138445,0.00734408013522625,-0.010937619023025036,0.003460186067968607,-0.0,0.006901577580720186
0.006401297636330128,0.006835280451923609,-0.010066254064440727,0.0033575596753507853,-0.0,0.005573677364736795
0.006391158327460289,0.0071325758472085,-0.010478904470801353,0.0033013890497386456,-0.0,0.005621251650154591
0.006593618076294661,0.006599739659577608,-0.010136296972632408,0.0033258507028222084,-0.0,0.005545009858906269
0.006251923739910126,0.007000050973147154,-0.010167846456170082,0.0031618995126336813,-0.0,0.006375395227223635
0.006523189600557089,0.0067311059683561325,-0.009433317929506302,0.003358404850587249,-0.0,0.006092110648751259
0.00663225119933486,0.006810566410422325,-0.010714667849242687,0.0036317550111562014,-0.0,0.005815026815980673
0.00592877296730876,0.006665798835456371,-0.011099480092525482,0.003700588596984744,-0.0,0.0060540917329490185
0.006269839592278004,0.007225608918815851,-0.011190400458872318,0.0033799002412706614,-0.0,0.005645251367241144
0.006855288986116648,0.00675209378823638,-0.009970610961318016,0.003213257994502783,-0.0,0.005944633856415749
0.007049045991152525,0.006295918952673674,-0.010190687142312527,0.0032295584678649902,-0.0,0.0060804421082139015
0.006217234302312136,0.006556690204888582,-0.010226292535662651,0.0035046348348259926,-0.0,0.006010663229972124
0.006535467691719532,0.0067370496690273285,-0.010482436046004295,0.003752092132344842,-0.0,0.006207196973264217
0.006713227368891239,0.00728963315486908,-0.010330287739634514,0.0031440923921763897,-0.0,0.006181322503834963
0.006875546649098396,0.0066852085292339325,-0.010355989448726177,0.003079456277191639,-0.0,0.00630526477470994
0.006714959628880024,0.006228579208254814,-0.009630400687456131,0.00303352577611804,-0.0,0.006380707956850529
0.0068693608045578,0.007039464544504881,-0.009697098284959793,0.004359730985015631,-0.0,0.00615867180749774
0.00678333081305027,0.006515628192573786,-0.009161034598946571,0.004270573612302542,-0.0,0.006405944935977459
0.006797711364924908,0.0062834881246089935,-0.00991224218159914,0.003504724707454443,-0.0,0.0064674741588532925
0.006209685001522303,0.006339505314826965,-0.010096995159983635,0.0031346329487860203,-0.0,0.006316030398011208
0.006635584402829409,0.006089096423238516,-0.009229752235114574,0.003066804725676775,-0.0,0.006590412463992834
0.006671277806162834,0.006416344549506903,-0.010709422640502453,0.003334533656015992,-0.0,0.006550611928105354
0.006731477100402117,0.006122849881649017,-0.009935395792126656,0.0036645843647420406,-0.0,0.00604656059294939
0.006495499983429909,0.0057152812369167805,-0.009325511753559113,0.003522485261783004,-0.0,0.006382388528436422
0.006420198827981949,0.006135605275630951,-0.010849114507436752,0.003584857564419508,-0.0,0.0064119212329387665
0.006806918419897556,0.00579278077930212,-0.010227578692138195,0.0037021059542894363,-0.0,0.006206281017512083
0.006806918419897556,0.00579278077930212,-0.010227578692138195,0.0037021059542894363,-0.0,0.006206281017512083
0.006623418070375919,0.006131194066256285,-0.00970746111124754,0.0037731050979346037,-0.0,0.006114467978477478
0.006710922345519066,0.006103158462792635,-0.010685822926461697,0.003732892218977213,-0.0,0.006161987315863371
0.007236930541694164,0.006091069430112839,-0.010071998462080956,0.0035317009314894676,-0.0,0.006164394784718752
0.007698273751884699,0.006194849498569965,-0.009768480435013771,0.0033725157845765352,-0.0,0.006555264350026846
0.007139076013118029,0.006622374523431063,-0.010781258344650269,0.0036099532153457403,-0.0,0.006648525130003691
0.006743835750967264,0.006772160530090332,-0.010543868876993656,0.0037941355258226395,-0.0,0.0071424273774027824
0.006802659016102552,0.005965344607830048,-0.010069591924548149,0.004218637477606535,-0.0,0.007037253584712744
0.006885720882564783,0.006495343055576086,-0.010636091232299805,0.004169805441051722,-0.0,0.006469501182436943
0.007019422948360443,0.006664313841611147,-0.01027260534465313,0.004017277620732784,-0.0,0.006559100467711687
0.007131222635507584,0.006548718083649874,-0.010353431105613708,0.003983969800174236,-0.0,0.00701809162274003
0.006979052443057299,0.006558944005519152,-0.010873467661440372,0.004053301177918911,-0.0,0.007122551091015339
0.007457040250301361,0.0064008175395429134,-0.010002415627241135,0.0035671654623001814,-0.0,0.006565933581441641
0.007656620349735022,0.0065355426631867886,-0.010152788832783699,0.0035714288242161274,-0.0,0.006273581180721521
0.007110833656042814,0.006180937401950359,-0.01042076013982296,0.00331997056491673,-0.0,0.006466604769229889
0.007434858940541744,0.006468217354267836,-0.010059683583676815,0.0034667907748371363,-0.0,0.00653411028906703
0.00789723265916109,0.006818647496402264,-0.010890270583331585,0.004169638268649578,-0.0,0.006659749895334244
0.00789723265916109,0.006818647496402264,-0.010890270583331585,0.004169638268649578,-0.0,0.006659749895334244
0.006887783296406269,0.006440018303692341,-0.010620180517435074,0.00396824162453413,-0.0,0.0065627810545265675
0.007283453829586506,0.007124527357518673,-0.010385368950664997,0.0038464099634438753,-0.0,0.00654431339353323
0.007630851119756699,0.0062302034348249435,-0.010125535540282726,0.0038110967725515366,-0.0,0.006512610241770744
0.007379244081676006,0.006464916747063398,-0.0106011051684618,0.003831668058410287,-0.0,0.006443312391638756
0.007009660825133324,0.006570550613105297,-0.010267071425914764,0.003833088790997863,-0.0,0.006526786368340254
0.007133867591619492,0.006843704264611006,-0.010748720727860928,0.0037773395888507366,-0.0,0.007040976081043482
0.007133867591619492,0.006843704264611006,-0.010748720727860928,0.0037773395888507366,-0.0,0.007040976081043482
0.007553535979241133,0.006654141005128622,-0.01067305076867342,0.003833325579762459,-0.0,0.007023681420832872
0.0073667410761117935,0.006234666332602501,-0.010447951033711433,0.003993057180196047,-0.0,0.006476531736552715
0.007271359674632549,0.0063703409396111965,-0.011197810061275959,0.004059384576976299,-0.0,0.006337445694953203
0.007308690343052149,0.0068205962888896465,-0.010462399572134018,0.003953012637794018,-0.0,0.00670213345438242
0.0076798913069069386,0.007351540494710207,-0.010307280346751213,0.003850300097838044,-0.0,0.0071380846202373505
0.007972382009029388,0.006341406609863043,-0.010964916087687016,0.003835489274933934,-0.0,0.007367637939751148
0.007523420266807079,0.006175467278808355,-0.010444662533700466,0.0038774474523961544,-6.956815013836604e-06,0.007373374421149492
0.007619716227054596,0.006466944236308336,-0.010653442703187466,0.0039331321604549885,-4.542303031485062e-07,0.006998269818723202
0.00820215418934822,0.007120829541236162,-0.010937707498669624,0.004351642914116383,-2.9657993394494042e-08,0.007138242945075035
0.007872501388192177,0.0068402402102947235,-0.010227177292108536,0.004248911049216986,-1.9364549963540867e-09,0.007331605069339275
0.007490731775760651,0.006179996766149998,-0.01053069531917572,0.004349982365965843,-1.2643666669198694e-10,0.007497125305235386
0.007454372942447662,0.0064635188318789005,-0.010817346163094044,0.004105461295694113,-8.255411111657285e-12,0.007071123458445072
0.007758164778351784,0.006795851979404688,-0.010281091555953026,0.0036458265967667103,-5.390193499876794e-13,0.0069976975210011005
0.007611917797476053,0.006556057836860418,-0.010703430511057377,0.004191046115010977,-3.519411392633072e-14,0.007228034548461437
0.007387551944702864,0.006099887192249298,-0.010913067497313023,0.004838240798562765,-2.2979237294191903e-15,0.007325808517634869
0.007878879085183144,0.006043014116585255,-0.010285810567438602,0.004397557117044926,-1.5003800320669822e-16,0.007119887974113226
0.007803522516041994,0.0063217100687325,-0.010947655886411667,0.004168660845607519,-9.796409182306364e-18,0.007274372968822718
0.008135332725942135,0.006662957835942507,-0.010350288823246956,0.0039084614254534245,-4.1763625344766383e-20,0.007358813192695379
0.007841846905648708,0.006365553941577673,-0.011390655301511288,0.0043200235813856125,-2.7268663205599784e-21,0.0071649025194346905
0.007967546582221985,0.006380467675626278,-0.010299370624125004,0.004729644861072302,-1.7804489656642368e-22,0.007200411055237055
0.007858660072088242,0.006301106885075569,-0.010819876566529274,0.00474525336176157,-1.1625058984981208e-23,0.007304487284272909
0.007617752067744732,0.006724053528159857,-0.01062752865254879,0.004255832638591528,-7.590333348375067e-25,0.0069097294472157955
0.00829214509576559,0.006407506298273802,-0.010044410824775696,0.00417499803006649,-4.9559456057875155e-26,0.007161801215261221
0.008620931766927242,0.005865414161235094,-0.010928841307759285,0.004063641186803579,-3.2358785442674246e-27,0.007380589377135038
0.008017368614673615,0.005938237067312002,-0.01042823027819395,0.004271674435585737,-2.1127973898425392e-28,0.008300969377160072
0.0077650584280490875,0.006772442255169153,-0.011100200936198235,0.004221766255795956,-1.379505702418797e-29,0.0070584421046078205
0.00798766314983368,0.007044485304504633,-0.011684248223900795,0.004460396245121956,-9.00718596656559e-31,0.006839413661509752
0.007987595163285732,0.006843846756964922,-0.010628853924572468,0.00447829207405448,-5.881049371168165e-32,0.007088501937687397
0.007987595163285732,0.006843846756964922,-0.010628853924572468,0.00447829207405448,-5.881049371168165e-32,0.007088501937687397
0.007737113628536463,0.0062452950514853,-0.010890880599617958,0.004400208592414856,-3.839905111226609e-33,0.00740350317209959
0.008904168382287025,0.0063745928928256035,-0.011984149925410748,0.004118307027965784,-2.507183891042529e-34,0.007841021753847599
0.008309325203299522,0.006711811292916536,-0.010627900250256062,0.003979777451604605,-1.6370119148487194e-35,0.007415949832648039
0.007971037179231644,0.006689393427222967,-0.010933689773082733,0.0039680879563093185,-1.068851726155346e-36,0.007213784847408533
0.00787145085632801,0.006072271149605513,-0.010851684957742691,0.004360999912023544,-6.978837976690328e-38,0.00707597890868783
0.009198331274092197,0.00600773748010397,-0.010709038004279137,0.004879695363342762,-4.556682090457474e-39,0.007399704307317734
0.008272048085927963,0.0059837163425982,-0.011619244702160358,0.004498607013374567,-2.975194860500522e-40,0.007784259971231222
0.007700426038354635,0.006824818439781666,-0.010916996747255325,0.004438336007297039,-1.942620061093494e-41,0.00812925212085247
0.008166703395545483,0.006404726766049862,-0.011445132084190845,0.004219211172312498,-1.2681751102139594e-42,0.008257887326180935
0.008445578627288342,0.00585141871124506,-0.011584521271288395,0.0040466394275426865,-8.267660939516421e-44,0.007686292286962271
0.008194190450012684,0.005980010610073805,-0.011184418573975563,0.003957860171794891,-5.605193857299268e-45,0.007342908531427383
0.008035261183977127,0.006819678470492363,-0.011653047986328602,0.004251877311617136,-0.0,0.0073757716454565525
0.008373532444238663,0.007045028265565634,-0.011023684404790401,0.004663164261728525,-0.0,0.007972671650350094
0.009178231470286846,0.006650170311331749,-0.011045134626328945,0.004474233835935593,-0.0,0.007818617857992649
0.008068492636084557,0.006190326996147633,-0.01128272246569395,0.004243524745106697,-0.0,0.007690620142966509
0.008426631800830364,0.00686256168410182,-0.01171469409018755,0.004067398142069578,-9.185964881908149e-05,0.007868744432926178
0.008777698501944542,0.006708652246743441,-0.011417140252888203,0.004085831344127655,-0.00011073199857492,0.007529173977673054
0.007985493168234825,0.006289820186793804,-0.011625830084085464,0.0041073160246014595,-0.00012018320558127016,0.007693599909543991
0.00820178259164095,0.006152477581053972,-0.011489983648061752,0.004596127662807703,-0.00012756646901834756,0.007642615120857954
0.008357470855116844,0.006260714493691921,-0.010831717401742935,0.004626369569450617,-0.000135541326017119,0.007326922845095396
0.008357470855116844,0.006260714493691921,-0.010831717401742935,0.004626369569450617,-0.000135541326017119,0.007326922845095396
0.008224835619330406,0.0071763391606509686,-0.012292388826608658,0.004420801531523466,-0.00014219642616808414,0.007526970002800226
0.008164524100720882,0.006381411571055651,-0.011240208521485329,0.004380113910883665,-0.00013967846462037414,0.00774102658033371
0.008323092013597488,0.006297812797129154,-0.011145581491291523,0.004139557480812073,-0.00015491324302274734,0.007853548042476177
0.008742925710976124,0.006037015933543444,-0.011304865591228008,0.0040035671554505825,-0.0001528168359072879,0.007923922501504421
0.008425557054579258,0.0064216479659080505,-0.011214458383619785,0.0035541332326829433,-0.0003059698501601815,0.008135590702295303
0.008379635401070118,0.006639842875301838,-0.011530437506735325,0.0044947960413992405,-0.0004623729910235852,0.008502189069986343
0.00852918066084385,0.006370894610881805,-0.011220047250390053,0.005377265624701977,-0.0004692452494055033,0.008264871314167976
0.00869773980230093,0.005991064477711916,-0.011167870834469795,0.005030748434364796,-0.000497049477417022,0.007990309968590736
0.008482270874083042,0.006216634530574083,-0.0118021871894598,0.004739124793559313,-0.0004687565378844738,0.007949581369757652
0.008462597616016865,0.006628445349633694,-0.011608711443841457,0.0048360154032707214,-0.0004907083930447698,0.008422212675213814
0.00877508893609047,0.006533569190651178,-0.010477542877197266,0.004835251718759537,-0.000467784731881693,0.00846690684556961
0.0086304796859622,0.006126222666352987,-0.011794588528573513,0.004820272326469421,-0.0006097449222579598,0.008043378591537476
0.00892017874866724,0.006532227620482445,-0.010509757325053215,0.004830952268093824,-0.0006506558274850249,0.008113610558211803
0.008643523789942265,0.006135282106697559,-0.009478995576500893,0.0047130645252764225,-0.0006344040157273412,0.00839757826179266
0.008629453368484974,0.006498666014522314,-0.011372367851436138,0.004996430594474077,-0.000657692551612854,0.008370460011065006
0.009233001619577408,0.006596458610147238,-0.010951089672744274,0.00496863154694438,-0.0006403693114407361,0.00826131459325552
0.00890464335680008,0.0067388503812253475,-0.011149043217301369,0.004341754596680403,-0.0007403274648822844,0.008010141551494598
0.008710048161447048,0.0066583286970853806,-0.011755933053791523,0.004402738995850086,-0.0007790093077346683,0.008530307561159134
0.008841287344694138,0.006591672543436289,-0.011415189132094383,0.005102864000946283,-0.0007954244501888752,0.008928568102419376
0.009189707227051258,0.006677011959254742,-0.011396009474992752,0.005107171833515167,-0.0007871667039580643,0.008109591901302338
0.008911652490496635,0.00647010700777173,-0.011164785362780094,0.004673091694712639,-0.0007745689945295453,0.008205695077776909
0.008911652490496635,0.00647010700777173,-0.011164785362780094,0.004673091694712639,-0.0007745689945295453,0.008205695077776909
0.009093820117413998,0.0065030683763325214,-0.011050611734390259,0.004589755553752184,-0.0006917049759067595,0.008120709098875523
0.009199985302984715,0.00675499951466918,-0.010809862054884434,0.0046996972523629665,-0.0006193433073349297,0.008327207528054714
0.009591816924512386,0.006705502979457378,-0.010845229029655457,0.00520262261852622,-0.0005559407873079181,0.008292490616440773
0.009409686550498009,0.006283407565206289,-0.011041455902159214,0.0051072342321276665,-0.0005040093092247844,0.008611389435827732
0.009823109023272991,0.0063454750925302505,-0.011396476998925209,0.0049219089560210705,-0.0004609395982697606,0.008507301099598408
0.010044267401099205,0.006763639859855175,-0.010501016862690449,0.0050486172549426556,-0.000458933791378513,0.008092530071735382
0.00935837347060442,0.006630810908973217,-0.010848375968635082,0.00530967628583312,-0.0004569012962747365,0.008140578866004944
0.00935837347060442,0.006630810908973217,-0.010848375968635082,0.00530967628583312,-0.0004569012962747365,0.008140578866004944
0.009106443263590336,0.0063996100798249245,-0.010780999436974525,0.005430561490356922,-0.0004279008717276156,0.008184963837265968
0.009545564651489258,0.0062453607097268105,-0.010522738099098206,0.005677024833858013,-0.0004007970856036991,0.008660081773996353
0.0098565723747015,0.006876796949654818,-0.011346482671797276,0.005437230691313744,-0.0003768221358768642,0.008109839633107185
0.008878692984580994,0.006428776308894157,-0.010993294417858124,0.004820306319743395,-0.0003555459843482822,0.008126712404191494
0.00966255459934473,0.006452648900449276,-0.011116006411612034,0.004580536857247353,-0.0003365724114701152,0.008810066618025303
0.00997206475585699,0.00654259417206049,-0.011776049621403217,0.004646606743335724,-0.00031947484239935875,0.0087747098878026
0.009583739563822746,0.006925949826836586,-0.011270448565483093,0.005167327355593443,-0.000304050074191764,0.008821620605885983
0.010059607215225697,0.006740715820342302,-0.011309399269521236,0.005527610890567303,-0.0002900476974900812,0.009478308260440826
0.010378412902355194,0.006556310225278139,-0.01111794263124466,0.005133338272571564,-0.0002772788575384766,0.008270940743386745
0.009333773516118526,0.0064329421147704124,-0.011752027086913586,0.004988815635442734,-0.0002655922435224056,0.008124366402626038
0.0100353192538023,0.006161660421639681,-0.011654778383672237,0.004991630092263222,-0.000254846119787544,0.008702361956238747
0.010245728306472301,0.006790466140955687,-0.010948970913887024,0.004752166103571653,-0.0002449321618769318,0.009464908391237259
0.009556795470416546,0.006328409072011709,-0.011447866447269917,0.0052978238090872765,-0.00023578107357025146,0.009467946365475655
0.009974153712391853,0.006014504469931126,-0.011561512015759945,0.005313994362950325,-0.0002512767678126693,0.008911345154047012
0.010131186805665493,0.006141952238976955,-0.011146819218993187,0.005150830373167992,-0.0002501448034308851,0.009159822016954422
0.00972562562674284,0.006644131615757942,-0.011316646821796894,0.005516362842172384,-0.0002422220422886312,0.008875096216797829
0.010640185326337814,0.006694619078189135,-0.011023882776498795,0.005284502170979977,-0.00023435729963239282,0.008762766607105732
0.009894758462905884,0.005802894476801157,-0.011703308671712875,0.005217495374381542,-0.00022004426864441484,0.009467514231801033
0.010538771748542786,0.005947864148765802,-0.011072373948991299,0.005151951219886541,-0.00021352032490540296,0.008867108263075352
0.010538605973124504,0.006324595306068659,-0.011638750322163105,0.005310555454343557,-0.0002073680516332388,0.008848441764712334
0.01144388597458601,0.0067276074551045895,-0.011584251187741756,0.005257533397525549,-0.000201564296730794,0.009033700451254845
0.010902752168476582,0.00645454553887248,-0.011259274557232857,0.005273408256471157,-0.00019607512513175607,0.009353491477668285
0.009963301941752434,0.006099681835621595,-0.011581465601921082,0.005173396319150925,-0.0001908766571432352,0.009122301824390888
0.009963301941752434,0.006099681835621595,-0.011581465601921082,0.005173396319150925,-0.0001908766571432352,0.009122301824390888
0.01078082900494337,0.0064680869691073895,-0.011901364661753178,0.005648624151945114,-0.00018126510258298367,0.009201767854392529
0.01078082900494337,0.0064680869691073895,-0.011901364661753178,0.005648624151945114,-0.00018126510258298367,0.009201767854392529
0.01037202775478363,0.006086588371545076,-0.011776791885495186,0.005176585633307695,-0.00017681198369245976,0.009021790698170662
0.0105601716786623,0.006016431841999292,-0.011448666453361511,0.005141088273376226,-0.00017257533909287304,0.009471163153648376
0.010600825771689415,0.0064169722609221935,-0.011995385400950909,0.00504017248749733,-0.00016853401029948145,0.00985852349549532
0.010691461153328419,0.006168583407998085,-0.011126580648124218,0.0053431186825037,-0.00016468077956233174,0.00918134767562151
0.01116008497774601,0.006430705077946186,-0.011882737278938293,0.005727964453399181,-0.00016099806816782802,0.009322306141257286
0.01055911835283041,0.006276421248912811,-0.01131432130932808,0.005943324416875839,-0.00015747665020171553,0.009396739304065704
0.010486462153494358,0.0060577718541026115,-0.011075695976614952,0.00542835658416152,-0.00015410596097353846,0.009383175522089005
0.010830600745975971,0.006118591409176588,-0.011196108534932137,0.005306060891598463,-0.00015087658539414406,0.009381940588355064
0.010400905273854733,0.006373017095029354,-0.010878258384764194,0.005444722715765238,-0.00014777970500290394,0.009456205181777477
0.010301657021045685,0.0063061583787202835,-0.011363205499947071,0.005557901691645384,-0.00014480763638857752,0.00985714327543974
0.010769754648208618,0.006235710345208645,-0.011341630481183529,0.00589104974642396,-0.00014195250696502626,0.009917190298438072
0.010647600516676903,0.0061265514232218266,-0.011373616755008698,0.005312581546604633,-0.00013920791388954967,0.009791898541152477
0.01081445999443531,0.006143002770841122,-0.012189481407403946,0.0051207272335886955,-0.00013656742521561682,0.009652035310864449
0.010944166220724583,0.0066142515279352665,-0.011475619859993458,0.005076518282294273,-0.00013402526383288205,0.009759902022778988
0.010475130751729012,0.006641037296503782,-0.011608375236392021,0.0058595542795956135,-0.00013157613284420222,0.00976590160280466
0.010923881083726883,0.00640338147059083,-0.011207271367311478,0.006156472489237785,-0.00012921474990434945,0.009642809629440308
0.01060869824141264,0.0061880676075816154,-0.011368620209395885,0.005475050304085016,-0.00012473747483454645,0.010293754749000072
0.010767076164484024,0.006629083305597305,-0.011315947398543358,0.0056665921583771706,-0.00012261328811291605,0.009740903042256832
0.010604322887957096,0.006404190789908171,-0.011673354543745518,0.006380237173289061,-0.00012056006380589679,0.010028070770204067
0.011345543898642063,0.005869558081030846,-0.012292292900383472,0.006382520776242018,-0.00011857465142384171,0.009662220254540443
0.011390039697289467,0.0056509156711399555,-0.01115014310926199,0.0062381066381931305,-0.00011665352212730795,0.00935065932571888
0.011042973026633263,0.0059019397012889385,-0.011735877953469753,0.006356906145811081,-0.00011479365639388561,0.009540767408907413
0.011042973026633263,0.0059019397012889385,-0.011735877953469753,0.006356906145811081,-0.00011479365639388561,0.009540767408907413
0.011074230074882507,0.0065649994648993015,-0.011771860532462597,0.006227323319762945,-0.00011299215111648664,0.009680354967713356
0.01106951292604208,0.005925401579588652,-0.011733761057257652,0.006605783477425575,-0.00011124635057058185,0.009814143180847168
0.010773410089313984,0.005773657467216253,-0.0116944694891572,0.006371117662638426,-0.00010955363541143015,0.010022630915045738
0.010958150960505009,0.005972646176815033,-0.011379629373550415,0.006095005664974451,-0.00010791153181344271,0.010335833765566349
0.010587075725197792,0.006043048109859228,-0.012679515406489372,0.005994650535285473,-0.00010631820623530075,0.009959155693650246
0.010860995389521122,0.006200446747243404,-0.012033449485898018,0.005668298341333866,-0.00010477111209183931,0.009894419461488724
0.01130097545683384,0.006091477815061808,-0.012158182449638844,0.005987546406686306,-0.00010326845949748531,0.010642816312611103
0.010744390077888966,0.005938142072409391,-0.012301490642130375,0.006564154289662838,-0.0001018081748043187,0.010214040987193584
0.011001303791999817,0.006244378630071878,-0.01182540599256754,0.0065138740465044975,-0.00010038875188911334,0.010135596618056297
0.011039077304303646,0.0070011853240430355,-0.012386060319840908,0.005672621075063944,-9.900826989905909e-05,0.01132691465318203
0.010905617848038673,0.007022753823548555,-0.012329397723078728,0.005336049012839794,-9.766525181476027e-05,0.010200624354183674
0.011224652640521526,0.005803045816719532,-0.01290805358439684,0.005762678571045399,-9.635819151299074e-05,0.009547702036798
0.010603625327348709,0.00592614384368062,-0.01232787873595953,0.006520964205265045,-9.50857502175495e-05,0.010181591846048832
0.010895553976297379,0.005615620408207178,-0.012126688845455647,0.006774310953915119,-9.38463126658462e-05,0.010167190805077553
0.011363931000232697,0.006383778061717749,-0.012129104696214199,0.006612671539187431,-9.263887477573007e-05,0.010635468177497387
0.010786131955683231,0.006089244969189167,-0.011771846562623978,0.006618214305490255,-9.146207594312727e-05,0.011060627177357674
0.01120635587722063,0.005800270941108465,-0.012667234987020493,0.006504886783659458,-9.03148902580142e-05,0.01119975745677948
0.011252994649112225,0.006062673404812813,-0.012579836882650852,0.006335047073662281,-8.919597894418985e-05,0.010596796870231628
0.011086291633546352,0.005853230599313974,-0.012697259895503521,0.006402438972145319,-8.810459985397756e-05,0.01076836884021759
0.01185250747948885,0.006608728319406509,-0.012478559277951717,0.006679396145045757,-8.599983993917704e-05,0.010999900288879871
0.013057115487754345,0.006087081041187048,-0.01250340323895216,0.00687591265887022,-8.504778088536114e-05,0.010405195876955986
0.012417423538863659,0.006248123943805695,-0.0122090894728899,0.006669485475867987,-5.7581601140554994e-05,0.010637075640261173
0.012517411261796951,0.006617317907512188,-0.012525752186775208,0.006172678433358669,-5.515257362276316e-05,0.010569564066827297
0.012914366088807583,0.006503263488411903,-0.012734594754874706,0.006411584094166756,-5.4373616876546293e-05,0.010200644843280315
0.012796569615602493,0.006523765157908201,-0.01274191029369831,0.006413090508431196,-5.371723455027677e-05,0.010498120449483395
0.012796569615602493,0.006523765157908201,-0.01274191029369831,0.006413090508431196,-5.371723455027677e-05,0.010498120449483395
0.012982483021914959,0.006043917033821344,-0.012833409942686558,0.006456241011619568,-5.308307663653977e-05,0.010897933505475521
0.012546460144221783,0.005913953296840191,-0.012391184456646442,0.006545709446072578,-5.246420550975017e-05,0.01033528707921505
0.013007688336074352,0.006051286589354277,-0.012289180420339108,0.006671413313597441,-5.185958798392676e-05,0.010055639781057835
0.01285181287676096,0.0068463049829006195,-0.012225544080138206,0.006963425315916538,-5.126875839778222e-05,0.01013557706028223
0.012937165796756744,0.006312299519777298,-0.012488262727856636,0.006875341292470694,-5.069123290013522e-05,0.010677528567612171
0.012687436304986477,0.006039404775947332,-0.011870058253407478,0.007065005134791136,-5.012658948544413e-05,0.011154568754136562
0.012883729301393032,0.006475846283137798,-0.012513196095824242,0.006634741555899382,-2.5129193090833724e-05,0.011155846528708935
0.01327622402459383,0.006158442236483097,-0.01243110653012991,0.006974669173359871,-1.6407566363341175e-06,0.011253533884882927
0.013303576037287712,0.006047120317816734,-0.012514455243945122,0.00727510079741478,-1.0712969356063695e-07,0.01088861096650362
0.0133906789124012,0.0059389169327914715,-0.012431197799742222,0.006716309115290642,-6.9948038472489316e-09,0.010875108651816845
0.013193226419389248,0.005694038234651089,-0.012522410601377487,0.006865817587822676,-4.567107247943625e-10,0.01129584014415741
0.01320990826934576,0.006060831714421511,-0.012091105803847313,0.006879932247102261,-2.9819948593745593e-11,0.011325530707836151
0.013194402679800987,0.006473788525909185,-0.011880182661116123,0.007237093057483435,-1.9470293433077046e-12,0.011072683148086071
0.013503732159733772,0.006315350532531738,-0.01272134855389595,0.006746405269950628,-1.2712710929525112e-13,0.011143762618303299
0.012614801526069641,0.006196973379701376,-0.012623782269656658,0.006552508566528559,-8.300492590354938e-15,0.011542228050529957
0.013332000933587551,0.005569898057729006,-0.012897235341370106,0.006868213880807161,-5.419628610536722e-16,0.011567526496946812
0.012913920916616917,0.005594101268798113,-0.012408200651407242,0.0074282749556005,-3.538629691409589e-17,0.011377783492207527
0.013176897540688515,0.0061231814324855804,-0.012140871025621891,0.007181342225521803,-2.3104726151769914e-18,0.011303512379527092
0.012982736341655254,0.0061132353730499744,-0.01254970021545887,0.007199413608759642,-1.5085736148239106e-19,0.011440430767834187
0.013223106041550636,0.005365407094359398,-0.012775496579706669,0.006785744335502386,-6.431285843695567e-22,0.010647712275385857
0.01304058637470007,0.004690178669989109,-0.012599945068359375,0.0070833470672369,-4.1991700229082256e-23,0.010975002311170101
0.013615250587463379,0.005019745789468288,-0.012741068378090858,0.007196610327810049,-2.7417582568684543e-24,0.011561574414372444
0.013108404353260994,0.005223508458584547,-0.012562256306409836,0.006803488824516535,-1.7901724060174231e-25,0.011854274198412895
0.012994383461773396,0.00538851460441947,-0.012212028726935387,0.0069601573050022125,-1.1688547410427865e-26,0.011697967536747456
0.012856838293373585,0.00511925807222724,-0.012633726932108402,0.007388907019048929,-7.631785812643594e-28,0.01185725349932909
0.013370846398174763,0.005158692132681608,-0.0120532913133502,0.007265349850058556,-4.983010304480351e-29,0.011971607804298401
0.013164820149540901,0.005422135349363089,-0.012461851350963116,0.007049171719700098,-3.253549815166387e-30,0.01140567660331726
0.013164820149540901,0.005422135349363089,-0.012461851350963116,0.007049171719700098,-3.253549815166387e-30,0.01140567660331726
0.013575599528849125,0.005069288890808821,-0.012573344632983208,0.007014266215264797,-2.1243355232919055e-31,0.012741265818476677
0.013527454808354378,0.005224291700869799,-0.012404188513755798,0.0070426128804683685,-1.3870391059953496e-32,0.011352265253663063
0.013348791748285294,0.005019095726311207,-0.012644338421523571,0.007155539467930794,-9.056374902364573e-34,0.011026539839804173
0.013264776207506657,0.005065040197223425,-0.0122963422909379,0.006902191322296858,-5.913165341608794e-35,0.011083868332207203
0.01301049254834652,0.005411005113273859,-0.012453236617147923,0.006737717892974615,-3.0473805963993073e-05,0.011113202199339867
0.01333701889961958,0.004813782405108213,-0.012156590819358826,0.006871405988931656,-0.00011286119115538895,0.011826187372207642
0.013131983578205109,0.005048583261668682,-0.012515049427747726,0.007214069366455078,-0.00011539298429852352,0.012113072909414768
0.013509481213986874,0.005470877047628164,-0.012056782841682434,0.007095901295542717,-0.00011285339132882655,0.01178654097020626
0.013011706992983818,0.005054579582065344,-0.011894738301634789,0.006799817085266113,-0.00011011505557689816,0.011980144307017326
0.013343572616577148,0.0049350145272910595,-0.011801313608884811,0.0071983300149440765,-0.00012342369882389903,0.011816474609076977
0.013570848852396011,0.004899968393146992,-0.01172055583447218,0.007049307227134705,-0.00012561139010358602,0.01205435860902071
0.013691356405615807,0.004825688432902098,-0.012422417290508747,0.0068421745672822,-0.00012307867291383445,0.012059492990374565
0.012707256712019444,0.005162791348993778,-0.011895695701241493,0.006586629431694746,-0.00013523334928322583,0.012291806749999523
0.01410530973225832,0.005501879844814539,-0.012384110130369663,0.006791962310671806,-0.00013701825810130686,0.012150985188782215
0.013495918363332748,0.0051716165617108345,-0.012427127920091152,0.007418191526085138,-0.0001344039774267003,0.011894835159182549
0.013678979128599167,0.005264810286462307,-0.011988233774900436,0.007673259824514389,-0.0001479509228374809,0.012031552381813526
0.013496475294232368,0.005032101646065712,-0.012450804933905602,0.0070869773626327515,-0.00014718054444529116,0.01177649199962616
0.013370960019528866,0.00487214932218194,-0.01235172525048256,0.007167530711740255,-0.00014454842312261462,0.01220737211406231
0.014061274006962776,0.005319198593497276,-0.01214402262121439,0.007828285917639732,-0.0003449376381468028,0.012258503586053848
0.01398609671741724,0.005311432294547558,-0.012407859787344933,0.007392201106995344,-0.00033792678732424974,0.01210060715675354
0.013446968048810959,0.005413640756160021,-0.01221244316548109,0.007653268985450268,-0.0003189166309311986,0.012237122282385826
0.013797486200928688,0.005285743623971939,-0.012032329104840755,0.007743705529719591,-0.0003479099541436881,0.01233202125877142
0.013622687198221684,0.005216642748564482,-0.012580893002450466,0.00748645793646574,-0.0003325891157146543,0.012285344302654266
0.014163274317979813,0.005529726389795542,-0.0125050013884902,0.007964514195919037,-0.00033813581103459,0.012404372915625572
0.01373862475156784,0.005993618164211512,-0.012625128030776978,0.007937119342386723,-0.0003424932947382331,0.01228559110313654
0.014117233455181122,0.0055306884460151196,-0.012620639987289906,0.007656624540686607,-0.0003282147808931768,0.012592599727213383
0.014117233455181122,0.0055306884460151196,-0.012620639987289906,0.007656624540686607,-0.0003282147808931768,0.012592599727213383
0.01386350579559803,0.005750108975917101,-0.012822316028177738,0.0074173081666231155,-0.000313986383844167,0.012379535473883152
0.014093844220042229,0.005260405596345663,-0.013059517368674278,0.007462684065103531,-0.0003008684143424034,0.012383309192955494
0.013662820681929588,0.005449648946523666,-0.01284005492925644,0.008097333833575249,-0.0003317261580377817,0.012278074398636818
0.014084377326071262,0.005587785504758358,-0.013077035546302795,0.007956651039421558,-0.0003469868970569223,0.012369026429951191
0.013695248402655125,0.005568225868046284,-0.012328854762017727,0.00800375733524561,-0.00035613789805211127,0.012772496789693832
0.014427279122173786,0.005232688970863819,-0.012968722730875015,0.007575843017548323,-0.0003613345033954829,0.012863499112427235
0.013848498463630676,0.005745582282543182,-0.011699682101607323,0.00785640999674797,-0.0003404469753149897,0.013215322047472
0.014017527922987938,0.00534732174128294,-0.013515152968466282,0.007689557038247585,-0.0003203650703653693,0.013058749958872795
0.013824382796883583,0.005351537372916937,-0.013355099596083164,0.0074539100751280785,-0.00034602900268509984,0.0128409368917346
0.014179019257426262,0.0055496604181826115,-0.013290073722600937,0.00790167786180973,-0.00033366496791131794,0.013117494992911816
0.014025493524968624,0.0051732673309743404,-0.012848993763327599,0.008465154096484184,-0.00035648696939460933,0.013098116032779217
0.014017405919730663,0.00565972737967968,-0.01309486385434866,0.008009943179786205,-0.000344811036484316,0.012865843251347542
0.013763073831796646,0.005540936719626188,-0.013325902633368969,0.0075942217372357845,-0.00040877991705201566,0.0129015501588583
0.014281543903052807,0.005894843954592943,-0.0130232535302639,0.007707586511969566,-0.0004380924510769546,0.01290921214967966
0.014068766497075558,0.005461538210511208,-0.013504967093467712,0.007762628141790628,-0.00043936760630458593,0.013108286075294018
0.014470529742538929,0.0056524258106946945,-0.012962251901626587,0.007648911792784929,-0.0004585527640301734,0.012351798824965954
0.014179341495037079,0.0053785392083227634,-0.013506358489394188,0.007190249860286713,-0.0004420663171913475,0.012736472301185131
0.014469937421381474,0.00539132347330451,-0.013280903920531273,0.007273539900779724,-0.00046904815826565027,0.012966045178472996
0.01459659356623888,0.005521842744201422,-0.013140104711055756,0.00833210814744234,-0.0007775455596856773,0.012606929987668991
0.014099803753197193,0.00552807841449976,-0.013686634600162506,0.007819139398634434,-0.0008245671051554382,0.013419830240309238
0.014431873336434364,0.006046904716640711,-0.013347811996936798,0.0076824333518743515,-0.0012246373808011413,0.013619167730212212
0.014642043970525265,0.005538755562156439,-0.01331330556422472,0.007801986765116453,-0.0014356705360114574,0.013688936829566956
0.014893236570060253,0.005372981075197458,-0.012991991825401783,0.00841386616230011,-0.001627037301659584,0.013720100745558739
0.014967869035899639,0.005812476854771376,-0.013398679904639721,0.00812019407749176,-0.0017231217352673411,0.013494892977178097
0.015135269612073898,0.005968275014311075,-0.01361249852925539,0.00808665994554758,-0.0017502480186522007,0.013297819532454014
0.014767752960324287,0.0055876970291137695,-0.013089040294289589,0.008088158443570137,-0.0020072890911251307,0.013451757840812206
0.015428761020302773,0.005550089292228222,-0.013801472261548042,0.007845303975045681,-0.002471769694238901,0.01337403804063797
0.015428761020302773,0.005550089292228222,-0.013801472261548042,0.007845303975045681,-0.002471769694238901,0.01337403804063797
0.01503263134509325,0.005423236638307571,-0.012827779166400433,0.008113331161439419,-0.0024460235144943,0.012929987162351608
0.015661993995308876,0.005897022318094969,-0.013274814933538437,0.00798752997070551,-0.0025681890547275543,0.012947151437401772
0.0154242729768157,0.0055838231928646564,-0.013095105066895485,0.008042349480092525,-0.002423844998702407,0.013172639533877373
0.015575007535517216,0.005596945993602276,-0.013545059598982334,0.007845506072044373,-0.002260327572003007,0.013671133667230606
0.01561477780342102,0.0055452208034694195,-0.012847056612372398,0.007620129268616438,-0.0019688010215759277,0.01362892147153616
0.015845855697989464,0.005643829237669706,-0.013761389069259167,0.008198860101401806,-0.0019002737244591117,0.014134048484265804
0.016112839803099632,0.006100180093199015,-0.01314281951636076,0.008552252314984798,-0.0016108680283650756,0.013942046090960503
0.015888594090938568,0.005747942719608545,-0.013162428513169289,0.008361225947737694,-0.0012745612766593695,0.014181748032569885
0.016006890684366226,0.005786326248198748,-0.013224807567894459,0.008590277284383774,-0.0009940450545400381,0.014195778407156467
0.015539566054940224,0.005393452942371368,-0.013400559313595295,0.008811133913695812,-0.0008132993243634701,0.014550592750310898
0.015523732639849186,0.005796203389763832,-0.013594972901046276,0.008665341883897781,-0.0006883005844429135,0.014026734977960587
0.01545810978859663,0.005992335733026266,-0.013364669866859913,0.009261326864361763,-0.0005967171746306121,0.014173793606460094
0.01648888550698757,0.0061137014999985695,-0.013632003217935562,0.008835222572088242,-0.0005267003434710205,0.01416156068444252
0.016267739236354828,0.005510721355676651,-0.012896427884697914,0.008895576931536198,-0.00047141945105977356,0.014641150832176208
0.016744965687394142,0.005629258695989847,-0.013519711792469025,0.008786123245954514,-0.0004266554315108806,0.014507047832012177
0.016431983560323715,0.005656048189848661,-0.013054363429546356,0.008803504519164562,-0.0003896636771969497,0.014318745583295822
0.016064051538705826,0.005783929489552975,-0.013542630709707737,0.008534559980034828,-0.00035858392948284745,0.014013205654919147
0.016463954001665115,0.006232480518519878,-0.01343678217381239,0.008504418656229973,-0.00033209912362508476,0.014334449544548988
0.016066059470176697,0.005972374230623245,-0.013916383497416973,0.00856114737689495,-0.0003092588158324361,0.013988994993269444
0.01656327210366726,0.005603225436061621,-0.013399322517216206,0.009045441634953022,-0.00032524700509384274,0.013957304880023003
0.016734439879655838,0.005904668010771275,-0.013724800199270248,0.009352436289191246,-0.0003075834538321942,0.014218075200915337
0.016603657975792885,0.006607846822589636,-0.013788166455924511,0.009453057311475277,-0.0002910556795541197,0.014224598184227943
0.016361748799681664,0.006073232274502516,-0.013589305803179741,0.009444314986467361,-0.00027616924489848316,0.014852766878902912
0.016577480360865593,0.0057453131303191185,-0.013305827043950558,0.008959906175732613,-0.0002627279900480062,0.013346336781978607
0.016342896968126297,0.005306151695549488,-0.013585532084107399,0.009076743386685848,-0.00025053511490114033,0.01331368088722229
0.0169577244669199,0.0058226389810442924,-0.013420788571238518,0.00873649027198553,-0.0002394253242528066,0.014102987945079803
0.017368949949741364,0.0059022800996899605,-0.013734309934079647,0.008807627484202385,-0.00022925758094061166,0.014975637197494507
0.017300467938184738,0.006217066664248705,-0.01330011710524559,0.009436213411390781,-0.00021991864196024835,0.01483383309096098
0.017091182991862297,0.005292951595038176,-0.013723594136536121,0.00937520619481802,-0.00021131150424480438,0.014907645992934704
0.01710854470729828,0.005515613593161106,-0.013269543647766113,0.008821208961308002,-0.00020335243607405573,0.014789413660764694
0.01710854470729828,0.005515613593161106,-0.013269543647766113,0.008821208961308002,-0.00020335243607405573,0.014789413660764694
0.017057327553629875,0.005904740653932095,-0.01333863940089941,0.009412196464836597,-0.00018910753715317696,0.014796982519328594
0.017057327553629875,0.005904740653932095,-0.01333863940089941,0.009412196464836597,-0.00018910753715317696,0.014796982519328594
0.017467333003878593,0.006030289456248283,-0.013882986269891262,0.008723126724362373,-0.0001827085216064006,0.01491587981581688
0.017492756247520447,0.006048734299838543,-0.013592454604804516,0.00931587629020214,-0.00017672816466074437,0.014836125075817108
0.017327016219496727,0.005403449758887291,-0.014243987388908863,0.0095965676009655,-0.00017112685600295663,0.015112717635929585
0.01793677732348442,0.005650263745337725,-0.0135815953835845,0.00925875548273325,-0.0001658697728998959,0.01492377184331417
0.017524685710668564,0.006432889495044947,-0.014193350449204445,0.009326587431132793,-0.0001609264872968197,0.01486176811158657
0.017532482743263245,0.006429622881114483,-0.013767995871603489,0.009660407900810242,-0.00015626881213393062,0.014677158556878567
0.018003862351179123,0.006119901780039072,-0.014082223176956177,0.009318696334958076,-0.00015187366807367653,0.015168865211308002
0.017660532146692276,0.005700298584997654,-0.013944024220108986,0.009806870482861996,-0.00014771871792618185,0.014920714311301708
0.018097516149282455,0.005788641516119242,-0.013968861661851406,0.009577308781445026,-0.00014378534979186952,0.015167873352766037
0.018476631492376328,0.006304586306214333,-0.013914448209106922,0.009115142747759819,-0.00014005592674948275,0.014823528937995434
0.0179256834089756,0.006163870450109243,-0.0143344197422266,0.009429610334336758,-0.00013651490735355765,0.015126700513064861
0.018351204693317413,0.005751279182732105,-0.014182787388563156,0.010123874060809612,-0.0001331487001152709,0.015311021357774734
0.017923714593052864,0.005601297598332167,-0.014533404260873795,0.00984849315136671,-0.0001299446594202891,0.015492974780499935
0.017835846170783043,0.005479404237121344,-0.014021246694028378,0.010298242792487144,-0.0001268908235942945,0.015664633363485336
0.01843126304447651,0.005222237203270197,-0.01388715859502554,0.009531311690807343,-0.0001239774574059993,0.015701133757829666
0.018153131008148193,0.005602001678198576,-0.014623579569160938,0.009325561113655567,-0.00012119491293560714,0.01607387140393257
0.01829015277326107,0.005343249998986721,-0.01424744538962841,0.009325409308075905,-0.00011853456817334518,0.015911420807242393
0.01839173212647438,0.00496333884075284,-0.014332286082208157,0.00969155877828598,-0.00011598829587455839,0.015922171995043755
0.01854722946882248,0.005195269361138344,-0.014194196090102196,0.009430969133973122,-0.0001112107202061452,0.01604832336306572
0.018624236807227135,0.004950459115207195,-0.014488556422293186,0.010300428606569767,-0.00010896677122218534,0.015720020979642868
0.018468890339136124,0.005355888046324253,-0.01487606018781662,0.010231957770884037,-0.00010681117419153452,0.015745799988508224
0.018810966983437538,0.005109682679176331,-0.014461053535342216,0.009872960858047009,-8.957104000728577e-05,0.01570531353354454
0.018555833026766777,0.005174924619495869,-0.014589191414415836,0.01016046479344368,-8.577156404498965e-05,0.015902260318398476
0.01866263709962368,0.005443747155368328,-0.014558241702616215,0.00960167683660984,-8.403313404414803e-05,0.015873825177550316
0.019289935007691383,0.004940869752317667,-0.015106058679521084,0.010345540009438992,-8.248397352872416e-05,0.01604488119482994
0.019289935007691383,0.004940869752317667,-0.015106058679521084,0.010345540009438992,-8.248397352872416e-05,0.01604488119482994
0.018498923629522324,0.005009567365050316,-0.015513786114752293,0.010360172018408775,-8.099861588561907e-05,0.016576912254095078
0.018879879266023636,0.005509698763489723,-0.01536294724792242,0.009317156858742237,-7.956639456097037e-05,0.01540438737720251
0.019372716546058655,0.005104174837470055,-0.015181120485067368,0.009201670996844769,-7.818401354597881e-05,0.015669163316488266
0.019770793616771698,0.005124344024807215,-0.01528776716440916,0.009759885258972645,-7.684872980462387e-05,0.01599866710603237
0.019244126975536346,0.004918795544654131,-0.015653518959879875,0.00959536898881197,-7.555851334473118e-05,0.016380924731492996
0.019675079733133316,0.0045107146725058556,-0.014631745405495167,0.0095718614757061,-7.43107229936868e-05,0.016416985541582108
0.019182264804840088,0.005033406894654036,-0.015545694157481194,0.009800788946449757,-7.31035543140024e-05,0.016643101349473
0.01703059859573841,0.005004035774618387,-0.014832151122391224,0.009957127273082733,-7.193491910584271e-05,0.017146768048405647
0.01975255273282528,0.004757048096507788,-0.015241438522934914,0.009935564361512661,-7.080308569129556e-05,0.01678706519305706
0.020102789625525475,0.004608972929418087,-0.01498754695057869,0.010086333379149437,-6.970635149627924e-05,0.01712185889482498
0.019607368856668472,0.005052057094871998,-0.01567135751247406,0.009982481598854065,-6.864302122266963e-05,0.016653841361403465
0.019395262002944946,0.004960332997143269,-0.014976343140006065,0.010389348492026329,-6.761167605873197e-05,0.016353847458958626
0.01996856927871704,0.004617543425410986,-0.015642698854207993,0.010774794965982437,-6.66108462610282e-05,0.016538837924599648
0.019925381988286972,0.005022986326366663,-0.01513531431555748,0.010245717130601406,-6.56392439850606e-05,0.01695142686367035
0.02025960199534893,0.004885057453066111,-0.015528745017945766,0.01071540080010891,-6.469563959399238e-05,0.01715514436364174
0.019900279119610786,0.004773429594933987,-0.015328421257436275,0.010863974690437317,-6.377865065587685e-05,0.01712489314377308
0.020032955333590508,0.004695998039096594,-0.015714401379227638,0.010870908387005329,-6.288737495196983e-05,0.016946977004408836
0.019727643579244614,0.0049863774329423904,-0.0158291757106781,0.011292797513306141,-6.202064832905307e-05,0.016758034005761147
0.019696064293384552,0.004462191369384527,-0.015480977483093739,0.01116171944886446,-6.11775103607215e-05,0.01711391843855381
0.019685497507452965,0.0046387952752411366,-0.015950696542859077,0.011651644483208656,-6.035694241290912e-05,0.01726933941245079
0.020773418247699738,0.004936004988849163,-0.016124607995152473,0.011090476997196674,-5.878016600036062e-05,0.01738785207271576
0.02055526338517666,0.0044558364897966385,-0.015142617747187614,0.011347263120114803,-5.8022269513458014e-05,0.017116684466600418
0.02001272886991501,0.004508896265178919,-0.015535402111709118,0.010546150617301464,-5.728367978008464e-05,0.01681944914162159
0.02059892937541008,0.004557600244879723,-0.015002378262579441,0.010422131046652794,-5.656364737660624e-05,0.01678694784641266
0.020634008571505547,0.005099546629935503,-0.01564062014222145,0.010385534726083279,-5.5861510190879926e-05,0.01699976623058319
0.02044517733156681,0.0050329240038990974,-0.015224182978272438,0.010260212235152721,-5.517658428288996e-05,0.01721459999680519
0.020843610167503357,0.004556517116725445,-0.015623388811945915,0.010294194333255291,-6.398878758773208e-05,0.01722102425992489
0.021014079451560974,0.004476045724004507,-0.015845464542508125,0.010251411236822605,-6.453427340602502e-05,0.017449602484703064
0.021014079451560974,0.004476045724004507,-0.015845464542508125,0.010251411236822605,-6.453427340602502e-05,0.017449602484703064
0.020423132926225662,0.0046214149333536625,-0.015331869944930077,0.010426805354654789,-6.385669985320419e-05,0.01742386631667614
0.020657029002904892,0.005051821935921907,-0.015568124130368233,0.01029836293309927,-6.311596371233463e-05,0.017138119786977768
0.021264782175421715,0.004634564276784658,-0.015599692240357399,0.01081744022667408,-6.238710193429142e-05,0.017503950744867325
0.021198026835918427,0.005050992127507925,-0.016146410256624222,0.010608614422380924,-6.167464016471058e-05,0.017551714554429054
0.021266885101795197,0.004887293558567762,-0.015637483447790146,0.010486272163689137,-6.097817822592333e-05,0.01760813035070896
0.02157561667263508,0.004694004077464342,-0.016122600063681602,0.010324050672352314,-6.029730138834566e-05,0.018546108156442642
0.02188696525990963,0.004202248994261026,-0.015427242033183575,0.01051874179393053,-5.963146759313531e-05,0.017514901235699654
0.02166350558400154,0.004404985811561346,-0.015777042135596275,0.010374588891863823,-3.893508619512431e-06,0.01769336499273777
0.02110842615365982,0.0049675642512738705,-0.01553693413734436,0.010557831265032291,-2.542182926390524e-07,0.017979955300688744
0.02158624865114689,0.00501491641625762,-0.016180768609046936,0.010230015963315964,-1.65986371314375e-08,0.01807231642305851
0.022060271352529526,0.004595103673636913,-0.016135036945343018,0.010749529115855694,-1.0837725161749745e-09,0.018189409747719765
0.021744418889284134,0.004369813017547131,-0.015999605879187584,0.010792913846671581,-7.076259717075928e-11,0.017839651554822922
0.02158208191394806,0.004424565006047487,-0.016007186844944954,0.010499834083020687,-4.62029199621572e-12,0.01824248395860195
0.021854067221283913,0.004551651421934366,-0.015466064214706421,0.01099501270800829,-3.016720987597532e-13,0.018471134826540947
0.02199014276266098,0.00463984115049243,-0.016287023201584816,0.010920904576778412,-1.9697031210393588e-14,0.01815921626985073
0.02171994186937809,0.00447939382866025,-0.015703219920396805,0.01096892636269331,-1.2860754289255034e-15,0.01802781969308853
0.0224141962826252,0.004814436659216881,-0.015877583995461464,0.010869229212403297,-5.482742110771436e-18,0.018369603902101517
0.022299641743302345,0.0047332956455647945,-0.016066020354628563,0.011096468195319176,-3.579838392300667e-19,0.018300248309969902
0.02203390933573246,0.004637228325009346,-0.015611613169312477,0.011427118442952633,-2.337378635616582e-20,0.018145864829421043
0.02240883558988571,0.004624185152351856,-0.0157584510743618,0.01135499682277441,-1.5261411619666253e-21,0.018412336707115173
0.02247178740799427,0.004612469580024481,-0.01626516506075859,0.01170481275767088,-9.964612644624459e-23,0.018366776406764984
0.022185305133461952,0.004748019389808178,-0.01578581891953945,0.011293596588075161,-6.506180014047324e-24,0.01816287636756897
0.022302132099866867,0.005132200662046671,-0.016430772840976715,0.011578470468521118,-4.2480702088023825e-25,0.01852056011557579
0.021427545696496964,0.004885100293904543,-0.015802664682269096,0.011321166530251503,-2.7736864036051915e-26,0.01887689344584942
0.022479677572846413,0.004701649304479361,-0.016533030197024345,0.011537785641849041,-1.8110189490693825e-27,0.01914375089108944
0.02297956682741642,0.004401920363306999,-0.015515940263867378,0.012177035212516785,-1.1824659764797263e-28,0.019394785165786743
0.022993721067905426,0.004460199270397425,-0.015961088240146637,0.011519087478518486,-7.720657428630168e-30,0.019273512065410614
0.022863011807203293,0.005117453169077635,-0.016257185488939285,0.011509016156196594,-1.6002088159439154e-05,0.018261581659317017
0.023283518850803375,0.0051687732338905334,-0.016452742740511894,0.011296853423118591,-1.0448220564285293e-06,0.017917251214385033
0.02283547632396221,0.0046446071937680244,-0.01646752655506134,0.011130005121231079,-6.821942122314795e-08,0.018355097621679306
0.02283547632396221,0.0046446071937680244,-0.01646752655506134,0.011130005121231079,-6.821942122314795e-08,0.018355097621679306
0.022480031475424767,0.004961546044796705,-0.016131769865751266,0.012079172767698765,-2.9083005448349297e-10,0.019294066354632378
0.022480031475424767,0.004961546044796705,-0.016131769865751266,0.012079172767698765,-2.9083005448349297e-10,0.019294066354632378
0.02301817759871483,0.005162050016224384,-0.015847081318497658,0.012011738494038582,-1.898912450892798e-11,0.019630422815680504
0.022979924455285072,0.0048973700031638145,-0.016721980646252632,0.011751767247915268,-1.2398542479155616e-12,0.01905912533402443
0.0225667767226696,0.004826553165912628,-0.016969619318842888,0.01148285809904337,-8.095362216947039e-14,0.019129205495119095
0.023000413551926613,0.005114495288580656,-0.016488205641508102,0.012089087627828121,-0.00028212048346176744,0.019208069890737534
0.02386077307164669,0.004592093639075756,-0.01666828989982605,0.011578609235584736,-0.0005258209421299398,0.019811561331152916
0.023154884576797485,0.004543585237115622,-0.0163891538977623,0.012170227244496346,-0.0005316627211868763,0.01929481513798237
0.023098209872841835,0.00499311275780201,-0.016782578080892563,0.011868723668158054,-0.0005628610379062593,0.018813759088516235
0.02314894273877144,0.0050600310787558556,-0.015756016597151756,0.012006238102912903,-0.0005760880885645747,0.01854887790977955
0.022644810378551483,0.0048537408001720905,-0.016015222296118736,0.011456104926764965,-0.0005114624509587884,0.018746525049209595
0.02352883107960224,0.004900999367237091,-0.016753755509853363,0.012037016451358795,-0.0004782210453413427,0.01816803589463234
0.02339371293783188,0.004788984078913927,-0.016815368086099625,0.012011891230940819,-0.0005391590530052781,0.018804091960191727
0.02330552041530609,0.004703483544290066,-0.01622243970632553,0.012209778651595116,-0.0004883744404651225,0.0193418450653553
0.023077620193362236,0.00501071335747838,-0.016918545588850975,0.012148314155638218,-0.0005054594366811216,0.019618544727563858
0.023157967254519463,0.005100498907268047,-0.016671916469931602,0.011859292164444923,-0.00048036297084763646,0.01924998126924038
0.023597972467541695,0.005344573874026537,-0.01754603534936905,0.01259638648480177,-0.00044228904880583286,0.01917986199259758
0.023507708683609962,0.00502195255830884,-0.017419137060642242,0.012372196651995182,-0.0004088594578206539,0.019386595115065575
0.023507708683609962,0.00502195255830884,-0.017419137060642242,0.012372196651995182,-0.0004088594578206539,0.019386595115065575
0.02336037904024124,0.004823531024158001,-0.016685010865330696,0.012499443255364895,-0.0004389606474433094,0.019587337970733643
0.023210996761918068,0.0048919059336185455,-0.0161060132086277,0.01214431319385767,-0.00038865001988597214,0.019510312005877495
0.023018350824713707,0.005357104819267988,-0.016506841406226158,0.012336612679064274,-0.0004147409345023334,0.019615082070231438
0.023018350824713707,0.005357104819267988,-0.016506841406226158,0.012336612679064274,-0.0004147409345023334,0.019615082070231438
0.023353463038802147,0.005164247937500477,-0.016436638310551643,0.011678287759423256,-0.0003951477992814034,0.019733615219593048
0.02346636913716793,0.004806682467460632,-0.017312606796622276,0.011999870650470257,-0.0003747799783013761,0.019738687202334404
0.023005902767181396,0.005070564337074757,-0.017410093918442726,0.011868526227772236,-0.0003564329817891121,0.019841043278574944
0.023337366059422493,0.004884945694357157,-0.016628457233309746,0.012870059348642826,-0.00032696835114620626,0.02036740444600582
0.02344430983066559,0.0049613104201853275,-0.017061680555343628,0.012396758422255516,-0.00030458954279311,0.020426400005817413
0.02333260327577591,0.005411626771092415,-0.01649363525211811,0.012005710043013096,-0.0003129980468656868,0.020135078579187393
0.024769503623247147,0.00513973506167531,-0.016968604177236557,0.01263755839318037,-0.00031997638870961964,0.02016707882285118
0.0238847304135561,0.00515054352581501,-0.017122816294431686,0.011911203153431416,-0.00035077400389127433,0.02029627561569214
0.023743366822600365,0.004960405174642801,-0.016634661704301834,0.011906971223652363,-0.00037994750891812146,0.02054152637720108
0.02364390902221203,0.00477804196998477,-0.017031818628311157,0.011848692782223225,-0.0007043320219963789,0.020427439361810684
0.024088054895401,0.004601424094289541,-0.016662295907735825,0.011998918838799,-0.0006908181239850819,0.02053050696849823
0.02410132810473442,0.0050048367120325565,-0.017178423702716827,0.012397870421409607,-0.0007121256785467267,0.020505640655755997
0.02485356479883194,0.004781454801559448,-0.016804702579975128,0.012351579032838345,-0.0006471892702393234,0.020600823685526848
0.024230027571320534,0.004625521134585142,-0.01709846779704094,0.012163219042122364,-0.0006111442926339805,0.02064352296292782
0.0246158204972744,0.004755181260406971,-0.01637324132025242,0.01239513885229826,-0.0006096851429902017,0.020783135667443275
0.02332548052072525,0.005058981943875551,-0.017203588038682938,0.012310106307268143,-0.0005784310051240027,0.02065390907227993
0.02408691681921482,0.005543387960642576,-0.01693839393556118,0.012499183416366577,-0.0005903450073674321,0.02052430436015129
0.02479633502662182,0.005113750230520964,-0.01710893213748932,0.012559512630105019,-0.0005530361086130142,0.020294906571507454
0.025100726634263992,0.004744766280055046,-0.01707582175731659,0.012159224599599838,-0.0005029842141084373,0.020715652033686638
0.024300532415509224,0.004675224889069796,-0.016622722148895264,0.012972589582204819,-0.000526284915395081,0.021214358508586884
0.024845564737915993,0.004878038540482521,-0.017365703359246254,0.012888183817267418,-0.0004939898499287665,0.020970024168491364
0.024845564737915993,0.004878038540482521,-0.017365703359246254,0.012888183817267418,-0.0004939898499287665,0.020970024168491364
0.025356536731123924,0.005063625983893871,-0.016980230808258057,0.012785186059772968,-0.0004585932183545083,0.0211004838347435
0.02551140822470188,0.0054238769225776196,-0.016675032675266266,0.012384036555886269,-0.0004802496696356684,0.021420927718281746
0.02529471181333065,0.005506620742380619,-0.01695377565920353,0.01265858393162489,-0.0004569618031382561,0.021217066794633865
0.024882590398192406,0.005039851646870375,-0.016795068979263306,0.013027915731072426,-0.00043012239621020854,0.021554965525865555
0.025161832571029663,0.00486029265448451,-0.017258983105421066,0.012047186493873596,-0.0004086481058038771,0.02139219455420971
0.02582714892923832,0.005061782896518707,-0.01676962897181511,0.012654935009777546,-0.0003729629097506404,0.021408259868621826
0.02606937289237976,0.004813809879124165,-0.016967210918664932,0.012252872809767723,-0.0003776487719733268,0.02155541442334652
0.02610289305448532,0.004214073531329632,-0.01724950782954693,0.013129111379384995,-0.0003814331430476159,0.022347912192344666
0.02603909559547901,0.004421630408614874,-0.01706247217953205,0.013474613428115845,-0.0003581214405130595,0.0209649745374918
0.02568890154361725,0.00435301149263978,-0.017351485788822174,0.013251160271465778,-0.0003880574367940426,0.021217666566371918
0.025891294702887535,0.004351159557700157,-0.016967633739113808,0.013597547076642513,-0.0004143311525695026,0.02211081236600876
0.026086093857884407,0.004919680766761303,-0.017553851008415222,0.014453478157520294,-0.00039961005677469075,0.022286254912614822
0.02624211460351944,0.004891603719443083,-0.01815994456410408,0.013708055950701237,-0.0005484299617819488,0.02256588824093342
0.026328839361667633,0.004520242102444172,-0.01718936115503311,0.013880371116101742,-0.0005933177890256047,0.021283231675624847
0.027129052206873894,0.004635416436940432,-0.018011681735515594,0.013850106857717037,-0.0005407709395512938,0.020871805027127266
0.026678424328565598,0.004921113606542349,-0.017578380182385445,0.013476822525262833,-0.0005519351689144969,0.02158510498702526
0.02693462185561657,0.004473962355405092,-0.01751290261745453,0.013545201160013676,-0.000644501531496644,0.022591035813093185
0.02692977339029312,0.004433976951986551,-0.017674541100859642,0.013621007092297077,-0.0007406269432976842,0.021901937201619148
0.02694062516093254,0.004720176570117474,-0.0182489100843668,0.013103220611810684,-0.0007648946484550834,0.021839449182152748
0.027110567316412926,0.0048428867012262344,-0.018432097509503365,0.013459729962050915,-0.0007551706512458622,0.02303655631840229
0.027644556015729904,0.00481804646551609,-0.017654605209827423,0.01327874418348074,-0.0007244386943057179,0.02272370271384716
0.02703573927283287,0.0045511797070503235,-0.018052438274025917,0.013823596760630608,-0.0008599249413236976,0.021853776648640633
0.02703573927283287,0.0045511797070503235,-0.018052438274025917,0.013823596760630608,-0.0008599249413236976,0.021853776648640633
0.02689901366829872,0.004467216320335865,-0.017692703753709793,0.013342874124646187,-0.0008590524084866047,0.02126549743115902
0.02762838453054428,0.004534527193754911,-0.018724046647548676,0.013643715530633926,-0.0007710487116128206,0.021419037133455276
0.027565423399209976,0.0043936180882155895,-0.018104510381817818,0.013344761915504932,-0.0007808780646882951,0.022639352828264236
0.027697525918483734,0.00457777502015233,-0.017645206302404404,0.01351927500218153,-0.0007739165448583663,0.023167021572589874
0.02804393135011196,0.004589875228703022,-0.018929077312350273,0.013308926485478878,-0.000719368108548224,0.02312311716377735
0.02805314213037491,0.004602515604346991,-0.018035944551229477,0.013473529368638992,-0.0006720307283103466,0.022804858162999153
0.028169063851237297,0.004586676601320505,-0.017184104770421982,0.013057848438620567,-0.0006492251995950937,0.02259761095046997
0.028019454330205917,0.004349951632320881,-0.018110591918230057,0.013122327625751495,-0.0006248195422813296,0.02259383350610733
0.02868782728910446,0.004369797185063362,-0.01814999245107174,0.013771191239356995,-0.0006499573937617242,0.02303067222237587
0.028806641697883606,0.004296548664569855,-0.01829964853823185,0.013667035847902298,-0.0006786488811485469,0.02288571000099182
0.028541864827275276,0.004420318175107241,-0.01811978593468666,0.014187265187501907,-0.0009205581736750901,0.022768620401620865
0.028975335881114006,0.004605493042618036,-0.017718767747282982,0.014169917441904545,-0.0009493117686361074,0.022695710882544518
0.029095834121108055,0.004567650146782398,-0.01806878112256527,0.014666271395981312,-0.0009530315292067826,0.022603780031204224
0.030059337615966797,0.004134876187890768,-0.01800019107758999,0.014124096371233463,-0.0012029055505990982,0.022708147764205933
0.02956989035010338,0.003951467573642731,-0.01807417720556259,0.014408817514777184,-0.0011792001314461231,0.023396071046590805
0.026602596044540405,0.0038890100549906492,-0.018282869830727577,0.014333503320813179,-0.0011723849456757307,0.023407727479934692
0.029183920472860336,0.004337115213274956,-0.017673015594482422,0.014544185250997543,-0.001268172636628151,0.02311764657497406
0.029989199712872505,0.004353712312877178,-0.01816270314157009,0.014017113484442234,-0.0012812776258215308,0.02329271100461483
0.029588868841528893,0.004800886381417513,-0.01776709407567978,0.01419498585164547,-0.001456254511140287,0.02343357354402542
0.029986273497343063,0.004364891909062862,-0.017979469150304794,0.014139601960778236,-0.0013509844429790974,0.023269541561603546
0.02990625612437725,0.003989596385508776,-0.017777586355805397,0.013893630355596542,-0.0011507741874083877,0.023218827322125435
0.028853479772806168,0.004350816365331411,-0.01762794889509678,0.01451945398002863,-0.0010757797863334417,0.02318667620420456
0.02872486785054207,0.0041471319273114204,-0.01820340007543564,0.014811404049396515,-0.0009622442303225398,0.023703396320343018
0.030023979023098946,0.004180465824902058,-0.01758858747780323,0.014905795454978943,-0.0008503563003614545,0.02369491197168827
0.0298455823212862,0.004567539785057306,-0.01803680881857872,0.014716414734721184,-0.0007053989102132618,0.023440932855010033
0.0298455823212862,0.004567539785057306,-0.01803680881857872,0.014716414734721184,-0.0007053989102132618,0.023440932855010033
0.02996286004781723,0.004216732922941446,-0.018337097018957138,0.014965592883527279,-0.0005718566826544702,0.023695459589362144
0.030006026849150658,0.0038845366798341274,-0.017769301310181618,0.01490461453795433,-0.0005782404914498329,0.024034947156906128
0.0303264819085598,0.004319732543081045,-0.018393510952591896,0.014677458442747593,-0.0005424473783932626,0.02381577529013157
0.02983153611421585,0.004113783128559589,-0.017910223454236984,0.014448744244873524,-0.0005706772208213806,0.02345454879105091
0.029978035017848015,0.004423373378813267,-0.0179095808416605,0.014505235478281975,-0.0005279075121507049,0.023247534409165382
0.029905488714575768,0.004160924348980188,-0.018430616706609726,0.014566246420145035,-0.0005520642152987421,0.023427486419677734
0.029827650636434555,0.004316403530538082,-0.017850687727332115,0.014635316096246243,-0.000517368724104017,0.02408463880419731
0.029912792146205902,0.004484404344111681,-0.018247170373797417,0.014729790389537811,-0.0005519785336218774,0.02387811616063118
0.03019762597978115,0.004152996931225061,-0.018529294058680534,0.015093890950083733,-0.0005829044966958463,0.024095479398965836
0.03027748316526413,0.003956813830882311,-0.01801019348204136,0.014439095743000507,-0.00060243223560974,0.024562915787100792
0.030104484409093857,0.004310045391321182,-0.01849272847175598,0.013704255223274231,-0.0006391588831320405,0.024567827582359314
0.03038649447262287,0.004712651949375868,-0.01832704432308674,0.014193981885910034,-0.0008353705052286386,0.024111827835440636
0.029849285259842873,0.004454547539353371,-0.017847036942839622,0.014440996572375298,-0.0008870617602951825,0.023489870131015778
0.030102521181106567,0.0045311832800507545,-0.018396535888314247,0.014406239613890648,-0.0008918045205064118,0.022941455245018005
0.030078694224357605,0.004547839052975178,-0.018477220088243484,0.015005433931946754,-0.0008931077318266034,0.023529397323727608
0.030644696205854416,0.004588334355503321,-0.01834537461400032,0.014402658678591251,-0.0008191234664991498,0.024858763441443443
0.030578279867768288,0.004342015832662582,-0.018505342304706573,0.014095515012741089,-0.0007871508132666349,0.0248088501393795
0.029306214302778244,0.004379053134471178,-0.018553346395492554,0.014565415680408478,-0.0007399679161608219,0.024476703256368637
0.0299933310598135,0.0046358490362763405,-0.018743326887488365,0.014178020879626274,-0.0007477352046407759,0.02475755475461483
0.03122665174305439,0.0048607331700623035,-0.01853206753730774,0.01464114710688591,-0.0006798505783081055,0.02487952634692192
0.030629564076662064,0.004775781184434891,-0.01897270418703556,0.01479802280664444,-0.0006957275327295065,0.024933328852057457
0.030831387266516685,0.004233894869685173,-0.019324181601405144,0.015348687767982483,-0.0006392647046595812,0.024918386712670326
0.030831387266516685,0.004233894869685173,-0.019324181601405144,0.015348687767982483,-0.0006392647046595812,0.024918386712670326
0.03124159201979637,0.004232016392052174,-0.018681876361370087,0.016021575778722763,-0.0005928315804339945,0.0251071285456419
0.03177519142627716,0.0044823382049798965,-0.01891888678073883,0.01605791226029396,-0.0006173694273456931,0.025611739605665207
0.030673997476696968,0.004242866300046444,-0.019043704494833946,0.016257628798484802,-0.0006526242359541357,0.02538948692381382
0.030601659789681435,0.0045508723706007,-0.019122179597616196,0.0154783446341753,-0.000670741603244096,0.025311870500445366
0.03135139122605324,0.004675259813666344,-0.019835982471704483,0.01575108803808689,-0.0007796687423251569,0.025330491364002228
0.0317026786506176,0.004640192724764347,-0.01980474218726158,0.015698740258812904,-0.0007904110243543983,0.026238204911351204
0.031234387308359146,0.004610504023730755,-0.018702693283557892,0.01588650792837143,-0.0008061595144681633,0.025462089106440544
0.0309114009141922,0.004624549765139818,-0.01913481578230858,0.015516644343733788,-0.0007948767743073404,0.0247785747051239
0.030957678332924843,0.004343916662037373,-0.019656101241707802,0.01586165837943554,-0.0007294319220818579,0.025511501356959343
0.03099793754518032,0.0044604092836380005,-0.018947653472423553,0.015969861298799515,-0.0007420054753310978,0.02555657923221588
0.031153487041592598,0.004555820021778345,-0.019627586007118225,0.015770476311445236,-0.0006974849384278059,0.025223439559340477
0.03157280758023262,0.0045901453122496605,-0.019493117928504944,0.01634850539267063,-0.0006259806687012315,0.02560286968946457
0.03141137212514877,0.00411244435235858,-0.018780391663312912,0.015923764556646347,-0.0006453806417994201,0.025369917973876
0.03186225891113281,0.004442157689481974,-0.019957639276981354,0.01627267152070999,-0.0005879126256331801,0.025576276704669
0.03232663869857788,0.004730775486677885,-0.01993478462100029,0.015671998262405396,-0.0006070190574973822,0.025491341948509216
0.03248175233602524,0.004365733824670315,-0.01967892050743103,0.016025252640247345,-0.000622105784714222,0.025731878355145454
0.03193163499236107,0.004361469764262438,-0.01933012530207634,0.015497313812375069,-0.0005905032157897949,0.025872820988297462
0.03254586085677147,0.004511468578130007,-0.019662171602249146,0.01576998271048069,-0.0006277571665123105,0.025790955871343613
0.03196768835186958,0.004426026251167059,-0.019975705072283745,0.015715699642896652,-0.0005953634390607476,0.025766273960471153
0.03264415264129639,0.004529912490397692,-0.019093863666057587,0.015847843140363693,-0.0006135418661870062,0.02580929733812809
0.032574087381362915,0.004360299091786146,-0.019468879327178,0.015711447224020958,-0.0006078498554416001,0.025804907083511353
0.03273048624396324,0.004280704539269209,-0.020351050421595573,0.01605399325489998,-0.0005939517286606133,0.02586544118821621
0.03301295265555382,0.004090085159987211,-0.01992325484752655,0.016107264906167984,-0.0006014095270074904,0.026196595281362534
0.03338198363780975,0.00446377182379365,-0.019283905625343323,0.016624925658106804,-0.0005767049733549356,0.026819352060556412
0.032930370420217514,0.004698739852756262,-0.019488245248794556,0.016398712992668152,-0.0005141565343365073,0.02702988311648369
0.032930370420217514,0.004698739852756262,-0.019488245248794556,0.016398712992668152,-0.0005141565343365073,0.02702988311648369
0.032873544842004776,0.004352421034127474,-0.02005155198276043,0.016420353204011917,-0.0005290015251375735,0.025881804525852203
0.033397022634744644,0.004431784152984619,-0.019961055368185043,0.01622859016060829,-0.000500671099871397,0.025470105931162834
0.03364347666501999,0.004327983129769564,-0.01981484517455101,0.016028445214033127,-0.0005305142840370536,0.02615971677005291
0.03335892781615257,0.004283748101443052,-0.020209800451993942,0.016530578956007957,-0.0005545285530388355,0.027153873816132545
0.033455535769462585,0.004506290424615145,-0.019916458055377007,0.016193533316254616,-0.000522842223290354,0.026419198140501976
0.0338887944817543,0.0047070602886378765,-0.019146030768752098,0.017091628164052963,-0.000537069165147841,0.026487883180379868
0.0348159521818161,0.004600196611136198,-0.01975993812084198,0.01629124954342842,-0.0004962739767506719,0.027768807485699654
0.03389417380094528,0.004386881832033396,-0.01990356482565403,0.016099892556667328,-0.0005311341374181211,0.027277445420622826
0.0330723375082016,0.004292190540581942,-0.019243493676185608,0.016001669690012932,-0.0004885420785285532,0.025312159210443497
0.034467216581106186,0.004282309673726559,-0.020265325903892517,0.016192765906453133,-0.0005177059792913496,0.026542017236351967
0.034269966185092926,0.0043874466791749,-0.02032443881034851,0.01611560396850109,-0.0005332290311343968,0.02742585726082325
0.034793294966220856,0.004616570193320513,-0.019845055416226387,0.01591331511735916,-0.0005113731021992862,0.027890857309103012
0.03549933806061745,0.004729855805635452,-0.019903013482689857,0.01695210300385952,-0.0005680269678123295,0.027249449864029884
0.034960124641656876,0.004310477990657091,-0.019810952246189117,0.016576984897255898,-0.0005840726080350578,0.026933148503303528
0.03408097103238106,0.00402182387188077,-0.0196565929800272,0.01667848601937294,-0.0006162120262160897,0.027352191507816315
0.034116748720407486,0.004212039057165384,-0.019790329039096832,0.016702810302376747,-0.0006650456343777478,0.027258066460490227
0.03525344282388687,0.004089690744876862,-0.02037544548511505,0.016757994890213013,-0.000810487603303045,0.027595985680818558
0.03330790624022484,0.004256740212440491,-0.0204564668238163,0.017045795917510986,-0.0008342862129211426,0.027101987972855568
0.03571333736181259,0.004108583088964224,-0.01983078010380268,0.016627861186861992,-0.0008164291502907872,0.027066776528954506
0.03481302037835121,0.004223052877932787,-0.019894689321517944,0.016719704493880272,-0.0007017725729383528,0.02722295932471752
0.03488814830780029,0.003969553858041763,-0.019704395905137062,0.01663822866976261,-0.0006730951718054712,0.027193987742066383
0.035742223262786865,0.0038407579995691776,-0.020235665142536163,0.01678602024912834,-0.0006746521103195846,0.027739619836211205
0.03509293869137764,0.004262495785951614,-0.020432204008102417,0.016796238720417023,-0.0006357042584568262,0.02744646742939949
0.03528478741645813,0.004178657196462154,-0.020337248221039772,0.017414288595318794,-0.0006438051350414753,0.027775011956691742
0.03535187616944313,0.003967666532844305,-0.02016530930995941,0.016709504649043083,-0.0006706990534439683,0.02800382301211357
0.03530670329928398,0.004118975251913071,-0.020672524347901344,0.017506396397948265,-0.0007052132277749479,0.027760405093431473
0.035053055733442307,0.004096107091754675,-0.0202939435839653,0.01746482402086258,-0.0006532557890750468,0.0274567399173975
0.03530486673116684,0.0039032716304063797,-0.019753679633140564,0.01673036813735962,-0.0008277196902781725,0.027724020183086395
0.03530486673116684,0.0039032716304063797,-0.019753679633140564,0.01673036813735962,-0.0008277196902781725,0.027724020183086395
0.03661787137389183,0.003792649833485484,-0.019919008016586304,0.01697685942053795,-0.0008360447245649993,0.028043534606695175
0.03471583500504494,0.00401155324652791,-0.02031153067946434,0.01740492880344391,-0.0007692374056205153,0.027726560831069946
0.03471583500504494,0.00401155324652791,-0.02031153067946434,0.01740492880344391,-0.0007692374056205153,0.027726560831069946
0.03593769297003746,0.004193803295493126,-0.020777296274900436,0.0178951658308506,-0.0007798527949489653,0.028401236981153488
0.03548519313335419,0.0042138854041695595,-0.02069832570850849,0.01751885376870632,-0.0007106648408807814,0.029411379247903824
0.0361449159681797,0.004069542977958918,-0.020145608112215996,0.017920125275850296,-0.0006650700815953314,0.029075022786855698
0.03697530925273895,0.003480836981907487,-0.020057102665305138,0.018051281571388245,-0.0005826904089190066,0.0281433816999197
0.036409903317689896,0.0035335789434611797,-0.021424785256385803,0.018935848027467728,-0.0006115770083852112,0.027617091313004494
0.03462529927492142,0.004202353302389383,-0.021490557119250298,0.0183586273342371,-0.0006225323886610568,0.028611518442630768
0.03578492999076843,0.004123465158045292,-0.020619800314307213,0.017399944365024567,-0.0006262797396630049,0.028438875451683998
0.03720901906490326,0.003932731691747904,-0.020824380218982697,0.01818038336932659,-0.0006115689175203443,0.028348490595817566
0.036100711673498154,0.0040824878960847855,-0.020747750997543335,0.01804722473025322,-0.0007170934695750475,0.029355818405747414
0.036305174231529236,0.004223270807415247,-0.02077624574303627,0.017748676240444183,-0.000773873645812273,0.029370412230491638
0.036199457943439484,0.004060458857566118,-0.02050364576280117,0.01803765818476677,-0.0007905279053375125,0.028751127421855927
0.037007901817560196,0.003867972642183304,-0.021106023341417313,0.01796693168580532,-0.0009370531770400703,0.028488900512456894
0.036609988659620285,0.003919196780771017,-0.0213389303535223,0.018228953704237938,-0.0010699247941374779,0.028335537761449814
0.03680328279733658,0.00353824975900352,-0.021032873541116714,0.01832827925682068,-0.0009291202877648175,0.02993941493332386
0.03641027584671974,0.004034883808344603,-0.021295316517353058,0.018212344497442245,-0.0008133445517159998,0.029212530702352524
0.03696337342262268,0.004229460842907429,-0.02116352878510952,0.018398799002170563,-0.0007697642431594431,0.029205160215497017
0.03679199144244194,0.004094445612281561,-0.020689958706498146,0.01812482625246048,-0.0007352320244535804,0.029291875660419464
0.03706761449575424,0.003931116312742233,-0.0209213774651289,0.01851779595017433,-0.0006770160398446023,0.029044555500149727
0.037231653928756714,0.0034466299694031477,-0.020902954041957855,0.018134847283363342,-0.0005560090648941696,0.029217712581157684
0.037027426064014435,0.0035271048545837402,-0.021301619708538055,0.017849348485469818,-0.0005643981858156621,0.02956440858542919
0.037327371537685394,0.003770282259210944,-0.021341441199183464,0.01818876340985298,-0.0005307443207129836,0.029229333624243736
0.038038965314626694,0.004275787156075239,-0.02124335989356041,0.017878882586956024,-0.0005594840040430427,0.029433585703372955
0.038038965314626694,0.004275787156075239,-0.02124335989356041,0.017878882586956024,-0.0005594840040430427,0.029433585703372955
0.03744161128997803,0.004194140899926424,-0.021196817979216576,0.017986370250582695,-0.0005823032697662711,0.02970666065812111
0.03740836679935455,0.0039988630451262,-0.021674510091543198,0.018102841451764107,-0.0006398116238415241,0.02963152714073658
0.03807087987661362,0.003931785933673382,-0.021167632192373276,0.01766596920788288,-0.0007320826989598572,0.030002376064658165
0.03774445131421089,0.0039378684014081955,-0.020822402089834213,0.018070250749588013,-0.0007569289882667363,0.030198143795132637
0.038062408566474915,0.0039035589434206486,-0.021276412531733513,0.018055034801363945,-0.0007862044731155038,0.03031686693429947
0.03830429166555405,0.003839441342279315,-0.021742545068264008,0.018062667921185493,-0.0009656038600951433,0.030596785247325897
0.03796980530023575,0.003787542227655649,-0.020951131358742714,0.01831790804862976,-0.0009922957979142666,0.030796783044934273
0.037844832986593246,0.0037495209835469723,-0.021381093189120293,0.017978278920054436,-0.0008744003134779632,0.030648259446024895
0.038385044783353806,0.0037844746839255095,-0.021470028907060623,0.018092811107635498,-0.0008623157627880573,0.031244872137904167
0.0394342876970768,0.0037739661056548357,-0.021098386496305466,0.018320055678486824,-0.0008240178576670587,0.03088906966149807
0.03830478712916374,0.003788403933867812,-0.02055954746901989,0.018129074946045876,-0.0007880715420469642,0.030765146017074585
0.03747769445180893,0.003907257691025734,-0.02135077305138111,0.018745100125670433,-0.0008123406441882253,0.03005056083202362
0.03796344995498657,0.003686221782118082,-0.021525880321860313,0.01893474906682968,-0.000824880029540509,0.03140784054994583
0.037794698029756546,0.0035637510009109974,-0.020850298926234245,0.01874319463968277,-0.0008480848628096282,0.031156539916992188
0.03956113010644913,0.003652558196336031,-0.0206903088837862,0.018914291635155678,-0.0010345156770199537,0.03197704628109932
0.03966677188873291,0.0038157671224325895,-0.020749947056174278,0.0189153291285038,-0.0010053107980638742,0.03228387609124184
0.03799239546060562,0.003766298294067383,-0.020690158009529114,0.019436271861195564,-0.0009076427086256444,0.030279213562607765
0.0392208993434906,0.0037591028958559036,-0.021444354206323624,0.01890459470450878,-0.0008984412997961044,0.030209891498088837
0.039463020861148834,0.003983819857239723,-0.021407872438430786,0.01829165779054165,-0.0008281618356704712,0.031801749020814896
0.03952714055776596,0.003813672810792923,-0.020907564088702202,0.018830357119441032,-0.0008249317761510611,0.03131979703903198
0.03938254341483116,0.003508757334202528,-0.020995236933231354,0.019924165681004524,-0.000850668060593307,0.03227895870804787
0.039259254932403564,0.0035777322482317686,-0.021686147898435593,0.019767016172409058,-0.0008737050811760128,0.03174102306365967
0.03974909707903862,0.003776208497583866,-0.02226436883211136,0.020119808614253998,-0.001221534563228488,0.03130841627717018
0.03947528079152107,0.0038400941994041204,-0.021496815606951714,0.01903616450726986,-0.0012051976518705487,0.03032073937356472
0.039902858436107635,0.003733457997441292,-0.021406330168247223,0.017890213057398796,-0.001157978898845613,0.03042512759566307
0.0391327328979969,0.0037440643645823,-0.021312914788722992,0.018827255815267563,-0.0010131514864042401,0.03195082023739815
0.03929150849580765,0.003747244831174612,-0.021275775507092476,0.01860838010907173,-0.0009077160502783954,0.03224415332078934
0.040925756096839905,0.0037241496611386538,-0.021652434021234512,0.01827009581029415,-0.0008353976882062852,0.031886350363492966
0.040925756096839905,0.0037241496611386538,-0.021652434021234512,0.01827009581029415,-0.0008353976882062852,0.031886350363492966
0.04036468639969826,0.0034609525464475155,-0.02177566848695278,0.01840919628739357,-0.000840148248244077,0.03187409043312073
0.03849293291568756,0.0034147503320127726,-0.021334977820515633,0.018357444554567337,-0.0007930726860649884,0.03156176209449768
