davideferrari95/blind_handover_controller/data/Test 72 - [2024-02-07 -- 15-50-35]/joint_states_data.csv
shoulder_pan_joint,shoulder_lift_joint,elbow_joint,wrist_1_joint,wrist_2_joint,wrist_3_joint
0.006734955590218306,-0.0013886186061426997,-0.012123683467507362,0.013258889317512512,0.0,0.00661841593682766
0.0070187244564294815,-0.001442867098376155,-0.012297715060412884,0.012631322257220745,0.0,0.007049234583973885
0.006941687781363726,-0.0016373159596696496,-0.011442046612501144,0.012592615559697151,0.0,0.007424958981573582
0.006941687781363726,-0.0016373159596696496,-0.011442046612501144,0.012592615559697151,0.0,0.007424958981573582
0.006394723895937204,-0.0017033766489475965,-0.011943517252802849,0.012981102801859379,0.0,0.006733044050633907
0.006550130434334278,-0.0015490580117329955,-0.01167277991771698,0.012995441444218159,0.0,0.006569014396518469
0.007145842537283897,-0.001298602088354528,-0.011678841896355152,0.013110203668475151,0.0,0.0069017065688967705
0.007048293948173523,-0.0012118569575250149,-0.012016628868877888,0.01291996892541647,0.0,0.007075194269418716
0.006878883112221956,-0.0012605104129761457,-0.012125257402658463,0.012949657626450062,0.0,0.006787357851862907
0.006250456906855106,-0.001197683741338551,-0.011786619201302528,0.012224926613271236,0.0,0.00641287537291646
0.006250456906855106,-0.001197683741338551,-0.011786619201302528,0.012224926613271236,0.0,0.00641287537291646
0.006966913118958473,-0.0012809232575818896,-0.011553892865777016,0.012583082541823387,0.0,0.006891742814332247
0.006966913118958473,-0.0012809232575818896,-0.011553892865777016,0.012583082541823387,0.0,0.006891742814332247
0.006754753645509481,-0.0015424813609570265,-0.011816735379397869,0.012503628619015217,0.0,0.007177577819675207
0.006315385922789574,-0.0014548832550644875,-0.011748509481549263,0.012305454351007938,0.0,0.0071627236902713776
0.007008371874690056,-0.0011519503314048052,-0.01135326363146305,0.0123983696103096,0.0,0.007343356963247061
0.006967771332710981,-0.0008709044195711613,-0.011196981184184551,0.012094231322407722,0.0,0.0071215820498764515
0.006763113662600517,-0.0003689388104248792,-0.011680147610604763,0.012220324948430061,0.0,0.0070859408006072044
0.006315231788903475,-0.0003834388917312026,-0.011088472791016102,0.011882781982421875,0.0,0.006895356345921755
0.0069774058647453785,-0.000449205341283232,-0.012578854337334633,0.011904291808605194,0.0,0.006716615054756403
0.006957091856747866,-0.00041062134550884366,-0.011375462636351585,0.012194178998470306,0.0,0.0068893409334123135
0.006865410134196281,-0.0003861681616399437,-0.011296612210571766,0.011456234380602837,0.0,0.006969928741455078
0.0067792353220283985,-0.0003214289026800543,-0.011799829080700874,0.01160230953246355,0.0,0.007257150020450354
0.006946575362235308,-0.00027271051658317447,-0.011304561048746109,0.011777441017329693,0.0,0.007265259511768818
0.007647593505680561,-0.00023679895093664527,-0.011679635383188725,0.012614325620234013,0.0,0.007082316093146801
0.0068251448683440685,-0.00020924946875311434,-0.012014659121632576,0.012608863413333893,0.0,0.007196920923888683
0.006640132516622543,-0.00018744471890386194,-0.011388852261006832,0.012986907735466957,0.0,0.007403574418276548
0.006733843125402927,-0.0001697578263701871,-0.011760614812374115,0.013073939830064774,0.0,0.007073336746543646
0.007010170724242926,-0.00015512296522501856,-0.009763705544173717,0.012910855002701283,0.0,0.006752401124686003
0.007291603833436966,-0.0001428116811439395,-0.011955243535339832,0.013144285418093204,0.0,0.006926172878593206
0.007233343552798033,-0.00013231136836111546,-0.012145363725721836,0.012529665604233742,0.0,0.0067871385253965855
0.006948303896933794,-0.00012324941053520888,-0.011291076429188251,0.012976359575986862,0.0,0.007024423219263554
0.006734868045896292,-0.00011535005614859983,-0.01123278308659792,0.012643346562981606,0.0,0.00698423245921731
0.006734868045896292,-0.00011535005614859983,-0.01123278308659792,0.012643346562981606,0.0,0.00698423245921731
0.007041024509817362,-0.00010840228060260415,-0.010938124731183052,0.01297631487250328,0.0,0.007320560049265623
0.007184775546193123,-0.00010224379366263747,-0.011223516426980495,0.01283390074968338,0.0,0.007008622400462627
0.00667525501921773,-9.674749162513763e-05,-0.011167488060891628,0.012869548983871937,0.0,0.007435393054038286
0.006898156367242336,-9.181273344438523e-05,-0.010805190540850163,0.012757395394146442,0.0,0.006940748542547226
0.0072780027985572815,-0.0001304185570916161,-0.011385342106223106,0.012632223777472973,0.0,0.006626541260629892
0.007375436369329691,-0.00012496077397372574,-0.011515847407281399,0.012489533983170986,0.0,0.006870863493531942
0.006873824633657932,-0.0001194404176203534,-0.012491481378674507,0.012304593808948994,0.0,0.006908031180500984
0.0069449832662940025,-0.00010973163443850353,-0.011504881083965302,0.012715563178062439,0.0,0.006921613588929176
0.0071582491509616375,-0.00010544616816332564,-0.0128561956807971,0.013581656850874424,0.0,0.007239856757223606
0.007140826433897018,-0.00010148252476938069,-0.011871086433529854,0.012818350456655025,0.0,0.007212347816675901
0.006484565790742636,-9.780629625311121e-05,-0.01242872979491949,0.012069744989275932,0.0,0.006850549019873142
0.006440319586545229,-9.438730194233358e-05,-0.01269347034394741,0.012270449660718441,0.0,0.007181181572377682
0.005993625149130821,-9.119896276388317e-05,-0.012432931922376156,0.011769573204219341,0.0,0.007102555595338345
0.006392623297870159,-8.821898518363014e-05,-0.012519381009042263,0.011672324500977993,0.0,0.007305109407752752
0.006546657998114824,-0.00011055189679609612,-0.01228413823992014,0.011736506596207619,0.0,0.007063036318868399
0.006360427942126989,-0.00011036548676202074,-0.012910710647702217,0.011740406043827534,0.0,0.006584092043340206
0.006346236448734999,-0.00010712438233895227,-0.012128422036767006,0.012662640772759914,0.0,0.006363891065120697
0.007551160175353289,-0.00010402924817753956,-0.012733028270304203,0.012250563129782677,0.0,0.006487337872385979
0.006755506154149771,-0.00010110784933203831,-0.01280950102955103,0.01274323184043169,0.0,0.006574901752173901
0.005509269889444113,-9.834574302658439e-05,-0.012985391542315483,0.012279625982046127,0.0,0.007064707111567259
0.006537977606058121,-9.573046554578468e-05,-0.012807956896722317,0.012711357325315475,0.0,0.0068476214073598385
0.0069197556003928185,-9.325056453235447e-05,-0.012187379412353039,0.012159432284533978,0.0,0.007011163979768753
0.007168924435973167,-9.08963120309636e-05,-0.012586244381964207,0.01216849684715271,0.0,0.006841234862804413
0.006383609026670456,-8.866078132996336e-05,-0.01285333838313818,0.012762515805661678,0.0,0.006895046215504408
0.006383609026670456,-8.866078132996336e-05,-0.01285333838313818,0.012762515805661678,0.0,0.006895046215504408
0.006464012898504734,-8.652973338030279e-05,-0.012658527120947838,0.012166320346295834,0.0,0.006942870561033487
0.007077647838741541,-0.00010532992018852383,-0.012424048967659473,0.012921515852212906,0.0,0.007266945671290159
0.0069716861471533775,-0.00010319760622223839,-0.012808884494006634,0.012798004783689976,0.0,0.007386495359241962
0.006467845290899277,-0.00010088775889016688,-0.012295763939619064,0.012675885111093521,0.0,0.007425289135426283
0.006355853285640478,-9.867573680821806e-05,-0.011998963542282581,0.01232052594423294,0.0,0.0069422912783920765
0.0067207240499556065,-9.65582876233384e-05,-0.012533064931631088,0.012163329869508743,0.0,0.007313624955713749
0.006806614808738232,-9.258513455279171e-05,-0.011988958343863487,0.011530431918799877,0.0,0.006965557113289833
0.006379253696650267,-9.071872045751661e-05,-0.011857780627906322,0.012232525274157524,0.0,0.006502632051706314
0.006532076746225357,-8.892596088116989e-05,-0.01166678685694933,0.011743215844035149,0.0,0.006633352022618055
0.007241878658533096,-8.720283949514851e-05,-0.012205777689814568,0.011884110979735851,0.0,0.007163909263908863
0.00689153466373682,-9.193157166009769e-05,-0.011432196013629436,0.012184605933725834,0.0,0.00758862029761076
0.006796153262257576,-9.087501530302688e-05,-0.011804879643023014,0.012250076048076153,0.0,0.007596022915095091
0.0066757905296981335,-8.908670861274004e-05,-0.011731190606951714,0.012722085230052471,0.0,0.00710074370726943
0.007441854104399681,-8.735746814636514e-05,-0.01145693939179182,0.012324025854468346,0.0,0.007246566936373711
0.006767701357603073,-8.569411875214428e-05,-0.01145110186189413,0.012667356058955193,0.0,0.006721833720803261
0.007008949760347605,-8.409263682551682e-05,-0.011063042096793652,0.012215851806104183,0.0,0.006578486878424883
0.006875505670905113,-8.254998829215765e-05,-0.011498584412038326,0.01232241652905941,0.0,0.006785717327147722
0.0072423373349010944,-8.106307359412313e-05,-0.011325200088322163,0.01249391958117485,0.0,0.006665784399956465
0.007254973519593477,-7.9628691310063e-05,-0.011075395159423351,0.012321115471422672,0.0,0.007001951802521944
0.007169417105615139,-7.824417116353288e-05,-0.011973601765930653,0.01268748752772808,0.0,0.006676035467535257
0.007027659099549055,-7.690695201745257e-05,-0.011843133717775345,0.011877104640007019,0.0,0.006556410808116198
0.007027659099549055,-7.690695201745257e-05,-0.011843133717775345,0.011877104640007019,0.0,0.006556410808116198
0.007027653977274895,-7.43652053643018e-05,-0.011441242881119251,0.0119101507589221,0.0,0.007045390084385872
0.007331170607358217,-7.315622497117147e-05,-0.01117165107280016,0.012099419720470905,0.0,0.007024419028311968
0.006807801779359579,-7.198603270808235e-05,-0.01183312013745308,0.012045442126691341,0.0,0.007174881175160408
0.006807801779359579,-7.198603270808235e-05,-0.01183312013745308,0.012045442126691341,0.0,0.007174881175160408
0.006433165166527033,-7.085268589435145e-05,-0.011142362840473652,0.011606497690081596,0.0,0.007381288334727287
0.007044714875519276,-6.975440919632092e-05,-0.01218503899872303,0.012240590527653694,0.0,0.006697067990899086
0.007272230461239815,-6.868971831863746e-05,-0.011277339421212673,0.011806334368884563,0.0,0.006660809740424156
0.0070508611388504505,-6.765697617083788e-05,-0.011071735061705112,0.011761214584112167,0.0,0.006762418430298567
0.006949325557798147,-6.665487308055162e-05,-0.011316965334117413,0.011980210430920124,0.0,0.007166917901486158
0.00754855340346694,-7.863953214837238e-05,-0.011180317960679531,0.011134421452879906,0.0,0.007397624664008617
0.007026923820376396,-7.76821980252862e-05,-0.011825918219983578,0.01173944678157568,0.0,0.007287530694156885
0.006882837507873774,-7.551201997557655e-05,-0.01095837913453579,0.011515563353896141,0.0,0.007679162546992302
0.006924055516719818,-7.447068492183462e-05,-0.011939520947635174,0.011360385455191135,0.0,0.007820532657206059
0.007148481905460358,-7.34576751710847e-05,-0.011305310763418674,0.01110578328371048,0.0,0.0072431061416864395
0.007104479242116213,-7.247184112202376e-05,-0.011595381423830986,0.011833366006612778,0.0,0.007210152689367533
0.006607828661799431,-7.151212776079774e-05,-0.011294597759842873,0.011390062049031258,0.0,0.007462419103831053
0.006969972047954798,-7.057756010908633e-05,-0.01066525187343359,0.011727127246558666,0.0,0.007489461917430162
0.007496085949242115,-6.966702494537458e-05,-0.011393039487302303,0.011911529116332531,0.0,0.006630946882069111
0.007124523166567087,-6.877965643070638e-05,-0.011200935579836369,0.011669177561998367,0.0,0.006421495229005814
0.006760168354958296,-6.791472696932033e-05,-0.011573631316423416,0.012068137526512146,0.0,0.006915389094501734
0.006926422007381916,-6.707118882331997e-05,-0.010616746731102467,0.011714812368154526,0.0,0.0078111812472343445
0.007329428568482399,-7.713983359280974e-05,-0.011342300102114677,0.012172500602900982,0.0,0.007257726974785328
0.007269944995641708,-7.635106157977134e-05,-0.01229680422693491,0.0123814782127738,0.0,0.0065741343423724174
0.007057284936308861,-7.543886022176594e-05,-0.011838494800031185,0.011988255195319653,0.0,0.006327594164758921
0.006821500137448311,-7.454620936186984e-05,-0.011266187764704227,0.012441250495612621,0.0,0.007039253134280443
0.006821500137448311,-7.454620936186984e-05,-0.011266187764704227,0.012441250495612621,0.0,0.007039253134280443
0.007067892700433731,-7.117747736629099e-05,-0.011644942685961723,0.011509829200804234,0.0,0.006484106183052063
0.007067892700433731,-7.117747736629099e-05,-0.011644942685961723,0.011509829200804234,0.0,0.006484106183052063
0.007067892700433731,-7.117747736629099e-05,-0.011644942685961723,0.011509829200804234,0.0,0.006484106183052063
0.00729375658556819,-7.038235344225541e-05,-0.011301843449473381,0.012200660072267056,0.0,0.007132300175726414
0.007038717623800039,-6.960477185202762e-05,-0.011495820246636868,0.01170808169990778,0.0,0.006900997832417488
0.007284441031515598,-2.7363757908460684e-06,-0.011763228103518486,0.01198036503046751,0.0,0.006670568138360977
0.007465564180165529,-3.671197745802601e-08,-0.01157933846116066,0.011949012987315655,0.0,0.0068276613019406796
0.007122863084077835,-4.925380658882261e-10,-0.011432480067014694,0.01190642174333334,0.0,0.00725235790014267
0.007323009427636862,-6.60802662588722e-12,-0.01158366072922945,0.01183109451085329,0.0,0.007132616359740496
0.0073750633746385574,-8.865511000018603e-14,-0.011644209735095501,0.01149264071136713,0.0,0.006784753408282995
0.007427476346492767,-1.5957607726625937e-17,-0.011947497725486755,0.011633087880909443,0.0,0.007244286127388477
0.008001075126230717,-2.1409167454749596e-19,-0.011415429413318634,0.011556762270629406,0.0,0.0075182244181632996
0.007991485297679901,-2.872312985411322e-21,-0.011277874000370502,0.011665742844343185,0.0,0.007526436820626259
0.007131853140890598,-3.8535744779519696e-23,-0.012390757910907269,0.011628134176135063,0.0,0.0069329277612268925
0.007396732922643423,-5.170062238616887e-25,-0.011044042184948921,0.012121801264584064,0.0,0.007405312731862068
0.008029483258724213,-6.93629832446885e-27,-0.011116903275251389,0.01188632007688284,0.0,0.0071202898398041725
0.007154659368097782,-9.305928583527635e-29,-0.01173526979982853,0.01230667531490326,0.0,0.006853180471807718
0.007326081395149231,-1.248509006929263e-30,-0.011459561064839363,0.011969594284892082,0.0,0.006817292422056198
0.007957921363413334,-1.675034340326047e-32,-0.011593465693295002,0.011861682869493961,0.0,0.007222828455269337
0.007917137816548347,-2.247272217759884e-34,-0.011434854939579964,0.01210352685302496,0.0,0.007333023939281702
0.007648699451237917,-3.0150023867556755e-36,-0.011693772859871387,0.012009037658572197,0.0,0.007212198805063963
0.007650027051568031,-4.045010848155139e-38,-0.011664916761219501,0.012561602517962456,0.0,0.007063927128911018
0.007780253421515226,-5.4268926406985786e-40,-0.011736555024981499,0.012540680356323719,0.0,0.007168147712945938
0.007742407266050577,-7.28114682063175e-42,-0.011678708717226982,0.012387325055897236,0.0,0.007846563123166561
0.00765037490054965,-9.80908925027372e-44,-0.01130224484950304,0.012426827102899551,0.0,0.007745720446109772
0.006952682510018349,-1.401298464324817e-45,-0.011755235493183136,0.012386775575578213,0.0,0.0068581500090658665
0.006952682510018349,-1.401298464324817e-45,-0.011755235493183136,0.012386775575578213,0.0,0.0068581500090658665
0.00802476704120636,-0.0,-0.011607317253947258,0.012981953099370003,0.0,0.007208656053990126
0.007857668213546276,0.0,-0.011809277348220348,0.012120537459850311,0.0,0.007131348829716444
0.00813022069633007,0.0,-0.012517226859927177,0.01280748937278986,0.0,0.006891866214573383
0.007116429507732391,0.0,-0.011831454932689667,0.012049838900566101,0.0,0.006714667193591595
0.007446431089192629,0.0,-0.012068619020283222,0.011829408816993237,0.0,0.006846642587333918
0.008094391785562038,0.0,-0.011634399183094501,0.012015510350465775,0.0,0.007047486957162619
0.007616895250976086,0.0,-0.011935869231820107,0.01146906428039074,0.0,0.00679604010656476
0.007456143386662006,0.0,-0.01265694759786129,0.01190618984401226,0.0,0.007340394426137209
0.007952112704515457,0.0,-0.011916802264750004,0.011656099930405617,0.0,0.007122925017029047
0.007551461923867464,0.0,-0.01174852717667818,0.012107832357287407,0.0,0.007288389839231968
0.007496637757867575,0.0,-0.011807624250650406,0.011897684074938297,0.0,0.007202598731964827
0.008038069121539593,0.0,-0.012058200314640999,0.011814899742603302,0.0,0.0071427891962230206
0.007778169121593237,0.0,-0.011912251822650433,0.011438286863267422,0.0,0.007321003824472427
0.007394417654722929,0.0,-0.012726989574730396,0.011816117912530899,0.0,0.007064885925501585
0.007261666934937239,0.0,-0.011664848774671555,0.012122097425162792,0.0,0.00711045041680336
0.008035420440137386,0.0,-0.01186252199113369,0.011579765938222408,0.0,0.0072282529436051846
0.008350223302841187,0.0,-0.012074379250407219,0.012199576944112778,0.0,0.00742640346288681
0.007643501274287701,0.0,-0.011736378073692322,0.011457333341240883,0.0,0.007127657998353243
0.007659469731152058,0.0,-0.012287558056414127,0.011199766770005226,0.0,0.007099424488842487
0.0078005981631577015,0.0,-0.011906856670975685,0.011194873601198196,0.0,0.006942669861018658
0.007624723017215729,0.0,-0.012271909043192863,0.011608587577939034,0.0,0.007306972518563271
0.007678214926272631,0.0,-0.012028469704091549,0.011582091450691223,0.0,0.00803247932344675
0.007554411888122559,0.0,-0.011700943112373352,0.010968281887471676,0.0,0.007248360197991133
0.007761238608509302,0.0,-0.01204711478203535,0.010690141469240189,0.0,0.007091559935361147
0.008004922419786453,0.0,-0.011661199852824211,0.011182841844856739,0.0,0.006899133790284395
0.007393366191536188,0.0,-0.01230035349726677,0.011260134167969227,0.0,0.007899302989244461
0.007533481810241938,0.0,-0.012072766199707985,0.011856213212013245,0.0,0.007739685475826263
0.007533481810241938,0.0,-0.012072766199707985,0.011856213212013245,0.0,0.007739685475826263
0.00837349146604538,0.0,-0.011812726967036724,0.011464765295386314,0.0,0.007524676620960236
0.007786883972585201,0.0,-0.011847179383039474,0.011433866806328297,0.0,0.007591573521494865
0.008037814870476723,0.0,-0.011766385287046432,0.012238617986440659,0.0,0.007775220554322004
0.007851392962038517,0.0,-0.012118074111640453,0.011410197243094444,0.0,0.007001091726124287
0.007762028370052576,0.0,-0.011611594818532467,0.010592062026262283,0.0,0.007113249972462654
0.00829983688890934,0.0,-0.011791755445301533,0.010846322402358055,0.0,0.007246753200888634
0.0077144368551671505,0.0,-0.011615191586315632,0.011566048488020897,0.0,0.008031491190195084
0.007962174713611603,0.0,-0.011978219263255596,0.010937449522316456,0.0,0.0076206945814192295
0.008110142312943935,0.0,-0.011609028093516827,0.011356976814568043,0.0,0.007585512474179268
0.007756452541798353,0.0,-0.012200581841170788,0.011759866960346699,0.0,0.007560575380921364
0.007941797375679016,0.0,-0.01143015269190073,0.011099456809461117,0.0,0.007317832671105862
0.00809292122721672,0.0,-0.012334722094237804,0.011562734842300415,0.0,0.00792247336357832
0.007740118075162172,0.0,-0.012378365732729435,0.011816374026238918,0.0,0.00783418770879507
0.00882414449006319,0.0,-0.011131629347801208,0.011430091224610806,0.0,0.007776358164846897
0.008087724447250366,0.0,-0.01175413653254509,0.011486495845019817,0.0,0.007192941382527351
0.007841966114938259,0.0,-0.012040975503623486,0.011247865855693817,0.0,0.007139192428439856
0.007742426823824644,0.0,-0.011702483519911766,0.011436794884502888,0.0,0.007506472058594227
0.008046502247452736,0.0,-0.011635858565568924,0.01106873806566,0.0,0.007625687401741743
0.008375696837902069,0.0,-0.011384098790585995,0.011441499926149845,0.0,0.007492690812796354
0.00783032737672329,0.0,-0.012230094522237778,0.011391025967895985,0.0,0.007497420534491539
0.00812634825706482,0.0,-0.012392856180667877,0.011631290428340435,0.0,0.008041967637836933
0.00821643229573965,0.0,-0.011584307998418808,0.011738774366676807,0.0,0.008017015643417835
0.008196531794965267,0.0,-0.011668791994452477,0.011842767708003521,0.0,0.00789832603186369
0.008212516084313393,0.0,-0.011424600146710873,0.011668065562844276,0.0,0.007522099185734987
0.009618397802114487,0.0,-0.011996565386652946,0.012122892774641514,0.0,0.007315333001315594
0.007711490616202354,0.0,-0.011178139597177505,0.011386649683117867,0.0,0.007763957139104605
0.007711490616202354,0.0,-0.011178139597177505,0.011386649683117867,0.0,0.007763957139104605
0.008503980003297329,0.0,-0.01185730379074812,0.011666310019791126,0.0,0.00788626167923212
0.008503980003297329,0.0,-0.01185730379074812,0.011666310019791126,0.0,0.00788626167923212
0.009290502406656742,0.0,-0.011367904022336006,0.011177184991538525,0.0,0.00812753476202488
0.008229794912040234,0.0,-0.011900720186531544,0.01159093901515007,0.0,0.00776792922988534
0.008068299852311611,0.0,-0.011365633457899094,0.011336260475218296,0.0,0.007562665268778801
0.008276534266769886,0.0,-0.011909456923604012,0.011672579683363438,0.0,0.0078026470728218555
0.00879001896828413,0.0,-0.011937200091779232,0.011543499305844307,0.0,0.007905784994363785
0.00847412645816803,0.0,-0.01140664517879486,0.011228443123400211,0.0,0.00803231168538332
0.00882098451256752,0.0,-0.011981203220784664,0.011334851384162903,0.0,0.008302436210215092
0.008563196286559105,0.0,-0.011680719442665577,0.011370737105607986,0.0,0.008228718303143978
0.008159155026078224,0.0,-0.011765914037823677,0.011672024615108967,0.0,0.008355705998837948
0.009100079536437988,0.0,-0.011264103464782238,0.011429461650550365,0.0,0.00787131767719984
0.00839192420244217,0.0,-0.011575907468795776,0.01141332183033228,0.0,0.008572488091886044
0.008447501808404922,0.0,-0.011261137202382088,0.010974777862429619,0.0,0.008118880912661552
0.008672510273754597,0.0,-0.011263220570981503,0.011479015462100506,0.0,0.007641646079719067
0.008814468048512936,0.0,-0.011682366020977497,0.011346193961799145,0.0,0.007534468546509743
0.008739139884710312,0.0,-0.01132131926715374,0.010762899182736874,0.0,0.008090709336102009
0.009003818966448307,0.0,-0.012050607241690159,0.011424458585679531,0.0,0.008159559220075607
0.00886202696710825,0.0,-0.011483808979392052,0.010966842994093895,0.0,0.00762950349599123
0.008465459570288658,0.0,-0.011738196015357971,0.011678284034132957,0.0,0.00831020437180996
0.008465459570288658,0.0,-0.011738196015357971,0.011678284034132957,0.0,0.00831020437180996
0.008585724048316479,0.0,-0.011486472561955452,0.011031512171030045,0.0,0.00817871280014515
0.009444478899240494,0.0,-0.011808709241449833,0.011710680089890957,0.0,0.008919339627027512
0.00884969625622034,0.0,-0.011571337468922138,0.011614639312028885,0.0,0.008175590075552464
0.008368127048015594,0.0,-0.012004380114376545,0.011506965383887291,0.0,0.007396699395030737
0.008776274509727955,0.0,-0.011755525134503841,0.011793811805546284,0.0,0.008022514171898365
0.009005534462630749,0.0,-0.01140726450830698,0.01136140339076519,0.0,0.008407562971115112
0.009005534462630749,0.0,-0.01140726450830698,0.01136140339076519,0.0,0.008407562971115112
0.008856400847434998,0.0,-0.01147044263780117,0.01144468504935503,0.0,0.00863771140575409
0.008856400847434998,0.0,-0.01147044263780117,0.01144468504935503,0.0,0.00863771140575409
0.01003949623554945,0.0,-0.011907821521162987,0.011214264668524265,0.0,0.008556992746889591
0.008861697278916836,0.0,-0.012215206399559975,0.011796634644269943,0.0,0.008398630656301975
0.009263016283512115,0.0,-0.012242453172802925,0.011458692140877247,0.0,0.008405732922255993
0.008801314979791641,0.0,-0.012079856358468533,0.012111920863389969,0.0,0.008316820487380028
0.008652957156300545,0.0,-0.011477424763143063,0.011597099713981152,0.0,0.00838666781783104
0.009197795763611794,-2.0427029085112736e-05,-0.01222342997789383,0.011146734468638897,0.0,0.008268563076853752
0.009005406871438026,-2.740546847235237e-07,-0.012204507365822792,0.011553743854165077,0.0,0.007986100390553474
0.008550926111638546,-4.932887431863264e-11,-0.012240379117429256,0.011033440940082073,0.0,0.008749976754188538
0.009059892036020756,-6.618098538808959e-13,-0.011770393699407578,0.011214999482035637,0.0,0.008896677754819393
0.009197043254971504,-8.879022869593203e-15,-0.012866023927927017,0.010973390191793442,0.0,0.008816746063530445
0.008906915783882141,-1.191234314491742e-16,-0.011726894415915012,0.011897977441549301,0.0,0.008570760488510132
0.009336691349744797,-1.5981928697791374e-18,-0.012183059938251972,0.011584744788706303,0.0,0.008506939746439457
0.008869660086929798,-2.1441797791210253e-20,-0.012277466244995594,0.01133374497294426,0.0,0.008286737836897373
0.009510569274425507,-2.876690721673192e-22,-0.011935755610466003,0.011444123461842537,0.0,0.008310399018228054
0.008937644772231579,-3.8594479418217926e-24,-0.012466059066355228,0.011004098691046238,0.0,0.008690214715898037
0.009904715232551098,-5.177941849724397e-26,-0.012564217671751976,0.011520890519022942,0.0,0.009214123710989952
0.008933677338063717,-6.946869753933592e-28,-0.013045534491539001,0.010893113911151886,5.224439973972039e-07,0.00857103243470192
0.008417856879532337,-9.320112154788386e-30,-0.01234612986445427,0.010792295448482037,3.411186000334965e-08,0.007955134846270084
0.008807172998785973,-1.2504118971843742e-31,-0.012152155861258507,0.011692037805914879,2.2272608202200672e-09,0.008298869244754314
0.009204027242958546,-1.677587293650842e-33,-0.012326626107096672,0.01111439149826765,1.4542422821506307e-10,0.008262472227215767
0.009242124855518341,-2.250697308684874e-35,-0.012434404343366623,0.011208043433725834,9.495162468786678e-12,0.008132507093250751
0.008941843174397945,-3.019597973095398e-37,-0.012558095157146454,0.011729800142347813,6.199662636562076e-13,0.008347819559276104
0.009036364033818245,-4.0511762811384753e-39,-0.012241285294294357,0.011204815469682217,4.04793691242359e-14,0.008770961314439774
0.008945749141275883,-5.435216353576668e-41,-0.011929887346923351,0.01130642369389534,2.6430136342183016e-15,0.008370056748390198
0.010091378353536129,-7.286752014489049e-43,-0.011984124779701233,0.010619320906698704,1.7256990016683026e-16,0.008265094831585884
0.00917004607617855,-9.80908925027372e-45,-0.012951686978340149,0.01064836885780096,1.1267580507414588e-17,0.008786979131400585
0.009024495258927345,-0.0,-0.010764454491436481,0.011122236028313637,7.35692472250708e-19,0.008568794466555119
0.008986534550786018,0.0,-0.011600831523537636,0.01021900586783886,4.803546384550829e-20,0.008564294315874577
0.009435185231268406,0.0,-0.012534791603684425,0.010683843865990639,3.13637222061362e-21,0.00872065406292677
0.009435185231268406,0.0,-0.012534791603684425,0.010683843865990639,3.13637222061362e-21,0.00872065406292677
0.008807124570012093,0.0,-0.011810090392827988,0.011709781363606453,2.0478268692750397e-22,0.00908758956938982
0.008795593865215778,0.0,-0.012340426445007324,0.011022694408893585,1.3370848400141474e-23,0.008464397862553596
0.009019782766699791,0.0,-0.012280839495360851,0.011268469505012035,8.730208267173549e-25,0.008372489362955093
0.00918949581682682,0.0,-0.012025268748402596,0.011141069233417511,5.700202897942892e-26,0.008547216653823853
0.009378397837281227,0.0,-0.012964125722646713,0.011700525879859924,3.721824950789334e-27,0.008471127599477768
0.009623805060982704,0.0,-0.01178149227052927,0.011654268018901348,2.4300856814955866e-28,0.00857420451939106
0.00879290234297514,0.0,-0.01261710561811924,0.010987961664795876,1.0359835779616123e-30,0.008689390495419502
0.009642121382057667,0.0,-0.012642075307667255,0.010891561396420002,6.764231778529948e-32,0.008342727087438107
0.009663563221693039,0.0,-0.012869995087385178,0.01084163598716259,4.416560028069806e-33,0.008529786951839924
0.00900094211101532,0.0,-0.011955121532082558,0.011040045879781246,2.883697945853273e-34,0.008938143961131573
0.009216593578457832,0.0,-0.012362123467028141,0.011060369201004505,1.8828489373873755e-35,0.009192325174808502
0.009229237213730812,0.0,-0.01162368431687355,0.011116785928606987,1.2293659138263416e-36,0.009168841876089573
0.009119223803281784,0.0,-0.012188130989670753,0.011072182096540928,8.026880308546573e-38,0.00903442595154047
0.009632025845348835,0.0,-0.01203547976911068,0.010901200585067272,5.2409795708396764e-39,0.00892775971442461
0.009951990097761154,0.0,-0.012811155989766121,0.011438325047492981,3.4219848628658465e-40,0.008811761625111103
0.009419097565114498,0.0,-0.012262722477316856,0.011404337361454964,2.2343704013659208e-41,0.009030948393046856
0.00935122650116682,0.0,-0.011510780081152916,0.011934692040085793,1.4587517013621346e-42,0.009086798876523972
0.009672910906374454,0.0,-0.012399623170495033,0.011490526609122753,9.528829557408756e-44,0.008989734575152397
0.009287020191550255,0.0,-0.012336376123130322,0.010928813368082047,5.605193857299268e-45,0.009014226496219635
0.010259783826768398,0.0,-0.012920618057250977,0.010985092259943485,0.0,0.009057138115167618
0.009383907541632652,0.0,-0.012009523808956146,0.011070013046264648,0.0,0.009071068838238716
0.009600846096873283,0.0,-0.011519459076225758,0.0109776072204113,0.0,0.009049546904861927
0.009368727914988995,0.0,-0.011939136311411858,0.011347413994371891,0.0,0.0092180659994483
0.009563303552567959,0.0,-0.011799091473221779,0.01126454584300518,0.0,0.009077435359358788
0.009689885191619396,0.0,-0.012466858141124249,0.01143362745642662,0.0,0.009102972224354744
0.009318719618022442,0.0,-0.012532562017440796,0.011544093489646912,0.0,0.00926052127033472
0.00981270894408226,0.0,-0.012147573754191399,0.01119070965796709,0.0,0.009040429256856441
0.009679251350462437,0.0,-0.011932634748518467,0.01193038746714592,0.0,0.009058070369064808
0.009679251350462437,0.0,-0.011932634748518467,0.01193038746714592,0.0,0.009058070369064808
0.009328106418251991,0.0,-0.011774009093642235,0.011784020811319351,0.0,0.009851997718214989
0.0096772825345397,0.0,-0.012118569575250149,0.012097200378775597,0.0,0.00874076783657074
0.009657399728894234,0.0,-0.011616631411015987,0.011790037155151367,0.0,0.00838642381131649
0.009608101099729538,0.0,-0.011752917431294918,0.011269785463809967,0.0,0.008962549269199371
0.009718025103211403,0.0,-0.012400348670780659,0.011563696898519993,0.0,0.009833494201302528
0.010570731945335865,0.0,-0.0115390969440341,0.011300770565867424,0.0,0.009329685010015965
0.01004224456846714,0.0,-0.010891053825616837,0.011212637647986412,0.0,0.009368564933538437
0.009803486056625843,0.0,-0.011636843904852867,0.01064628642052412,0.0,0.00919641274958849
0.010084029287099838,0.0,-0.011927353218197823,0.01156574860215187,0.0,0.009369897656142712
0.009405233897268772,0.0,-0.011764224618673325,0.0112117575481534,0.0,0.009727821685373783
0.009728100150823593,0.0,-0.011795411817729473,0.011294917203485966,0.0,0.009892274625599384
0.009602340869605541,0.0,-0.011426021344959736,0.011590308509767056,0.0,0.009652695618569851
0.010222694836556911,0.0,-0.011439235880970955,0.011193783022463322,-6.138045864645392e-05,0.009600131772458553
0.00962311401963234,0.0,-0.011674236506223679,0.011210397817194462,-7.847641245462e-05,0.010095372796058655
0.00949097704142332,0.0,-0.011869695037603378,0.011043756268918514,-7.829712558304891e-05,0.009336902759969234
0.010163788683712482,0.0,-0.012180761434137821,0.01099784392863512,-7.703425217187032e-05,0.00964004173874855
0.009744309820234776,0.0,-0.011998188681900501,0.011808404698967934,-7.574271876364946e-05,0.009566058404743671
0.010094954632222652,0.00021072541130706668,-0.012335012666881084,0.011410385370254517,-7.448928226949647e-05,0.00947941467165947
0.01000563707202673,0.0002069106267299503,-0.011730309575796127,0.011784258298575878,-7.327631465159357e-05,0.010353857651352882
0.009811625815927982,0.0001978899963432923,-0.011725160293281078,0.011824201792478561,-8.463729318464175e-05,0.010124732740223408
0.010035457089543343,0.00018955531413666904,-0.012308178469538689,0.011465117335319519,-8.503508433932438e-05,0.009915356524288654
0.010557291097939014,0.000181892653927207,-0.011815235018730164,0.011120659299194813,-8.382803207496181e-05,0.01006550993770361
0.01092191506177187,0.00020837108604609966,-0.012373429723083973,0.010729179717600346,-8.255387365352362e-05,0.010249605402350426
0.011487257666885853,0.0002019255916820839,-0.012018399313092232,0.011553381569683552,-9.137402958003804e-05,0.009454168379306793
0.011485211551189423,0.00019466489902697504,-0.012075391598045826,0.011887481436133385,-9.322819096269086e-05,0.009991902858018875
0.011092092841863632,0.00018789179739542305,-0.012460758909583092,0.010675961151719093,-9.207506809616461e-05,0.010249580256640911
0.011921227909624577,0.00018157355953007936,-0.0120697608217597,0.011038572527468204,-9.076220158021897e-05,0.009896349161863327
0.011921227909624577,0.00018157355953007936,-0.0120697608217597,0.011038572527468204,-9.076220158021897e-05,0.009896349161863327
0.012035026215016842,0.00017566663154866546,-0.012394234538078308,0.011516573838889599,-9.577148011885583e-05,0.010050667449831963
0.012788333930075169,0.0001701323053566739,-0.012075604870915413,0.011447976343333721,-0.0001004008372547105,0.009915950708091259
0.011070119217038155,0.00018299593648407608,-0.012402438558638096,0.01133923139423132,-9.940417658071965e-05,0.009762171655893326
0.0107773058116436,0.0001865953963715583,-0.01200884860008955,0.0106497248634696,-9.807563765207306e-05,0.010483583435416222
0.011517666280269623,0.00018134545825887471,-0.012872535735368729,0.01099650003015995,-9.675927140051499e-05,0.010271347127854824
0.011585271917283535,0.00017627314082346857,-0.012343320064246655,0.011126622557640076,-0.000186805467819795,0.010255565866827965
0.012115306220948696,0.0001826072984840721,-0.01321230549365282,0.011463375762104988,-0.00020010813022963703,0.010037888772785664
0.011246773414313793,0.0001857449533417821,-0.012938390485942364,0.010941562242805958,-0.00019170624727848917,0.01055444497615099
0.011598341166973114,0.00018117624858859926,-0.012722933664917946,0.011033359915018082,-0.00018387901945970953,0.010639136657118797
0.011447703465819359,0.0001767305366229266,-0.012158289551734924,0.011418545618653297,-0.00017665940686129034,0.009904615581035614
0.011389980092644691,0.0002055796649074182,-0.012661930173635483,0.011290007270872593,-0.000169984923559241,0.010188799351453781
0.012256105430424213,0.00019796533160842955,-0.012998024933040142,0.011614962480962276,-0.00016379693988710642,0.010004249401390553
0.011484543792903423,0.0001896458416013047,-0.011955121532082558,0.011209401302039623,-0.00018545841157902032,0.010008337907493114
0.011646393686532974,0.00021786238357890397,-0.01260393112897873,0.01102965697646141,-0.00018294273468200117,0.010580816306173801
0.011799764819443226,0.00020987624884583056,-0.012608030810952187,0.011402854695916176,-0.00017718548770062625,0.010421146638691425
0.011344745755195618,0.0002352335286559537,-0.012624785304069519,0.011335602961480618,-0.00017157127149403095,0.010168777778744698
0.01170903816819191,0.00024849968031048775,-0.012435111217200756,0.012054018676280975,-0.00016628840239718556,0.010082011111080647
0.011476409621536732,0.0002504716976545751,-0.012587332166731358,0.011736475862562656,-0.00018123215704690665,0.01046721264719963
0.011879613623023033,0.00024223355285357684,-0.01188325509428978,0.012056740000844002,-0.00018229169654659927,0.010015756823122501
0.011887788772583008,0.00045823867549188435,-0.012808384373784065,0.01189698837697506,-0.00017756552551873028,0.010098865255713463
0.01182261761277914,0.0004188308957964182,-0.012859737500548363,0.010884306393563747,-0.00017272355034947395,0.010572287254035473
0.01168942078948021,0.0004505591932684183,-0.011806219816207886,0.011552666313946247,-0.00016811586101539433,0.00998544692993164
0.011469721794128418,0.0004236185341142118,-0.012379316613078117,0.012011797167360783,-0.0001752353273332119,0.009959091432392597
0.011798396706581116,0.0004356614372227341,-0.012534777633845806,0.011682416312396526,-0.0001816202566260472,0.01009300909936428
0.012101990170776844,0.00042698465404100716,-0.012582588940858841,0.011208425275981426,-0.00017783996008802205,0.011368955485522747
0.012101990170776844,0.00042698465404100716,-0.012582588940858841,0.011208425275981426,-0.00017783996008802205,0.011368955485522747
0.011788486503064632,0.0004298993735574186,-0.01212344504892826,0.01131515670567751,-0.00016951373254414648,0.010044081136584282
0.011788486503064632,0.0004298993735574186,-0.01212344504892826,0.01131515670567751,-0.00016951373254414648,0.010044081136584282
0.011449907906353474,0.0004935099859721959,-0.012147038243710995,0.011207769624888897,-0.00016561459051445127,0.010573582723736763
0.011782962828874588,0.0005356493638828397,-0.012021909467875957,0.011128748767077923,-0.00017318474419880658,0.010282193310558796
0.0116190854460001,0.0004964811960235238,-0.012680632062256336,0.011492198333144188,-0.00017732306150719523,0.009950811043381691
0.011590083129703999,0.0005294750444591045,-0.012297079898416996,0.011574194766581059,-0.00018806656589731574,0.01042898092418909
0.011865377426147461,0.00055082788458094,-0.012590007856488228,0.011770420707762241,-0.00019692161004059017,0.01078785303980112
0.012258327566087246,0.0006911294185556471,-0.012121711857616901,0.011149265803396702,-0.00019959613564424217,0.010848550125956535
0.012258327566087246,0.0006911294185556471,-0.012121711857616901,0.011149265803396702,-0.00019959613564424217,0.010848550125956535
0.012050499208271503,0.000636958226095885,-0.012105698697268963,0.010889824479818344,-0.000201442715479061,0.010537209920585155
0.012476347386837006,0.0006316317594610155,-0.01253022812306881,0.011750702746212482,-0.00019525874813552946,0.010739654302597046
0.011495118029415607,0.0006009134231135249,-0.01217767782509327,0.011362106539309025,-0.00018939228903036565,0.010669859126210213
0.011771046556532383,0.0006262016831897199,-0.012406844645738602,0.011625602841377258,-0.00018386458395980299,0.010686268098652363
0.011563613079488277,0.0006463546887971461,-0.012916314415633678,0.0119678545743227,-0.00017865028348751366,0.010419203899800777
0.011971875093877316,0.0007540752994827926,-0.01208826620131731,0.011398160830140114,-0.00017372355796396732,0.010550012812018394
0.011935997754335403,0.0007945226388983428,-0.012610272504389286,0.011976886540651321,-0.00016906131349969655,0.011197129264473915
0.011829848401248455,0.0010203539859503508,-0.012452654540538788,0.012113035656511784,-0.0001820734905777499,0.010866373777389526
0.012189450673758984,0.0011268587550148368,-0.012689798139035702,0.011666923761367798,-0.00018297313363291323,0.010564098134636879
0.011772017925977707,0.0010762655874714255,-0.012394031509757042,0.01180068776011467,-0.0001787905493983999,0.010914823040366173
0.012222891673445702,0.0009333316702395678,-0.012614930979907513,0.011316701769828796,-0.00017448118887841702,0.011065206490457058
0.012557093054056168,0.0009240593644790351,-0.012715532444417477,0.011467290110886097,-0.0001703542802715674,0.011153176426887512
0.012364450842142105,0.000837658008094877,-0.012177333235740662,0.011839788407087326,-0.00019941784557886422,0.011284937150776386
0.01232514064759016,0.0008394257165491581,-0.012684252113103867,0.011980877257883549,-0.0002209464873885736,0.011004115454852581
0.012037898413836956,0.0008575773099437356,-0.012462890706956387,0.012654733844101429,-0.00021255691535770893,0.010708293877542019
0.011953438632190228,0.0008646434871479869,-0.01251689251512289,0.011437547393143177,-0.00020309533283580095,0.010640399530529976
0.0118982819840312,0.0012338741216808558,-0.012439056299626827,0.011654481291770935,-0.00019433136912994087,0.010638166218996048
0.012112348340451717,0.0011895038187503815,-0.01237373985350132,0.011776931583881378,-0.00020450983720365912,0.010976428166031837
0.012147382833063602,0.0011475268984213471,-0.012530680745840073,0.011657290160655975,-0.00021341224783100188,0.011050056666135788
0.012147382833063602,0.0011475268984213471,-0.012530680745840073,0.011657290160655975,-0.00021341224783100188,0.011050056666135788
0.01220664568245411,0.0011466133873909712,-0.012390521354973316,0.011516573838889599,-0.00020636590488720685,0.011011692695319653
0.01259672362357378,0.0010812507243826985,-0.012898323126137257,0.011587182991206646,-0.0001988381118280813,0.01147422008216381
0.012194298207759857,0.0009168077376671135,-0.012415423057973385,0.011612709611654282,-0.0001917801273521036,0.011634226888418198
0.01258916687220335,0.0009123922209255397,-0.013175996951758862,0.011709191836416721,-0.0002080438134726137,0.01193303894251585
0.011675606481730938,0.0009166369563899934,-0.01251633558422327,0.011648906394839287,-0.00020837942429352552,0.011340592056512833
0.012269475497305393,0.0009134329156950116,-0.01259246189147234,0.01201480533927679,-0.00020216386474203318,0.011244958266615868
0.012730713933706284,0.001007921528071165,-0.012588988058269024,0.011630169115960598,-0.00019590751617215574,0.011528057977557182
0.013524999842047691,0.0015633474104106426,-0.01281539723277092,0.011634021997451782,-0.0001844377547968179,0.011689230799674988
0.012542922981083393,0.0014490591129288077,-0.012337706051766872,0.011675228364765644,-0.00019815431733150035,0.011681984178721905
0.01242715772241354,0.0013297913828864694,-0.013068312779068947,0.011687448248267174,-0.00019869259267579764,0.011566516011953354
0.012457067146897316,0.0013684486038982868,-0.01302278507500887,0.011285198852419853,-0.00019374933617655188,0.011951332911849022
0.012835411354899406,0.0013216183288022876,-0.01287700142711401,0.012004692107439041,-0.00023078788944985718,0.012104369699954987
0.012789079919457436,0.0012205003295093775,-0.012719957157969475,0.011861581355333328,-0.00022245013678912073,0.0121090617030859
0.01297750324010849,0.0013354190159589052,-0.01288587786257267,0.01214855257421732,-0.00021216047753114253,0.011532959528267384
0.013188705779612064,0.0012836804380640388,-0.01280785072594881,0.01185688842087984,-0.00024037134426180273,0.011508923023939133
0.013082661665976048,0.0015478584682568908,-0.012718351557850838,0.01157744787633419,-0.00023248347861226648,0.01326034776866436
0.013525374233722687,0.001606744364835322,-0.013142483308911324,0.012219758704304695,-0.00024122519243974239,0.012038090266287327
0.013482636772096157,0.0017137136310338974,-0.012711448594927788,0.011764814145863056,-0.0002486623707227409,0.011453131213784218
0.013589635491371155,0.0017377689946442842,-0.012885591946542263,0.011322833597660065,-0.00024028585175983608,0.011559883132576942
0.012996634468436241,0.0016016530571505427,-0.012243060395121574,0.011462259106338024,-0.0002559911517892033,0.012076059356331825
0.013244743458926678,0.0016378709115087986,-0.01325252465903759,0.011149215511977673,-0.000254663493251428,0.012606862001121044
0.01300007849931717,0.0015887233894318342,-0.012668699026107788,0.011664099991321564,-0.00024645047960802913,0.012501166202127934
0.013698533177375793,0.0018817107193171978,-0.013112175278365612,0.011112540028989315,-0.0003622165822889656,0.012398228980600834
0.013516979292035103,0.0019527773838490248,-0.01297302171587944,0.011527190916240215,-0.0003519374004099518,0.012170708738267422
0.013636515475809574,0.002007939387112856,-0.0127132348716259,0.012038486078381538,-0.0003274930641055107,0.012529125437140465
0.013264162465929985,0.0018118522129952908,-0.013073342852294445,0.011334201321005821,-0.0003580892807804048,0.012261305935680866
0.01356172002851963,0.0018882456934079528,-0.013048581779003143,0.011603822000324726,-0.0003425695758778602,0.012185349129140377
0.01356172002851963,0.0018882456934079528,-0.013048581779003143,0.011603822000324726,-0.0003425695758778602,0.012185349129140377
0.0136328786611557,0.0017808749107643962,-0.0135432044044137,0.011773329228162766,-0.00032256857957690954,0.012272759340703487
0.013926006853580475,0.0020106607116758823,-0.012886960059404373,0.011259411461651325,-0.0003044079930987209,0.01198201347142458
0.01379630621522665,0.0022950819693505764,-0.013650544919073582,0.01157422736287117,-0.00028815941186621785,0.01214567944407463
0.013971532694995403,0.002308021765202284,-0.013108659535646439,0.011528626084327698,-0.0002735561865847558,0.012093865312635899
0.013983695767819881,0.0025094328448176384,-0.01368789654225111,0.011890512891113758,-0.0003007792111020535,0.012168540619313717
0.013952613808214664,0.0023046343121677637,-0.013355348259210587,0.011832931078970432,-0.000289586721919477,0.012043648399412632
0.01418678555637598,0.0023975938092917204,-0.013936346396803856,0.011038723401725292,-0.0002770222199615091,0.01263532042503357
0.014209888875484467,0.0023157272953540087,-0.01358233205974102,0.011602087877690792,-0.00029821385396644473,0.01288644876331091
0.01451579574495554,0.002254708204418421,-0.013601060025393963,0.011599156074225903,-0.0002906816662289202,0.01215401291847229
0.014541552402079105,0.0025980088394135237,-0.013909581117331982,0.012179550714790821,-0.0002849749580491334,0.012160527519881725
0.01425537932664156,0.0024381133262068033,-0.013606850057840347,0.012145568616688251,-0.0002693773421924561,0.012166677042841911
0.014394871890544891,0.002347745466977358,-0.013864315114915371,0.011942488141357899,-0.00030157912988215685,0.012254462577402592
0.014356137253344059,0.0024716940242797136,-0.013984357938170433,0.011813654564321041,-0.0002885526919271797,0.012330964207649231
0.014658991247415543,0.00231539155356586,-0.013630779460072517,0.012514273636043072,-0.00031365343602374196,0.012557392939925194
0.014288417063653469,0.0025897438172250986,-0.014101069420576096,0.011648640967905521,-0.00030394847271963954,0.012639893218874931
0.014505453407764435,0.0027922536246478558,-0.013876602984964848,0.011591833084821701,-0.0002902944979723543,0.012879617512226105
0.014541917480528355,0.0026143116410821676,-0.01383037120103836,0.011551329866051674,-0.00030681316275149584,0.012771557085216045
0.014687960967421532,0.002553453203290701,-0.013087312690913677,0.011473685503005981,-0.0003031128435395658,0.012939001433551311
0.014222880825400352,0.0025514676235616207,-0.013640757650136948,0.012263099662959576,-0.0002914442156907171,0.012532507069408894
0.014958656392991543,0.002462137956172228,-0.013232124969363213,0.011653912253677845,-0.0003436107363086194,0.012924718670547009
0.014644414186477661,0.0027793326880782843,-0.01411720272153616,0.011671830900013447,-0.0003751337935682386,0.012849876657128334
0.014591330662369728,0.0029221135191619396,-0.013455747626721859,0.012110348790884018,-0.00034989725099876523,0.01226317323744297
0.014635814353823662,0.002963133854791522,-0.01377912051975727,0.011896945536136627,-0.0003809797635767609,0.013196966610848904
0.015151329338550568,0.0027141859754920006,-0.012650206685066223,0.012293295934796333,-0.00036302488297224045,0.013128108344972134
0.014990953728556633,0.0026474304031580687,-0.013061761856079102,0.012334410101175308,-0.000368226581485942,0.013138647191226482
0.014544830657541752,0.002709009451791644,-0.014124796725809574,0.011931411921977997,-0.0003719283267855644,0.012670684605836868
0.014630381017923355,0.0026133889332413673,-0.014158600941300392,0.011592057533562183,-0.00037732376949861646,0.014285675249993801
0.014630381017923355,0.0026133889332413673,-0.014158600941300392,0.011592057533562183,-0.00037732376949861646,0.014285675249993801
0.014719651080667973,0.002871731761842966,-0.014169971458613873,0.011807526461780071,-0.00038020298234187067,0.01262638345360756
0.014874693937599659,0.0029211342334747314,-0.01405995525419712,0.01247394923120737,-0.00036254548467695713,0.012083341367542744
0.015207585878670216,0.0029184510931372643,-0.013655086979269981,0.012002934701740742,-0.0003453780082054436,0.01260211318731308
0.015252054668962955,0.0028353137895464897,-0.013787352479994297,0.012816173955798149,-0.000397317111492157,0.013038881123065948
0.015028953552246094,0.0029932898469269276,-0.013742093928158283,0.012030647136271,-0.00037003844045102596,0.013186446391046047
0.0151915168389678,0.003209381364285946,-0.0132190166041255,0.012107804417610168,-0.00037539913319051266,0.013072642497718334
0.015408340841531754,0.003180705476552248,-0.01369769312441349,0.012554282322525978,-0.000379351171432063,0.013668281957507133
0.01580221578478813,0.002724187448620796,-0.013865428045392036,0.012183035723865032,-0.00035629767808131874,0.013442512601613998
0.015441990457475185,0.0027661840431392193,-0.014132281765341759,0.013324934989213943,-0.0003343544667586684,0.013456115499138832
0.015804318711161613,0.0030458346009254456,-0.013669542968273163,0.01229432038962841,-0.00035352178383618593,0.013117927126586437
0.015471220947802067,0.0031149794813245535,-0.013944117352366447,0.014022327028214931,-0.00034618782228790224,0.013318569399416447
0.016045227646827698,0.0029956260696053505,-0.014090691693127155,0.011700429953634739,-0.0003126254887320101,0.01385440118610859
0.0159990806132555,0.002981331665068865,-0.013638308271765709,0.012128806672990322,-0.0003374775405973196,0.013839310966432095
0.01634020358324051,0.0031568934209644794,-0.014077112078666687,0.012654729187488556,-0.0003248330031055957,0.013672039844095707
0.015824932605028152,0.0031405221670866013,-0.013386789709329605,0.013256398029625416,-0.0003109696845058352,0.013681928627192974
0.01649240031838417,0.0035561525728553534,-0.014004741795361042,0.012314725667238235,-0.00029810232808813453,0.013779210858047009
0.015944818034768105,0.003342880168929696,-0.013523167930543423,0.012523405253887177,-0.0003018139104824513,0.01364587526768446
0.016217608004808426,0.0034296235535293818,-0.014267165213823318,0.012190205045044422,-0.00028550572460517287,0.013540520332753658
0.015916282311081886,0.003110090969130397,-0.013684025034308434,0.012393670156598091,-0.0003082171024288982,0.013837656006217003
0.01663157157599926,0.0031611057929694653,-0.01440692413598299,0.01229779701679945,-0.00030329046421684325,0.013877520337700844
0.01668708212673664,0.0032578606624156237,-0.013663778081536293,0.011977006681263447,-0.0002879244857467711,0.014007568359375
0.01652022823691368,0.0031147301197052,-0.014025092124938965,0.012641840614378452,-0.0002733946603257209,0.013778452761471272
0.01628798618912697,0.0025127448607236147,-0.013736800290644169,0.012127031572163105,-0.0002977766271214932,0.01409516017884016
0.015757637098431587,0.00186511583160609,-0.014669248834252357,0.012599902227520943,-0.0002892499614972621,0.013637636788189411
0.016805673018097878,0.0014804149977862835,-0.013989093713462353,0.012181954458355904,-0.00030609240639023483,0.014177190139889717
0.01707061380147934,0.0012274942127987742,-0.014263540506362915,0.012250552885234356,-0.0003024504112545401,0.01395367830991745
0.01751876436173916,0.0008268239907920361,-0.013968572951853275,0.012499379925429821,-0.00029083353001624346,0.014287722297012806
0.017059843987226486,0.0008932220516726375,-0.014261623844504356,0.012365463189780712,-0.0002795781765598804,0.014249787665903568
0.01659208908677101,0.0009453506208956242,-0.013863535597920418,0.012900980189442635,-0.00027007542666979134,0.014343788847327232
0.01659208908677101,0.0009453506208956242,-0.013863535597920418,0.012900980189442635,-0.00027007542666979134,0.014343788847327232
0.017413439229130745,0.0017157919937744737,-0.013892367482185364,0.011865043081343174,-0.0003241166996303946,0.014329268597066402
0.01587364450097084,0.0016235974617302418,-0.01388500351458788,0.012233229354023933,-0.0003520062891766429,0.01437738724052906
0.017107149586081505,0.0016882617492228746,-0.014298766851425171,0.012101282365620136,-0.0003439739521127194,0.014122107066214085
0.01730334386229515,0.0014950752956792712,-0.014477490447461605,0.011914830654859543,-0.0003242521488573402,0.01440004538744688
0.017222516238689423,0.0012604258954524994,-0.014478340744972229,0.011925581842660904,-0.0003059362934436649,0.015306763350963593
0.017731772735714912,0.0011940383119508624,-0.014043680392205715,0.011853444389998913,-0.00033445507870055735,0.014543337747454643
0.017200589179992676,0.0009519454906694591,-0.01386764831840992,0.01237890962511301,-0.0003203730739187449,0.013924429193139076
0.017887011170387268,0.0008954722434282303,-0.013987059704959393,0.012041925452649593,-0.00033721423824317753,0.014468288980424404
0.017524871975183487,0.0009060333832167089,-0.01416794117540121,0.012392451986670494,-0.00033178896410390735,0.01449181791394949
0.017539361491799355,0.0012310334714129567,-0.014977688901126385,0.012048905715346336,-0.00038138680974952877,0.014971056953072548
0.017700491473078728,0.0013965461403131485,-0.01478925347328186,0.012426085770130157,-0.0003770861367229372,0.014885387383401394
0.018051093444228172,0.0013714163796976209,-0.015194280073046684,0.01212102361023426,-0.0003481473249848932,0.014620303176343441
0.017941618338227272,0.0012686114059761167,-0.014676644466817379,0.01274277176707983,-0.0003231448063161224,0.015164528973400593
0.017685089260339737,0.0013081630459055305,-0.014500523917376995,0.012086991220712662,-0.00030148238874971867,0.015054887160658836
0.018212903290987015,0.0011810192372649908,-0.014413281343877316,0.012057123705744743,-0.00028254190692678094,0.015068565495312214
0.018208524212241173,0.0012596945744007826,-0.015006315894424915,0.011942148208618164,-0.000315320969093591,0.01507415622472763
0.01820104755461216,0.0012396224774420261,-0.01498950831592083,0.011542201973497868,-0.00030096774571575224,0.015420318581163883
0.01865232177078724,0.0018494128016754985,-0.015338746830821037,0.012283124960958958,-0.0002852734469342977,0.015179083682596684
0.018142737448215485,0.0017253865953534842,-0.01459956169128418,0.01270473562180996,-0.00027096737176179886,0.015038707293570042
0.01809980906546116,0.0018467888003215194,-0.014755204319953918,0.013215369544923306,-0.0002580170112196356,0.015264100395143032
0.018208112567663193,0.0017814182210713625,-0.013834353536367416,0.013039064593613148,-0.00024624785874038935,0.015400109812617302
0.018262077122926712,0.0015351737383753061,-0.014800554141402245,0.013146502897143364,-0.00023550559126306325,0.015661168843507767
0.018576208502054214,0.0015853793593123555,-0.014549307525157928,0.012848308309912682,-0.00024405730073340237,0.01532709039747715
0.01864113286137581,0.0016958547057583928,-0.015537561848759651,0.01274911593645811,-0.00025145543622784317,0.01533307135105133
0.018056442961096764,0.001988915493711829,-0.015185439959168434,0.012657222338020802,-0.00024288022541441023,0.015190497040748596
0.018627168610692024,0.0021335165947675705,-0.01516230870038271,0.012455468066036701,-0.00023393312585540116,0.015558884479105473
0.018629129976034164,0.0020672203972935677,-0.014438621699810028,0.01244249939918518,-0.00022556127805728465,0.015340042300522327
0.0186883807182312,0.0020300864707678556,-0.01503960695117712,0.012291591614484787,-0.00021776357607450336,0.015409216284751892
0.0186883807182312,0.0020300864707678556,-0.01503960695117712,0.012291591614484787,-0.00021776357607450336,0.015409216284751892
0.01894632913172245,0.001978258602321148,-0.013931173831224442,0.012636978179216385,-0.00021048712369520217,0.014950066804885864
0.01843702606856823,0.0019733004737645388,-0.014953742735087872,0.012487931177020073,-0.0002308151888428256,0.015158348716795444
0.018877346068620682,0.0019400444580242038,-0.014454829506576061,0.012568914331495762,-0.0002253594866488129,0.015355025418102741
0.018828513100743294,0.0019879869651049376,-0.015501265414059162,0.012065433897078037,-0.0002186314668506384,0.015569177456200123
0.019022395834326744,0.001954553183168173,-0.015403143130242825,0.011919219046831131,-0.00019925883680116385,0.015910830348730087
0.019029440358281136,0.0019821624737232924,-0.015779929235577583,0.012487123720347881,-0.00017963157733902335,0.016038186848163605
0.01896713674068451,0.002315347548574209,-0.015383247286081314,0.012937354855239391,-0.0001901194773381576,0.016854682937264442
0.01905621774494648,0.002247848315164447,-0.01513330452144146,0.01284701656550169,-0.00019112029985990375,0.015976732596755028
0.019116785377264023,0.0023800514172762632,-0.015333948656916618,0.012688198126852512,-0.00020790506096091121,0.015745578333735466
0.019062763080000877,0.0022754829842597246,-0.01597459986805916,0.012731622904539108,-0.00020827857952099293,0.016090650111436844
0.01935199648141861,0.0022224783897399902,-0.015650033950805664,0.012597608380019665,-0.00020207097986713052,0.016439542174339294
0.019879180938005447,0.0023648706264793873,-0.015887683257460594,0.012948520481586456,-0.00022009512758813798,0.016636211425065994
0.01953434944152832,0.002549909520894289,-0.015309024602174759,0.012829657644033432,-0.00021709487191401422,0.01731150969862938
0.019328325986862183,0.0024555863346904516,-0.015786292031407356,0.013412355445325375,-0.0004290871147532016,0.016976432874798775
0.019056547433137894,0.002575306687504053,-0.015242229215800762,0.013349662534892559,-0.000481185968965292,0.017247535288333893
0.019012203440070152,0.0027310361620038748,-0.015895919874310493,0.013299866579473019,-0.0004833298735320568,0.016545146703720093
0.019504215568304062,0.0025283009745180607,-0.01563979871571064,0.012933334335684776,-0.0004797486762981862,0.016090793535113335
0.019886672496795654,0.0024992339313030243,-0.01559714786708355,0.013275975361466408,-0.0004948442801833153,0.01598089002072811
0.019578855484724045,0.0026625299360603094,-0.015184937976300716,0.013258114457130432,-0.00047684350283816457,0.01646193116903305
0.01909794844686985,0.0026504523120820522,-0.015494752675294876,0.012998380698263645,-0.0006258647190406919,0.017306318506598473
0.019819028675556183,0.0029525328427553177,-0.015686707571148872,0.012993923388421535,-0.0006801551207900047,0.01751578040421009
0.0197380930185318,0.0028170410078018904,-0.015506851486861706,0.012087101116776466,-0.0006994454306550324,0.017199818044900894
0.019822005182504654,0.002748859580606222,-0.015714583918452263,0.01258604135364294,-0.0006406800239346921,0.017140749841928482
0.01970864273607731,0.0025690386537462473,-0.015251990407705307,0.012510450556874275,-0.0005822134553454816,0.017458438873291016
0.01984243094921112,0.0029082505498081446,-0.015538088046014309,0.01297065056860447,-0.0006036607665009797,0.017345651984214783
0.01925751380622387,0.0030187785159796476,-0.01511287223547697,0.012824051082134247,-0.0005638533621095121,0.017281798645853996
0.01925751380622387,0.0030187785159796476,-0.01511287223547697,0.012824051082134247,-0.0005638533621095121,0.017281798645853996
0.01964396797120571,0.002979645039886236,-0.01570911705493927,0.01319299079477787,-0.000575750891584903,0.01718495413661003
0.02008184604346752,0.0028168419376015663,-0.015032506547868252,0.013343386352062225,-0.0005152730736881495,0.01716703549027443
0.02021053060889244,0.0028411808889359236,-0.015703892335295677,0.013425824232399464,-0.00046257878420874476,0.017133623361587524
0.018722349777817726,0.0028840317390859127,-0.015126246958971024,0.012331957928836346,-0.000491658749524504,0.016599662601947784
0.021033072844147682,0.003354267915710807,-0.01582277938723564,0.012448580004274845,-0.0004966820124536753,0.016740377992391586
0.020759623497724533,0.0032625370658934116,-0.015523542650043964,0.013140452094376087,-0.0004922153893858194,0.017431190237402916
0.02042275108397007,0.0030109731014817953,-0.015758957713842392,0.012718691490590572,-0.0005067738238722086,0.017601363360881805
0.020397324115037918,0.0029809600673615932,-0.01525217667222023,0.013200582936406136,-0.00048826911370269954,0.017884287983179092
0.020277833566069603,0.0032157315872609615,-0.015612760558724403,0.013178113847970963,-0.0005347931873984635,0.01763959228992462
0.020658694207668304,0.0030414219945669174,-0.015415800735354424,0.013116673566401005,-0.0005365242250263691,0.016926921904087067
0.020808828994631767,0.0027765543200075626,-0.015764901414513588,0.012916404753923416,-0.0005284357466734946,0.017089713364839554
0.02077903412282467,0.0029034109320491552,-0.01522913295775652,0.013334961608052254,-0.0005411307211034,0.017737187445163727
0.020846012979745865,0.0030022405553609133,-0.015225544571876526,0.013044534251093864,-0.0005182684399187565,0.018597418442368507
0.02114529348909855,0.003371242433786392,-0.014898290857672691,0.013690308667719364,-0.0005652267718687654,0.01856844313442707
0.02116609551012516,0.00322481757029891,-0.015337847173213959,0.013469960540533066,-0.0005727462703362107,0.018321329727768898
0.020888667553663254,0.002989798551425338,-0.015116695314645767,0.013821406289935112,-0.0006007589399814606,0.018326707184314728
0.020911648869514465,0.002886872971430421,-0.015751317143440247,0.01316533237695694,-0.0005515952943824232,0.01781686767935753
0.021214284002780914,0.0028983785305172205,-0.015161155723035336,0.013709035702049732,-0.0005730791599489748,0.017844874411821365
0.02110714465379715,0.003345494158565998,-0.01546403206884861,0.013209721073508263,-0.0005902957054786384,0.01831057295203209
0.02073794975876808,0.0033583510667085648,-0.01518288254737854,0.013407187536358833,-0.0005621721502393484,0.018658898770809174
0.021270837634801865,0.0029695164412260056,-0.015516172163188457,0.013041798025369644,-0.0005764936213381588,0.018352610990405083
0.021527443081140518,0.0028326408937573433,-0.015550509095191956,0.013463107869029045,-0.0005574692040681839,0.01790376380085945
0.021436437964439392,0.0027888037730008364,-0.015402118675410748,0.013371949084103107,-0.0005469326861202717,0.018335308879613876
0.021089190617203712,0.003253077156841755,-0.016082890331745148,0.01328455563634634,-0.0005358111229725182,0.01877002604305744
0.021797118708491325,0.0037717558443546295,-0.015765978023409843,0.013282445259392262,-0.0004899812047369778,0.018343333154916763
0.021509569138288498,0.003398339729756117,-0.01598512940108776,0.013254889287054539,-0.0005139247514307499,0.01842743158340454
0.021509569138288498,0.003398339729756117,-0.01598512940108776,0.013254889287054539,-0.0005139247514307499,0.01842743158340454
0.02134842611849308,0.0030959579162299633,-0.015496853739023209,0.01322745531797409,-0.0004832744598388672,0.018557541072368622
0.02167860046029091,0.0029923913534730673,-0.015965720638632774,0.012753629125654697,-0.00044935682672075927,0.01841139793395996
0.022123629227280617,0.003269834676757455,-0.015566712245345116,0.012796132825314999,-0.00047518673818558455,0.018758010119199753
0.022125761955976486,0.0032407387625426054,-0.016038045287132263,0.012646850198507309,-0.00046557452878914773,0.019340861588716507
0.021984288468956947,0.003087465651333332,-0.015807436779141426,0.01324822660535574,-0.0004397495067678392,0.019034018740057945
0.021814484149217606,0.002874956466257572,-0.0162014439702034,0.012892989441752434,-0.00047098041977733374,0.01892532780766487
0.021877679973840714,0.002975277602672577,-0.01616477034986019,0.013283932581543922,-0.00044190825428813696,0.01833118498325348
0.02197561226785183,0.0032951324246823788,-0.016656480729579926,0.012902598828077316,-0.00047239495324902236,0.017868632450699806
0.022397872060537338,0.0032123588025569916,-0.0165835153311491,0.012781962752342224,-0.00044330820674076676,0.019595930352807045
0.022780591621994972,0.002733621746301651,-0.016087353229522705,0.012972963973879814,-0.00041440554196015,0.01888476498425007
0.022852472960948944,0.0023919004015624523,-0.016326211392879486,0.01369702722877264,-0.00041828356916084886,0.019320400431752205
0.022005751729011536,0.002317172009497881,-0.016605403274297714,0.013506898656487465,-0.00039551747613586485,0.018930193036794662
0.021943584084510803,0.002579319989308715,-0.016411181539297104,0.014061339199543,-0.00042842456605285406,0.019522152841091156
0.02200349234044552,0.0028373408131301403,-0.015871096402406693,0.013726318255066872,-0.0004081854422111064,0.01982877217233181
0.022886626422405243,0.0028732919599860907,-0.016283854842185974,0.014018823392689228,-0.00043039454612880945,0.01996893435716629
0.022519057616591454,0.002630847040563822,-0.01601734198629856,0.013641251251101494,-0.0004144796694163233,0.019478779286146164
0.022513629868626595,0.0025549866259098053,-0.016921808943152428,0.014014177955687046,-0.0003859597782138735,0.0195816308259964
0.023056471720337868,0.0026773414574563503,-0.016401538625359535,0.013659085147082806,-0.0004044368688482791,0.01922408491373062
0.023243896663188934,0.0026741204783320427,-0.016262013465166092,0.013852695003151894,-0.00039297889452427626,0.018948012962937355
0.023385725915431976,0.0029143821448087692,-0.016645165160298347,0.01337482687085867,-0.0004097683704458177,0.019425183534622192
0.023393942043185234,0.002836683066561818,-0.016144895926117897,0.013758653774857521,-0.000399302807636559,0.020009348168969154
0.02277201972901821,0.0028783909510821104,-0.01659901812672615,0.013637205585837364,-0.00037907570367679,0.02032295987010002
0.02260236069560051,0.002729106927290559,-0.016423078253865242,0.013811308890581131,-0.0003601599601097405,0.020295586436986923
0.02296050637960434,0.002922977553680539,-0.01647687703371048,0.013344630599021912,-0.0003846250765491277,0.020122896879911423
0.023762455210089684,0.0029279489535838366,-0.016231615096330643,0.013384277001023293,-0.0004136209608986974,0.019616058096289635
0.02378161810338497,0.002559881890192628,-0.016642332077026367,0.013467788696289062,-0.00039986727642826736,0.019739745184779167
0.02401692606508732,0.0026526220608502626,-0.016517164185643196,0.013148633763194084,-0.0004270658828318119,0.020353274419903755
0.023624835535883904,0.00266537768766284,-0.016160080209374428,0.013153236359357834,-0.0004351737443357706,0.02045319974422455
0.02387179806828499,0.0027365139685571194,-0.016652503982186317,0.01291413139551878,-0.0004353557887952775,0.02003464102745056
0.02369300276041031,0.0026524378918111324,-0.01620444282889366,0.013334927149116993,-0.00041216035606339574,0.020077520981431007
0.02369300276041031,0.0026524378918111324,-0.01620444282889366,0.013334927149116993,-0.00041216035606339574,0.020077520981431007
0.024096639826893806,0.0028573288582265377,-0.01702827215194702,0.013347595930099487,-0.0005523444269783795,0.02024788036942482
0.02396814152598381,0.00292089837603271,-0.01642203889787197,0.014080307446420193,-0.000514096871484071,0.02028476633131504
0.02373521216213703,0.003009818959981203,-0.016483714804053307,0.014116279780864716,-0.00046278617810457945,0.02040586806833744
0.02381278946995735,0.0028358728159219027,-0.01674194075167179,0.014667973853647709,-0.000491947983391583,0.02212832309305668
0.024030083790421486,0.002856317674741149,-0.01629970595240593,0.013881362043321133,-0.0004598484083544463,0.019484931603074074
0.02394721284508705,0.0030988981015980244,-0.0166708305478096,0.01417415402829647,-0.00047624000580981374,0.019225215539336205
0.024403830990195274,0.0030980748124420643,-0.01616150699555874,0.01380998082458973,-0.0004895750898867846,0.02014976367354393
0.024739298969507217,0.0030338079668581486,-0.016231711953878403,0.014063754118978977,-0.0005112731014378369,0.020979683846235275
0.024376854300498962,0.00308811548165977,-0.01669921912252903,0.014024836011230946,-0.0005129242781549692,0.02065419591963291
0.024304021149873734,0.0032029259018599987,-0.016822319477796555,0.013682152144610882,-0.0005060252733528614,0.020641332492232323
0.024346666410565376,0.0034051970578730106,-0.01681731455028057,0.01430407352745533,-0.0005219468730501831,0.020379608497023582
0.024705011397600174,0.0032353121787309647,-0.017076317220926285,0.01463600154966116,-0.0004983986145816743,0.020739324390888214
0.0244047362357378,0.0032152794301509857,-0.016301555559039116,0.014982884749770164,-0.00046291592298075557,0.020764153450727463
0.02490386553108692,0.0033361914101988077,-0.016895608976483345,0.013916903175413609,-0.0004845022631343454,0.020355362445116043
0.024901418015360832,0.0036114011891186237,-0.016603419557213783,0.01431911438703537,-0.0004607515293173492,0.021088704466819763
0.02500269189476967,0.003221443621441722,-0.016710739582777023,0.014085495844483376,-0.0005100667476654053,0.021267300471663475
0.024452904239296913,0.003250430803745985,-0.01725260727107525,0.014706000685691833,-0.0005149963544681668,0.021101398393511772
0.024420157074928284,0.0033254085574299097,-0.016660112887620926,0.01422796119004488,-0.0005080850678496063,0.021097272634506226
0.02482023648917675,0.0035280389711260796,-0.016914002597332,0.014332449994981289,-0.0005044624558649957,0.020995428785681725
0.025813007727265358,0.003307657316327095,-0.01672312058508396,0.013627701438963413,-0.0004988480359315872,0.020953655242919922
0.02543465420603752,0.003646397264674306,-0.016959886997938156,0.01389595028012991,-0.00046431177179329097,0.02106606215238571
0.024777481332421303,0.0038537736982107162,-0.017176326364278793,0.014218967407941818,-0.0004859352484345436,0.02089802175760269
0.024194246158003807,0.0038742334581911564,-0.016627520322799683,0.013864334672689438,-0.00046203352394513786,0.021383313462138176
0.026286566630005836,0.0033712300937622786,-0.01743249222636223,0.013691800646483898,-0.0004346079658716917,0.021715980023145676
0.026144741103053093,0.0030387178994715214,-0.016673797741532326,0.014163359999656677,-0.00045388759463094175,0.02155931480228901
0.025123348459601402,0.003549313871189952,-0.01724211499094963,0.013976380228996277,-0.00042691826820373535,0.021212134510278702
0.025123348459601402,0.003549313871189952,-0.01724211499094963,0.013976380228996277,-0.00042691826820373535,0.021212134510278702
0.02568930946290493,0.0037097311578691006,-0.017580023035407066,0.014242948964238167,-0.00044815748697146773,0.02168913558125496
0.026148220524191856,0.003126768860965967,-0.017336957156658173,0.01426662877202034,-0.00043022772297263145,0.021904345601797104
0.02642793022096157,0.0033254234585911036,-0.017871655523777008,0.014051392674446106,-0.0004484688106458634,0.022505972534418106
0.02606903947889805,0.003919737879186869,-0.01666277088224888,0.014210178516805172,-0.00043292660848237574,0.02088405191898346
0.02535749413073063,0.004160997923463583,-0.017403652891516685,0.013799299485981464,-0.0004599769599735737,0.021114422008395195
0.025855734944343567,0.0036912879440933466,-0.017252301797270775,0.01419806107878685,-0.0005158186540938914,0.02149360440671444
0.026787305250763893,0.0034950219560414553,-0.017028842121362686,0.013785963878035545,-0.0005825675907544792,0.02215714007616043
0.02661712095141411,0.00360541301779449,-0.017618583515286446,0.013931858353316784,-0.0005718005704693496,0.022617770358920097
0.026354307308793068,0.0037742024287581444,-0.017575616016983986,0.01362703088670969,-0.0006004712195135653,0.022875690832734108
0.02641250751912594,0.0038982583209872246,-0.018439501523971558,0.014346970245242119,-0.0006111148395575583,0.02268114686012268
0.026792405173182487,0.003911518957465887,-0.01749657280743122,0.014629090204834938,-0.0008225881610997021,0.021641556173563004
0.02676539309322834,0.004011400975286961,-0.018360206857323647,0.014536123722791672,-0.0008391887531615794,0.021949319168925285
0.026581743732094765,0.0040210820734500885,-0.018517276272177696,0.014942919835448265,-0.0008196599083021283,0.02232821099460125
0.027002552524209023,0.004002853762358427,-0.018558291718363762,0.01453943271189928,-0.0007796536665409803,0.022912567481398582
0.026972932741045952,0.004014891106635332,-0.018989786505699158,0.014736959710717201,-0.0008656103163957596,0.022269202396273613
0.027288181707262993,0.0040187835693359375,-0.018735894933342934,0.01448933407664299,-0.0007502210210077465,0.022360317409038544
0.027510670945048332,0.0035820910707116127,-0.018116561695933342,0.014685987494885921,-0.000644362298771739,0.02289232425391674
0.02738373540341854,0.0035319991875439882,-0.018785055726766586,0.014184698462486267,-0.0006174298468977213,0.023061195388436317
0.02730919048190117,0.0042323581874370575,-0.018347004428505898,0.014294157736003399,-0.0005970248603262007,0.022711584344506264
0.027479667216539383,0.0045631988905370235,-0.018801158294081688,0.013942576944828033,-0.0005403590621426702,0.022081615403294563
0.027470558881759644,0.0043685841374099255,-0.019257860258221626,0.014651712961494923,-0.0004913352313451469,0.022163867950439453
0.027451852336525917,0.004073507152497768,-0.019018899649381638,0.014663692563772202,-0.0004503282252699137,0.022285040467977524
0.02805924229323864,0.004300608299672604,-0.01907772570848465,0.015042399056255817,-0.00048000685637816787,0.02283545210957527
0.0276531632989645,0.004347768612205982,-0.019237864762544632,0.014753028750419617,-0.00044990720925852656,0.023262783885002136
0.027692580595612526,0.004404745530337095,-0.01880589872598648,0.015315162017941475,-0.00046431637019850314,0.022895434871315956
0.02830333448946476,0.004160044714808464,-0.019153861328959465,0.014922525733709335,-0.00044912725570611656,0.022957896813750267
0.02819116599857807,0.004336407408118248,-0.019276626408100128,0.0148678133264184,-0.0003923992917407304,0.023124342784285545
0.028041714802384377,0.003975026309490204,-0.01888972893357277,0.014621928334236145,-0.00033534274552948773,0.024246403947472572
0.028177976608276367,0.003377872286364436,-0.01917305588722229,0.015131411142647266,-0.00036806368734687567,0.023259373381733894
0.028177976608276367,0.003377872286364436,-0.01917305588722229,0.015131411142647266,-0.00036806368734687567,0.023259373381733894
0.02788049541413784,0.003314532805234194,-0.01947230100631714,0.015189073979854584,-0.00040196889312937856,0.02243736945092678
0.027888325974345207,0.00359085644595325,-0.019213546067476273,0.014901473186910152,-0.0004321201122365892,0.022891592234373093
0.02743876725435257,0.00381197826936841,-0.01930905506014824,0.014894446358084679,-0.0008034596685320139,0.023442810401320457
0.02875419147312641,0.004306829534471035,-0.01946699246764183,0.014768251217901707,-0.0008673084666952491,0.02395421639084816
0.029045328497886658,0.004117543343454599,-0.019202981144189835,0.015079948119819164,-0.0008663325570523739,0.024120746180415154
0.02854795753955841,0.003999295178800821,-0.019401559606194496,0.015566438436508179,-0.0007750015938654542,0.02369331568479538
0.028731556609272957,0.003553634276613593,-0.019700782373547554,0.015233796089887619,-0.0007628774619661272,0.023346977308392525
0.027570823207497597,0.003512917086482048,-0.019024338573217392,0.014739373698830605,-0.0007097430643625557,0.02359154261648655
0.02901798114180565,0.004119942896068096,-0.019578713923692703,0.01486991997808218,-0.0006953197298571467,0.02374577522277832
0.028313644230365753,0.003937500528991222,-0.01888037472963333,0.01554819941520691,-0.0007049782434478402,0.023540126159787178
0.02898143045604229,0.0038418255280703306,-0.01944856531918049,0.015071781352162361,-0.0007010154658928514,0.023611312732100487
0.029527805745601654,0.003924798686057329,-0.019872328266501427,0.015264417044818401,-0.0006772642955183983,0.023747902363538742
0.028446385636925697,0.0039451769553124905,-0.01978817768394947,0.015208919532597065,-0.0007762478780932724,0.02394983358681202
0.028876719996333122,0.004429326392710209,-0.01965944468975067,0.015405071899294853,-0.0008117041434161365,0.02481062151491642
0.028609229251742363,0.004213951528072357,-0.01952744647860527,0.015546669252216816,-0.0008162836893461645,0.024575024843215942
0.028704505413770676,0.003948304336518049,-0.019266054034233093,0.01573123410344124,-0.0007352973334491253,0.02367166243493557
0.029043154790997505,0.0038342687766999006,-0.019024258479475975,0.015255721285939217,-0.0007279578712768853,0.02330532856285572
0.02911883220076561,0.003768854308873415,-0.019557323306798935,0.014864803291857243,-0.0006802979041822255,0.02359100617468357
0.02914910577237606,0.004279521759599447,-0.0190935879945755,0.014581873081624508,-0.0006652481970377266,0.024433637037873268
0.02916756644845009,0.004138421267271042,-0.019014842808246613,0.014903354458510876,-0.0006819720147177577,0.02505851536989212
0.02906048111617565,0.004154623951762915,-0.019663678482174873,0.015382921323180199,-0.0006298931548371911,0.024543726816773415
0.029400324448943138,0.00391558138653636,-0.01939230039715767,0.015212684869766235,-0.0006466943304985762,0.024443624541163445
0.02941773273050785,0.0037022498436272144,-0.01910318434238434,0.015524891205132008,-0.0006699778023175895,0.02499706856906414
0.029217582195997238,0.003663384122774005,-0.01936580240726471,0.015228800475597382,-0.0007173201302066445,0.02460237592458725
0.028933923691511154,0.003587334183976054,-0.019409000873565674,0.015604835934937,-0.0007649885956197977,0.023885222151875496
0.029018854722380638,0.003566945204511285,-0.019244112074375153,0.015396679751574993,-0.0007265934837050736,0.02463538385927677
0.029024610295891762,0.0038746753707528114,-0.019720563665032387,0.015828322619199753,-0.0006954501150175929,0.023892482742667198
0.029024610295891762,0.0038746753707528114,-0.019720563665032387,0.015828322619199753,-0.0006954501150175929,0.023892482742667198
0.029896128922700882,0.004157914314419031,-0.0193992517888546,0.015439179725944996,-0.0006678142817690969,0.024238407611846924
0.028354482725262642,0.004357215017080307,-0.018880875781178474,0.015633581206202507,-0.0006698848446831107,0.02499076910316944
0.030056165531277657,0.004032148513942957,-0.019434016197919846,0.015348762273788452,-0.0006347306189127266,0.025165054947137833
0.030063912272453308,0.003516159486025572,-0.01936989650130272,0.015533844009041786,-0.0006229665596038103,0.024884965270757675
0.029995281249284744,0.003372913459315896,-0.019330112263560295,0.015258491970598698,-0.0006461797747761011,0.02468406781554222
0.02978387661278248,0.003570403903722763,-0.01945275440812111,0.015392868779599667,-0.0006732266629114747,0.024475833401083946
0.029627913609147072,0.004288483411073685,-0.019727502018213272,0.015770917758345604,-0.0006840704008936882,0.0248569305986166
0.0299820713698864,0.004210492596030235,-0.019928866997361183,0.01610170677304268,-0.0006436329567804933,0.025325972586870193
0.030950414016842842,0.00411163829267025,-0.020195167511701584,0.015500660985708237,-0.0007482001674361527,0.025401407852768898
0.02964124269783497,0.0036418125964701176,-0.019817857071757317,0.015953997150063515,-0.0006836987449787557,0.02508949674665928
0.02976134419441223,0.004103798884898424,-0.01998814195394516,0.015750903636217117,-0.0006085075438022614,0.02548995427787304
0.030711272731423378,0.00418597087264061,-0.02026553452014923,0.01635177619755268,-0.0006135160219855607,0.025574227795004845
0.0305015929043293,0.003970284480601549,-0.02006448060274124,0.01570480689406395,-0.0005777112091891468,0.025635695084929466
0.030528714880347252,0.004286568146198988,-0.020595412701368332,0.016069740056991577,-0.0005859367083758116,0.025998130440711975
0.031244631856679916,0.004116625525057316,-0.02013256773352623,0.01586337201297283,-0.0005578067502938211,0.02553270384669304
0.030976111069321632,0.004006179049611092,-0.019767314195632935,0.01585666462779045,-0.0005206899950280786,0.02551497332751751
0.030484260991215706,0.004081250634044409,-0.019833186641335487,0.015888679772615433,-0.0005384263349696994,0.0258070919662714
0.030356567353010178,0.003953617997467518,-0.021340344101190567,0.01612178422510624,-0.0005500004044733942,0.02599896490573883
0.031155630946159363,0.003833600552752614,-0.021029595285654068,0.01655673049390316,-0.0005412371829152107,0.026097659021615982
0.03193719685077667,0.0038511157035827637,-0.019792823120951653,0.016460102051496506,-0.0005671966937370598,0.025977402925491333
0.03187081962823868,0.0042578247375786304,-0.020086435601115227,0.01708444021642208,-0.0007852058624848723,0.026127973571419716
0.03173969313502312,0.0045089926570653915,-0.020534507930278778,0.01692960038781166,-0.0007700988207943738,0.02599348872900009
0.0312126986682415,0.0043825069442391396,-0.020167900249361992,0.016268394887447357,-0.0007274805102497339,0.02589339017868042
0.03168671950697899,0.0040163868106901646,-0.020530303940176964,0.016210440546274185,-0.0007367440848611295,0.026326892897486687
0.030244726687669754,0.004321007523685694,-0.02093258500099182,0.016537562012672424,-0.0007170328171923757,0.026855595409870148
0.030244726687669754,0.004321007523685694,-0.02093258500099182,0.016537562012672424,-0.0007170328171923757,0.026855595409870148
0.031834185123443604,0.004168305546045303,-0.020499350503087044,0.016232144087553024,-0.0006904850015416741,0.02707071416079998
0.03226723521947861,0.003999004140496254,-0.02055876888334751,0.016853058710694313,-0.0006860258290544152,0.026929255574941635
0.03238183259963989,0.0039621577598154545,-0.021044783294200897,0.016644304618239403,-0.0007097682100720704,0.0269022136926651
0.03238183259963989,0.0039621577598154545,-0.021044783294200897,0.016644304618239403,-0.0007097682100720704,0.0269022136926651
0.032457198947668076,0.004456270486116409,-0.02060723304748535,0.016457611694931984,-0.0007061254582367837,0.026988647878170013
0.032759033143520355,0.0046087452210485935,-0.020185397937893867,0.016756486147642136,-0.000683004385791719,0.027836952358484268
0.03314046934247017,0.004300215281546116,-0.020843423902988434,0.016617828980088234,-0.0007708026678301394,0.02632107585668564
0.03289693221449852,0.004118298180401325,-0.02042621374130249,0.017249003052711487,-0.0006976078730076551,0.02777663618326187
0.03333742916584015,0.004120951984077692,-0.02025115117430687,0.01733676716685295,-0.00070808338932693,0.028482696041464806
0.03331011161208153,0.004029565025120974,-0.02094138413667679,0.017056256532669067,-0.0006919056177139282,0.02680034376680851
0.03368840366601944,0.0044840131886303425,-0.021464718505740166,0.01683325693011284,-0.0006685153930447996,0.026285257190465927
0.033400893211364746,0.004739571362733841,-0.02040153369307518,0.017180051654577255,-0.000647137057967484,0.02742818370461464
0.03392744064331055,0.004804604221135378,-0.020358802750706673,0.017169518396258354,-0.0006626811227761209,0.027566928416490555
0.033474378287792206,0.004456135910004377,-0.020818118005990982,0.016990702599287033,-0.0006887205527164042,0.0273214653134346
0.03405432030558586,0.004371969029307365,-0.02059868536889553,0.016710875555872917,-0.0006873489473946393,0.028358610346913338
0.03428971767425537,0.004180899355560541,-0.020345650613307953,0.01631937362253666,-0.0006653296295553446,0.028866881504654884
0.033988211303949356,0.004349682480096817,-0.020826302468776703,0.016797762364149094,-0.0006114987190812826,0.027619827538728714
0.03472236543893814,0.004587678704410791,-0.02071799896657467,0.016561219468712807,-0.0006757390219718218,0.02659887820482254
0.03609718754887581,0.004653763957321644,-0.020566165447235107,0.016822993755340576,-0.0006919916486367583,0.027261503040790558
0.03493253141641617,0.0045263455249369144,-0.020771928131580353,0.016477786004543304,-0.0006892134551890194,0.028401875868439674
0.033392470329999924,0.004672972485423088,-0.020812135189771652,0.016820698976516724,-0.0006639835191890597,0.028493918478488922
0.03524988517165184,0.004845287650823593,-0.020220065489411354,0.017010051757097244,-0.0006776631344109774,0.028438232839107513
0.03499912843108177,0.004772126208990812,-0.02060687728226185,0.016882674768567085,-0.0007389187812805176,0.028262048959732056
0.03520999476313591,0.00470047676935792,-0.021111587062478065,0.017263062298297882,-0.0007856854936107993,0.02837359346449375
0.03593600541353226,0.00471106031909585,-0.021752700209617615,0.017226742580533028,-0.0007868423708714545,0.028156794607639313
0.036088909953832626,0.004665391054004431,-0.021005144342780113,0.017424827441573143,-0.0007990356534719467,0.028257377445697784
0.036088909953832626,0.004665391054004431,-0.021005144342780113,0.017424827441573143,-0.0007990356534719467,0.028257377445697784
0.034700505435466766,0.004540885798633099,-0.021275006234645844,0.01648515649139881,-0.0009200558415614069,0.028415018692612648
0.03573451191186905,0.004368862137198448,-0.020845958963036537,0.01669665239751339,-0.0008520109695382416,0.02872801013290882
0.03617167845368385,0.004164726473391056,-0.020871486514806747,0.016082650050520897,-0.0007400545291602612,0.02873186580836773
0.035845622420310974,0.004523737356066704,-0.021838711574673653,0.016889257356524467,-0.0007440304616466165,0.02854110300540924
0.035845622420310974,0.004523737356066704,-0.021838711574673653,0.016889257356524467,-0.0007440304616466165,0.02854110300540924
0.035290058702230453,0.004657089244574308,-0.021583514288067818,0.01688450574874878,-0.0006766150472685695,0.02834468148648739
0.03553919866681099,0.004688285756856203,-0.02084783837199211,0.017493396997451782,-0.000692721048835665,0.028535831719636917
0.035991132259368896,0.0045282975770533085,-0.021578118205070496,0.017279552295804024,-0.0006233089952729642,0.02876836434006691
0.03589564934372902,0.004602457862347364,-0.02162613719701767,0.01723805069923401,-0.0005727729294449091,0.028665004298090935
0.03584766015410423,0.00475833797827363,-0.021311352029442787,0.016580931842327118,-0.0005280866171233356,0.02840866893529892
0.035858508199453354,0.004652515519410372,-0.02135421894490719,0.01748044602572918,-0.0005562035948969424,0.0281427800655365
0.036344531923532486,0.004431917332112789,-0.020916858687996864,0.017494676634669304,-0.0005696285516023636,0.02899222820997238
0.0360490083694458,0.004458701703697443,-0.02124045416712761,0.01661789044737816,-0.000543823407497257,0.029680805280804634
0.03433291241526604,0.004604183603078127,-0.021820049732923508,0.01680852845311165,-0.0006097846780903637,0.02939736098051071
0.03670644760131836,0.004850202705711126,-0.021391691640019417,0.016265472397208214,-0.0006245024269446731,0.02817651629447937
0.03768891468644142,0.004744176287204027,-0.02152073197066784,0.0165542159229517,-0.0005819994257763028,0.02775345742702484
0.03711305186152458,0.0046481541357934475,-0.02169099822640419,0.015887804329395294,-0.0006023568566888571,0.029035402461886406
0.03521127626299858,0.004603487905114889,-0.02167872153222561,0.016738785430788994,-0.0006178119801916182,0.029295137152075768
0.03600450977683067,0.004639569669961929,-0.02132732979953289,0.017337359488010406,-0.0006747539155185223,0.029496870934963226
0.036918558180332184,0.004617295693606138,-0.02166430838406086,0.01718195527791977,-0.0007757958956062794,0.029669804498553276
0.036860477179288864,0.0051292674615979195,-0.021987518295645714,0.017436673864722252,-0.0007812496041879058,0.029590092599391937
0.03726121038198471,0.00495893694460392,-0.021552374586462975,0.017113277688622475,-0.0007685018936172128,0.028954166918992996
0.03738309442996979,0.004804438911378384,-0.02133570984005928,0.017467761412262917,-0.0007422826020047069,0.02831556834280491
0.03618212416768074,0.004865778144448996,-0.021856646984815598,0.017389578744769096,-0.0009296705829910934,0.028955955058336258
0.036407291889190674,0.004698499105870724,-0.021854903548955917,0.017188115045428276,-0.0008667942020110786,0.029922712594270706
0.037090856581926346,0.004759934265166521,-0.021647242829203606,0.017800845205783844,-0.0008673811098560691,0.03019593469798565
0.037367574870586395,0.004818366840481758,-0.02142998017370701,0.017931923270225525,-0.0007692175568081439,0.029884258285164833
0.03740183636546135,0.004920078441500664,-0.021939009428024292,0.01790642738342285,-0.0007328854990191758,0.02951592206954956
0.03702070564031601,0.004932779353111982,-0.021973537281155586,0.018160969018936157,-0.000703459489159286,0.02978493832051754
0.03728894516825676,0.004882870241999626,-0.021651769056916237,0.017657633870840073,-0.0006487859645858407,0.030167819932103157
0.03731695935130119,0.004639254882931709,-0.02167404070496559,0.01779363863170147,-0.0005692644044756889,0.0301754642277956
0.03714095428586006,0.0049517336301505566,-0.02192908711731434,0.017707008868455887,-0.0005921889096498489,0.030302835628390312
0.037605058401823044,0.005199658218771219,-0.022076234221458435,0.017674557864665985,-0.0006106057553552091,0.030233345925807953
0.037605058401823044,0.005199658218771219,-0.022076234221458435,0.017674557864665985,-0.0006106057553552091,0.030233345925807953
0.038063205778598785,0.004982754588127136,-0.021769065409898758,0.01813439466059208,-0.0006157564930617809,0.030398931354284286
0.03640136122703552,0.0047813905403018,-0.02165652997791767,0.017997320741415024,-0.0006017264677211642,0.031145157292485237
0.03826841339468956,0.005163506139069796,-0.022099586203694344,0.0181010439991951,-0.0006967024528421462,0.030360372737050056
0.03848734125494957,0.004835418425500393,-0.021885273978114128,0.01838100701570511,-0.000646131404209882,0.03016483224928379
0.037920091301202774,0.004508955869823694,-0.02190539613366127,0.0177717637270689,-0.0006650874856859446,0.030731530860066414
0.03826690837740898,0.004895389080047607,-0.02234615385532379,0.017591360956430435,-0.0006039636209607124,0.030502254143357277
0.0381932258605957,0.004826728254556656,-0.02187279611825943,0.017426427453756332,-0.0005756617174483836,0.030253678560256958
0.03873319551348686,0.005222772713750601,-0.02178194932639599,0.017847353592514992,-0.0005931000341661274,0.030237019062042236
0.03875480964779854,0.005014805123209953,-0.022146858274936676,0.017361106351017952,-0.0005561509751714766,0.030250100418925285
0.038949958980083466,0.004579551517963409,-0.022282356396317482,0.017355505377054214,-0.0005364858661778271,0.0302269384264946
0.039185069501399994,0.005012176465243101,-0.022120358422398567,0.017282625660300255,-0.0005672468105331063,0.030043989419937134
0.039205096662044525,0.005415454972535372,-0.022346926853060722,0.017168033868074417,-0.0006470537045970559,0.030391143634915352
0.038714002817869186,0.0051489826291799545,-0.022075600922107697,0.017896560952067375,-0.000912967137992382,0.030600184574723244
0.03920767456293106,0.005353895947337151,-0.02148357219994068,0.017976276576519012,-0.0011410923907533288,0.03037051483988762
0.03997162729501724,0.005008805077522993,-0.02157040312886238,0.018022291362285614,-0.0011243680492043495,0.030532270669937134
0.03960002213716507,0.004547026474028826,-0.0221191868185997,0.01854541152715683,-0.0010819589952006936,0.0306332278996706
0.038151420652866364,0.0046032024547457695,-0.023661615327000618,0.018201420083642006,-0.0010086597176268697,0.03125854581594467
0.03992025554180145,0.005001157056540251,-0.023230010643601418,0.01841062866151333,-0.0009562378982082009,0.03140399977564812
0.03992573171854019,0.005059922579675913,-0.022311467677354813,0.018812129274010658,-0.0008755849557928741,0.030331851914525032
0.04109751805663109,0.005736090708523989,-0.02224491909146309,0.018606889992952347,-0.0008654209086671472,0.029670100659132004
0.03985563665628433,0.005234529264271259,-0.022613869979977608,0.018815120682120323,-0.0007738018757663667,0.03061504103243351
0.0397978313267231,0.004797467961907387,-0.02261948399245739,0.018446965143084526,-0.0007812173571437597,0.03113422356545925
0.039033275097608566,0.004702581092715263,-0.022648466750979424,0.018931079655885696,-0.000726567639503628,0.03153548017144203
0.04075540229678154,0.005117292981594801,-0.02246592566370964,0.018449587747454643,-0.0007482045912183821,0.03260258585214615
0.03912970423698425,0.005131164565682411,-0.022978534922003746,0.017705265432596207,-0.0007666588644497097,0.03195558115839958
0.04029282554984093,0.005380634684115648,-0.02306213416159153,0.018116800114512444,-0.0007617786177434027,0.030394412577152252
0.04030630737543106,0.00535598024725914,-0.022838424891233444,0.018235843628644943,-0.0007147874566726387,0.031596649438142776
0.03934691101312637,0.004942803177982569,-0.022198721766471863,0.01750667206943035,-0.0007884767255745828,0.032431162893772125
0.040356121957302094,0.005161019042134285,-0.022977465763688087,0.018083732575178146,-0.0008080168627202511,0.03238291293382645
0.040356121957302094,0.005161019042134285,-0.022977465763688087,0.018083732575178146,-0.0008080168627202511,0.03238291293382645
0.039898499846458435,0.005496771074831486,-0.022568391636013985,0.017166508361697197,-0.0007811037939973176,0.03160155564546585
0.039898499846458435,0.005496771074831486,-0.022568391636013985,0.017166508361697197,-0.0007811037939973176,0.03160155564546585
0.04049286991357803,0.005358658265322447,-0.022477423772215843,0.017451941967010498,-0.0007493470329791307,0.031592417508363724
0.04011170566082001,0.004944495391100645,-0.02320115827023983,0.017605889588594437,-0.0007534903706982732,0.031626999378204346
0.03989187255501747,0.0046456074342131615,-0.022799944505095482,0.01807946339249611,-0.0008353078737854958,0.03165552020072937
0.040912289172410965,0.004953496623784304,-0.02340065874159336,0.018517276272177696,-0.0009632808505557477,0.03160969913005829
0.039384279400110245,0.0055328370071947575,-0.02292775548994541,0.01889607682824135,-0.0010601928224787116,0.031831249594688416
0.04038729518651962,0.005322701763361692,-0.022640898823738098,0.018154103308916092,-0.001040065661072731,0.031604718416929245
0.04042929410934448,0.005237790755927563,-0.0229791346937418,0.017432842403650284,-0.0010199741227552295,0.03165227919816971
0.04169343784451485,0.004924438428133726,-0.023068850859999657,0.01807473599910736,-0.0009207545081153512,0.03200208768248558
0.04162394627928734,0.005109922494739294,-0.022944776341319084,0.01865488663315773,-0.0008843170944601297,0.03217015787959099
0.040266573429107666,0.0055685751140117645,-0.02323792688548565,0.019093023613095284,-0.0008800704963505268,0.0321018323302269
0.04044570028781891,0.005377102177590132,-0.022950125858187675,0.018872736021876335,-0.0008334760786965489,0.03239424526691437
0.041497599333524704,0.005402808543294668,-0.023224307224154472,0.01837346702814102,-0.0007847286178730428,0.032241661101579666
0.040927354246377945,0.005420628935098648,-0.02334442548453808,0.019062377512454987,-0.0007869601249694824,0.03193463012576103
0.0410492867231369,0.004977228119969368,-0.02312704548239708,0.019432824105024338,-0.0007485142559744418,0.03186542168259621
0.04123426228761673,0.00542976101860404,-0.022921977564692497,0.019005149602890015,-0.000735997105948627,0.03304712846875191
0.04076685383915901,0.005296921357512474,-0.022892048582434654,0.018396247178316116,-0.0006991799455136061,0.032993339002132416
0.041392337530851364,0.005191130097955465,-0.023619402199983597,0.018408283591270447,-0.0007184353889897466,0.0319201722741127
0.04107657074928284,0.005854024086147547,-0.02364366687834263,0.017748944461345673,-0.0007380754686892033,0.03136472404003143
0.04093955457210541,0.00526421656832099,-0.023372791707515717,0.01829112134873867,-0.0009516471181996167,0.03242883458733559
0.04093955457210541,0.00526421656832099,-0.023372791707515717,0.01829112134873867,-0.0009516471181996167,0.03242883458733559
0.04137697443366051,0.005184780340641737,-0.02278822287917137,0.01862635463476181,-0.0009556200820952654,0.03229154273867607
0.041473954916000366,0.005223453044891357,-0.022547490894794464,0.018705863505601883,-0.0009486663620918989,0.033078305423259735
0.041506342589855194,0.0056748166680336,-0.023308366537094116,0.01977410726249218,-0.0008997480617836118,0.03395269438624382
0.04112352058291435,0.005484644323587418,-0.023740869015455246,0.019200269132852554,-0.001064554788172245,0.03267155960202217
0.04047463834285736,0.005691822152584791,-0.023209812119603157,0.01874416135251522,-0.0010082704247906804,0.03219715505838394
0.04239344969391823,0.005261948332190514,-0.022949209436774254,0.01982123591005802,-0.0009271805174648762,0.03187907487154007
0.04243788495659828,0.004948517307639122,-0.022786593064665794,0.02005070447921753,-0.0009191976278088987,0.033730700612068176
0.041750695556402206,0.005195564590394497,-0.023312849923968315,0.019044481217861176,-0.000880365027114749,0.034008149057626724
0.041581928730010986,0.005287792533636093,-0.02390194870531559,0.0191115140914917,-0.0007583345286548138,0.033335670828819275
0.04183086380362511,0.005742812994867563,-0.023588407784700394,0.0193235632032156,-0.0007702735019847751,0.0335015133023262
0.04212139546871185,0.005465642083436251,-0.02278333343565464,0.019129056483507156,-0.0007782864850014448,0.03289010748267174
0.04200068116188049,0.005090220365673304,-0.022731995210051537,0.019123632460832596,-0.0007531479350291193,0.03307348117232323
0.041517872363328934,0.005181456450372934,-0.02326679229736328,0.019511830061674118,-0.0006906531052663922,0.0334031842648983
0.04254193231463432,0.005681760609149933,-0.02345922216773033,0.01863071694970131,-0.0007176920771598816,0.03372843563556671
0.043920449912548065,0.005487934220582247,-0.023714512586593628,0.018684975802898407,-0.0007319767610169947,0.03394225612282753
0.04104635864496231,0.005634498316794634,-0.024006634950637817,0.019057663157582283,-0.0007369625964201987,0.033487290143966675
0.04119056835770607,0.005297621246427298,-0.0231359601020813,0.019718894734978676,-0.0008031157194636762,0.03383147716522217
0.04165437072515488,0.005340502597391605,-0.02353501133620739,0.01964748650789261,-0.0009116826695390046,0.03357913717627525
0.04312590882182121,0.005230080336332321,-0.02322348579764366,0.01895863749086857,-0.0009252852178178728,0.03379424661397934
0.04334988817572594,0.005811640992760658,-0.023058468475937843,0.019193261861801147,-0.000922918610740453,0.03398794308304787
0.04157435521483421,0.005470008589327335,-0.023717332631349564,0.01874934323132038,-0.001008606399409473,0.03401222825050354
0.040780533105134964,0.005717142019420862,-0.023953549563884735,0.018525775521993637,-0.0010295151732861996,0.03408285602927208
0.04299713298678398,0.005347861908376217,-0.023778952658176422,0.018459046259522438,-0.0010109522845596075,0.03404952213168144
0.04280057176947594,0.005768561270087957,-0.023795174434781075,0.01881883479654789,-0.0008868343429639935,0.03377524018287659
0.04252183437347412,0.0056818099692463875,-0.023762352764606476,0.01932697929441929,-0.0008811309817247093,0.03426555171608925
0.042603883892297745,0.005692627280950546,-0.023876236751675606,0.019970225170254707,-0.0007909754640422761,0.034442003816366196
0.04269353300333023,0.005249347537755966,-0.023474005982279778,0.01891799457371235,-0.0006970248068682849,0.034328069537878036
0.042923614382743835,0.005300235468894243,-0.02377340756356716,0.019094152376055717,-0.0007740464061498642,0.035385653376579285
0.042415350675582886,0.0055390773341059685,-0.02358555980026722,0.018854735419154167,-0.0007923775119706988,0.03455745056271553
0.042415350675582886,0.0055390773341059685,-0.02358555980026722,0.018854735419154167,-0.0007923775119706988,0.03455745056271553
0.04268365353345871,0.006191139575093985,-0.023823317140340805,0.018540529534220695,-0.0009634016896598041,0.03328918665647507
0.042530495673418045,0.005528241861611605,-0.024068370461463928,0.019112911075353622,-0.0010921061038970947,0.03345291689038277
0.04413975775241852,0.0053545162081718445,-0.023195097222924232,0.019920924678444862,-0.0010677881073206663,0.03482965752482414
0.04333750158548355,0.005493571050465107,-0.022824065759778023,0.019803525879979134,-0.0010094362078234553,0.03470579534769058
0.04178128391504288,0.005475841928273439,-0.02364518865942955,0.01935741677880287,-0.00093679572455585,0.03580470755696297
0.042756836861371994,0.00580563535913825,-0.023432424291968346,0.019817428663372993,-0.0008424274856224656,0.03547588363289833
0.04282485321164131,0.00592077849432826,-0.023800011724233627,0.019870715215802193,-0.0007270887144841254,0.03423713147640228
0.044447124004364014,0.005601819138973951,-0.02415873110294342,0.0204682108014822,-0.000742742617148906,0.03336941823363304
0.04390562325716019,0.005657908972352743,-0.023499825969338417,0.020349103957414627,-0.0007121444796212018,0.03490234538912773
0.0412641242146492,0.005734325852245092,-0.023197172209620476,0.01958579383790493,-0.0007538488716818392,0.03538695350289345
0.04365198314189911,0.006196347996592522,-0.023356884717941284,0.01896870881319046,-0.000830717443022877,0.035049498081207275
0.04371466860175133,0.005748611409217119,-0.023847108706831932,0.01947552151978016,-0.0009876396507024765,0.03523765876889229
0.043419402092695236,0.005379700567573309,-0.023686513304710388,0.01977684162557125,-0.0010017008753493428,0.034593138843774796
0.043593984097242355,0.005491628311574459,-0.02329389564692974,0.020514575764536858,-0.001322741387411952,0.03508664295077324
0.04377958923578262,0.0056066205725073814,-0.02328227460384369,0.02069137617945671,-0.0012532082619145513,0.03522563353180885
0.04379763454198837,0.006001605652272701,-0.023469895124435425,0.01999310404062271,-0.0011464727576822042,0.03494933620095253
0.04344955459237099,0.005773000419139862,-0.023647509515285492,0.019644955173134804,-0.0010889223776757717,0.03527269512414932
