davideferrari95/blind_handover_controller/data/Test 182 - [2024-02-08 -- 11-23-49]/joint_states_data.csv
shoulder_pan_joint,shoulder_lift_joint,elbow_joint,wrist_1_joint,wrist_2_joint,wrist_3_joint
0.0,0.0012760150711983442,0.007276128977537155,-0.005688978359103203,-0.0,0.0
0.0,0.0012760150711983442,0.007276128977537155,-0.005688978359103203,-0.0,0.0
0.0,0.0012515452690422535,0.008170654997229576,-0.0054955435916781425,-0.0,0.0
0.0,0.0015725091798231006,0.007833143696188927,-0.005752447992563248,-0.0,0.0
0.0,0.0015171654522418976,0.007469905540347099,-0.005800054874271154,-0.0,0.0
0.0,0.0017487156437709928,0.007590443827211857,-0.00631804158911109,-0.0,0.0
0.0,0.0017438376089558005,0.007061121519654989,-0.006621993612498045,-0.0,0.0
0.0,0.0017438376089558005,0.007061121519654989,-0.006621993612498045,-0.0,0.0
0.0,0.001510157249867916,0.007338324561715126,-0.00651189498603344,-0.0,0.0
0.0,0.0014505411963909864,0.0070516373962163925,-0.00662476709112525,-0.0,-6.683556421194226e-05
0.0,0.0014505411963909864,0.0070516373962163925,-0.00662476709112525,-0.0,-6.683556421194226e-05
0.0,0.0014400207437574863,0.007294268812984228,-0.006830811500549316,-0.0,-0.00026188723859377205
0.0,0.001326290424913168,0.007225971203297377,-0.006270655430853367,-0.0,-0.000259763008216396
0.0,0.0012999094324186444,0.006451620254665613,-0.005928411148488522,-0.0,-0.0002463865093886852
0.0,0.0013878907775506377,0.007276278920471668,-0.006065319757908583,-0.0,-0.00023364508524537086
0.0,0.0014759381301701069,0.007051896769553423,-0.005902762524783611,-0.0,-0.0002221128233941272
0.0,0.0018083506729453802,0.007419375702738762,-0.005633261054754257,-0.0,-0.0002116627583745867
0.0,0.0018440114799886942,0.006908825598657131,-0.0055040051229298115,-0.0,-0.00020215188851580024
0.0,0.001963231945410371,0.0065937042236328125,-0.005591759458184242,-0.0,-0.00022204632114153355
0.0,0.0017783590592443943,0.006561776157468557,-0.0057393629103899,-0.0,-0.00022192044707480818
0.0,0.0016724601155146956,0.006788839120417833,-0.006314266938716173,-0.0,-0.00021372454648371786
0.0,0.0016649271128699183,0.006838700734078884,-0.0063128224574029446,-0.0,-0.00020562300051096827
0.0,0.0015517596621066332,0.007240672595798969,-0.005579628515988588,-0.0,-0.0001980821689357981
0.0,0.0018464142922312021,0.006961221806704998,-0.005715327803045511,-0.0,-0.00019107226398773491
0.0,0.0017828659620136023,0.007228897884488106,-0.005935705732554197,-0.0,-0.00018454220844432712
0.0,0.0021869128104299307,0.006544049363583326,-0.0066518886014819145,-0.0,-0.00019302303553558886
0.0,0.002036188030615449,0.00696845818310976,-0.005855496507138014,-0.0,-0.0001952119782799855
0.0,0.0018320416565984488,0.005631403066217899,-0.0057088397443294525,-0.0,-0.00018940067093353719
0.0,0.0018245537066832185,0.0039992243982851505,-0.006291939411312342,-0.0,-0.0001838766474975273
7.719031600572634e-07,0.0020798409823328257,0.0035525690764188766,-0.006482228636741638,-0.0,-0.0001786615321179852
1.0356065338612552e-08,0.0020827376283705235,0.004677097778767347,-0.0058919331058859825,-0.0,-0.00017373438458889723
1.3893983186186176e-10,0.0025233549531549215,0.005016712937504053,-0.004826697520911694,-0.0,-0.00016907141252886504
1.8640551342069545e-12,0.002414328046143055,0.0051934560760855675,-0.00448655616492033,-0.0,-0.00016465278167743236
2.5008679954935213e-14,0.0022874572314321995,0.004914798308163881,-0.00515213655307889,-0.0,-0.00016045873053371906
3.3552338234392324e-16,0.002011483069509268,0.004202983342111111,-0.006950045470148325,-0.0,-0.00015647345571778715
3.3552338234392324e-16,0.002011483069509268,0.004202983342111111,-0.006950045470148325,-0.0,-0.00015647345571778715
4.50147429371203e-18,0.0018740352243185043,0.003977825865149498,-0.006780803669244051,-0.0,-0.00015268112474586815
6.039301874681915e-20,0.0016996307531371713,0.003979155793786049,-0.006433251313865185,-0.0,-0.00016485678497701883
8.102494613382246e-22,0.0019309299532324076,0.004522237926721573,-0.0056045278906822205,-0.0,-0.00016606618009973317
1.087053009521632e-23,0.0018209019908681512,0.004203337244689465,-0.005192251410335302,-0.0,-0.0001626420416869223
1.458420403593187e-25,0.0021533207036554813,0.004373886156827211,-0.006834168452769518,-0.0,-0.00015907025954220444
1.9566570010919676e-27,0.0023809829726815224,0.0036532424855977297,-0.0077265286818146706,-0.0,-0.0001556329953018576
2.625105106922995e-29,0.0020200503058731556,0.0035352648701518774,-0.006778728682547808,-0.0,-0.00015234015882015228
3.521913670826346e-31,0.0018283515237271786,0.0037651557940989733,-0.006135264877229929,-0.0,-0.000149183688336052
4.725096805775932e-33,0.0017610992072150111,0.004454629961401224,-0.005668963305652142,-0.0,-0.0001461553038097918
6.33932107386774e-35,0.0016914727166295052,0.004474944900721312,-0.006224975921213627,-0.0,-0.0001432474673492834
8.505008165040918e-37,0.0019361430313438177,0.003947304096072912,-0.0061895884573459625,-0.0,-0.00014045294665265828
1.1410554792436551e-38,0.0019723232835531235,0.003519897349178791,-0.006035412661731243,-0.0,-0.00013776551350019872
1.530876533320933e-40,0.0020038385409861803,0.0036908795591443777,-0.005938523914664984,-0.0,-0.00013517909974325448
2.802596928649634e-44,0.0020860768854618073,0.005001618526875973,-0.005918159149587154,-0.0,-0.00011734239524230361
0.0,0.0021235260646790266,0.004619088489562273,-0.005659724120050669,-0.0,-0.000110459397546947
0.0,0.002051518764346838,0.004296388477087021,-0.005831331480294466,-0.0,-0.00010755775292636827
0.0,0.002384807448834181,0.004101594910025597,-0.005855132360011339,-0.0,-0.00010503025987418368
0.0,0.002382342703640461,0.0043808226473629475,-0.006011523772031069,-0.0,-0.00010263344302074984
0.0,0.002530957106500864,0.005178810562938452,-0.006338936276733875,-0.0,-0.00010034472506958991
0.0,0.0024350653402507305,0.004501859657466412,-0.006544803269207478,-0.0,-9.815597150009125e-05
0.0,0.002347629051655531,0.003929284401237965,-0.005928779952228069,-0.0,-9.606060484657064e-05
0.0,0.0023072808980941772,0.004168655723333359,-0.0063529969193041325,-0.0,-9.40527388593182e-05
0.0,0.0024284287355840206,0.004611204378306866,-0.00666096480563283,-0.0,-9.21273312997073e-05
0.0,0.0023612570948898792,0.004945991560816765,-0.006214237306267023,-0.0,-9.027905616676435e-05
0.0,0.002513354178518057,0.0047813160344958305,-0.005799822509288788,-0.0,-8.850340236676857e-05
0.0,0.0022294761147350073,0.004273565020412207,-0.005819106940180063,-0.0,-8.67963390192017e-05
0.0,0.0022294761147350073,0.004273565020412207,-0.005819106940180063,-0.0,-8.67963390192017e-05
0.0,0.0023334564175456762,0.004386696964502335,-0.00619371235370636,-0.0,-8.515395893482491e-05
0.0,0.002285224152728915,0.004546059295535088,-0.00688118627294898,-0.0,-8.357251499546692e-05
0.00012165259977336973,0.0021973580587655306,0.005170987453311682,-0.006886760238558054,-0.0,-8.204863115679473e-05
0.00012247489939909428,0.002404166152700782,0.00494783278554678,-0.0063450089655816555,-0.0,-8.05795134510845e-05
0.00011928399180760607,0.002523929113522172,0.004481751937419176,-0.005847624037414789,-0.0,-7.916193862911314e-05
0.00013671780470758677,0.002437983639538288,0.004406922031193972,-0.006363994907587767,-0.0,-7.779343286529183e-05
0.000135898168082349,0.00250448239967227,0.004751289263367653,-0.007235148921608925,-0.0,-7.647148595424369e-05
0.000132596556795761,0.002502169692888856,0.004933231044560671,-0.0069351159036159515,-0.0,-7.519364589825273e-05
0.00012941911700181663,0.002318187151104212,0.0048223515041172504,-0.00622203852981329,-0.0,-7.395785360131413e-05
0.00014716549776494503,0.0024990944657474756,0.004582677036523819,-0.005672671366482973,-0.0,-7.276199175976217e-05
0.0001440787164028734,0.002256212756037712,0.0045838505029678345,-0.006398867350071669,-0.0,-7.160432869568467e-05
0.000160708004841581,0.002516215667128563,0.004261229187250137,-0.0067474558018147945,-0.0,-7.048267434583977e-05
0.00015745966811664402,0.0024728362914174795,0.004585557151585817,-0.00630923081189394,-0.0,-6.939585728105158e-05
0.0003703693801071495,0.002369701862335205,0.004756467882543802,-0.005649717524647713,-0.0,-6.83418766129762e-05
0.00032522311084903777,0.0025947042740881443,0.005081684794276953,-0.006668292451649904,-0.0,-6.632730219280347e-05
0.00035668746568262577,0.0025191083550453186,0.0043708281591534615,-0.0067141070030629635,-0.0,-6.536384898936376e-05
0.0003408759366720915,0.0027263786178082228,0.004048072267323732,-0.006264927331358194,-0.0,-6.44281244603917e-05
0.00035569973988458514,0.002763994736596942,0.004416319541633129,-0.006042844150215387,-0.0,-6.351862975861877e-05
0.00035294535337015986,0.00283626071177423,0.004787057172507048,-0.005500827915966511,-0.0,-6.263452087296173e-05
0.00038025181856937706,0.0026454979088157415,0.005498404614627361,-0.005975621752440929,-0.0,-6.177477189339697e-05
0.0003653991443570703,0.002679184777662158,0.004693788476288319,-0.006542894057929516,-0.0,-6.0938244132557884e-05
0.0004646053712349385,0.002268120413646102,0.004350101575255394,-0.0065566240809857845,-0.0,-6.012399899191223e-05
0.0005037637893110514,0.0012871716171503067,0.004246792756021023,-0.006289592012763023,-0.0,-5.933133797952905e-05
0.0004637381643988192,0.0007045771926641464,0.004371630027890205,-0.005782764870673418,5.011386383557692e-05,-5.855928611708805e-05
0.0004637381643988192,0.0007045771926641464,0.004371630027890205,-0.005782764870673418,5.011386383557692e-05,-5.855928611708805e-05
0.000497235800139606,0.0005510543123818934,0.004927628207951784,-0.006073560565710068,8.230381354223937e-05,-5.780701758340001e-05
0.000504814728628844,0.0005556242540478706,0.0053558642975986,-0.006268635392189026,8.29479904496111e-05,-5.707388118025847e-05
0.0004913558368571103,0.00029932751203887165,0.004560000263154507,-0.006202519405633211,8.158526907209307e-05,-5.6359094742219895e-05
0.0006123529747128487,0.0002901936531998217,0.004848803393542767,-0.0061424048617482185,8.014151535462588e-05,-5.566197796724737e-05
0.0006296952487900853,0.0003735411155503243,0.0045485771261155605,-0.00633647758513689,9.04281550901942e-05,-4.6812619984848425e-05
0.0005948496982455254,0.00043778365943580866,0.004235684871673584,-0.007037305738776922,9.259784565074369e-05,-4.363917469163425e-05
0.0006217783666215837,0.0009466902702115476,0.0047579254023730755,-0.006675729528069496,9.127560770139098e-05,-4.2948387999786064e-05
0.0006219831993803382,0.0008386884583160281,0.005021956749260426,-0.0064061484299600124,8.977405377663672e-05,-4.243109651724808e-05
0.0005960756097920239,0.0008427331340499222,0.005051169078797102,-0.006341158878058195,8.830698061501607e-05,-4.193608037894592e-05
0.0006988768582232296,0.0007335039554163814,0.004786030855029821,-0.0068351877853274345,8.688619709573686e-05,-4.1453185986028984e-05
0.0007278516422957182,0.0006457825656980276,0.004695036448538303,-0.006822739727795124,9.609114931663498e-05,-4.0981296479003504e-05
0.0007398470770567656,0.0005767623079009354,0.0044920011423528194,-0.006606313865631819,9.796718950383365e-05,-4.052002987009473e-05
0.0007568595465272665,0.0005210748058743775,0.00491764210164547,-0.006158333737403154,9.668387065175921e-05,-4.006905510323122e-05
0.0008483444107696414,0.0005510582705028355,0.005322368815541267,-0.006106023211032152,9.523666085442528e-05,-1.5719529983471148e-05
0.0009137489250861108,0.0005359348724596202,0.004478350281715393,-0.006856291554868221,9.244270040653646e-05,-6.701481680693178e-08
0.0009120179456658661,0.0005053716013208032,0.004881521221250296,-0.006888681091368198,9.110591054195538e-05,-4.3755887801921745e-09
0.0010335386032238603,0.0004401580954436213,0.005027192644774914,-0.005955597385764122,9.933482942869887e-05,-2.856946623719381e-10
0.0011466897558420897,0.0004287179035600275,0.004827596712857485,-0.006113346200436354,0.0001009786719805561,-1.3922647667641286e-05
0.0011421903036534786,0.0004627560847438872,0.005311901681125164,-0.006773591041564941,9.977756417356431e-05,2.838942782545928e-05
0.0013951174914836884,0.0004927207482978702,0.005001801066100597,-0.006862523965537548,9.842655708780512e-05,3.0650640837848186e-05
0.0013652313500642776,0.0008704235660843551,0.0045327129773795605,-0.006765217054635286,9.710006270324811e-05,3.0313696697703563e-05
0.0012953632976859808,0.0008908587042242289,0.004612903576344252,-0.006655822973698378,9.58080418058671e-05,2.9823188015143387e-05
0.001402218476869166,0.0008783247321844101,0.004919698927551508,-0.00665685161948204,0.00013943984231445938,2.9337841624510475e-05
0.0013625802239403129,0.0007828190573491156,0.0049196635372936726,-0.0068031488917768,0.0001764232147252187,2.886742731789127e-05
0.001311577740125358,0.0007943963864818215,0.005280814599245787,-0.006803174968808889,0.00017243657202925533,4.0760649426374584e-05
0.001383999246172607,0.000760353053919971,0.005467710085213184,-0.0065050749108195305,0.00016624643467366695,4.183418059255928e-05
0.001383999246172607,0.000760353053919971,0.005467710085213184,-0.0065050749108195305,0.00016624643467366695,4.183418059255928e-05
0.0014697592705488205,0.0007598741794936359,0.004758521448820829,-0.0071387216448783875,0.00016033416613936424,5.153061283635907e-05
0.001691832090727985,0.0007237581303343177,0.005327044054865837,-0.006781668867915869,0.00014966822345741093,5.3433774155564606e-05
0.001691832090727985,0.0007237581303343177,0.005327044054865837,-0.006781668867915869,0.00014966822345741093,5.3433774155564606e-05
0.0018755390774458647,0.0007393317064270377,0.00480293482542038,-0.006639167666435242,0.00016998514183796942,5.266600419417955e-05
0.0017041717655956745,0.0008000833913683891,0.004977102391421795,-0.006842557806521654,0.00016814854461699724,6.402472354238853e-05
0.001688013318926096,0.0008609190699644387,0.004888752941042185,-0.007444404065608978,0.00016328947094734758,6.390607450157404e-05
0.0017019903752952814,0.0008670581737533212,0.004784603603184223,-0.007636450231075287,0.0001585104619152844,0.00017839143401943147
0.0016094124875962734,0.0008800031500868499,0.004591764882206917,-0.006742896977812052,0.00015399094263557345,0.0002743213844951242
0.0018988846568390727,0.0011739995097741485,0.004948543384671211,-0.006367403082549572,0.00014972116332501173,0.00026514308410696685
0.0017650675727054477,0.001173377619124949,0.004858830943703651,-0.0068365177139639854,0.00016676055383868515,0.0002942223218269646
0.0020250510424375534,0.0011421061353757977,0.0048012686893343925,-0.007214413024485111,0.00016528781270608306,0.000284676905721426
0.0019017481245100498,0.0013418527087196708,0.004731160122901201,-0.006897220388054848,0.00016124658577609807,0.00029281515162438154
0.0020839476492255926,0.0012593319406732917,0.004625476431101561,-0.006218526512384415,0.0001572344481246546,0.00029934901976957917
0.0018831550842151046,0.0011970230843871832,0.005061280447989702,-0.006459636148065329,0.00015340640675276518,0.00030708772828802466
0.0017719174502417445,0.0011196027044206858,0.0049055772833526134,-0.007008616346865892,0.0001657825050642714,0.00046282465336844325
0.0019214849453419447,0.0011866443092003465,0.004735785070806742,-0.006338786333799362,0.00016329443315044045,0.0005177384009584785
0.0017535226652398705,0.001356079475954175,0.004752358887344599,-0.006485582794994116,0.00015975412679836154,0.00048330507706850767
0.0017674664268270135,0.0014759473269805312,0.004812005907297134,-0.006832018960267305,0.00015629170229658484,0.0004986061248928308
0.0017205451149493456,0.0013935239985585213,0.005395406391471624,-0.007147177588194609,0.0001529712462797761,0.0004776647256221622
0.001799185061827302,0.0015671149594709277,0.005154742859303951,-0.007039946969598532,0.00016774867253843695,0.000499919755384326
0.001816847245208919,0.0015736212953925133,0.004371171817183495,-0.006425890605896711,0.00017837843915913254,0.0006137628806754947
0.001993908081203699,0.001448512659408152,0.004038472659885883,-0.00702624162659049,0.0001726627815514803,0.0006680759252049029
0.0019700215198099613,0.0013641738332808018,0.004967432003468275,-0.006821529008448124,0.0001663527946220711,0.0006701661623083055
0.002015843987464905,0.0013928127009421587,0.0054112873040139675,-0.006909423042088747,0.00016042649804148823,0.0006476293783634901
0.001974079990759492,0.0013893620343878865,0.005001918878406286,-0.006578431930392981,0.00015490328951273113,0.000668205670081079
0.001965222181752324,0.0014371920842677355,0.004853138700127602,-0.006390960421413183,0.00014974814257584512,0.0008108858019113541
0.001965222181752324,0.0014371920842677355,0.004853138700127602,-0.006390960421413183,0.00014974814257584512,0.0008108858019113541
0.002159110503271222,0.0014833899913355708,0.003978288266807795,-0.0068217115476727486,0.00016823266923893243,0.0008471720502711833
0.0020894540939480066,0.0014242116594687104,0.004324813839048147,-0.006569100543856621,0.0001633686915738508,0.0008530785562470555
0.0020894540939480066,0.0014242116594687104,0.004324813839048147,-0.006569100543856621,0.0001633686915738508,0.0008530785562470555
0.002276746788993478,0.001519372803159058,0.004915462341159582,-0.006095934193581343,0.00015858512779232115,0.0009063452598638833
0.0020243660546839237,0.0016576703637838364,0.004794195294380188,-0.005943235009908676,0.00015406143211293966,0.0010189404711127281
0.0020777895115315914,0.0015641461359336972,0.004287742078304291,-0.0064425962045788765,0.00014978776744101197,0.0010087441187351942
0.0018392537022009492,0.0018290253356099129,0.003856910392642021,-0.0072503103874623775,0.0001684055314399302,0.0010939553612843156
0.0020043079275637865,0.0016897361492738128,0.004208013415336609,-0.006999064236879349,0.00016546036931686103,0.0011521620908752084
0.0018438783008605242,0.0017183540621772408,0.004505211021751165,-0.006771025247871876,0.0001613197528058663,0.0011125007877126336
0.0020785576198250055,0.0016906538512557745,0.004816725850105286,-0.006352053955197334,0.0001572979672346264,0.0010981695959344506
0.0021023086737841368,0.0015167365781962872,0.004561874084174633,-0.006583959795534611,0.00016971885634120554,0.0010505588725209236
0.0020798156037926674,0.0016001383773982525,0.0043473332189023495,-0.006440098863095045,0.00017084897262975574,0.0011708912206813693
0.0019240821711719036,0.001723271794617176,0.003949256148189306,-0.006922905799001455,0.00016721805150154978,0.0011616091942414641
0.002113907365128398,0.002245834795758128,0.004257380496710539,-0.006509567145258188,0.0002055409422609955,0.0014898142544552684
0.002108074026182294,0.002153585199266672,0.004556603729724884,-0.006745526101440191,0.00020291430701036006,0.0014270921237766743
0.0024017777759581804,0.0020911868195980787,0.0042009311728179455,-0.006265659350901842,0.0002136024268111214,0.001350780832581222
0.0021526729688048363,0.0018298201030120254,0.0043824585154652596,-0.006482864264398813,0.0002225428615929559,0.0011255996068939567
0.002253618324175477,0.0017226582858711481,0.0042182630859315395,-0.006856176070868969,0.00021484748867806047,0.0010458185570314527
0.0023914333432912827,0.001767941634170711,0.004333306569606066,-0.007009083870798349,0.0002066985471174121,0.0009255656623281538
0.002274713246151805,0.0021442659199237823,0.004703686572611332,-0.006553844083100557,0.0002300125197507441,0.0009076956775970757
0.002266898285597563,0.0022313108202069998,0.004161405842751265,-0.006387360394001007,0.00022385572083294392,0.0007735086837783456
0.0022160171065479517,0.0025299442932009697,0.004316594451665878,-0.0068568517453968525,0.0002314454031875357,0.0007270530331879854
0.0022160171065479517,0.0025299442932009697,0.004316594451665878,-0.0068568517453968525,0.0002314454031875357,0.0007270530331879854
0.0023003630340099335,0.0023698420263826847,0.004168003331869841,-0.0068014501594007015,0.0002379756624577567,0.0007586093852296472
0.0024052627850323915,0.0022434131242334843,0.004058393649756908,-0.006615631747990847,0.00023218382557388395,0.0007911398424766958
0.002277530264109373,0.0020033034961670637,0.004432440735399723,-0.006447960622608662,0.0003729594754986465,0.0013848398812115192
0.002255903324112296,0.0019484395161271095,0.004412474110722542,-0.006410688627511263,0.00040618402999825776,0.0014175940304994583
0.002176915295422077,0.002167596248909831,0.004232010338455439,-0.007027195300906897,0.0003934349224437028,0.00169552699662745
0.0026294635608792305,0.0021492100786417723,0.003784973407164216,-0.0073272897861897945,0.0004128161526750773,0.0015243323286995292
0.002648440655320883,0.0024459166452288628,0.0034969868138432503,-0.006778990849852562,0.00040067487861961126,0.0012691579759120941
0.002409439068287611,0.002602133434265852,0.003628381295129657,-0.006647641304880381,0.00042777773342095315,0.001187231158837676
0.002321880543604493,0.00247244443744421,0.0038336559664458036,-0.006840723101049662,0.0004069262940902263,0.000981754856184125
0.00252079451456666,0.0024741559755057096,0.0038796633016318083,-0.007257333490997553,0.0005117811961099505,0.0008922981796786189
0.002443438395857811,0.0022252248600125313,0.003703208640217781,-0.007506771944463253,0.0004976660129614174,0.0009686933481134474
0.002608241979032755,0.002436719136312604,0.003463162574917078,-0.006708361674100161,0.000528131437022239,0.0014317596796900034
0.0027921567671000957,0.00275785312987864,0.0035000545904040337,-0.006743106059730053,0.0004907978582195938,0.0016934083541855216
0.0026297050062566996,0.0029367597308009863,0.003668829333037138,-0.007164596114307642,0.0005055783549323678,0.0020180789288133383
0.0025673527270555496,0.0027185152284801006,0.003920259419828653,-0.007127066142857075,0.0004838341264985502,0.0017997671384364367
0.002526015741750598,0.0026267438661307096,0.0036579545121639967,-0.006920428480952978,0.0004815651918761432,0.001620489521883428
0.002448874758556485,0.002634872682392597,0.0035739694721996784,-0.006905458401888609,0.00047823990462347865,0.0012605078518390656
0.002959133591502905,0.0025517172180116177,0.003956446424126625,-0.006941784638911486,0.0004628245369531214,0.0011065893340855837
0.0028665196150541306,0.0027312021702528,0.0039900545962154865,-0.006527233868837357,0.0004327226779423654,0.0010842452757060528
0.0026148646138608456,0.0026954510249197483,0.00407329061999917,-0.006487265694886446,0.00046377547550946474,0.0010762815363705158
0.002596888691186905,0.00278801959939301,0.0036440968979150057,-0.00681043416261673,0.0004356699937488884,0.00114229426253587
0.002851158147677779,0.0025013445410877466,0.0035256468690931797,-0.006964642088860273,0.0004617653030436486,0.0016047823010012507
0.00322334305383265,0.0023676545824855566,0.0038015791215002537,-0.006842414848506451,0.00043762970017269254,0.001762773608788848
0.002900115679949522,0.002590780146420002,0.0040270802564918995,-0.006418528966605663,0.0004641209670808166,0.0019043008796870708
0.002724209101870656,0.002919238992035389,0.004017383325845003,-0.006327108480036259,0.00044151910697109997,0.0019258226966485381
0.0026970747858285904,0.002967131556943059,0.004065680783241987,-0.006997753866016865,0.0005232880939729512,0.0017461336683481932
0.0025548110716044903,0.0027346282731741667,0.0037347704637795687,-0.007495606783777475,0.0005224542692303658,0.0016761203296482563
0.0028972961008548737,0.002642668318003416,0.003456246806308627,-0.006809126120060682,0.00051445874851197,0.0015113744884729385
0.0028972961008548737,0.002642668318003416,0.003456246806308627,-0.006809126120060682,0.00051445874851197,0.0015113744884729385
0.0032820471096783876,0.0027619730681180954,0.003761336673051119,-0.006825881544500589,0.0005040814285166562,0.0011529388139024377
0.0030975330155342817,0.002862252527847886,0.0037115581799298525,-0.00690610334277153,0.0005266504012979567,0.001141057349741459
0.0030975330155342817,0.002862252527847886,0.0037115581799298525,-0.00690610334277153,0.0005266504012979567,0.001141057349741459
0.002801966853439808,0.0028910015244036913,0.003649097168818116,-0.006800394039601088,0.0004982234677299857,0.0011496383231133223
0.0029756049625575542,0.002698388183489442,0.0036459683906286955,-0.007074614521116018,0.0005523623549379408,0.0014129417249932885
0.00345546193420887,0.002486789831891656,0.003641762537881732,-0.007437163032591343,0.0005787023692391813,0.0014347195392474532
0.0032717904541641474,0.002627906622365117,0.0038370571564882994,-0.007415298838168383,0.0005877087241970003,0.001903906580992043
0.0031515329610556364,0.002827028278261423,0.0038054122123867273,-0.007371564395725727,0.0005750376731157303,0.0018185983644798398
0.003281600307673216,0.0027764979749917984,0.0035462905652821064,-0.007497376762330532,0.0005996327381581068,0.001764424960128963
0.003634534077718854,0.0027535296976566315,0.003123318310827017,-0.00709576066583395,0.0007328791543841362,0.0015880096470937133
0.0032357408199459314,0.0027128569781780243,0.003477316116914153,-0.006766773294657469,0.0006822979194112122,0.0014485473511740565
0.003329272847622633,0.0027964026667177677,0.0038765815552324057,-0.006698422133922577,0.0007060007774271071,0.0011766623938456178
0.0034074587747454643,0.002616997342556715,0.0036290122661739588,-0.007061936892569065,0.0006308608571998775,0.0010923007503151894
0.0034801464062184095,0.002923825057223439,0.0030487733893096447,-0.00753021938726306,0.0006461951415985823,0.0011792470468208194
0.003665382508188486,0.0030333027243614197,0.0029295836575329304,-0.007473950274288654,0.0005960332346148789,0.0013804507907480001
0.0036030204501003027,0.002761851530522108,0.0022321289870887995,-0.006860328838229179,0.0005720180342905223,0.0015373737551271915
0.003807689994573593,0.0030352885369211435,0.0020963039714843035,-0.0068226587027311325,0.0005310450214892626,0.0015231349971145391
0.003878374584019184,0.00311011984013021,0.00191224564332515,-0.006962227169424295,0.00047892870497889817,0.0013932435540482402
0.0038708229549229145,0.003458063118159771,0.002119072014465928,-0.007075431756675243,0.0005075961817055941,0.001302720862440765
0.004004060290753841,0.003242500126361847,0.001963954418897629,-0.006744417827576399,0.0004732364322990179,0.0011680718744173646
0.004035538528114557,0.0029808571562170982,0.002096292795613408,-0.006920619867742062,0.0005031493492424488,0.001177663216367364
0.004043757915496826,0.0031086790841072798,0.002009894698858261,-0.0075768702663481236,0.0005280303303152323,0.0013537609484046698
0.004024501424282789,0.0032925971318036318,0.0019945853855460882,-0.007657444570213556,0.0006696818163618445,0.001527754357084632
0.0035616063978523016,0.0031936392188072205,0.0018802863778546453,-0.007229707203805447,0.0007516014156863093,0.001506817527115345
0.0039756628684699535,0.0030361078679561615,0.0018766156863421202,-0.0069998460821807384,0.0007732725935056806,0.001657383400015533
0.004235299304127693,0.0029965448193252087,0.0016980732325464487,-0.0068949144333601,0.0007807291694916785,0.0016414995770901442
0.004235299304127693,0.0029965448193252087,0.0016980732325464487,-0.0068949144333601,0.0007807291694916785,0.0016414995770901442
0.004448035731911659,0.0030910999048501253,0.0017785836244001985,-0.007258865982294083,0.0009242586675100029,0.0014862297102808952
0.004149558488279581,0.002906931797042489,0.0016816373681649566,-0.007334686815738678,0.000969946850091219,0.001362536451779306
0.0038436620961874723,0.0023884365800768137,0.0019884309731423855,-0.006758249830454588,0.0009088382939808071,0.0012919085565954447
0.003923302050679922,0.001769516384229064,0.00206160731613636,-0.006870524492114782,0.0008464521961286664,0.0012566018849611282
0.003939394373446703,0.0017112853238359094,0.002068957081064582,-0.007214553188532591,0.0008414056501351297,0.0012718306388705969
0.003976448439061642,0.0016548408893868327,0.0018421370768919587,-0.006829525344073772,0.0007691014325246215,0.0013250147458165884
0.004318858031183481,0.001815154100768268,0.001855260692536831,-0.00631899805739522,0.0006922996835783124,0.001330563798546791
0.004509640391916037,0.0027010643389075994,0.0017527606105431914,-0.0068273767828941345,0.0007053236477077007,0.0015110786771401763
0.004633056465536356,0.0028628830332309008,0.0019660331308841705,-0.007611215114593506,0.0006870456854812801,0.0018640932394191623
0.004303616471588612,0.00240009231492877,0.0018017655238509178,-0.00784620363265276,0.0006612459546886384,0.0020393873564898968
0.004004247020930052,0.0021973103284835815,0.001762230764143169,-0.007040257100015879,0.0006750742322765291,0.002069433918222785
0.004202080890536308,0.001956287305802107,0.0017512717749923468,-0.006909992545843124,0.0007237741374410689,0.0020304417703300714
0.004630615934729576,0.0020250044763088226,0.001797884120605886,-0.007155444473028183,0.0007675192900933325,0.0017533981008455157
0.005145261995494366,0.002409775974228978,0.0018097675638273358,-0.007814896292984486,0.000848238414619118,0.0015458083944395185
0.004471106920391321,0.0025632523465901613,0.0018622205825522542,-0.007191143464297056,0.0011815504403784871,0.001516077434644103
0.004533366300165653,0.0023108015302568674,0.0017496953951194882,-0.0074424659833312035,0.0011531272903084755,0.0014811479486525059
0.0046046157367527485,0.002192586660385132,0.0017591030336916447,-0.007545012049376965,0.0011147373588755727,0.001567416824400425
0.004690475296229124,0.0022754156962037086,0.0019529102137312293,-0.007207319140434265,0.001059697475284338,0.001731429249048233
0.005137497093528509,0.002180718583986163,0.0019396604038774967,-0.006795460823923349,0.0010246516903862357,0.0017633565003052354
0.0049184407107532024,0.002277475083246827,0.0020506824366748333,-0.007146496791392565,0.001003909856081009,0.0018687705742195249
0.0047701685689389706,0.0022660938557237387,0.0019895073492079973,-0.007490835152566433,0.0009892451344057918,0.001753116026520729
0.0047022877261042595,0.0025688905734568834,0.0017892426112666726,-0.00728212296962738,0.0009516551508568227,0.0019270672928541899
0.004994489718228579,0.0023819180205464363,0.0017878091894090176,-0.007032865192741156,0.0009299472440034151,0.0019258122192695737
0.004954812582582235,0.0022901638876646757,0.0019135470502078533,-0.007010011468082666,0.0008902506669983268,0.0018962339963763952
0.004836299456655979,0.002341876272112131,0.001907071564346552,-0.007203344255685806,0.00088928994955495,0.0019375764532014728
0.005137960892170668,0.00257574743591249,0.002010005060583353,-0.007392407860606909,0.0008399198995903134,0.00199273438192904
0.0049412366934120655,0.0024886850733309984,0.001974942395463586,-0.007421758957207203,0.0008277737651951611,0.0018256769981235266
0.0049412366934120655,0.0024886850733309984,0.001974942395463586,-0.007421758957207203,0.0008277737651951611,0.0018256769981235266
0.004781519528478384,0.0025798941496759653,0.0017572653014212847,-0.0075373114086687565,0.0008345121168531477,0.001869391417130828
0.004969412926584482,0.0026724960189312696,0.001762906787917018,-0.007460848893970251,0.0008270867401733994,0.001769973081536591
0.005251559894531965,0.0025513668078929186,0.0020160102285444736,-0.007292219437658787,0.0007559872465208173,0.0019319532439112663
0.0051939524710178375,0.0028608895372599363,0.002029050374403596,-0.007240329869091511,0.0007661200361326337,0.0020461890380829573
0.005246628541499376,0.0030016403179615736,0.0018134714337065816,-0.007491244934499264,0.0007429855177178979,0.002376157557591796
0.005045546684414148,0.003022423479706049,0.0018459308193996549,-0.007477581035345793,0.0007463726797141135,0.00255515961907804
0.005295559763908386,0.0027495415415614843,0.0018087802454829216,-0.007315727882087231,0.0007654546643607318,0.002347757341340184
0.005542844999581575,0.002666057087481022,0.002034092089161277,-0.007137187756597996,0.0007811829564161599,0.002154054120182991
0.0052176122553646564,0.0026783221401274204,0.0021079671569168568,-0.007478672545403242,0.0007484536035917699,0.002066685352474451
0.0058346102014184,0.0025627240538597107,0.0020455620251595974,-0.007554656360298395,0.0008567342883907259,0.002019529929384589
0.005311194807291031,0.00285870349034667,0.0017926407745108008,-0.007431140169501305,0.0008725196239538491,0.0019597294740378857
0.005078288726508617,0.0029767754022032022,0.001786425244063139,-0.007280752994120121,0.000776555563788861,0.002363344421610236
0.0052657220512628555,0.002796539571136236,0.0018382904818281531,-0.008097208105027676,0.0007700516143813729,0.002336009405553341
0.005583503283560276,0.0028773483354598284,0.0018638974288478494,-0.007769056595861912,0.0007450735429301858,0.002354883821681142
0.005461773835122585,0.0031221644021570683,0.0019188446458429098,-0.00696492800489068,0.0007656097295694053,0.002113976050168276
0.005540417041629553,0.003449280746281147,0.0017624739557504654,-0.007812817580997944,0.0007829820387996733,0.0019481241470202804
0.005497612990438938,0.003300826530903578,0.0016654068604111671,-0.008010036312043667,0.0008099006954580545,0.0018505306215956807
0.005669417791068554,0.003104797098785639,0.0016771156806498766,-0.007482857909053564,0.0009775940561667085,0.002097503049299121
0.006152529735118151,0.0033945064060389996,0.001708158291876316,-0.007204062771052122,0.0011959719704464078,0.0025945319794118404
0.005658669862896204,0.0031530242413282394,0.0016833749832585454,-0.007357139606028795,0.0012325361603870988,0.002837716368958354
0.005898408591747284,0.0032713802065700293,0.0015865722671151161,-0.008024285547435284,0.0011404555989429355,0.0027470760978758335
0.005770331714302301,0.0032776957377791405,0.0015846877358853817,-0.007911854423582554,0.0012987158261239529,0.0026453204918652773
0.005721856839954853,0.003409147961065173,0.0015048285713419318,-0.0070896390825510025,0.0012806992745026946,0.0023428392596542835
0.00517833698540926,0.0037071506958454847,0.0017239204607903957,-0.0073412940837442875,0.0012247773120179772,0.0021969142835587263
0.005910898093134165,0.003411566838622093,0.0016407665098086,-0.007785019930452108,0.001117965206503868,0.002058227313682437
0.005539506208151579,0.0036081101279705763,0.0020577337127178907,-0.007695098407566547,0.0010604781564325094,0.0021978351287543774
0.005539506208151579,0.0036081101279705763,0.0020577337127178907,-0.007695098407566547,0.0010604781564325094,0.0021978351287543774
0.0057977112010121346,0.0033282372169196606,0.001829204149544239,-0.007371368817985058,0.0010321364970877767,0.002259280066937208
0.00541455065831542,0.0035942615941166878,0.0018090729136019945,-0.0074745663441717625,0.0010128045687451959,0.0021809504833072424
0.005752009339630604,0.003755912883207202,0.0017569353803992271,-0.00803966261446476,0.001018455601297319,0.002279923064634204
0.0058453683741390705,0.0038043339736759663,0.0018098537111654878,-0.007030440494418144,0.0011083229910582304,0.002197504276409745
0.00611524423584342,0.0032715213019400835,0.00182257778942585,-0.006752782966941595,0.0011376786278560758,0.0023674913682043552
0.005664379335939884,0.003251963062211871,0.0016803343314677477,-0.007275013718754053,0.0013709745835512877,0.002626215573400259
0.0058251335285604,0.003373167710378766,0.0017011357704177499,-0.007533044554293156,0.0013575315242633224,0.002796025015413761
0.005563550628721714,0.0035439354833215475,0.0015725804260000587,-0.00731282914057374,0.0012790313921868801,0.002732971217483282
0.006000040099024773,0.0036593491677194834,0.0016036983579397202,-0.006893703248351812,0.001202086452394724,0.003005220089107752
0.005845067091286182,0.0034560849890112877,0.0018124564085155725,-0.007512236479669809,0.0011943468125537038,0.003015039023011923
0.006143292412161827,0.0034566177055239677,0.0016615143977105618,-0.007324755657464266,0.0012593853753060102,0.0027565713971853256
0.005648206919431686,0.0036206215154379606,0.0015981965698301792,-0.007009966764599085,0.0013324562460184097,0.002438601804897189
0.006109802983701229,0.003335401648655534,0.0016145872650668025,-0.007763281464576721,0.0012612815480679274,0.0024299491196870804
0.006348064634948969,0.003446227638050914,0.0015335973585024476,-0.00773255992680788,0.0012200186029076576,0.00236339820548892
0.0057656122371554375,0.0037082235794514418,0.0016680409898981452,-0.00718353409320116,0.0012147206580266356,0.002670926507562399
0.006332621909677982,0.0038926417473703623,0.0017002965323626995,-0.007264942396432161,0.0011596467811614275,0.003077736822888255
0.006151179783046246,0.0034296088851988316,0.0018231786089017987,-0.007593726273626089,0.0011477797525003552,0.0032827062532305717
0.006422409787774086,0.004153669346123934,0.0017642410239204764,-0.00799482874572277,0.0012755421921610832,0.003301945049315691
0.006584202870726585,0.004191812127828598,0.0016270788619294763,-0.0076132710091769695,0.001309501938521862,0.0030591576360166073
0.00643646065145731,0.003945083823055029,0.0016680266708135605,-0.007982667535543442,0.0015322499675676227,0.0030113081447780132
0.00608799047768116,0.003775202902033925,0.0017208203207701445,-0.008183011785149574,0.0015154442517086864,0.0029679425060749054
0.006303628906607628,0.003815279807895422,0.0017444987315684557,-0.007912506349384785,0.0014647808857262135,0.0028640993405133486
0.006988774985074997,0.003939534071832895,0.001609730999916792,-0.007555230986326933,0.0015471985097974539,0.002812983701005578
0.006296676117926836,0.004051209893077612,0.001593653461895883,-0.007656536065042019,0.0015250396681949496,0.0030065972823649645
0.006504880264401436,0.004039125982671976,0.001640753704123199,-0.007762022316455841,0.001413343008607626,0.0032070551533252
0.006504880264401436,0.004039125982671976,0.001640753704123199,-0.007762022316455841,0.001413343008607626,0.0032070551533252
0.00657456973567605,0.0040076617151498795,0.0015756464563310146,-0.007672009989619255,0.0014423690736293793,0.0035736088175326586
0.006768472492694855,0.003951388411223888,0.0016899720067158341,-0.007385990582406521,0.0014014601474627852,0.0033713632728904486
0.006838284898549318,0.0038607509341090918,0.0015725251287221909,-0.007803533226251602,0.001464960048906505,0.0031525816302746534
0.007249101530760527,0.0038054711185395718,0.0016144228866323829,-0.007642489392310381,0.0014336513122543693,0.0030116981361061335
0.006312988232821226,0.003759035374969244,0.0016389935044571757,-0.007409575395286083,0.0013909369008615613,0.003110242309048772
0.006381206214427948,0.004290369339287281,0.0016572547610849142,-0.007258046884089708,0.0014591371873393655,0.0032714055851101875
0.007260824088007212,0.004157437477260828,0.0015401586424559355,-0.007457922212779522,0.0014824863756075501,0.0030937865376472473
0.006893126294016838,0.0043998886831104755,0.0014437171630561352,-0.007543263491243124,0.0014059195527806878,0.002837239997461438
0.007143890485167503,0.00414668582379818,0.0014612850500270724,-0.00767733808606863,0.0013528194976970553,0.002721260767430067
0.006461361423134804,0.00420401431620121,0.0014886392746120691,-0.00686425156891346,0.0014096114318817854,0.002751767635345459
0.006617555394768715,0.0041276453994214535,0.0014814360765740275,-0.0073317294009029865,0.0013459448236972094,0.002894999459385872
0.00702818064019084,0.0043665748089551926,0.0015103686600923538,-0.007952568121254444,0.0014378057094290853,0.0030711370054632425
0.006815491709858179,0.004351167008280754,0.0012739392695948482,-0.007991640828549862,0.0017164559103548527,0.0031812256202101707
0.006815491709858179,0.004351167008280754,0.0012739392695948482,-0.007991640828549862,0.0017164559103548527,0.0031812256202101707
0.007582879159599543,0.004475891124457121,0.0012727604480460286,-0.007714178413152695,0.0016552977031096816,0.0031725717708468437
0.007647134363651276,0.004424660932272673,0.0012911007506772876,-0.008074471727013588,0.0016275098314508796,0.0030699975322932005
0.006094303447753191,0.004487698897719383,0.0012569103855639696,-0.007857383228838444,0.0017223331378772855,0.003066959325224161
0.007128543686121702,0.004161744844168425,0.0012032520025968552,-0.007767843548208475,0.0018361714901402593,0.0034160478971898556
0.007479238789528608,0.00434913532808423,0.0011426167329773307,-0.008086279034614563,0.002051069401204586,0.0031953188590705395
0.007330498658120632,0.004701297264546156,0.0010520941577851772,-0.008114341646432877,0.002018882194533944,0.0033182590268552303
0.006865295581519604,0.004549229983240366,0.0010272858198732138,-0.0076146055944263935,0.0019528662087395787,0.002982388949021697
0.0070565533824265,0.005010246764868498,0.0011043206322938204,-0.008089912123978138,0.0018405538285151124,0.002954090479761362
0.007070248480886221,0.004796977154910564,0.0011981212301179767,-0.008383184671401978,0.001623776857741177,0.0031645451672375202
0.007171946112066507,0.004336993675678968,0.0012089041993021965,-0.0076423822902143,0.0016676662489771843,0.003589249448850751
0.007100699469447136,0.004394595976918936,0.0011139046400785446,-0.007695717271417379,0.0017713650595396757,0.004006043076515198
0.006921734660863876,0.0043622227385640144,0.001112255617044866,-0.0076276217587292194,0.0019181520910933614,0.0036410505417734385
0.007256433367729187,0.0044637443497776985,0.0010701401624828577,-0.0075461165979504585,0.0018917975248768926,0.0032484959810972214
0.007446435280144215,0.005163249559700489,0.0010461275232955813,-0.007372220046818256,0.0020654795225709677,0.0031586966942995787
0.007451774552464485,0.00531548447906971,0.0011213058605790138,-0.007628431543707848,0.002112698508426547,0.0033717898186296225
0.007377891335636377,0.004870004486292601,0.0012059459695592523,-0.00805275421589613,0.0019013258861377835,0.0033814748749136925
0.007377891335636377,0.004870004486292601,0.0012059459695592523,-0.00805275421589613,0.0019013258861377835,0.0033814748749136925
0.007491216063499451,0.004652257077395916,0.001359061454422772,-0.008323957212269306,0.0017214921535924077,0.003453110810369253
0.007763698697090149,0.004761753138154745,0.0013153916224837303,-0.007800601422786713,0.0015763894189149141,0.0036868301685899496
0.00755337392911315,0.0045280447229743,0.0013127978891134262,-0.008109614253044128,0.0015493044629693031,0.0034202635288238525
0.007308955304324627,0.004614072386175394,0.0012382057029753923,-0.008221503347158432,0.001665716408751905,0.0035523881670087576
0.007583875674754381,0.005126711912453175,0.0011747218668460846,-0.0077438149601221085,0.0017348722321912646,0.003642628202214837
0.007609033491462469,0.004875869955867529,0.001131167053245008,-0.007133140228688717,0.0018984134076163173,0.0037304817233234644
0.0078404126688838,0.004547847900539637,0.0009821566054597497,-0.0069663310423493385,0.0018112919060513377,0.0038538959342986345
0.007507763337343931,0.0043199192732572556,0.0008304630173370242,-0.007215525954961777,0.0017380538629367948,0.0034253313206136227
0.008238650858402252,0.004334325902163982,0.0007012480054982007,-0.006955239921808243,0.0015978305600583553,0.003110085381194949
0.008578900247812271,0.004187438637018204,0.0007226056768558919,-0.006402577273547649,0.001605318277142942,0.0031905861105769873
0.007886096835136414,0.0045615253038704395,0.0006673681200481951,-0.0069061522372066975,0.0014938965905457735,0.0036458242684602737
0.007886096835136414,0.0045615253038704395,0.0006673681200481951,-0.0069061522372066975,0.0014938965905457735,0.0036458242684602737
0.008116996847093105,0.0034595527686178684,0.0005611185333691537,-0.006300785578787327,0.0017123662400990725,0.0034967807587236166
0.008093634620308876,0.003431144868955016,0.0002677040174603462,-0.006057803984731436,0.0018553470727056265,0.0037704110145568848
0.008623666130006313,0.0036170221865177155,0.00010899730841629207,-0.0056915576569736,0.002169166225939989,0.00395874073728919
0.00850446056574583,0.003750456962734461,9.334391506854445e-05,-0.005411088000983,0.002160485601052642,0.003982252907007933
0.007881425321102142,0.0033403399866074324,0.0001654434745432809,-0.005035616457462311,0.001922402298077941,0.004003410693258047
0.007958558388054371,0.003240462625399232,0.00015446444740518928,-0.005370108410716057,0.0017439840594306588,0.003732056589797139
0.00813237763941288,0.0034235073253512383,0.00014229312364477664,-0.005283024162054062,0.0015261872904375196,0.0034867809154093266
0.008375466801226139,0.003591632004827261,6.688795838272199e-05,-0.005424811039119959,0.0015727045247331262,0.0036607845686376095
0.008419210091233253,0.0034221631940454245,6.144470535218716e-05,-0.005296026356518269,0.0019052678253501654,0.003917519003152847
0.0083615155890584,0.003080677939578891,5.75058875256218e-05,-0.00468792486935854,0.0018701216904446483,0.0040246848948299885
0.00863475352525711,0.002961215330287814,1.867831997515168e-05,-0.004521743860095739,0.0020939905662089586,0.003909721504896879
0.008748898282647133,0.0028077629394829273,2.505935299268458e-07,-0.004445374011993408,0.0019601492676883936,0.003778408747166395
0.008452455513179302,0.002848981646820903,3.3620317640981057e-09,-0.004129879176616669,0.001824490842409432,0.0037290463224053383
0.008571424521505833,0.002970906440168619,4.510594675544155e-11,-0.0045769549906253815,0.0017794090090319514,0.0036889510229229927
0.008839152753353119,0.002930388553068042,6.05153839365602e-13,-0.005473368335515261,0.0016538944328203797,0.003710638266056776
0.008255689404904842,0.003189937910065055,8.118910749320245e-15,-0.005414355080574751,0.0015738424845039845,0.0037530483677983284
0.008659401908516884,0.0029673585668206215,1.0892555842837134e-16,-0.004949805326759815,0.0014869649894535542,0.0037530879490077496
0.008659401908516884,0.0029673585668206215,1.0892555842837134e-16,-0.004949805326759815,0.0014869649894535542,0.0037530879490077496
0.008907009847462177,0.0029875291511416435,1.461375438704065e-18,-0.004245376214385033,0.0016290536150336266,0.003793843323364854
0.008407702669501305,0.002887575887143612,1.9606217772882595e-20,-0.003844002028927207,0.001551066292449832,0.0038725687190890312
0.008810312487185001,0.002556087914854288,2.630424250499041e-22,-0.003997155465185642,0.001687659532763064,0.0038449421990662813
0.008882269263267517,0.0026712464168667793,3.529049723318529e-24,-0.004126829095184803,0.0017354869050905108,0.003791606752201915
0.009001024067401886,0.0028385729528963566,4.734671046319395e-26,-0.004734754096716642,0.0017863585380837321,0.004279270768165588
0.008806006982922554,0.003202358027920127,6.35216521678366e-28,-0.004984752275049686,0.0017945792060345411,0.00414110766723752
0.00912260077893734,0.003183335065841675,8.522240003913519e-30,-0.005143101792782545,0.0016343831084668636,0.003909471910446882
0.009156005457043648,0.003048583399504423,1.1433672673682688e-31,-0.005705161951482296,0.0016948895063251257,0.003919411450624466
0.009704070165753365,0.003258878830820322,-0.0004544749390333891,-0.006063892040401697,0.001989274052903056,0.004762004595249891
0.009688129648566246,0.0031524712685495615,-0.0004139778611715883,-0.006349088158458471,0.002113168593496084,0.004809679929167032
0.009066333062946796,0.003271327121183276,-0.0003791051567532122,-0.006485795136541128,0.0020842570811510086,0.004514283034950495
0.009121747687458992,0.003206126159057021,-0.0003496399731375277,-0.006095490884035826,0.002067869296297431,0.0040855128318071365
0.009490002878010273,0.0034777873661369085,-0.0003244265681132674,-0.005936176981776953,0.002022982109338045,0.004187857732176781
0.009557169862091541,0.003674645908176899,-0.0003026057966053486,-0.006219247821718454,0.001953517086803913,0.004608767572790384
0.009266574867069721,0.0037675986532121897,-0.0002835353370755911,-0.006228846497833729,0.0018070272635668516,0.004846273455768824
0.009972438216209412,0.003390636993572116,-0.0002667267108336091,-0.006446898449212313,0.00173362682107836,0.004805809818208218
0.00967465341091156,0.0033012807834893465,-0.0003330589970573783,-0.005799964070320129,0.0017872679745778441,0.004552810452878475
0.009591476060450077,0.003485411172732711,-0.000569147290661931,-0.0053743175230920315,0.0017812182195484638,0.004407242871820927
0.009591476060450077,0.003485411172732711,-0.000569147290661931,-0.0053743175230920315,0.0017812182195484638,0.004407242871820927
0.009675693698227406,0.0037015220150351524,-0.003911356907337904,-0.005125365685671568,0.0018715023761615157,0.004151659552007914
0.009682371281087399,0.0037697949446737766,-0.0025225887075066566,-0.005124158225953579,0.0019855094142258167,0.004742476623505354
0.009682371281087399,0.0037697949446737766,-0.0025225887075066566,-0.005124158225953579,0.0019855094142258167,0.004742476623505354
0.009890277869999409,0.004225323908030987,-0.0006531589315272868,-0.0053802235051989555,0.001979651628062129,0.00463250745087862
0.009890277869999409,0.004225323908030987,-0.0006531589315272868,-0.0053802235051989555,0.001979651628062129,0.00463250745087862
0.00963595975190401,0.004000520333647728,-0.0007433994323946536,-0.0060056354850530624,0.0018982375040650368,0.0041254120878875256
0.009979547932744026,0.003965596668422222,-0.0012934673577547073,-0.007060554809868336,0.00208809832111001,0.004371881950646639
0.010361839085817337,0.0045117661356925964,-0.0031331488862633705,-0.0067583173513412476,0.0023099412210285664,0.004561372101306915
0.009876634925603867,0.004691713023930788,-0.002351317321881652,-0.00594506599009037,0.002465463476255536,0.004288013558834791
0.009767496027052402,0.00423636008054018,-0.0015668101841583848,-0.0051602148450911045,0.0026013420429080725,0.004343566484749317
0.010173449292778969,0.0040241628885269165,-0.0013886020751670003,-0.004776280838996172,0.0023138034157454967,0.004486477468162775
0.009987828321754932,0.004070362076163292,-0.0012821945128962398,-0.005246470682322979,0.0020215874537825584,0.004576713312417269
0.009949352592229843,0.004052594304084778,-0.0012338929809629917,-0.005646843928843737,0.0017811600118875504,0.004883741959929466
0.00976796355098486,0.004263818729668856,-0.0010048698168247938,-0.006026025861501694,0.001678252243436873,0.004802000243216753
0.010714614763855934,0.004635448567569256,-0.001127050258219242,-0.005810795351862907,0.001612575026229024,0.004715374670922756
0.009384948760271072,0.004260724876075983,-0.001581275835633278,-0.0053914631716907024,0.0017569947522133589,0.004853377118706703
0.01067251618951559,0.0040676589123904705,-0.0014820304932072759,-0.005280143581330776,0.0015710598090663552,0.004661830607801676
0.0101272938773036,0.004445087630301714,-0.0014720993349328637,-0.005445908755064011,0.0015226955292746425,0.0048591759987175465
0.009378883987665176,0.004634987097233534,-0.00134914496447891,-0.00570412864908576,0.0014472370967268944,0.005310610868036747
0.010534215718507767,0.005171383731067181,-0.0013060907367616892,-0.005806152243167162,0.0014299321919679642,0.005092435050755739
0.010056986473500729,0.005011721979826689,-0.0014714710414409637,-0.006341577973216772,0.0015075443079695106,0.0049259476363658905
0.009545020759105682,0.004550461657345295,-0.0014647106872871518,-0.006675517652183771,0.0020318939350545406,0.004792981315404177
0.010453873313963413,0.004263720009475946,-0.002243341878056526,-0.006179096642881632,0.0019888365641236305,0.004387418739497662
0.010453873313963413,0.004263720009475946,-0.002243341878056526,-0.006179096642881632,0.0019888365641236305,0.004387418739497662
0.011541890911757946,0.004930175840854645,-0.002005112124606967,-0.006013016682118177,0.0021119832526892424,0.004759557545185089
0.011439145542681217,0.004984852857887745,-0.0017533982172608376,-0.005958077497780323,0.0022492946591228247,0.005535084288567305
0.01126891653984785,0.005857415497303009,-0.0015504052862524986,-0.006181743461638689,0.0023118089884519577,0.0052323248237371445
0.01126891653984785,0.005857415497303009,-0.0015504052862524986,-0.006181743461638689,0.0023118089884519577,0.0052323248237371445
0.011195373721420765,0.005408174823969603,-0.0015494709368795156,-0.006086203269660473,0.0022168061695992947,0.004993767011910677
0.011905508115887642,0.004453183617442846,-0.0021008439362049103,-0.006098498124629259,0.002060557948425412,0.004736956674605608
0.011892476119101048,0.004484131000936031,-0.001982497749850154,-0.006475868634879589,0.0019925932865589857,0.004640699829906225
0.011627298779785633,0.005624263547360897,-0.0023263164330273867,-0.006488811690360308,0.00192341860383749,0.005098579917103052
0.011690188199281693,0.0055360994301736355,-0.0020594140514731407,-0.00581470737233758,0.0018369121244177222,0.005080068949609995
0.011681600473821163,0.00597621314227581,-0.0020006985869258642,-0.00580900302156806,0.0018064500764012337,0.004844408016651869
0.011679494753479958,0.005287748761475086,-0.0022020607721060514,-0.0052884602919220924,0.0018797669326886535,0.004820074886083603
0.011759210377931595,0.005188348703086376,-0.002221157308667898,-0.005768659058958292,0.002245162380859256,0.005203026346862316
0.012022222392261028,0.005162560846656561,-0.0025276653468608856,-0.006251135841012001,0.0025095008313655853,0.005023858975619078
0.011896556243300438,0.0060402220115065575,-0.002727699698880315,-0.0061432006768882275,0.002545061055570841,0.0050500831566751
0.012538870796561241,0.0049270945601165295,-0.002651670714840293,-0.005589299835264683,0.002528786426410079,0.004930107854306698
0.011756393127143383,0.005114221945405006,-0.0028669920284301043,-0.005249598994851112,0.0019117947667837143,0.005512812174856663
0.012052223086357117,0.005429674871265888,-0.002905278466641903,-0.005705784074962139,0.0018689867574721575,0.005345785990357399
0.012018627487123013,0.005081526003777981,-0.0027395111974328756,-0.005689111538231373,0.002058131853118539,0.005327132064849138
0.012154257856309414,0.005198852624744177,-0.002917650854215026,-0.005980663001537323,0.002561985282227397,0.00513843260705471
0.012206981889903545,0.005125116556882858,-0.0029415886383503675,-0.005617407150566578,0.002544076181948185,0.005165641661733389
0.01189859863370657,0.005363823845982552,-0.00292492494918406,-0.005301521625369787,0.002479077549651265,0.005045587662607431
0.012121474370360374,0.005497622769325972,-0.002708280459046364,-0.00513965729624033,0.0022225044667720795,0.005434208083897829
0.012141400948166847,0.005038158036768436,-0.002846582792699337,-0.005450264550745487,0.0020683775655925274,0.005264999810606241
0.012112506665289402,0.005490298382937908,-0.0029884325340390205,-0.005588950589299202,0.0019411433022469282,0.005364303011447191
0.01200834196060896,0.0052584572695195675,-0.003512220922857523,-0.0058877491392195225,0.0020230435766279697,0.0053994678892195225
0.012571479193866253,0.006026385817676783,-0.003768531372770667,-0.005563071928918362,0.0021814783103764057,0.005484264809638262
0.012501485645771027,0.0054567898623645306,-0.0033119970466941595,-0.005372883751988411,0.0021974463015794754,0.005652144551277161
0.012501485645771027,0.0054567898623645306,-0.0033119970466941595,-0.005372883751988411,0.0021974463015794754,0.005652144551277161
0.012481224723160267,0.005294437520205975,-0.002832499798387289,-0.005488989874720573,0.0021254797466099262,0.006018337793648243
0.012579874135553837,0.005515212658792734,-0.0026009059511125088,-0.005689521785825491,0.0020591372158378363,0.005748949944972992
0.012281295843422413,0.005522504448890686,-0.0031801830045878887,-0.005986398551613092,0.0021006991155445576,0.0059286062605679035
0.012540021911263466,0.0057566347531974316,-0.003717872081324458,-0.006050406023859978,0.0020574990194290876,0.0056917984038591385
0.01253296248614788,0.00618143891915679,-0.0037829442881047726,-0.005993740167468786,0.0022455030120909214,0.0058004288002848625
0.012743438594043255,0.005551215261220932,-0.0036614779382944107,-0.005667520221322775,0.0025235647335648537,0.006164956837892532
0.013169990852475166,0.005758069921284914,-0.0032502731774002314,-0.005906002130359411,0.002550089731812477,0.005716441664844751
0.012656757608056068,0.005284233950078487,-0.003521551610901952,-0.005917474161833525,0.002551041543483734,0.0059295338578522205
0.012771380133926868,0.005879552569240332,-0.003822952276095748,-0.006246606819331646,0.002346921479329467,0.005766970571130514
0.012388424947857857,0.0058940378949046135,-0.003861390519887209,-0.005800324957817793,0.002209569327533245,0.005566784646362066
0.013009070418775082,0.00564179103821516,-0.0038397270254790783,-0.006144472397863865,0.002013439778238535,0.005620078649371862
0.012558449991047382,0.00549732893705368,-0.003879133379086852,-0.006471951492130756,0.0019505720119923353,0.0059716054238379
0.012699693441390991,0.005639861337840557,-0.003410161240026355,-0.006136148236691952,0.0018637088360264897,0.005901764612644911
0.012720804661512375,0.0058389389887452126,-0.0034725521691143513,-0.006003955844789743,0.001871164538897574,0.005949174985289574
0.012936648912727833,0.006214788183569908,-0.00427781417965889,-0.00613381015136838,0.002003014786168933,0.005615463480353355
0.012779111973941326,0.005836308468133211,-0.00436360901221633,-0.006434794515371323,0.002441037679091096,0.006610384210944176
0.013342311605811119,0.006107323337346315,-0.003992568701505661,-0.006524273660033941,0.0022757328115403652,0.006431173533201218
0.01282457821071148,0.006566323805600405,-0.004195923451334238,-0.006549610290676355,0.0025455309078097343,0.006091345567256212
0.013233473524451256,0.006441196426749229,-0.004302064888179302,-0.00648257602006197,0.002777104265987873,0.0060281902551651
0.012966521084308624,0.006269339472055435,-0.004600396379828453,-0.006780620664358139,0.0028130493592470884,0.006270950194448233
0.013153267093002796,0.006290415767580271,-0.004504658747464418,-0.006696255877614021,0.0025553456507623196,0.00612522242590785
0.013180410489439964,0.006035678554326296,-0.004559489898383617,-0.006880340166389942,0.0022251044865697622,0.006361590698361397
0.013486986979842186,0.00631106598302722,-0.004549121949821711,-0.006379243917763233,0.0022141202352941036,0.005794601980596781
0.013112359680235386,0.006105066742748022,-0.004241122864186764,-0.00658476771786809,0.0025818354915827513,0.005525633692741394
0.013264903798699379,0.005839471705257893,-0.004942810628563166,-0.006568047683686018,0.002825808012858033,0.005448864307254553
0.013264903798699379,0.005839471705257893,-0.004942810628563166,-0.006568047683686018,0.002825808012858033,0.005448864307254553
0.01347965095192194,0.005985913798213005,-0.005007229745388031,-0.006774176377803087,0.0025706191081553698,0.005822689738124609
0.013271251693367958,0.005967544391751289,-0.004803285002708435,-0.006611208897083998,0.0024345095735043287,0.006835552863776684
0.01366538554430008,0.006341379601508379,-0.004663423635065556,-0.0063453312031924725,0.0021239316556602716,0.006505047436803579
0.013611951842904091,0.006912072189152241,-0.004804326221346855,-0.006312122568488121,0.0021461688447743654,0.006055551115423441
0.013856920413672924,0.006955496035516262,-0.004731609020382166,-0.006698293145745993,0.0022849857341498137,0.006229157093912363
0.013327510096132755,0.0063437907956540585,-0.004920202773064375,-0.006716953590512276,0.002228187397122383,0.0067888060584664345
0.013540785759687424,0.006287081632763147,-0.00518281664699316,-0.00641632080078125,0.0024357845541089773,0.00688233133405447
0.013298794627189636,0.006753440015017986,-0.00489717535674572,-0.0069135334342718124,0.0024643009528517723,0.00634421082213521
0.013774851337075233,0.0064526512287557125,-0.004815334919840097,-0.006867421790957451,0.0024293523747473955,0.006466699298471212
0.013431433588266373,0.006200988776981831,-0.005211930256336927,-0.0067537883296608925,0.002295123878866434,0.006855461746454239
0.01390883233398199,0.006257966160774231,-0.005328484810888767,-0.006581002380698919,0.0022175591439008713,0.0069786678068339825
0.01356894988566637,0.006200167816132307,-0.005026442464441061,-0.007037951145321131,0.002185804070904851,0.00677235284820199
0.013955083675682545,0.006597132887691259,-0.005486425012350082,-0.007449081167578697,0.002130745444446802,0.0066491831094026566
0.013759742490947247,0.006380935199558735,-0.00518537312746048,-0.007413862738758326,0.002282623201608658,0.006539978552609682
0.013992087915539742,0.006375184748321772,-0.005513232666999102,-0.007691530976444483,0.002282914938405156,0.0069924225099384785
0.013927802443504333,0.006669387221336365,-0.005548144690692425,-0.007581357844173908,0.00247213919647038,0.006609058473259211
0.014133420772850513,0.006762611214071512,-0.005772723816335201,-0.007462240289896727,0.0027044941671192646,0.0064972504042088985
0.014276552014052868,0.0059644198045134544,-0.005566928070038557,-0.006682426668703556,0.002586428541690111,0.006567870732396841
0.014053815975785255,0.006245276890695095,-0.005716684274375439,-0.006948468741029501,0.0025079865008592606,0.006713463459163904
0.01513841561973095,0.006584769580513239,-0.006077517289668322,-0.0074828085489571095,0.0024555090349167585,0.006497079040855169
0.014766070060431957,0.006465714890509844,-0.0058509111404418945,-0.007431186269968748,0.0024069510400295258,0.006878515239804983
0.01466286089271307,0.00635914271697402,-0.006200314965099096,-0.006802132818847895,0.0028155911713838577,0.006669608876109123
0.014729980379343033,0.006465943530201912,-0.005947124678641558,-0.006821809336543083,0.0027272801380604506,0.006836463697254658
0.014593644067645073,0.006582936272025108,-0.006036544684320688,-0.007150369696319103,0.0024699456989765167,0.006972714327275753
0.014593644067645073,0.006582936272025108,-0.006036544684320688,-0.007150369696319103,0.0024699456989765167,0.006972714327275753
0.013203462585806847,0.006919130217283964,-0.006463699042797089,-0.0076939258724451065,0.002101275837048888,0.006684224121272564
0.015172649174928665,0.006727114785462618,-0.005613279994577169,-0.0075227790512144566,0.0020013933535665274,0.006774833891540766
0.015133045613765717,0.007075730711221695,-0.00586630217730999,-0.007043855730444193,0.0020841946825385094,0.006811696570366621
0.014778953976929188,0.0066232942044734955,-0.0057036299258470535,-0.007440622430294752,0.0019603671971708536,0.007058657240122557
0.014620870351791382,0.0067175342701375484,-0.006434067618101835,-0.00817399937659502,0.0021893430966883898,0.006943526677787304
0.015039431862533092,0.007103615440428257,-0.006656161043792963,-0.009009716100990772,0.002049025846645236,0.006463192868977785
0.014505049213767052,0.006892840377986431,-0.005625201854854822,-0.007127502933144569,0.0020313740242272615,0.006152014713734388
0.01535901241004467,0.006444389466196299,-0.00559427822008729,-0.00681824516505003,0.0019394991686567664,0.005811537615954876
0.014696071855723858,0.007172747515141964,-0.006723407655954361,-0.007547579240053892,0.0019588142167776823,0.006282517220824957
0.01528411079198122,0.006942166946828365,-0.0070823365822434425,-0.00760472659021616,0.002173416782170534,0.006940091960132122
0.014893385581672192,0.007039529737085104,-0.006398871541023254,-0.007400562055408955,0.0021998556330800056,0.0071619655936956406
0.015304936096072197,0.0068732029758393764,-0.005983427166938782,-0.007850401103496552,0.0023666927590966225,0.0068793389946222305
0.015202585607767105,0.006632594857364893,-0.005749909672886133,-0.007885992527008057,0.0023419163189828396,0.006795236375182867
0.015322553925216198,0.006950390059500933,-0.005885353311896324,-0.0073404572904109955,0.0024911784566938877,0.006636299192905426
0.014989052899181843,0.007070482242852449,-0.007050517946481705,-0.008189389482140541,0.0021569018717855215,0.007111794780939817
0.014752174727618694,0.006390770431607962,-0.006774459965527058,-0.008205178193747997,0.0018400470726191998,0.007467180024832487
0.01512679923325777,0.00648345984518528,-0.006161132827401161,-0.0075566587038338184,0.0019295900128781796,0.006993109825998545
0.01555489283055067,0.006929677911102772,-0.0063948435708880424,-0.007887272164225578,0.002055941615253687,0.007113417144864798
0.015187572687864304,0.006620645523071289,-0.006636160891503096,-0.008276280015707016,0.002127564512193203,0.006814976688474417
0.015176218003034592,0.00714643532410264,-0.006584275048226118,-0.00830976665019989,0.002111351117491722,0.007250818889588118
0.015264357440173626,0.006613738369196653,-0.006641144398599863,-0.008336414583027363,0.0020422800444066525,0.007378160487860441
0.015219604596495628,0.006794520653784275,-0.006474808789789677,-0.008276584558188915,0.001856764080002904,0.007109546568244696
0.014996673911809921,0.0070086210034787655,-0.006990667432546616,-0.008187001571059227,0.0018264668760821223,0.007042368408292532
0.015406607650220394,0.0069922334514558315,-0.006857215892523527,-0.007867198437452316,0.0016483856597915292,0.007057894486933947
0.015269332565367222,0.007083692587912083,-0.006237313151359558,-0.008062339387834072,0.0018498270073905587,0.0071651325561106205
0.01570311188697815,0.007019610609859228,-0.006345496978610754,-0.008407690562307835,0.0023916419595479965,0.007151199039071798
0.01570311188697815,0.007019610609859228,-0.006345496978610754,-0.008407690562307835,0.0023916419595479965,0.007151199039071798
0.015433588065207005,0.0075311618857085705,-0.007242516614496708,-0.008221209980547428,0.0028217823710292578,0.0072112176567316055
0.015894507989287376,0.006885605864226818,-0.007207858841866255,-0.007592285517603159,0.0028331750072538853,0.007384088821709156
0.015568711794912815,0.0062696742825210094,-0.006608291529119015,-0.007960870862007141,0.0026518667582422495,0.007321988232433796
0.015812089666724205,0.006556362379342318,-0.006193932145833969,-0.008221589028835297,0.0022403013426810503,0.0070131332613527775
0.0157750453799963,0.007226899731904268,-0.006542393006384373,-0.00833886954933405,0.002049622591584921,0.007228134665638208
0.015853986144065857,0.006841196678578854,-0.007313825190067291,-0.007784954272210598,0.0021209244150668383,0.007517750840634108
0.016079623252153397,0.006377311423420906,-0.007531026378273964,-0.0081416554749012,0.0021316774655133486,0.007932971231639385
0.01575315184891224,0.00624694861471653,-0.006828386802226305,-0.008432114496827126,0.0023884186521172523,0.0074301292188465595
0.016110969707369804,0.0066561009734869,-0.006798340938985348,-0.007829642854630947,0.002345956163480878,0.007145310286432505
0.016078772023320198,0.007340775802731514,-0.007364898454397917,-0.008012320846319199,0.002461562631651759,0.007359523791819811
0.01654517464339733,0.006933698430657387,-0.007567161228507757,-0.00831049308180809,0.002031611045822501,0.007511444389820099
0.016164353117346764,0.006331449840217829,-0.0075661735609173775,-0.008008585311472416,0.0019209864549338818,0.007151725236326456
0.016386674717068672,0.006306059192866087,-0.0070347413420677185,-0.007953076623380184,0.002055621240288019,0.007280708756297827
0.016137057915329933,0.007165710907429457,-0.008116629905998707,-0.008195869624614716,0.002161410404369235,0.007566242478787899
0.016243580728769302,0.007150749675929546,-0.007629677653312683,-0.008508036844432354,0.002821169327944517,0.00789892952889204
0.016170283779501915,0.006930225528776646,-0.007243108004331589,-0.008342270739376545,0.002862476510927081,0.007777003571391106
0.01604238897562027,0.006507139187306166,-0.00742607144638896,-0.0078674191609025,0.0025465635117143393,0.007041718810796738
0.016108158975839615,0.006799127906560898,-0.008007500320672989,-0.008522922173142433,0.00233550276607275,0.007879408076405525
0.016830381006002426,0.006710751447826624,-0.0077668060548603535,-0.008897694759070873,0.002281447406858206,0.007987375371158123
0.016746176406741142,0.006619487889111042,-0.007561889011412859,-0.008293385617434978,0.0024439494591206312,0.007318878546357155
0.016454366967082024,0.00726673286408186,-0.0077808010391891,-0.008713544346392155,0.002620443468913436,0.007916574366390705
0.016436252743005753,0.006894251331686974,-0.007989383302628994,-0.009092697873711586,0.002588031580671668,0.00785142369568348
0.01654316671192646,0.006313476245850325,-0.008316770195960999,-0.008303019218146801,0.0026026556733995676,0.008107067085802555
0.016987953335046768,0.00666801305487752,-0.008755570277571678,-0.008708021603524685,0.002645772183313966,0.007753398269414902
0.01696416735649109,0.006629586685448885,-0.008641650900244713,-0.00911415833979845,0.002532704034820199,0.008027642965316772
0.017070043832063675,0.007232011761516333,-0.007561169099062681,-0.008678951300680637,0.0025139173958450556,0.008217321708798409
0.016826100647449493,0.006803461816161871,-0.008274237625300884,-0.008621408604085445,0.002627037465572357,0.007713918574154377
0.016826100647449493,0.006803461816161871,-0.008274237625300884,-0.008621408604085445,0.002627037465572357,0.007713918574154377
0.016600126400589943,0.006238957401365042,-0.008759545162320137,-0.008807534351944923,0.0026431246660649776,0.008039594627916813
0.016993286088109016,0.006803650874644518,-0.00881766527891159,-0.008646724745631218,0.0027774625923484564,0.00839201733469963
0.016559315845370293,0.006531720515340567,-0.008597849868237972,-0.00876868236809969,0.002788996323943138,0.008203258737921715
0.017200928181409836,0.007111762650310993,-0.008592004887759686,-0.008597787469625473,0.0028996469918638468,0.007861812599003315
0.016867375001311302,0.006469343788921833,-0.006284176837652922,-0.008311348035931587,0.002834906103089452,0.008163933642208576
0.016948778182268143,0.006532892119139433,-0.005422556772828102,-0.00806032307446003,0.0027225229423493147,0.008606812916696072
0.017297010868787766,0.0068599758669734,-0.00533868046477437,-0.008928081952035427,0.0025092812720686197,0.008578065782785416
0.01659122109413147,0.006816542241722345,-0.006389088928699493,-0.009844483807682991,0.0022945827804505825,0.008385646156966686
0.017693443223834038,0.006572368089109659,-0.007029426749795675,-0.009644737467169762,0.0024549507070332766,0.008851681835949421
0.017491484060883522,0.006246096454560757,-0.006905765272676945,-0.009164877235889435,0.00272791157476604,0.008532047271728516
0.01751052588224411,0.006617944221943617,-0.006283546332269907,-0.008624831214547157,0.003282519755885005,0.008190489374101162
0.01741984859108925,0.006723249796777964,-0.0055331881158053875,-0.007828492671251297,0.0030394254717975855,0.007870042696595192
0.017001541331410408,0.006483590230345726,-0.005766351707279682,-0.007614527828991413,0.0024794095661491156,0.008144676685333252
0.01888473704457283,0.006393953692167997,-0.0071483189240098,-0.008618823252618313,0.0022543147206306458,0.00847542006522417
0.018612172454595566,0.006607131101191044,-0.006914770230650902,-0.00851549580693245,0.00219583953730762,0.00811752863228321
0.017535485327243805,0.006764157209545374,-0.0062299445271492004,-0.008245582692325115,0.002561397384852171,0.008224423974752426
0.018349600955843925,0.0067033423110842705,-0.005941295996308327,-0.007652095053344965,0.0030997139401733875,0.008085513487458229
0.018560582771897316,0.006317941937595606,-0.005862041376531124,-0.007821643725037575,0.0029631590005010366,0.007972273044288158
0.018950706347823143,0.006566584575921297,-0.006541837472468615,-0.00782714132219553,0.0028231951873749495,0.008189084008336067
0.018315820023417473,0.007249845191836357,-0.006619208492338657,-0.008538293652236462,0.0030193692073225975,0.008270040154457092
0.018862400203943253,0.007259385194629431,-0.006277034059166908,-0.00858096219599247,0.0028544894885271788,0.008318860083818436
0.01952330954372883,0.007245955523103476,-0.006330755539238453,-0.008038428612053394,0.0029402871150523424,0.008342968299984932
0.019114399328827858,0.007497632876038551,-0.006694701500236988,-0.00816162396222353,0.00298017798922956,0.008265551179647446
0.018988177180290222,0.006891706958413124,-0.006563419010490179,-0.0094067407771945,0.0030717968475073576,0.008334669284522533
0.01950320601463318,0.008095505647361279,-0.00711786886677146,-0.009115439839661121,0.003335421672090888,0.008668103255331516
0.01927846111357212,0.007159503176808357,-0.007460623513907194,-0.008521116338670254,0.0031822132878005505,0.008283443748950958
0.019134126603603363,0.006899570114910603,-0.007400684058666229,-0.008888179436326027,0.0032913843169808388,0.008518246002495289
0.01913612335920334,0.007056300062686205,-0.007268349174410105,-0.008428039029240608,0.0035028012935072184,0.009262317791581154
0.01908974163234234,0.007424230221658945,-0.006756956223398447,-0.00796651840209961,0.0036747329868376255,0.010149585083127022
0.01908974163234234,0.007424230221658945,-0.006756956223398447,-0.00796651840209961,0.0036747329868376255,0.010149585083127022
0.01973521150648594,0.006951391696929932,-0.007891631685197353,-0.009080705232918262,0.003159929532557726,0.00903819315135479
0.01973521150648594,0.006951391696929932,-0.007891631685197353,-0.009080705232918262,0.003159929532557726,0.00903819315135479
0.019612735137343407,0.007070991210639477,-0.008652083575725555,-0.009472161531448364,0.0034409768413752317,0.009172191843390465
0.019405711442232132,0.007829013280570507,-0.007959689013659954,-0.00869488250464201,0.0033172445837408304,0.0092216981574893
0.019504263997077942,0.007440218701958656,-0.007060936186462641,-0.008918953128159046,0.0034639285877346992,0.008870876394212246
0.019478147849440575,0.007086596917361021,-0.007494194898754358,-0.009029300883412361,0.0031706008594483137,0.009321915917098522
0.019566787406802177,0.006974807009100914,-0.008165329694747925,-0.008688242174685001,0.0031091850250959396,0.008960967883467674
0.019892698153853416,0.00777658773586154,-0.007772020995616913,-0.00946374237537384,0.0029345578514039516,0.008851195685565472
0.01937941461801529,0.0075303022749722,-0.0076816389337182045,-0.009862755425274372,0.0030005217995494604,0.008992074988782406
0.0188809335231781,0.007200002670288086,-0.00798909179866314,-0.008999064564704895,0.0033988822251558304,0.009175215847790241
0.019819363951683044,0.007367274723947048,-0.007712156977504492,-0.008496680296957493,0.003298307303339243,0.008936859667301178
0.019530361518263817,0.008029108867049217,-0.007373739965260029,-0.009388908743858337,0.003146685194224119,0.009046491235494614
0.019139865413308144,0.00759107293561101,-0.007602530997246504,-0.00910851638764143,0.0031159454956650734,0.009311788715422153
0.01965382508933544,0.007560021243989468,-0.008764460682868958,-0.00903208740055561,0.0031001977622509003,0.009243843145668507
0.019448960199952126,0.008197363466024399,-0.008385378867387772,-0.009127355180680752,0.003424533409997821,0.009109392762184143
0.01933470368385315,0.008403506129980087,-0.007970171980559826,-0.009029925800859928,0.0037280498072504997,0.009281164966523647
0.019971253350377083,0.007620844524353743,-0.008545372635126114,-0.008532104082405567,0.003372733946889639,0.00928743090480566
0.019946930930018425,0.007376798428595066,-0.008501769043505192,-0.008972689509391785,0.003004784695804119,0.00889128539711237
0.02008778415620327,0.008244885131716728,-0.008673804812133312,-0.008962237276136875,0.0033554821275174618,0.00931569468230009
0.02077801339328289,0.007643633056432009,-0.008496970869600773,-0.009207824245095253,0.0038419689517468214,0.009430572390556335
0.020083894953131676,0.008110286667943,-0.008257714100182056,-0.009105805307626724,0.0035980858374387026,0.009128320030868053
0.0202395711094141,0.008535197004675865,-0.007920874282717705,-0.008914775215089321,0.0035052422899752855,0.009467920288443565
0.020406510680913925,0.008268112316727638,-0.00857184361666441,-0.009031612426042557,0.0032075271010398865,0.009550544433295727
0.020324381068348885,0.008177385665476322,-0.00890406221151352,-0.009686372242867947,0.003082414623349905,0.009545709937810898
0.020473262295126915,0.009129454381763935,-0.008584661409258842,-0.009464536793529987,0.0031585681717842817,0.00999589916318655
0.02064947783946991,0.008884018287062645,-0.007994390092790127,-0.009074127301573753,0.0034585949033498764,0.00969107635319233
0.020889535546302795,0.008355805650353432,-0.008601848967373371,-0.009471041150391102,0.0035739829763770103,0.009381593205034733
0.02189457230269909,0.008268935605883598,-0.008461378514766693,-0.009379256516695023,0.0035916806664317846,0.009755467996001244
0.02189457230269909,0.008268935605883598,-0.008461378514766693,-0.009379256516695023,0.0035916806664317846,0.009755467996001244
0.020978568121790886,0.008819366805255413,-0.008791392669081688,-0.009922978468239307,0.003609222825616598,0.010115750133991241
0.021645817905664444,0.008688393980264664,-0.009975533932447433,-0.00993749313056469,0.0035746244248002768,0.010027836076915264
0.0212599728256464,0.009038231335580349,-0.008808051235973835,-0.009519701823592186,0.003314738627523184,0.009979059919714928
0.020422054454684258,0.011014673858880997,-0.008214919827878475,-0.009037768468260765,0.003440400119870901,0.009609857574105263
0.021337060257792473,0.010984165593981743,-0.008880739100277424,-0.009115994907915592,0.0037396030966192484,0.009281435050070286
0.021924206987023354,0.01046094112098217,-0.00938479695469141,-0.009504118002951145,0.004106487147510052,0.009723425842821598
0.02197556011378765,0.010829351842403412,-0.009138265624642372,-0.009431058540940285,0.004231696017086506,0.01016964577138424
0.02147432416677475,0.010795765556395054,-0.01035311445593834,-0.009860306978225708,0.003614259185269475,0.010037754662334919
0.02164962887763977,0.010174142196774483,-0.009161988273262978,-0.009778875857591629,0.003556301584467292,0.009812320582568645
0.022587519139051437,0.01084684394299984,-0.009065923281013966,-0.008944951929152012,0.003728758543729782,0.009756987914443016
0.022535422816872597,0.010732315480709076,-0.00869689229875803,-0.009342269040644169,0.003359880531206727,0.010151801630854607
0.021718820556998253,0.011015251278877258,-0.009248602204024792,-0.009828769601881504,0.0031276617664843798,0.010208499617874622
0.021799705922603607,0.010886489413678646,-0.009526923298835754,-0.00980591680854559,0.0031487189698964357,0.009900416247546673
0.021885696798563004,0.01063935924321413,-0.00998428650200367,-0.010247251018881798,0.003489557420834899,0.009697975590825081
0.022343164309859276,0.010792040266096592,-0.009903600439429283,-0.009546402841806412,0.0037309681065380573,0.009647468104958534
0.022548789158463478,0.010585186071693897,-0.009109241887927055,-0.009414460510015488,0.0038252242375165224,0.009746414609253407
0.02235829457640648,0.010697833262383938,-0.008855083025991917,-0.009326458908617496,0.003907965961843729,0.009655795060098171
0.022642655298113823,0.010934140533208847,-0.009981315582990646,-0.009183677844703197,0.003986934199929237,0.00978794228285551
0.022822536528110504,0.010753107257187366,-0.009566905908286572,-0.009567786008119583,0.0033237915486097336,0.010440075770020485
0.0224305447191,0.01124433521181345,-0.009558764286339283,-0.010235472582280636,0.003070397535338998,0.009878095239400864
0.022552834823727608,0.01052117720246315,-0.009158593602478504,-0.009169303812086582,0.003377447370439768,0.009671102277934551
0.022930851206183434,0.011556382291018963,-0.009054102934896946,-0.009159848093986511,0.003721641842275858,0.010225239209830761
0.023153522983193398,0.010967561975121498,-0.010415575467050076,-0.010084157809615135,0.003924726042896509,0.009411142207682133
0.022520683705806732,0.0103028928861022,-0.01009189710021019,-0.009987011551856995,0.0039380923844873905,0.010628342628479004
0.02390545979142189,0.011483787558972836,-0.009712276980280876,-0.010002564638853073,0.004229082725942135,0.010997358709573746
0.02342933788895607,0.01097388006746769,-0.010416761040687561,-0.01067228801548481,0.0045145414769649506,0.010275854729115963
0.023437034338712692,0.010700498707592487,-0.009888172149658203,-0.010177279822528362,0.003904191078618169,0.009967010468244553
0.023657700046896935,0.011286497116088867,-0.009589912369847298,-0.010400962084531784,0.0034093824215233326,0.01040811836719513
0.023586079478263855,0.010865150950849056,-0.010603080503642559,-0.010896271094679832,0.003270468208938837,0.009992210194468498
0.02365095354616642,0.01118010375648737,-0.010148560628294945,-0.010728005319833755,0.0034591034054756165,0.009875060059130192
0.023373425006866455,0.010571696795523167,-0.009826782159507275,-0.010342702269554138,0.003695074236020446,0.010491452179849148
0.02372070774435997,0.01072189211845398,-0.01002202183008194,-0.010068830102682114,0.00408796314150095,0.01071899849921465
0.024181367829442024,0.01154061034321785,-0.009884499944746494,-0.010400979779660702,0.004519107285887003,0.010364607907831669
0.024052461609244347,0.01084701344370842,-0.010280775837600231,-0.010822354815900326,0.0042745331302285194,0.010054830461740494
0.024052461609244347,0.01084701344370842,-0.010280775837600231,-0.010822354815900326,0.0042745331302285194,0.010054830461740494
0.023724880069494247,0.010944394394755363,-0.010464142076671124,-0.010911032557487488,0.0039007775485515594,0.010083016008138657
0.023670993745326996,0.01110625360161066,-0.010314302518963814,-0.01046559028327465,0.0033566905185580254,0.010043447837233543
0.023767750710248947,0.010777011513710022,-0.010093403048813343,-0.01026834361255169,0.0034394061658531427,0.010170729830861092
0.023765388876199722,0.011049171909689903,-0.010318444110453129,-0.009723636321723461,0.004240426234900951,0.010486817918717861
0.024245087057352066,0.010814238339662552,-0.009408791549503803,-0.009646610356867313,0.004511009436100721,0.010716947726905346
0.024495886638760567,0.010734329000115395,-0.010688738897442818,-0.010247278958559036,0.004356979858130217,0.010665870271623135
0.024448253214359283,0.010620837099850178,-0.010220945812761784,-0.009924408979713917,0.004097073804587126,0.01037080679088831
0.02426232397556305,0.010451797395944595,-0.009497568942606449,-0.010107342153787613,0.003922988660633564,0.010619007982313633
0.024421852082014084,0.010592203587293625,-0.010160597041249275,-0.010583436116576195,0.003804089967161417,0.01090539526194334
0.025155793875455856,0.01021125540137291,-0.009365297853946686,-0.009965509176254272,0.003736534621566534,0.01051640510559082
0.025233222171664238,0.010711682960391045,-0.010223782621324062,-0.010289033874869347,0.00388865964487195,0.010754650458693504
0.024902457371354103,0.010172558017075062,-0.010509476996958256,-0.010291951708495617,0.003508093301206827,0.010541766881942749
0.025216488167643547,0.010532127693295479,-0.009559771977365017,-0.01068943552672863,0.0035680539440363646,0.010440878570079803
0.025412030518054962,0.01111955102533102,-0.009633787907660007,-0.010333362966775894,0.0042450036853551865,0.010199188254773617
0.02597421035170555,0.010566681623458862,-0.009528419002890587,-0.010120105929672718,0.004194173496216536,0.010478364303708076
0.026386519894003868,0.010081375949084759,-0.009282504208385944,-0.010326373390853405,0.004261360503733158,0.010636881925165653
0.02558872289955616,0.010726718232035637,-0.010090898722410202,-0.01057705283164978,0.004276489373296499,0.0110324677079916
0.023108676075935364,0.01032563578337431,-0.01059816125780344,-0.010290958918631077,0.0036377287469804287,0.011120296083390713
0.026395995169878006,0.010453022085130215,-0.009286557324230671,-0.011570590548217297,0.004011200275272131,0.01080039981752634
0.026669396087527275,0.010538872331380844,-0.009535428136587143,-0.010108564980328083,0.004195512738078833,0.010905090719461441
0.02614879421889782,0.010660321451723576,-0.00977393239736557,-0.009775117971003056,0.004366734530776739,0.01114768534898758
0.025852611288428307,0.011317805387079716,-0.00948313344269991,-0.010522953234612942,0.004687880165874958,0.011076804250478745
0.026634523645043373,0.010232795961201191,-0.010147380642592907,-0.010372273623943329,0.004563616123050451,0.011277332901954651
0.026872271671891212,0.009672805666923523,-0.010230776853859425,-0.010236513800919056,0.004030132200568914,0.011049306020140648
0.026872271671891212,0.009672805666923523,-0.010230776853859425,-0.010236513800919056,0.004030132200568914,0.011049306020140648
0.02538898028433323,0.010250129736959934,-0.009685957804322243,-0.00962664932012558,0.003782214131206274,0.011173632927238941
0.02538898028433323,0.010250129736959934,-0.009685957804322243,-0.00962664932012558,0.003782214131206274,0.011173632927238941
0.02495826594531536,0.010726602748036385,-0.010362569242715836,-0.010391434654593468,0.00384907447732985,0.011181279085576534
0.026073643937706947,0.01044568233191967,-0.009947352111339569,-0.010619581677019596,0.004344552755355835,0.011095860973000526
0.0267122071236372,0.00972665660083294,-0.010305260308086872,-0.010071669705212116,0.0042157708667218685,0.011418266221880913
0.026464901864528656,0.009972814470529556,-0.009871684946119785,-0.010793976485729218,0.004373979289084673,0.01104414090514183
0.026755440980196,0.010605416260659695,-0.009428044781088829,-0.010415771044790745,0.004345904570072889,0.011134274303913116
0.02655703015625477,0.010477256029844284,-0.009832113049924374,-0.009960006922483444,0.004213308449834585,0.011241797357797623
0.026677893474698067,0.01015555765479803,-0.010120974853634834,-0.010757957585155964,0.003777158912271261,0.01100941002368927
0.02660565823316574,0.01080473605543375,-0.010170726105570793,-0.010803774930536747,0.003429782809689641,0.011146443895995617
0.02670680359005928,0.010503160767257214,-0.01003635860979557,-0.010869503021240234,0.003745773108676076,0.01149129867553711
0.026867233216762543,0.010168145410716534,-0.009671268984675407,-0.011297202669084072,0.004234216175973415,0.0108305299654603
0.026808086782693863,0.0102953827008605,-0.009737081825733185,-0.010505728423595428,0.004436948802322149,0.011748050339519978
0.026707859709858894,0.010711225681006908,-0.010112466290593147,-0.011109569109976292,0.0043592448346316814,0.011728055775165558
0.02655797265470028,0.010901287198066711,-0.009402276016771793,-0.010848760604858398,0.004129939246922731,0.01163879968225956
0.026632841676473618,0.009922094643115997,-0.010247161611914635,-0.011186191812157631,0.004346799571067095,0.011430700309574604
0.02699876017868519,0.010957656428217888,-0.00971496943384409,-0.011238384060561657,0.004244329873472452,0.011363282799720764
0.027460692450404167,0.010327320545911789,-0.009154275059700012,-0.011616879142820835,0.004407632630318403,0.011043393053114414
0.02697226032614708,0.010179845616221428,-0.010893186554312706,-0.011783498339354992,0.0044437432661652565,0.011300422251224518
0.02731766365468502,0.010940080508589745,-0.010156597010791302,-0.011099975556135178,0.004921706393361092,0.01154723297804594
0.02734254114329815,0.010348561219871044,-0.009372699074447155,-0.011464635841548443,0.004731370601803064,0.01169152557849884
0.028084024786949158,0.010494846850633621,-0.010448102839291096,-0.011751668527722359,0.004536606837064028,0.01205829344689846
0.02872137911617756,0.0105604138225317,-0.009409007616341114,-0.010807144455611706,0.004023528192192316,0.011937438510358334
0.028383228927850723,0.01086079515516758,-0.009425071999430656,-0.01117216981947422,0.003767650807276368,0.011907331645488739
0.027135653421282768,0.010418367572128773,-0.009821988642215729,-0.01100621372461319,0.0042322175577282906,0.011888495646417141
0.02753649279475212,0.010747168213129044,-0.009473896585404873,-0.011561273597180843,0.0044172354973852634,0.012290927581489086
0.02826150879263878,0.010233083739876747,-0.009062238968908787,-0.011453583836555481,0.004786052741110325,0.012102311477065086
0.02865215763449669,0.010469600558280945,-0.010100001469254494,-0.011630112305283546,0.004657498095184565,0.011943758465349674
0.02865215763449669,0.010469600558280945,-0.010100001469254494,-0.011630112305283546,0.004657498095184565,0.011943758465349674
0.028253784403204918,0.010624367743730545,-0.009518560953438282,-0.011552019976079464,0.004487018100917339,0.011952546425163746
0.028916992247104645,0.01051413081586361,-0.00895717740058899,-0.011176777072250843,0.004429473541676998,0.01197794545441866
0.028728775680065155,0.010946586728096008,-0.009751961566507816,-0.01101810485124588,0.004530109465122223,0.011996469460427761
0.02906760573387146,0.010727569460868835,-0.00995786115527153,-0.01137511245906353,0.0042272042483091354,0.012095540761947632
0.027950424700975418,0.010511393658816814,-0.00894678384065628,-0.01118843350559473,0.004449206870049238,0.01244195643812418
0.027876997366547585,0.010706247761845589,-0.009781324304640293,-0.01172815915197134,0.004624442663043737,0.012403069995343685
0.028679853305220604,0.010956967249512672,-0.009717049077153206,-0.011942473240196705,0.004709148313850164,0.01231344137340784
0.028656156733632088,0.012160402722656727,-0.009386882185935974,-0.011761783622205257,0.004973795264959335,0.012343866750597954
0.028813518583774567,0.012256466783583164,-0.010229011997580528,-0.011876257136464119,0.004621146712452173,0.012178689241409302
0.028811469674110413,0.012186115607619286,-0.009830303490161896,-0.01150138583034277,0.004680104553699493,0.012306262739002705
0.028461992740631104,0.01157154981046915,-0.009258774109184742,-0.011642013676464558,0.004986701067537069,0.013057942502200603
0.028529852628707886,0.011747081764042377,-0.00985303707420826,-0.01159319281578064,0.004444189369678497,0.012839817441999912
0.02859092690050602,0.011809075251221657,-0.009820600971579552,-0.0119630703702569,0.00447145476937294,0.012395879253745079
0.02890460006892681,0.012229977175593376,-0.010550388135015965,-0.011429441161453724,0.004914902616292238,0.012560641393065453
0.028628867119550705,0.012466135434806347,-0.010079603642225266,-0.011785195209085941,0.004505205899477005,0.012569127604365349
0.028775883838534355,0.012180039659142494,-0.009681753814220428,-0.011659560725092888,0.004452393390238285,0.012913782149553299
0.029169544577598572,0.012171235866844654,-0.010338479653000832,-0.011920924298465252,0.004406254272907972,0.01297907903790474
0.02973293513059616,0.011979298666119576,-0.010452223010361195,-0.012280716560781002,0.004856765270233154,0.01340994518250227
0.028057413175702095,0.0127785112708807,-0.009909155778586864,-0.011837230063974857,0.004959383979439735,0.013167647644877434
0.029561104252934456,0.012275305576622486,-0.010429572314023972,-0.012247687205672264,0.004769689403474331,0.013112138956785202
0.029354793950915337,0.012532318942248821,-0.010161222890019417,-0.011530437506735325,0.004642683081328869,0.013026334345340729
0.029335172846913338,0.012735949829220772,-0.009958356618881226,-0.011766063049435616,0.004745026119053364,0.012874748557806015
0.029347235336899757,0.012243823148310184,-0.010662018321454525,-0.011775228194892406,0.004673491697758436,0.011741122230887413
0.029691288247704506,0.01288833748549223,-0.0106419138610363,-0.011605529114603996,0.004380860365927219,0.013345753774046898
0.02952311560511589,0.012677691876888275,-0.009882639162242413,-0.01228268351405859,0.0044122119434177876,0.013647387735545635
0.029671257361769676,0.012977967038750648,-0.012707599438726902,-0.011732606217265129,0.004211620427668095,0.012993917800486088
0.029671257361769676,0.012977967038750648,-0.012707599438726902,-0.011732606217265129,0.004211620427668095,0.012993917800486088
0.02917364239692688,0.012945590540766716,-0.011757472530007362,-0.011957437731325626,0.004309497773647308,0.012990811839699745
0.029674382880330086,0.013003509491682053,-0.011721262708306313,-0.012047904543578625,0.004253910388797522,0.012959511019289494
0.029441554099321365,0.012841055169701576,-0.0114176906645298,-0.012053088285028934,0.004687558393925428,0.013675963506102562
0.02977379783987999,0.012944595888257027,-0.011143913492560387,-0.011577852070331573,0.004810664802789688,0.013268090784549713
0.029821377247571945,0.013025484047830105,-0.012160426005721092,-0.011346455663442612,0.004616714548319578,0.013259519822895527
0.02985035814344883,0.013358788564801216,-0.011895541101694107,-0.01158570684492588,0.004457113333046436,0.013241944834589958
0.029581980779767036,0.013166002929210663,-0.012515177950263023,-0.01208525337278843,0.00422828970476985,0.013153452426195145
0.02958747185766697,0.01256703119724989,-0.01179954782128334,-0.012085204012691975,0.00442284531891346,0.013002555817365646
0.029462087899446487,0.01320358831435442,-0.011573639698326588,-0.012020030990242958,0.004902397748082876,0.012974715791642666
0.029934827238321304,0.012440627440810204,-0.012354123406112194,-0.01181185245513916,0.004593311809003353,0.013102592900395393
0.03064017929136753,0.013300992548465729,-0.01252686232328415,-0.012503417208790779,0.004557940177619457,0.012928945012390614
0.03046460635960102,0.012573473155498505,-0.011700219474732876,-0.012419970706105232,0.004966504406183958,0.013294312171638012
0.029808977618813515,0.012891429476439953,-0.01157302875071764,-0.012896712869405746,0.004625601228326559,0.013296542689204216
0.029808977618813515,0.012891429476439953,-0.01157302875071764,-0.012896712869405746,0.004625601228326559,0.013296542689204216
0.03014032170176506,0.013021543622016907,-0.011489275842905045,-0.012564421631395817,0.004898619372397661,0.013499199412763119
0.03060164302587509,0.012783961370587349,-0.012044103816151619,-0.012052270583808422,0.004753316752612591,0.013818996027112007
0.031342457979917526,0.013642898760735989,-0.012606448493897915,-0.012535417452454567,0.004844970535486937,0.014002993702888489
0.03037409298121929,0.012913778424263,-0.011621326208114624,-0.012374441139400005,0.0050507113337516785,0.013705373741686344
0.030388638377189636,0.013140952214598656,-0.01181180402636528,-0.01270700991153717,0.004991613794118166,0.01329067163169384
0.030183076858520508,0.012964433990418911,-0.011371889151632786,-0.01283622719347477,0.004743894562125206,0.013250263407826424
0.031073126941919327,0.013136021792888641,-0.012144113890826702,-0.012584244832396507,0.004848984070122242,0.01380203478038311
0.03160742670297623,0.012908258475363255,-0.011727757751941681,-0.01297290064394474,0.004801890347152948,0.013812046498060226
0.030732259154319763,0.013170719146728516,-0.011746875010430813,-0.012325583957135677,0.004881067667156458,0.013349614106118679
0.03192843124270439,0.013396560214459896,-0.012398595921695232,-0.012747729197144508,0.0050936415791511536,0.013690745458006859
0.03163808956742287,0.013180235400795937,-0.011647969484329224,-0.013000436127185822,0.005243123043328524,0.013540218584239483
0.031004296615719795,0.013268640264868736,-0.012385956943035126,-0.012386173009872437,0.005118107423186302,0.01367876771837473
0.031015129759907722,0.01312936656177044,-0.011873051524162292,-0.012211697176098824,0.0048344493843615055,0.013697033748030663
0.031514570116996765,0.01396193727850914,-0.012143714353442192,-0.012543508782982826,0.004635146353393793,0.01426208857446909
0.03112516552209854,0.014642786234617233,-0.012263897806406021,-0.012966309674084187,0.004834108520299196,0.014312371611595154
0.0314975343644619,0.013862719759345055,-0.011377193033695221,-0.012909654527902603,0.005241014529019594,0.014601585455238819
0.0314975343644619,0.013862719759345055,-0.011377193033695221,-0.012909654527902603,0.005241014529019594,0.014601585455238819
0.032155200839042664,0.013209272176027298,-0.012239726260304451,-0.012890449725091457,0.005078868009150028,0.014062832109630108
0.032334137707948685,0.013885697349905968,-0.011732409708201885,-0.01251554861664772,0.005181904882192612,0.013278678059577942
0.03210734203457832,0.013362392783164978,-0.012218651361763477,-0.012725753709673882,0.0055139330215752125,0.01339946873486042
0.03196479007601738,0.013590297661721706,-0.012193930335342884,-0.01237258780747652,0.005216673016548157,0.014891581609845161
0.032455600798130035,0.012992982752621174,-0.012386271730065346,-0.012644339352846146,0.005365802440792322,0.014619898982346058
0.033244263380765915,0.013445703312754631,-0.012307174503803253,-0.012688376940786839,0.005690504796802998,0.014214921742677689
0.03269655629992485,0.013336061500012875,-0.011508753523230553,-0.012450446374714375,0.00561217637732625,0.013704727403819561
0.03157762065529823,0.01344839297235012,-0.012266398407518864,-0.012949681840837002,0.005485647823661566,0.013857505284249783
0.033272359520196915,0.013692737556993961,-0.012387508526444435,-0.013300411403179169,0.004521045368164778,0.013466344214975834
0.03285276144742966,0.013564997352659702,-0.012575989589095116,-0.01292211003601551,0.00505853071808815,0.013656023889780045
0.03426177799701691,0.013311728835105896,-0.012423074804246426,-0.01389849279075861,0.005142523441463709,0.014091352000832558
0.0336594395339489,0.01423089299350977,-0.012545866891741753,-0.013355105184018612,0.004913144279271364,0.014125674962997437
0.03280067816376686,0.013524835929274559,-0.012212897650897503,-0.013574866577982903,0.0047314586117863655,0.014136935584247112
0.032372403889894485,0.014032354578375816,-0.013014507479965687,-0.013230137526988983,0.004795949440449476,0.014131829142570496
0.03438570350408554,0.013256815262138844,-0.012697311118245125,-0.013195404782891273,0.005184645764529705,0.01431738305836916
0.03403602913022041,0.013975249603390694,-0.012662822380661964,-0.013391016982495785,0.006133026909083128,0.014285370707511902
0.03338015452027321,0.014147857204079628,-0.012669284828007221,-0.013679279945790768,0.0059630656614899635,0.014315090142190456
0.03359183296561241,0.014910530298948288,-0.012181724421679974,-0.01390730869024992,0.005644223652780056,0.014029484242200851
0.03345862776041031,0.013964846730232239,-0.01272650621831417,-0.014160660095512867,0.005235097836703062,0.014350024983286858
0.03402728959918022,0.014214679598808289,-0.0121906204149127,-0.014380891807377338,0.005299929995089769,0.014447844587266445
0.03399209305644035,0.013672932982444763,-0.012932061217725277,-0.014160656370222569,0.005269801244139671,0.014617543667554855
0.03380294889211655,0.014589312486350536,-0.012112678959965706,-0.013763763010501862,0.005842271260917187,0.014395521022379398
0.033949725329875946,0.014095577411353588,-0.01258264109492302,-0.013845989480614662,0.005484296474605799,0.014403855428099632
0.03407933935523033,0.014549240469932556,-0.012635262683033943,-0.013779571279883385,0.005103014875203371,0.014345376752316952
0.03399042412638664,0.013915784657001495,-0.012561820447444916,-0.013495714403688908,0.005537902936339378,0.014743153005838394
0.03465794026851654,0.014523535966873169,-0.012560724280774593,-0.01390458457171917,0.005548820830881596,0.014644049108028412
0.03465794026851654,0.014523535966873169,-0.012560724280774593,-0.01390458457171917,0.005548820830881596,0.014644049108028412
0.03453760966658592,0.013949575833976269,-0.011988360434770584,-0.013993323780596256,0.005750902928411961,0.014927956275641918
0.03413272276520729,0.014505558647215366,-0.012614642269909382,-0.014184425584971905,0.005042647942900658,0.014542501419782639
0.03417869284749031,0.014063913375139236,-0.011991358362138271,-0.014183256775140762,0.005080748349428177,0.014727750793099403
0.032922450453042984,0.014856160618364811,-0.012444651685655117,-0.014405781403183937,0.0053796786814928055,0.0145988455042243
0.03471790999174118,0.014580863527953625,-0.012185009196400642,-0.014053963124752045,0.0053608533926308155,0.015099071897566319
0.035065699368715286,0.01506149210035801,-0.012220408767461777,-0.014439103193581104,0.005131679121404886,0.015097273513674736
0.0342395193874836,0.014343583025038242,-0.012666958384215832,-0.01401868462562561,0.005261271260678768,0.015031897462904453
0.033813152462244034,0.014828724786639214,-0.012328480370342731,-0.01452578417956829,0.005493667908012867,0.014614480547606945
0.03375338390469551,0.014560267329216003,-0.012792170979082584,-0.014115321449935436,0.005219337996095419,0.014862393029034138
0.034415461122989655,0.014379169791936874,-0.012831315398216248,-0.013431166298687458,0.005305364727973938,0.01559913158416748
0.034428954124450684,0.01499042846262455,-0.012611287645995617,-0.013992715626955032,0.005314236041158438,0.015572760254144669
0.0341896116733551,0.014824864454567432,-0.013285746797919273,-0.013520081527531147,0.005632855463773012,0.015785744413733482
0.03419966250658035,0.015150722116231918,-0.013058433309197426,-0.013804728165268898,0.005698665045201778,0.015142040327191353
0.03374714031815529,0.014527368359267712,-0.012367935851216316,-0.013446226716041565,0.005788953043520451,0.014725818298757076
0.033997442573308945,0.01550404354929924,-0.012808483093976974,-0.013518963940441608,0.005224178545176983,0.014459631405770779
0.03498568758368492,0.01521600317209959,-0.012512153945863247,-0.013751871883869171,0.005223552696406841,0.014935852028429508
0.03474687784910202,0.015281709842383862,-0.013281455263495445,-0.014206507243216038,0.005612353794276714,0.015223405323922634
0.03349583223462105,0.015527834184467793,-0.0129780862480402,-0.014031811617314816,0.00609623221680522,0.01558577548712492
0.033145368099212646,0.0155577277764678,-0.01364270318299532,-0.014419841580092907,0.006338841747492552,0.01529950462281704
