davideferrari95/blind_handover_controller/data/Test 256 - [2024-02-08 -- 12-45-49]/joint_states_data.csv
shoulder_pan_joint,shoulder_lift_joint,elbow_joint,wrist_1_joint,wrist_2_joint,wrist_3_joint
0.004762409720569849,0.0035909966100007296,-0.009871039539575577,0.005149805452674627,-0.0,0.005018501542508602
0.004762409720569849,0.0035909966100007296,-0.009871039539575577,0.005149805452674627,-0.0,0.005018501542508602
0.005115625914186239,0.0037816462572664022,-0.010589421726763248,0.005020809825509787,-0.0,0.004929350223392248
0.0050050364807248116,0.003789861686527729,-0.009943378157913685,0.005303679034113884,-0.0,0.004736646078526974
0.005416039377450943,0.0036981196608394384,-0.00981160532683134,0.005215799435973167,-0.0,0.00493247713893652
0.005187392234802246,0.003609768580645323,-0.009398981928825378,0.004889106843620539,-0.0,0.004627845715731382
0.0049044969491660595,0.003620128845795989,-0.009539715945720673,0.005342439748346806,-0.0,0.004618954379111528
0.004737299866974354,0.003663441399112344,-0.010008273646235466,0.005152302328497171,-0.0,0.004551584366708994
0.004696457181125879,0.0037145293317735195,-0.009479451924562454,0.004833909682929516,-0.0,0.00455304142087698
0.004613072145730257,0.0037537235766649246,-0.008921061642467976,0.005179315339773893,-0.0,0.0046980599872767925
0.004507876001298428,0.003723743138834834,-0.009966185316443443,0.004679694771766663,-0.0,0.005084735341370106
0.004650590475648642,0.0036652234848588705,-0.009732653386890888,0.00460257101804018,-0.0,0.005261552054435015
0.004583669360727072,0.0042671822011470795,-0.009592987596988678,0.00545121543109417,-0.0,0.004977824166417122
0.004594489932060242,0.004109544213861227,-0.009207711555063725,0.005130610894411802,-0.0,0.0051832799799740314
0.005007643718272448,0.003965590614825487,-0.009042772464454174,0.004902835004031658,-0.0,0.004790219943970442
0.005036077927798033,0.004006449598819017,-0.009253809228539467,0.004784010350704193,-0.0,0.004998202435672283
0.004793602507561445,0.004131109919399023,-0.008861023932695389,0.004927685484290123,-0.0,0.004827740136533976
0.004788951016962528,0.004099590703845024,-0.009555330500006676,0.00492884311825037,-0.0,0.004866909235715866
0.005126707721501589,0.003908596932888031,-0.009732834994792938,0.005164837930351496,-0.0,0.005188251379877329
0.004916070029139519,0.0037930256221443415,-0.008755400776863098,0.005142693407833576,-0.0,0.005065437406301498
0.004983379505574703,0.004314409103244543,-0.008851585909724236,0.004873595200479031,-0.0,0.004847769625484943
0.00484636053442955,0.0042928848415613174,-0.008782682940363884,0.0047840336337685585,-0.0,0.004358862526714802
0.004819366615265608,0.0040251147001981735,-0.009872764348983765,0.00480264937505126,-0.0,0.004270673263818026
0.0047309487126767635,0.0037332044448703527,-0.008792750537395477,0.004787294194102287,-0.0,0.00454423762857914
0.0047309487126767635,0.0037332044448703527,-0.008792750537395477,0.004787294194102287,-0.0,0.00454423762857914
0.004758059978485107,0.0037386335898190737,-0.008329234085977077,0.004735768307000399,-0.0,0.0047180126421153545
0.004797954577952623,0.0038696862757205963,-0.00921897403895855,0.004791837651282549,-0.0,0.004882682114839554
0.004792976658791304,0.003842660691589117,-0.009365254081785679,0.004785992670804262,-0.0,0.005206467118114233
0.004719982855021954,0.003819972276687622,-0.008574344217777252,0.00480180187150836,-0.0,0.005100634414702654
0.004511745646595955,0.004397377837449312,-0.008715042844414711,0.004692190792411566,-0.0,0.004875511862337589
0.004975900985300541,0.004235699772834778,-0.008814050815999508,0.004559626802802086,-0.0,0.004696441348642111
0.0046856761910021305,0.003925298806279898,-0.008616660721600056,0.004675108008086681,-0.0,0.005071790423244238
0.004982941783964634,0.004187597893178463,-0.008833089843392372,0.004678352735936642,-0.0,0.004632887430489063
0.004974855110049248,0.004286997020244598,-0.009110686369240284,0.005097705405205488,-0.0,0.004563347436487675
0.0047919838689267635,0.0039839111268520355,-0.008661270141601562,0.005036835093051195,-0.0,0.005107943434268236
0.004641794133931398,0.003807645058259368,-0.00916374009102583,0.004805723205208778,-0.0,0.005456015467643738
0.004758868366479874,0.004105697851628065,-0.008940733037889004,0.004519338719546795,-0.0,0.005186919588595629
0.005185017362236977,0.0042560892179608345,-0.008326820097863674,0.004909893497824669,-0.0,0.005441319663077593
0.004976526368409395,0.004152829758822918,-0.00861832220107317,0.004994401708245277,-0.0,0.0046255518682301044
0.004958503879606724,0.00460605975240469,-0.009004523977637291,0.004902088548988104,-0.0,0.004628798924386501
0.004816757515072823,0.004238012246787548,-0.008443139493465424,0.004727480933070183,-0.0,0.005084209144115448
0.004349059425294399,0.004460957832634449,-0.0084542753174901,0.0047101289965212345,-0.0,0.004980680998414755
0.004459870979189873,0.004211235325783491,-0.008863198570907116,0.005536027252674103,-0.0,0.005188289098441601
0.00487650278955698,0.0039963144809007645,-0.00822998583316803,0.005518275313079357,-0.0,0.005270103923976421
0.004480984061956406,0.00439545139670372,-0.008195316419005394,0.00577309587970376,-0.0,0.005191434174776077
0.0045597790740430355,0.004348454996943474,-0.008513249456882477,0.005323563702404499,-0.0,0.0052864993922412395
0.004431100096553564,0.0043377201072871685,-0.008874011225998402,0.0046881516464054585,-0.0,0.005106956698000431
0.004199598915874958,0.004396258387714624,-0.008557861670851707,0.004399274475872517,-0.0,0.004936784040182829
0.00444226386025548,0.004081416875123978,-0.008062420412898064,0.0048173293471336365,-0.0,0.005662796087563038
0.00444226386025548,0.004081416875123978,-0.008062420412898064,0.0048173293471336365,-0.0,0.005662796087563038
0.0045416406355798244,0.004411159083247185,-0.0090083759278059,0.005528942681849003,-0.0,0.004956525284796953
0.0045416406355798244,0.004411159083247185,-0.0090083759278059,0.005528942681849003,-0.0,0.004956525284796953
0.004446696024388075,0.004128991160541773,-0.008067729882895947,0.005303945858031511,-0.0,0.004655937664210796
0.0045934454537928104,0.0038987109437584877,-0.00836717989295721,0.004915490746498108,-0.0,0.00432900246232748
0.004695102572441101,0.004322079475969076,-0.008349084295332432,0.005257060751318932,-0.0,0.004450715612620115
0.004625065717846155,0.0042355419136583805,-0.008313975296914577,0.005283066537231207,-0.0,0.004750522784888744
0.004587571136653423,0.003988740034401417,-0.008388273417949677,0.004946885630488396,-0.0,0.0052404203452169895
0.00490987254306674,0.003942415118217468,-0.008514294400811195,0.0046652802266180515,-0.0,0.005040277261286974
0.004797923844307661,0.004047670401632786,-0.008353364653885365,0.004758853930979967,-0.0,0.005079249385744333
0.004305269569158554,0.00452399579808116,-0.008729425258934498,0.0048676482401788235,-0.0,0.005313752684742212
0.00448438199236989,0.0042482465505599976,-0.008432062342762947,0.005540680140256882,-0.0,0.005050941836088896
0.004575190134346485,0.004511035978794098,-0.008380144834518433,0.005445213057100773,-0.0,0.005360463634133339
0.005133305676281452,0.004320107400417328,-0.008432365022599697,0.004689452238380909,-0.0,0.005339544732123613
0.005133305676281452,0.004320107400417328,-0.008432365022599697,0.004689452238380909,-0.0,0.005339544732123613
0.004740047734230757,0.0040133558213710785,-0.008944489061832428,0.005176054313778877,-0.0,0.005082244519144297
0.004820539616048336,0.003915269393473864,-0.008546379394829273,0.005462868604809046,-0.0,0.004714484792202711
0.0047525749541819096,0.004284978378564119,-0.008489296771585941,0.005202551372349262,-0.0,0.004710210021585226
0.004784273449331522,0.004634265787899494,-0.008617101237177849,0.005129617173224688,-0.0,0.004776131361722946
0.00505602965131402,0.00470037292689085,-0.00815754383802414,0.004884093534201384,-0.0,0.005407284013926983
0.004884708672761917,0.004135072696954012,-0.00827966071665287,0.005070230923593044,-0.0,0.00540641276165843
0.004822244867682457,0.003901717020198703,-0.00871589407324791,0.00559597322717309,-0.0,0.004919425584375858
0.004822244867682457,0.003901717020198703,-0.00871589407324791,0.00559597322717309,-0.0,0.004919425584375858
0.005002241116017103,0.003990609664469957,-0.008644210174679756,0.005120153538882732,-0.0,0.004232996609061956
0.004705756437033415,0.0038755203131586313,-0.008553624153137207,0.005196239799261093,-0.0,0.005292043089866638
0.0055246613919734955,0.004228521138429642,-0.008707917295396328,0.005271899048238993,-0.0,0.005433028098195791
0.0055246613919734955,0.004228521138429642,-0.008707917295396328,0.005271899048238993,-0.0,0.005433028098195791
0.005150046665221453,0.004046218004077673,-0.008098253980278969,0.005040835589170456,-0.0,0.005423476919531822
0.00479121133685112,0.004356358200311661,-0.008285664953291416,0.005071207415312529,-0.0,0.005417282227426767
0.004889944102615118,0.004112327937036753,-0.008589506149291992,0.004948814399540424,-0.0,0.004947386682033539
0.004800163675099611,0.003938921261578798,-0.008247755467891693,0.0053284368477761745,-0.0,0.004889482166618109
0.004948812536895275,0.003897340502589941,-0.008653816767036915,0.005289093125611544,-0.0,0.004907387308776379
0.004929851740598679,0.003939025569707155,-0.008248161524534225,0.004773986991494894,-0.0,0.0052347006276249886
0.005214029457420111,0.004375644959509373,-0.008546533063054085,0.0048154438845813274,-0.0,0.005511971190571785
0.005118938162922859,0.004234062507748604,-0.007999448105692863,0.0048691341653466225,-0.0,0.00501180998980999
0.004487042780965567,0.0042058671824634075,-0.008897636085748672,0.004862576257437468,-0.0,0.004532895050942898
0.004490204621106386,0.003925066441297531,-0.00859874114394188,0.005730738863348961,-0.0,0.0046216449700295925
0.004965280182659626,0.0037989469710737467,-0.008479354903101921,0.005476432386785746,-0.0,0.005444664973765612
0.005305732134729624,0.004327894654124975,-0.008299346081912518,0.004923833534121513,-0.0,0.005613093264400959
0.005264406092464924,0.004287857096642256,-0.009163329377770424,0.0049023255705833435,-0.0,0.005312660709023476
0.0051049659959971905,0.004440696444362402,-0.008552607148885727,0.0050040646456182,-0.0,0.00517957704141736
0.0049051339738070965,0.004194110166281462,-0.008294784463942051,0.005186057183891535,-0.0,0.005070243962109089
0.005190293304622173,0.004186934791505337,-0.009294649586081505,0.005414111074060202,-0.0,0.0052282786928117275
0.005074019078165293,0.004087812267243862,-0.008651314303278923,0.005099882371723652,-0.0,0.005607397295534611
0.005388867110013962,0.003932998515665531,-0.008014760911464691,0.0048078191466629505,-0.0,0.00539203779771924
0.0052670263685286045,0.004313180223107338,-0.00876682624220848,0.004999242257326841,-0.0,0.005227462854236364
0.005750307347625494,0.004103829152882099,-0.008803186006844044,0.005105849355459213,-0.0,0.004927102476358414
0.005750307347625494,0.004103829152882099,-0.008803186006844044,0.005105849355459213,-0.0,0.004927102476358414
0.0052521200850605965,0.004418276250362396,-0.007993940263986588,0.004741789773106575,-0.0,0.005152414552867413
0.004962115548551083,0.004626864101737738,-0.008246752433478832,0.005495918914675713,-0.0,0.005417557433247566
0.005861933343112469,0.004250629339367151,-0.00937179196625948,0.005919823423027992,-0.0,0.005435303784906864
0.005411079153418541,0.003996558021754026,-0.0087781036272645,0.005615667439997196,-0.0,0.0053938026539981365
0.00541567150503397,0.004144326783716679,-0.008303928188979626,0.005719926208257675,-0.0,0.005148564465343952
0.005464538931846619,0.004505185876041651,-0.008856883272528648,0.005794788245111704,-0.0,0.005573309492319822
0.005445025395601988,0.004181939177215099,-0.009131702594459057,0.0058308495208621025,-0.0,0.0054171946831047535
0.0054084002040326595,0.004386287648230791,-0.009184999391436577,0.005322140175849199,-0.0,0.005092586390674114
0.0055623785592615604,0.004315125290304422,-0.008966268040239811,0.005117644090205431,-0.0,0.005309979431331158
0.005238264333456755,0.004505718592554331,-0.008932863362133503,0.004994330462068319,-0.0,0.005286477506160736
0.0052262102253735065,0.0042991493828594685,-0.008628605864942074,0.005251843947917223,-0.0,0.005715967621654272
0.005348267033696175,0.004202210810035467,-0.008796933107078075,0.005676634144037962,-0.0,0.005631919018924236
0.005199506878852844,0.004488400183618069,-0.009466227144002914,0.005022047553211451,-0.0,0.005584929138422012
0.005962855648249388,0.004096288233995438,-0.009268865920603275,0.004862657748162746,-0.0,0.005668075755238533
0.005398810375481844,0.004459626507014036,-0.009149766527116299,0.004793638829141855,-0.0,0.005190745461732149
0.005184073932468891,0.004301783628761768,-0.009396812878549099,0.004881313536316156,-0.0,0.004890212789177895
0.0057519106194376945,0.004069873597472906,-0.008496472612023354,0.005258307792246342,-0.0,0.005215170793235302
0.005559239536523819,0.003892789361998439,-0.010062439367175102,0.005007877014577389,-0.0,0.00560415955260396
0.005743412766605616,0.00412491150200367,-0.008922690525650978,0.005051890853792429,-0.0,0.006189769599586725
0.005267441272735596,0.004085752181708813,-0.008453493006527424,0.004836029838770628,-0.0,0.0056755198165774345
0.005267441272735596,0.004085752181708813,-0.008453493006527424,0.004836029838770628,-0.0,0.0056755198165774345
0.005771464668214321,0.0043144989758729935,-0.009102552197873592,0.004927557427436113,-0.0,0.005293325521051884
0.005404509138315916,0.004134750459343195,-0.009187581948935986,0.004991721361875534,-0.0,0.0050733801908791065
0.0051489644683897495,0.004490293562412262,-0.008783495984971523,0.005249824840575457,-0.0,0.005773213692009449
0.005937052890658379,0.004175437148660421,-0.008822264149785042,0.005474727135151625,-0.0,0.00564680015668273
0.0061737471260130405,0.003915663342922926,-0.009481435641646385,0.0055164494551718235,-0.0,0.005838627461344004
0.00554138608276844,0.0042951349169015884,-0.009042955003678799,0.005267131607979536,-0.0,0.005352008622139692
0.005444524344056845,0.004267397802323103,-0.008647480979561806,0.005676668602973223,-0.0,0.0053268494084477425
0.005581338424235582,0.004395333118736744,-0.009161649271845818,0.005822743289172649,-0.0,0.005566985346376896
0.005821891129016876,0.004445606376975775,-0.009845264256000519,0.005713299848139286,-0.0,0.0060282484628260136
0.005749520845711231,0.004444117192178965,-0.008591344580054283,0.005227132700383663,-0.0,0.005925686098635197
0.006014094687998295,0.0041711521334946156,-0.008960784412920475,0.005196934100240469,-0.0,0.0056763989850878716
0.005376738030463457,0.003968760371208191,-0.008677042089402676,0.005459260195493698,-0.0,0.005355325061827898
0.005947647616267204,0.004396473523229361,-0.009069412015378475,0.00559017900377512,-0.0,0.005776866804808378
0.005963952746242285,0.0044194916263222694,-0.009301158599555492,0.005774044897407293,-0.0,0.005561857484281063
0.006266654934734106,0.004177887458354235,-0.009189079515635967,0.0055220043286681175,-0.0,0.006272583268582821
0.005643097683787346,0.00354201253503561,-0.008583572693169117,0.005460129119455814,-0.0,0.005798063240945339
0.005870086140930653,0.0029021603986620903,-0.009049116633832455,0.005336764268577099,-0.0,0.005403387825936079
0.005521065089851618,0.00279816472902894,-0.009319717064499855,0.005715957842767239,-0.0,0.005186161026358604
0.005952303763478994,0.0031920843757689,-0.008917588740587234,0.005842070560902357,-0.0,0.00584416463971138
0.005613545421510935,0.0034218996297568083,-0.008907586336135864,0.005769530311226845,-0.0,0.006193505134433508
0.005512894596904516,0.0035522147081792355,-0.008539955131709576,0.0057655698619782925,-0.0,0.005518620368093252
0.005738530308008194,0.003294768976047635,-0.008682074025273323,0.005352704785764217,-0.0,0.005332985892891884
0.005942797753959894,0.0030767882708460093,-0.008884034119546413,0.005626998376101255,-0.0,0.005474340636283159
0.006062337197363377,0.0029004178941249847,-0.00907939113676548,0.0055040777660906315,-0.0,0.005544526968151331
0.006062337197363377,0.0029004178941249847,-0.00907939113676548,0.0055040777660906315,-0.0,0.005544526968151331
0.00611736997961998,0.003040179144591093,-0.00867193378508091,0.005412478465586901,-0.0,0.006111364345997572
0.005723370239138603,0.0032389911357313395,-0.00855750497430563,0.005022887140512466,-0.0,0.006081852596253157
0.005742408335208893,0.003142829518765211,-0.008847127668559551,0.005118038505315781,-0.0,0.0055179838091135025
0.006131469737738371,0.002911992371082306,-0.008574727922677994,0.005389613565057516,-0.0,0.0056700375862419605
0.006072515156120062,0.0027131231036037207,-0.008656404912471771,0.005402789451181889,-0.0,0.005871366709470749
0.006341096013784409,0.0028495858423411846,-0.009168767370283604,0.005721111781895161,-0.0,0.0063754841685295105
0.00574427330866456,0.0029216327238827944,-0.008506197482347488,0.005566100124269724,-0.0,0.005782800260931253
0.0056992508471012115,0.003351077903062105,-0.008738378062844276,0.0056817070581018925,-0.0,0.0057081859558820724
0.005972580518573523,0.0032246962655335665,-0.009186851792037487,0.005418502259999514,-0.0,0.0053202747367322445
0.006340788211673498,0.0030785338021814823,-0.009052005596458912,0.005790796596556902,-0.0,0.00563476700335741
0.006172184832394123,0.0031161506194621325,-0.008599020540714264,0.005889581982046366,-0.0,0.005669495090842247
0.006421269848942757,0.0031864324118942022,-0.008936163038015366,0.0058984714560210705,-0.0,0.006005728617310524
0.005851484835147858,0.003486734116449952,-0.009180977940559387,0.005593417678028345,-0.0,0.0060379174537956715
0.006142635364085436,0.0032974015921354294,-0.008733942173421383,0.005491764284670353,-0.0,0.005519194062799215
0.006624329369515181,0.0030271480791270733,-0.008964861743152142,0.005806478671729565,-0.0,0.005798865109682083
0.006921692751348019,0.003320239018648863,-0.009386773221194744,0.005843085702508688,-0.0,0.005991264712065458
0.0060632252134382725,0.003078959882259369,-0.009049894288182259,0.005964384414255619,-0.0,0.006347536575049162
0.006393127143383026,0.0032097683288156986,-0.008538426831364632,0.005628157407045364,-0.0,0.006246054545044899
0.006836205255240202,0.003282473422586918,-0.009993086569011211,0.00588303292170167,-0.0,0.005663766525685787
0.006799634080380201,0.003581053577363491,-0.00878643337637186,0.00553220696747303,-0.0,0.005878567695617676
0.006243147421628237,0.003847660729661584,-0.009108349680900574,0.005681841634213924,-0.0,0.0059083737432956696
0.0064896210096776485,0.0034164367243647575,-0.009110216051340103,0.005661690607666969,-0.0,0.005833031143993139
0.007075170986354351,0.0030872891657054424,-0.008546304889023304,0.005347707308828831,-0.0,0.0059491656720638275
0.006590845994651318,0.0033875098451972008,-0.008713877759873867,0.005067199934273958,-0.0,0.006395909935235977
0.00641289446502924,0.003739593317732215,-0.00945182517170906,0.00570541899651289,-0.0,0.006751434411853552
0.00641289446502924,0.003739593317732215,-0.00945182517170906,0.00570541899651289,-0.0,0.006751434411853552
0.006568076554685831,0.0033742026425898075,-0.008749066852033138,0.005903158336877823,-0.0,0.006048961542546749
0.006792130414396524,0.003372970735654235,-0.008613714948296547,0.005872609559446573,-0.0,0.005485528614372015
0.0073807258158922195,0.003530604299157858,-0.009264192543923855,0.006094245705753565,-0.0,0.0059684691950678825
0.006733620073646307,0.003638931317254901,-0.009135307744145393,0.00559814739972353,-0.0,0.006048924755305052
0.006497104186564684,0.003671063343062997,-0.008577617816627026,0.0058835214003920555,-0.0,0.006247233599424362
0.006994953379034996,0.003657795023173094,-0.00909979548305273,0.0061180852353572845,-0.0,0.006574466824531555
0.007085469085723162,0.0036035669036209583,-0.010000498034060001,0.00611770199611783,-0.0,0.006025041453540325
0.006759813521057367,0.0036302043590694666,-0.008667613379657269,0.005496592726558447,-0.0,0.005908764433115721
0.006696944124996662,0.0034916552249342203,-0.008699094876646996,0.005615037400275469,-0.0,0.005950653925538063
0.006723866797983646,0.003796172561123967,-0.009445476345717907,0.006402355618774891,-0.0,0.006277548614889383
0.006714248564094305,0.004069050773978233,-0.009871376678347588,0.006414975970983505,-0.0,0.006624080240726471
0.006645864341408014,0.0043788147158920765,-0.008816848509013653,0.006163836922496557,-0.0,0.006560169626027346
0.006584466900676489,0.004146224353462458,-0.009191446006298065,0.00570720573887229,-0.0,0.006394144147634506
0.006505436729639769,0.00394614739343524,-0.008963735774159431,0.005869850516319275,-0.0,0.006482429802417755
0.006696084514260292,0.0038619879633188248,-0.009249535389244556,0.006219323258846998,-0.0,0.006987423170357943
0.006737982854247093,0.0038631251081824303,-0.009251444600522518,0.006148052867501974,-0.0,0.006968248635530472
0.007019415497779846,0.0038439708296209574,-0.009802165441215038,0.005996956489980221,-0.0,0.006941355764865875
0.006928267888724804,0.0043510510586202145,-0.008662902750074863,0.005562888458371162,-0.0,0.007141148671507835
0.0071563636884093285,0.004157545976340771,-0.0101157883182168,0.005691303871572018,-0.0,0.006752172950655222
0.0073840925469994545,0.0038434278685599566,-0.009236021898686886,0.0063020107336342335,-0.0,0.006610768847167492
0.007415391504764557,0.004205076955258846,-0.009772560559213161,0.005767190828919411,-0.0,0.0059930263087153435
0.007653317879885435,0.004027035087347031,-0.00923400092869997,0.005765380337834358,-0.0,0.006107764784246683
0.007687038742005825,0.0033524634782224894,-0.008916107937693596,0.005931077990680933,-0.0,0.006684868596494198
0.007143588270992041,0.003489471971988678,-0.009416161105036736,0.006421892903745174,-0.0,0.006328738760203123
0.007273724768310785,0.004580669105052948,-0.00946020521223545,0.00655515817925334,-0.0,0.006242851261049509
0.007579151540994644,0.004618507809937,-0.009195267222821712,0.00620628334581852,-0.0,0.006741304416209459
0.008113475516438484,0.0032650327775627375,-0.009507318958640099,0.005983220413327217,-0.0,0.006956056226044893
0.007695368025451899,0.0031852477695792913,-0.009445784613490105,0.0054566515609622,-0.0,0.006885642651468515
0.007494198624044657,0.0045411051250994205,-0.009593138471245766,0.006032307632267475,-0.0,0.006536853965371847
0.007494198624044657,0.0045411051250994205,-0.009593138471245766,0.006032307632267475,-0.0,0.006536853965371847
0.007626235950738192,0.0042811608873307705,-0.009577436372637749,0.00570380873978138,-0.0,0.006619027815759182
0.007556198630481958,0.00392509251832962,-0.00945737212896347,0.005725930444896221,-0.0,0.006707249209284782
0.0077749514020979404,0.0034120555501431227,-0.009039280004799366,0.005367177538573742,-0.0,0.007211022078990936
0.007383416406810284,0.004123039543628693,-0.009375909343361855,0.005679752677679062,-0.0,0.007015490438789129
0.00716457748785615,0.004136327654123306,-0.010085348039865494,0.005523730535060167,-0.0,0.006663452368229628
0.007749217562377453,0.0040034763514995575,-0.009473592042922974,0.005878002382814884,-0.0,0.006223824806511402
0.007748255506157875,0.00389664713293314,-0.009243031032383442,0.0058870199136435986,-0.0,0.006940560881048441
0.007402874529361725,0.0034493659622967243,-0.009558457881212234,0.005363764241337776,-0.0,0.006980709731578827
0.007402874529361725,0.0034493659622967243,-0.009558457881212234,0.005363764241337776,-0.0,0.006980709731578827
0.007379764225333929,0.0035889637656509876,-0.009811649098992348,0.005564925726503134,-0.0,0.006625599693506956
0.007408071309328079,0.004327748902142048,-0.010025047697126865,0.00583320576697588,-0.0,0.006616769824177027
0.007208461873233318,0.004104782361537218,-0.009280391968786716,0.006255102809518576,-0.0,0.007164773531258106
0.007886568084359169,0.003866506041958928,-0.00915392767637968,0.006281108129769564,-0.0,0.0074569773860275745
0.007803224492818117,0.004295732825994492,-0.009513388387858868,0.005936558824032545,-0.0,0.006950600538402796
0.008011573925614357,0.004149656277149916,-0.009427137672901154,0.006158087402582169,-0.0,0.0064906529150903225
0.0077129630371928215,0.004400852136313915,-0.009217151440680027,0.0060819415375590324,-0.0,0.0070708636194467545
0.008396400138735771,0.004194055218249559,-0.009998428635299206,0.005959636066108942,-0.0,0.00749169522896409
0.007991593331098557,0.003965682815760374,-0.009862808510661125,0.0059357332065701485,-0.0,0.007759643252938986
0.007603765930980444,0.0039031016640365124,-0.010740969330072403,0.00581775326281786,-0.0,0.007288259454071522
0.007798413280397654,0.003925252240151167,-0.010360200889408588,0.0061845602467656136,-0.0,0.006965037435293198
0.008521577343344688,0.003812879091128707,-0.009892822243273258,0.006549334619194269,-0.0,0.007101339753717184
0.008197308517992496,0.004058725666254759,-0.010367455892264843,0.006571928039193153,-0.0,0.007018933072686195
0.007920597679913044,0.0043623135425150394,-0.00975385494530201,0.006323802750557661,-0.0,0.007256816606968641
0.007786071393638849,0.004088880494236946,-0.009891864843666553,0.0063111004419624805,-0.0,0.007665437180548906
0.008301577530801296,0.003994592931121588,-0.010470484383404255,0.0064535606652498245,-0.0,0.007507280446588993
0.00770118273794651,0.0044114128686487675,-0.009912865236401558,0.006216208916157484,-0.0,0.007110439706593752
0.008401496335864067,0.004335902165621519,-0.01068516168743372,0.006437151692807674,-0.0,0.0069292583502829075
0.008566516451537609,0.004531833343207836,-0.011058374308049679,0.005990628153085709,-0.0,0.007375032640993595
0.007960554212331772,0.0044502452947199345,-0.010121560655534267,0.006155310198664665,-0.0,0.007746983785182238
0.007960554212331772,0.0044502452947199345,-0.010121560655534267,0.006155310198664665,-0.0,0.007746983785182238
0.007898854091763496,0.004257628694176674,-0.009923267178237438,0.006065823137760162,-0.0,0.0076168375089764595
0.00794800091534853,0.004361141473054886,-0.010006989352405071,0.005997222848236561,-0.0,0.007568534463644028
0.007994771003723145,0.004107296466827393,-0.010394307784736156,0.006143326871097088,-0.0,0.007455163635313511
0.008213612250983715,0.004462440498173237,-0.010082617402076721,0.006224627606570721,-0.0,0.007477408740669489
0.008435728959739208,0.004578452091664076,-0.009605571627616882,0.006211996544152498,-0.0,0.007396881002932787
0.008424898609519005,0.004204174038022757,-0.010239760391414165,0.006245619151741266,-0.0,0.00801820307970047
0.00827759224921465,0.003929058089852333,-0.010517296381294727,0.006287827156484127,-0.0,0.007720173802226782
0.008375716395676136,0.004088494926691055,-0.010253297165036201,0.0059714848175644875,-0.0,0.007646902929991484
0.00858719926327467,0.004199701361358166,-0.009535446763038635,0.006227274890989065,-0.0,0.007112700026482344
0.008052300661802292,0.004442141856998205,-0.01032334752380848,0.006483135744929314,-0.0,0.0072214649990201
0.008541221730411053,0.004092789720743895,-0.009772234596312046,0.00722371693700552,-0.0,0.007422449998557568
0.008023119531571865,0.004371959250420332,-0.009666543453931808,0.006946775130927563,-0.0,0.007554753217846155
0.008702902123332024,0.004506167955696583,-0.010398865677416325,0.006379253696650267,-0.0,0.007996561005711555
0.009226632304489613,0.004394576884806156,-0.010007046163082123,0.006635862402617931,-0.0,0.007981362752616405
0.009092005901038647,0.004346754867583513,-0.009104400873184204,0.006710261572152376,-0.0,0.009007335640490055
0.008976696990430355,0.003926159348338842,-0.010250546969473362,0.00645450921729207,-0.0,0.007311611901968718
0.008537010289728642,0.0034914847929030657,-0.00993821956217289,0.006238327361643314,-0.0,0.006936043966561556
0.008324973285198212,0.003848092397674918,-0.009809872135519981,0.006818285211920738,-0.0,0.008442161604762077
0.00928682740777731,0.0039446367882192135,-0.01061389222741127,0.00632293289527297,-0.0,0.00838827807456255
0.008575430139899254,0.003944890107959509,-0.009897151030600071,0.006257484667003155,-0.0,0.007949091494083405
0.008232872933149338,0.003475035773590207,-0.01048342976719141,0.006190777290612459,-0.0,0.00813913345336914
0.008816289715468884,0.003571117762476206,-0.009534971788525581,0.007044282741844654,-0.0,0.007674815133213997
0.008811380714178085,0.003774178447201848,-0.009337798692286015,0.006961829029023647,-0.0,0.00788202416151762
0.008811380714178085,0.003774178447201848,-0.009337798692286015,0.006961829029023647,-0.0,0.00788202416151762
0.008548352867364883,0.0038753440603613853,-0.00973920151591301,0.0063796513713896275,-0.0,0.007711021229624748
0.009222649969160557,0.003943828400224447,-0.010548919439315796,0.00649351766332984,-0.0,0.007931348867714405
0.008801741525530815,0.003459878731518984,-0.010163425467908382,0.0067673190496861935,-0.0,0.007841011509299278
0.009431240148842335,0.0031177401542663574,-0.010181969963014126,0.006772556342184544,-0.0,0.007984993048012257
0.008801800198853016,0.0031005896162241697,-0.009807986207306385,0.00698268786072731,-0.0,0.008298592641949654
0.009186900220811367,0.003314055735245347,-0.00959490891546011,0.006715129129588604,-0.0,0.008243522606790066
0.008658668957650661,0.003411446698009968,-0.010407854802906513,0.006220995914191008,-0.0,0.008227664045989513
0.008770875632762909,0.003534984774887562,-0.010059387423098087,0.00634806277230382,-5.186715270610875e-07,0.00840147864073515
0.009257284924387932,0.0036706917453557253,-0.009832571260631084,0.006554139778017998,-3.386554681128473e-08,0.008515119552612305
0.008903724141418934,0.003314086003229022,-0.01102587953209877,0.006574610713869333,-2.211178351529952e-09,0.008285298943519592
0.008936801925301552,0.0035060171503573656,-0.010155399329960346,0.006283823866397142,-1.4437415152279698e-10,0.008425919339060783
0.009447647258639336,0.0032639256678521633,-0.010526211000978947,0.0060525741428136826,-9.426600992845646e-12,0.008986860513687134
0.009550362825393677,0.003040769835934043,-0.010342497378587723,0.0064499047584831715,-6.154897013062322e-13,0.008418240584433079
0.009153340011835098,0.0030316116753965616,-0.010137001983821392,0.006766616832464933,-4.0187081771060965e-14,0.008537305518984795
0.009477810002863407,0.003134082769975066,-0.01026964746415615,0.006580539047718048,-2.623929134883715e-15,0.009034202434122562
0.009661373682320118,0.003447932191193104,-0.010379447601735592,0.0062280744314193726,-1.7132382205719057e-16,0.008767656981945038
0.00929808896034956,0.003342241980135441,-0.010220447555184364,0.006286235526204109,-1.118622150390571e-17,0.008501124568283558
0.009820263832807541,0.0032695739064365625,-0.010444173589348793,0.006977190263569355,-4.768861667490715e-20,0.009297623299062252
0.009490616619586945,0.003474120981991291,-0.010251701809465885,0.006924544461071491,-3.1137255260158882e-21,0.009154393337666988
0.009792345575988293,0.003673267550766468,-0.010566494427621365,0.006512494757771492,-2.033040460467577e-22,0.008294402621686459
0.009918266907334328,0.0033029639162123203,-0.010373835451900959,0.0064799305982887745,-1.3274301291673285e-23,0.008654396049678326
0.009419435635209084,0.003165920963510871,-0.010121122002601624,0.006731079891324043,-8.667170392237338e-25,0.0085503701120615
0.00990974996238947,0.003135627368465066,-0.01071928907185793,0.006928423419594765,-5.659042231320239e-26,0.00862045492976904
0.01063944399356842,0.003176068654283881,-0.010729320347309113,0.006742663215845823,-3.694950139159366e-27,0.008684550411999226
0.01063944399356842,0.003176068654283881,-0.010729320347309113,0.006742663215845823,-3.694950139159366e-27,0.008684550411999226
0.009611927904188633,0.0036629524547606707,-0.010116582736372948,0.007760057225823402,-1.575215242712059e-29,0.00850268267095089
0.009611927904188633,0.0036629524547606707,-0.010116582736372948,0.007760057225823402,-1.575215242712059e-29,0.00850268267095089
0.010230149142444134,0.003845550585538149,-0.010023051872849464,0.007761472370475531,-1.0285029199920753e-30,0.008532247506082058
0.009833088144659996,0.003352674888446927,-0.010591882281005383,0.007585097569972277,-6.715389988253282e-32,0.008882642723619938
0.01003097090870142,0.003484728280454874,-0.01037360168993473,0.007630453445017338,-4.384669233673982e-33,0.008533582091331482
0.010270400904119015,0.003108628559857607,-0.009832707233726978,0.007415687665343285,-2.8628758542206313e-34,0.008677763864398003
0.010150684043765068,0.003003244986757636,-0.011066618375480175,0.007347180508077145,-1.869253266153036e-35,0.009084740653634071
0.009899257682263851,0.0030581133905798197,-0.010750502347946167,0.00676199235022068,-1.2204889010522105e-36,0.009579029865562916
0.009815664030611515,0.003305052174255252,-0.010637114755809307,0.0070288158021867275,-7.968919240945784e-38,0.00933642964810133
0.009902958758175373,0.003219118108972907,-0.010515814647078514,0.007368895225226879,-5.203134703213656e-39,0.009237751364707947
0.010962776839733124,0.0034148802515119314,-0.010073351673781872,0.007401690818369389,-3.3972799709398e-40,0.008977049961686134
0.010233277454972267,0.003116176463663578,-0.010390975512564182,0.007137794978916645,-2.218115339179753e-41,0.00852329283952713
0.009828412905335426,0.003270842833444476,-0.010475466027855873,0.006732819601893425,-1.448942612111861e-42,0.008819994516670704
0.010557298548519611,0.003563922829926014,-0.010796671733260155,0.006823173724114895,-9.388699710976274e-44,0.009095991961658001
0.009896380826830864,0.003632395062595606,-0.011611146852374077,0.006736267823725939,-5.605193857299268e-45,0.009494256228208542
0.009626039303839207,0.0033823628909885883,-0.010491827502846718,0.00703682005405426,-0.0,0.008902885019779205
0.010443739593029022,0.003036242676898837,-0.009898954071104527,0.0066714356653392315,-0.0,0.009229857474565506
0.010151240043342113,0.0034527776297181845,-0.011019217781722546,0.00703708129003644,-0.0,0.009217320941388607
0.010115871205925941,0.0033908740151673555,-0.01047219056636095,0.0069145625457167625,-0.0,0.009147732518613338
0.010440323501825333,0.0035086912102997303,-0.009989132173359394,0.007002451457083225,-0.0,0.008810827508568764
0.010603164322674274,0.0032372004352509975,-0.010539835318922997,0.006996976211667061,-0.0,0.009104696102440357
0.010271850042045116,0.0033426613081246614,-0.010484159924089909,0.007427587173879147,-0.0,0.009817887097597122
0.00987229123711586,0.0034626403357833624,-0.010874795727431774,0.007454941980540752,-0.0,0.010853271931409836
0.010507743805646896,0.00357114733196795,-0.009907214902341366,0.007413018029183149,-0.0,0.009230498224496841
0.010226307436823845,0.00334891933016479,-0.010000479407608509,0.007680983282625675,-0.0,0.008817121386528015
0.010226307436823845,0.00334891933016479,-0.010000479407608509,0.007680983282625675,-0.0,0.008817121386528015
0.010166438296437263,0.0033440382685512304,-0.010482532903552055,0.007585545536130667,-0.0,0.009339792653918266
0.01008414477109909,0.003161653643473983,-0.009713726118206978,0.007483093999326229,-0.0,0.010062572546303272
0.010040580295026302,0.003585549769923091,-0.010121799074113369,0.0069421688094735146,-0.0,0.009394284337759018
0.0098539674654603,0.0032534650526940823,-0.01062189694494009,0.007342546246945858,-0.0,0.00943848304450512
0.009888410568237305,0.0033339327201247215,-0.009917302057147026,0.007400547619909048,-0.0,0.009479737840592861
0.01010865718126297,0.0034826716873794794,-0.010714076459407806,0.007318762131035328,-0.0,0.009596290998160839
0.010158092714846134,0.0034760015551000834,-0.011017957702279091,0.0074028330855071545,-0.0,0.009998942725360394
0.010092315264046192,0.0035489597357809544,-0.010313622653484344,0.008050349541008472,-0.0,0.009987636469304562
0.0104540279135108,0.0032490261364728212,-0.010701713152229786,0.007871679961681366,-0.0,0.00970048364251852
0.009822063148021698,0.0030421214178204536,-0.010030053555965424,0.007705244701355696,-0.0,0.009632415138185024
0.010038548149168491,0.003392180660739541,-0.010574125684797764,0.00709148496389389,-0.0,0.009402592666447163
0.010974010452628136,0.0037525000516325235,-0.010897080413997173,0.007807783782482147,-0.0,0.009213140234351158
0.01006450317800045,0.003351522609591484,-0.009854912757873535,0.007880874909460545,-0.0,0.009293020702898502
0.009911087341606617,0.00336260674521327,-0.010804804041981697,0.007562678772956133,-0.0,0.009242664091289043
0.009936654940247536,0.0034491675905883312,-0.010286131873726845,0.0074128881096839905,-0.0,0.009399048052728176
0.010752460919320583,0.0034422818571329117,-0.00980826374143362,0.007522955536842346,-5.676788350683637e-05,0.00958486832678318
0.010437990538775921,0.003553517861291766,-0.010388568043708801,0.0077876015566289425,-7.322610326809809e-05,0.009479553438723087
0.010428261011838913,0.003335164859890938,-0.010425550863146782,0.007116055581718683,-7.317043491639197e-05,0.009444930590689182
0.010213198140263557,0.0034148073755204678,-0.010482292622327805,0.0071300482377409935,-8.553162479074672e-05,0.010124281980097294
0.010564355179667473,0.0033928798511624336,-0.011205353774130344,0.007563586346805096,-8.506709855282679e-05,0.010145990177989006
0.010185074992477894,0.0034320109989494085,-0.010503750294446945,0.007986950688064098,-9.684635006124154e-05,0.010097774676978588
0.010494017042219639,0.003631928702816367,-0.01072139572352171,0.007589724846184254,-0.00010906429088208824,0.009978116489946842
0.010867332108318806,0.0033521600998938084,-0.0105133056640625,0.007272025570273399,-0.0005374325555749238,0.009625887498259544
0.010476530529558659,0.003525199368596077,-0.010372418910264969,0.007717526983469725,-0.0007109541911631823,0.010658817365765572
0.010550778359174728,0.0036207037046551704,-0.010951745323836803,0.006986267399042845,-0.0006906980997882783,0.010362077504396439
0.0105472756549716,0.003568507730960846,-0.010604477487504482,0.006885044742375612,-0.0009241327061317861,0.009941301308572292
0.010688102804124355,0.0033613138366490602,-0.01084814127534628,0.007579335011541843,-0.0009547231602482498,0.010103154927492142
0.010594543069601059,0.0033946007024496794,-0.01144548412412405,0.007650309707969427,-0.0009485207847319543,0.010274575091898441
0.010779562406241894,0.0036991757806390524,-0.010291536338627338,0.007405700162053108,-0.0009184969821944833,0.009884532541036606
0.010838048532605171,0.003930804319679737,-0.010544020682573318,0.00719094043597579,-0.0008382679661735892,0.010034636594355106
0.010330360382795334,0.004084888380020857,-0.010555904358625412,0.0075358860194683075,-0.0007523097447119653,0.009886737912893295
0.010330360382795334,0.004084888380020857,-0.010555904358625412,0.0075358860194683075,-0.0007523097447119653,0.009886737912893295
0.011163725517690182,0.0036306381225585938,-0.01049881149083376,0.0071829622611403465,-0.0006811480852775276,0.010373249650001526
0.010990201495587826,0.0035587174352258444,-0.011257884092628956,0.007181706838309765,-0.0006222188821993768,0.010856647044420242
0.01087774895131588,0.0036521265283226967,-0.010625405237078667,0.0074522895738482475,-0.0005300409975461662,0.010361303575336933
0.010986492969095707,0.004164864309132099,-0.010891434736549854,0.007679828908294439,-0.00046506509534083307,0.01042497530579567
0.0110093979164958,0.003614875255152583,-0.010861789807677269,0.007612376008182764,-0.00042083970038220286,0.01034608669579029
0.011445637792348862,0.003579286392778158,-0.010624270886182785,0.007461670786142349,-0.00038476951885968447,0.010334874503314495
0.012776164337992668,0.0037694673519581556,-0.011195716448128223,0.007789653725922108,-0.00040645961416885257,0.010389978066086769
0.012305693700909615,0.003927620127797127,-0.011177796870470047,0.007805098779499531,-0.00039301050128415227,0.01041081827133894
0.012998298741877079,0.003991670906543732,-0.011254891753196716,0.007760228589177132,-0.00036731999716721475,0.00995602272450924
0.012475013732910156,0.004238493274897337,-0.011760599911212921,0.007494908757507801,-0.00037185222026892006,0.010154948569834232
0.012857943773269653,0.004267157521098852,-0.011317928321659565,0.0075007169507443905,-0.00037534470902755857,0.009811918251216412
0.012046596966683865,0.004071902949362993,-0.011941783130168915,0.008150748908519745,-0.00035581906558945775,0.010327409952878952
0.012409549206495285,0.003945563919842243,-0.011674139648675919,0.008348283357918262,-0.00036035795346833766,0.010168525390326977
0.012806875631213188,0.003475719131529331,-0.011147704906761646,0.007796935737133026,-0.000363867700798437,0.010008634999394417
0.012470386922359467,0.004044733475893736,-0.011260993778705597,0.007614658679813147,-0.00034771309583447874,0.01119594369083643
0.013201865367591381,0.004133027512580156,-0.010830173268914223,0.008027245290577412,-0.00033177915611304343,0.010377866216003895
0.013027757406234741,0.004054089076817036,-0.011585090309381485,0.008019283413887024,-0.00031716623925603926,0.009682641364634037
0.012921659275889397,0.003727199509739876,-0.012114212848246098,0.007726461626589298,-0.0003037810674868524,0.00972733274102211
0.012736443430185318,0.0035835029557347298,-0.011069674044847488,0.007696137763559818,-0.00029264160548336804,0.010293475352227688
0.012442457489669323,0.003915336448699236,-0.01107478141784668,0.007413753308355808,-0.00024625766673125327,0.010989096947014332
0.012543502263724804,0.0038642087019979954,-0.01139768771827221,0.007356178481131792,-0.00023341873020399362,0.011215192265808582
0.013308304361999035,0.003734378609806299,-0.010971569456160069,0.00794223602861166,-0.0002219004963990301,0.010442791506648064
0.012898886576294899,0.003761108499020338,-0.010525203309953213,0.008164754137396812,-0.00021146898507140577,0.010619742795825005
0.013034159317612648,0.0038276503328233957,-0.011491443030536175,0.008026150986552238,-0.00020197578123770654,0.010943653993308544
0.012806927785277367,0.003752027405425906,-0.011472861282527447,0.007780920248478651,-0.00019329790666233748,0.01083043310791254
0.01374544482678175,0.0037358279805630445,-0.01117509976029396,0.008261805400252342,-0.00020346730889286846,0.011769923381507397
0.01374544482678175,0.0037358279805630445,-0.01117509976029396,0.008261805400252342,-0.00020346730889286846,0.011769923381507397
0.012819211930036545,0.003774938639253378,-0.011499397456645966,0.008316335268318653,-0.0002123663725797087,0.011406369507312775
0.01323584746569395,0.0038018841296434402,-0.011680849827826023,0.008081026375293732,-0.0002053930948022753,0.01111538615077734
0.013228697702288628,0.00377459148876369,-0.011504843831062317,0.007917148992419243,-0.00019793561659753323,0.011163780465722084
0.012845480814576149,0.003775667631998658,-0.011043858714401722,0.008228214457631111,-0.0001909403217723593,0.01085450779646635
0.013171840459108353,0.0038595753721892834,-0.01075295452028513,0.007961373776197433,-0.00020716401922982186,0.010957665741443634
0.013101660646498203,0.004303318448364735,-0.011154303327202797,0.007471197284758091,-0.0002075274387607351,0.01097253430634737
0.013627552427351475,0.004126864485442638,-0.010831528343260288,0.007668204605579376,-0.0002013636112678796,0.010856949724256992
0.01349930465221405,0.003987758886069059,-0.011456512846052647,0.00832542683929205,-0.0001951561134774238,0.011339109390974045
0.01376893650740385,0.003985358867794275,-0.01144692488014698,0.007970121689140797,-0.0001892935106297955,0.011235949583351612
0.013231107965111732,0.003921613562852144,-0.010791806504130363,0.007983710616827011,-0.0002032167831202969,0.011122959665954113
0.013742486014962196,0.004376442637294531,-0.01180197112262249,0.007943861186504364,-0.0002036269142990932,0.01157293189316988
0.013017543591558933,0.004564800765365362,-0.011068800464272499,0.008234109729528427,-0.000198417401406914,0.011699429713189602
0.013411869294941425,0.004420982673764229,-0.01109484676271677,0.008332731202244759,-0.00020329633844085038,0.011445829644799232
0.013091497123241425,0.004012744408100843,-0.011900891549885273,0.007653746288269758,-0.0002043682470684871,0.011249613016843796
0.013416684232652187,0.003907825332134962,-0.011226129718124866,0.008795885369181633,-0.00019613302720244974,0.01118658110499382
0.013430159538984299,0.003608245635405183,-0.011501624248921871,0.008207500912249088,-0.0002205653436249122,0.01132491696625948
0.013424268923699856,0.0035926082637161016,-0.011218705214560032,0.00812374148517847,-0.00021620735060423613,0.011161982081830502
0.013307647779583931,0.003915336914360523,-0.01106193009763956,0.008430401794612408,-0.00020816460892092437,0.01167849637567997
0.013242186978459358,0.0039243740029633045,-0.011495470069348812,0.009199289605021477,-0.00023159846023190767,0.011286801658570766
0.013400250114500523,0.0034834034740924835,-0.011103048920631409,0.0078738983720541,-0.0002176907000830397,0.011784239672124386
0.013873567804694176,0.0035624296870082617,-0.01154759805649519,0.008940322324633598,-0.00023650536604691297,0.011425228789448738
0.013502782210707664,0.0037513894494622946,-0.010966893285512924,0.008459968492388725,-0.00023245520424097776,0.01146670337766409
0.013794231228530407,0.0038031977601349354,-0.011861147359013557,0.00799921341240406,-0.00022541118960361928,0.011606242507696152
0.013292243704199791,0.0038157401140779257,-0.011175361461937428,0.008364187553524971,-0.00021936421399004757,0.011525466106832027
0.014067305251955986,0.0033702945802360773,-0.011242875829339027,0.008918823674321175,-0.0003353601787239313,0.012079520151019096
0.013318206183612347,0.003491697832942009,-0.01115602906793356,0.008811385370790958,-0.00032016250770539045,0.011381451040506363
0.013620610348880291,0.0038630831986665726,-0.010631129145622253,0.008507306687533855,-0.00034347648033872247,0.01150427758693695
0.013620610348880291,0.0038630831986665726,-0.010631129145622253,0.008507306687533855,-0.00034347648033872247,0.01150427758693695
0.0133759044110775,0.0035467371344566345,-0.011518208310008049,0.008127427659928799,-0.00033588032238185406,0.011648560874164104
0.013633091934025288,0.0035474684555083513,-0.011777777224779129,0.008475134149193764,-0.000342788000125438,0.01141850184649229
0.013458662666380405,0.0036416021175682545,-0.011234094388782978,0.009142485447227955,-0.0003476717392913997,0.012904917821288109
0.013653339818120003,0.0037888207007199526,-0.011225525289773941,0.009019346907734871,-0.00033095895196311176,0.011741136200726032
0.013558361679315567,0.0033197891898453236,-0.01166057214140892,0.00928579829633236,-0.0003534361894708127,0.011086140759289265
0.013423176482319832,0.0033813451882451773,-0.011494976468384266,0.008621695451438427,-0.0003419802524149418,0.011431198567152023
0.013851482421159744,0.0034906575456261635,-0.011300834827125072,0.008804789744317532,-0.0003283471742179245,0.011881153099238873
0.01362486183643341,0.0034099912736564875,-0.011210794560611248,0.009370503947138786,-0.00040217622881755233,0.012175521813333035
0.013711770996451378,0.0035624743904918432,-0.011306511238217354,0.009097525849938393,-0.0004305102920625359,0.01229180209338665
0.013779038563370705,0.003320920281112194,-0.010897061787545681,0.00866963341832161,-0.00041493686148896813,0.01286183949559927
0.01402255892753601,0.0034973742440342903,-0.011492299847304821,0.008972403593361378,-0.00044625953887589276,0.012303629890084267
0.013650789856910706,0.0033042849972844124,-0.011592780239880085,0.008803772740066051,-0.00044964562403038144,0.012381876818835735
0.01391113642603159,0.0035765625070780516,-0.011655835434794426,0.008395256474614143,-0.0004486939578782767,0.012307017110288143
0.013958798721432686,0.0037747325841337442,-0.011450299061834812,0.009344837628304958,-0.00042403239058330655,0.012307435274124146
0.014086057431995869,0.0038453242741525173,-0.011013083159923553,0.009097890928387642,-0.00040054888813756406,0.012805195525288582
0.013761159032583237,0.00344656384550035,-0.011238395236432552,0.009337082505226135,-0.00043709229794330895,0.012304481118917465
0.014007791876792908,0.003360319184139371,-0.011171270161867142,0.009173165075480938,-0.00044830865226686,0.012377479113638401
0.013422823511064053,0.003487939480692148,-0.011057195253670216,0.008818116970360279,-0.0004506193508859724,0.012019454501569271
0.014065034687519073,0.0036108207423239946,-0.012030470184981823,0.008532233536243439,-0.00044930409057997167,0.01196637749671936
0.013873586431145668,0.0034409216605126858,-0.012103747576475143,0.009062846191227436,-0.00041696015978232026,0.012400648556649685
0.013909313827753067,0.003198477905243635,-0.01160650048404932,0.009217387065291405,-0.0004209231701679528,0.01319678034633398
0.01438638474792242,0.003490208415314555,-0.011282444931566715,0.009267306886613369,-0.0004365628701634705,0.012903855182230473
0.013720870018005371,0.0037317390087991953,-0.012245919555425644,0.009105109609663486,-0.00042386044515296817,0.012688672170042992
0.01365701388567686,0.003731114324182272,-0.011946218088269234,0.008979829028248787,-0.000441133655840531,0.012535033747553825
0.01395999826490879,0.0037367367185652256,-0.012314442545175552,0.008583865128457546,-0.0004373968404252082,0.01282725390046835
0.01459844596683979,0.0037486287765204906,-0.012037400156259537,0.008996685035526752,-0.0004397005250211805,0.012961541302502155
0.014088409952819347,0.003756687743589282,-0.011993726715445518,0.009163519367575645,-0.00043923172052018344,0.012672862969338894
0.014070912264287472,0.003787959460169077,-0.011918340809643269,0.008847761899232864,-0.0004413104907143861,0.013079643249511719
0.013853480108082294,0.003408595686778426,-0.01095963828265667,0.008625157177448273,-0.0004407331289257854,0.01287571620196104
0.013853480108082294,0.003408595686778426,-0.01095963828265667,0.008625157177448273,-0.0004407331289257854,0.01287571620196104
0.014068931341171265,0.003535269759595394,-0.012836400419473648,0.008633719757199287,-0.00041375900036655366,0.013099667616188526
0.013714919798076153,0.0033401604741811752,-0.012475858442485332,0.008711235597729683,-0.00042922160355374217,0.012946775183081627
0.014470169320702553,0.0033388787414878607,-0.012270555831491947,0.008098863996565342,-0.00041712133679538965,0.013066842220723629
0.014029903337359428,0.0034965553786605597,-0.012031776830554008,0.008893678896129131,-0.00039506112807430327,0.012907285243272781
0.01434439979493618,0.003725355723872781,-0.012106748297810555,0.009227783419191837,-0.00037455654819495976,0.012659571133553982
0.014288940466940403,0.0037155624013394117,-0.012879053130745888,0.00899979006499052,-0.0003953180566895753,0.013023510575294495
0.014457615092396736,0.003471403382718563,-0.012314646504819393,0.00920071266591549,-0.000369604560546577,0.013095872476696968
0.014333504252135754,0.003288992214947939,-0.01269843801856041,0.0092798862606287,-0.0003419412241782993,0.01303355023264885
0.014494298957288265,0.003411330748349428,-0.012455541640520096,0.009259721264243126,-0.0003178028855472803,0.012948076240718365
0.013937955722212791,0.0036370232701301575,-0.012302509509027004,0.00910467654466629,-0.0003520442987792194,0.01341454591602087
0.01417508814483881,0.0037609650753438473,-0.01263615395873785,0.00934565719217062,-0.0003338707028888166,0.013203112408518791
0.014417209662497044,0.0037455400452017784,-0.012294679880142212,0.008679305203258991,-0.00031464308267459273,0.015100760385394096
0.014561591669917107,0.003390835365280509,-0.012633412145078182,0.009037831798195839,-0.00029732740949839354,0.012008370831608772
0.014506455510854721,0.0035059736110270023,-0.012527921237051487,0.00946811307221651,-0.0003164497611578554,0.012339046224951744
0.015040045604109764,0.0032673971727490425,-0.012919992208480835,0.009554716758430004,-0.00031165831023827195,0.0130572859197855
0.01409948617219925,0.003442181274294853,-0.012559875845909119,0.009207022376358509,-0.0003290378372184932,0.013446234166622162
0.014804549515247345,0.003806222230195999,-0.012378253974020481,0.009581026621162891,-0.0003441708395257592,0.013814501464366913
0.014804549515247345,0.003806222230195999,-0.012378253974020481,0.009581026621162891,-0.0003441708395257592,0.013814501464366913
0.01564246416091919,0.0033437167294323444,-0.012870317324995995,0.010479489341378212,-0.000309061782900244,0.013765799812972546
0.01592092029750347,0.003261294448748231,-0.012044754810631275,0.010123313404619694,-0.00028923724312335253,0.01390442717820406
0.015571405179798603,0.0034413246903568506,-0.013066803105175495,0.009434199891984463,-0.00027176502044312656,0.013811556622385979
0.015920516103506088,0.003610039595514536,-0.013082780875265598,0.010275695472955704,-0.00029405351961031556,0.01375295128673315
0.015913100913167,0.0034738904796540737,-0.013152658008038998,0.00986462738364935,-0.00029007851844653487,0.013312493450939655
0.016356978565454483,0.0035353999119251966,-0.012637344188988209,0.009328950196504593,-0.00027602058253251016,0.013422367163002491
0.01636100746691227,0.0037123868241906166,-0.012817847542464733,0.00971112959086895,-0.0002626427449285984,0.013706696219742298
0.01605299860239029,0.003837073687463999,-0.012438607402145863,0.009747140109539032,-0.0002504605508875102,0.014296925626695156
0.01633995957672596,0.00346021493896842,-0.01175000425428152,0.009915516711771488,-0.00023935624631121755,0.01418802049010992
0.01628877781331539,0.0034928075037896633,-0.013078984804451466,0.009799960069358349,-0.0002647888322826475,0.014234105125069618
0.01628877781331539,0.0034928075037896633,-0.013078984804451466,0.009799960069358349,-0.0002647888322826475,0.014234105125069618
0.016544610261917114,0.0032966998405754566,-0.012680639512836933,0.009285910055041313,-0.00025633463519625366,0.014182169921696186
0.016240352764725685,0.0035370877012610435,-0.012965881265699863,0.009343316778540611,-0.0002464573772158474,0.014727538451552391
0.016515392810106277,0.003677699714899063,-0.012968567200005054,0.010680684819817543,-0.00023718639567960054,0.014489607885479927
0.016582321375608444,0.0036831917241215706,-0.013057274743914604,0.010090778581798077,-0.00022858027659822255,0.014444520696997643
0.016137832775712013,0.003664760384708643,-0.012647386640310287,0.00972359161823988,-0.0002205757627962157,0.014286077581346035
0.01644529029726982,0.003821959253400564,-0.01268287468701601,0.009941198863089085,-0.0002415008348179981,0.014409903436899185
0.01626139134168625,0.003367457538843155,-0.012795286253094673,0.009587632492184639,-0.00023545361182186753,0.01412890199571848
0.016582578420639038,0.0033927978947758675,-0.012566491030156612,0.010111178271472454,-0.0002281141933053732,0.014122742228209972
0.016172561794519424,0.003578572068363428,-0.012872911058366299,0.009991554543375969,-0.00022174233163241297,0.014022013172507286
0.01657913252711296,0.0038256358820945024,-0.01253817230463028,0.009159060195088387,-0.0002117577096214518,0.014356475323438644
0.016902556642889977,0.0037485596258193254,-0.013113436289131641,0.009095574729144573,-0.00020226740161888301,0.014142057858407497
0.016577262431383133,0.0036280727945268154,-0.013186091557145119,0.00968698225915432,-0.00019356649136170745,0.014724424108862877
0.016912013292312622,0.0035403650254011154,-0.01304562296718359,0.010138529352843761,-0.0002130143839167431,0.014610908925533295
0.01640591025352478,0.003613509703427553,-0.012789232656359673,0.009320017881691456,-0.00021324417321011424,0.014929786324501038
0.017090531066060066,0.0036913398653268814,-0.01262464839965105,0.009702884592115879,-0.00020568592299241573,0.014676679857075214
0.016835767775774002,0.00417693518102169,-0.012912080623209476,0.010367576032876968,-0.0001981731620617211,0.014389771968126297
0.016882771626114845,0.0035756982397288084,-0.012691447511315346,0.009788895957171917,-0.0002208621008321643,0.01400922890752554
0.017016788944602013,0.0035543523263186216,-0.013018258847296238,0.009937523864209652,-0.00023028500436339527,0.01468648575246334
0.01741313375532627,0.0035578077659010887,-0.013031112030148506,0.009651661850512028,-0.00022990169236436486,0.014714673161506653
0.01723605766892433,0.003588869469240308,-0.012481367215514183,0.00978850107640028,-0.00031934274011291564,0.01517412532120943
0.017299342900514603,0.0035832675639539957,-0.012969383038580418,0.009956629015505314,-0.00032761835609562695,0.015213952399790287
0.01759853959083557,0.0034471459221094847,-0.013056417927145958,0.009538441896438599,-0.0003604191879276186,0.014694792218506336
0.01722925342619419,0.003518299898132682,-0.01324348896741867,0.009687707759439945,-0.0003447855415288359,0.015051388181746006
0.017370322719216347,0.003663361072540283,-0.012808908708393574,0.010175648145377636,-0.00036438112147152424,0.014879080466926098
0.017370322719216347,0.003663361072540283,-0.012808908708393574,0.010175648145377636,-0.00036438112147152424,0.014879080466926098
0.017070230096578598,0.0037873827386647463,-0.012994117103517056,0.009774666279554367,-0.00035625562304630876,0.015616010874509811
0.01744840107858181,0.0037757689133286476,-0.013513723388314247,0.009918902069330215,-0.00033795685158111155,0.015623528510332108
0.01753743551671505,0.0036930434871464968,-0.012891623191535473,0.010228220373392105,-0.0003546066291164607,0.014953633770346642
0.017656901851296425,0.0037054773420095444,-0.013410321436822414,0.009239117614924908,-0.00034807348856702447,0.015066185034811497
0.018162792548537254,0.0038005656097084284,-0.01282726414501667,0.009824364446103573,-0.00046235264744609594,0.015511428005993366
0.017911678180098534,0.0038824984803795815,-0.013383136130869389,0.009958590380847454,-0.00047943450044840574,0.015478692017495632
0.017967650666832924,0.0038587581366300583,-0.013181731104850769,0.009611058048903942,-0.0004765738849528134,0.015189548954367638
0.01778600551187992,0.0038493736647069454,-0.013444659300148487,0.010434848256409168,-0.0004402788181323558,0.015312769450247288
0.017514638602733612,0.0038318345323204994,-0.013308153487741947,0.01039633434265852,-0.000470296829007566,0.015105517581105232
0.018234696239233017,0.003884596284478903,-0.013683509081602097,0.010366099886596203,-0.0004414515569806099,0.015893716365098953
0.018242446705698967,0.0036263796500861645,-0.01369716227054596,0.010710633359849453,-0.0004414387221913785,0.016002081334590912
0.0182009469717741,0.0035995678044855595,-0.01294577494263649,0.01052960567176342,-0.0004407640954013914,0.01603175513446331
0.01824505813419819,0.0038409556727856398,-0.013550329022109509,0.010718977078795433,-0.00046799678239040077,0.015791449695825577
0.018240798264741898,0.0038183301221579313,-0.013337507843971252,0.010871406644582748,-0.0004685435851570219,0.0158571545034647
0.01840844191610813,0.003557312535122037,-0.013785909861326218,0.010450667701661587,-0.0005065868026576936,0.015512332320213318
0.01883629336953163,0.0035495434422045946,-0.013516103848814964,0.010770405642688274,-0.0005252498667687178,0.015722578391432762
0.01871906965970993,0.003942287992686033,-0.014275905676186085,0.011018425226211548,-0.0005014712805859745,0.016034595668315887
0.01880790665745735,0.004062028601765633,-0.013549490831792355,0.01112575363367796,-0.0005229955422692001,0.01630876585841179
0.018877195194363594,0.0037893771659582853,-0.014234486036002636,0.010600902140140533,-0.0004949322901666164,0.016172751784324646
0.018428940325975418,0.0035729275550693274,-0.01324120257049799,0.010546473786234856,-0.0005776126054115593,0.01570948399603367
0.01832803152501583,0.003461552783846855,-0.013769570738077164,0.010982836596667767,-0.0005470921169035137,0.015873299911618233
0.019037576392292976,0.003661154769361019,-0.014159532263875008,0.01018090546131134,-0.0005286728264763951,0.016278408467769623
0.019096702337265015,0.0037664470728486776,-0.013822888024151325,0.01074154768139124,-0.0004828072851523757,0.016213277354836464
0.01889430731534958,0.003863999154418707,-0.014460288919508457,0.010859823785722256,-0.00044323239126242697,0.016219887882471085
0.01892263814806938,0.003908664453774691,-0.013989257626235485,0.010570122860372066,-0.00046850144281052053,0.017707575112581253
0.019276494160294533,0.003410045523196459,-0.014652608893811703,0.010923849418759346,-0.0004435336450114846,0.015613343566656113
0.0192447267472744,0.003542739199474454,-0.014105523005127907,0.01033136248588562,-0.00045844027772545815,0.015291334129869938
0.019116677343845367,0.0036823241971433163,-0.014825009740889072,0.010686361230909824,-0.0004438084433786571,0.015573926270008087
0.019116677343845367,0.0036823241971433163,-0.014825009740889072,0.010686361230909824,-0.0004438084433786571,0.015573926270008087
0.019159823656082153,0.004115050192922354,-0.014275725930929184,0.011207030154764652,-0.0004188702441751957,0.01602199487388134
0.019320979714393616,0.004241864662617445,-0.014868129976093769,0.010479584336280823,-0.00039563392056152225,0.01582253910601139
0.019260317087173462,0.0036314695607870817,-0.014505881816148758,0.010692591778934002,-0.0003653006278909743,0.01647503487765789
0.01939949207007885,0.0035434619057923555,-0.015095180831849575,0.01083456166088581,-0.0003379592963028699,0.01644052565097809
0.01945613883435726,0.00373327499255538,-0.014693149365484715,0.010823111981153488,-0.0003686406125780195,0.01638505607843399
0.019325237721204758,0.0038037037011235952,-0.014874912798404694,0.010519010946154594,-0.000352008588379249,0.016345566138625145
0.019828666001558304,0.0037861301098018885,-0.014118693768978119,0.010471194982528687,-0.0003309119201730937,0.016135985031723976
0.01967339776456356,0.003821092192083597,-0.014989271759986877,0.009947332553565502,-0.0003118273161817342,0.01648131012916565
0.019429339095950127,0.003399401670321822,-0.014566557481884956,0.010251278057694435,-0.0003405384486541152,0.016768036410212517
0.019747601822018623,0.003520216094329953,-0.015148676000535488,0.010474329814314842,-0.00032589974580332637,0.016806911677122116
0.019781187176704407,0.003734857076779008,-0.014595447108149529,0.010913991369307041,-0.00034840404987335205,0.016686728224158287
0.019630249589681625,0.0038909967988729477,-0.015195824205875397,0.011316145770251751,-0.00033734459429979324,0.017011089250445366
0.019763145595788956,0.003906000405550003,-0.014555095694959164,0.010440746322274208,-0.0003864330064971,0.017065150663256645
0.020119957625865936,0.0034436932764947414,-0.015139922499656677,0.01069178432226181,-0.0003651522274594754,0.016641302034258842
0.019980061799287796,0.0033627634402364492,-0.01469304971396923,0.011537140235304832,-0.0003383388975635171,0.01687108725309372
0.01967317797243595,0.003464733250439167,-0.015055391937494278,0.011121004819869995,-0.0003690617741085589,0.01677798479795456
0.020278099924325943,0.0036037983372807503,-0.014782251790165901,0.011350846849381924,-0.00035238885902799666,0.017016930505633354
0.020362110808491707,0.0036407136358320713,-0.01486771646887064,0.011292677372694016,-0.0003581111959647387,0.017060616984963417
0.01997966505587101,0.0036082181613892317,-0.014684959314763546,0.011352893896400928,-0.0003622944059316069,0.017007790505886078
0.02028076909482479,0.00363039318472147,-0.015111441724002361,0.011587553657591343,-0.00038667378248646855,0.017345724627375603
0.020228706300258636,0.0037971180863678455,-0.015079420059919357,0.010797443799674511,-0.0005468538729473948,0.017367715016007423
0.020116547122597694,0.003717591520398855,-0.014889774844050407,0.011694489978253841,-0.0005818022764287889,0.017574215307831764
0.020464058965444565,0.003649539779871702,-0.014891354367136955,0.011322785168886185,-0.0005424767732620239,0.017522726207971573
0.020697975531220436,0.0036174908746033907,-0.015033998526632786,0.01137898676097393,-0.0005000874516554177,0.017532063648104668
0.020187996327877045,0.0036737576592713594,-0.015023687854409218,0.011316923424601555,-0.0004633268981706351,0.01738850027322769
0.02100321836769581,0.0037310218904167414,-0.015608830377459526,0.011246353387832642,-0.00043156795436516404,0.017425060272216797
0.02105979435145855,0.0037454059347510338,-0.015271429903805256,0.011711806058883667,-0.0004319340514484793,0.01746520958840847
0.02105979435145855,0.0037454059347510338,-0.015271429903805256,0.011711806058883667,-0.0004319340514484793,0.01746520958840847
0.020786160603165627,0.0037998734042048454,-0.015260761603713036,0.011389288119971752,-0.0004318230494391173,0.018350059166550636
0.01904311217367649,0.003771171672269702,-0.014731748029589653,0.011910457164049149,-0.00040897694998420775,0.01750906929373741
0.021121639758348465,0.0036751911975443363,-0.015315039083361626,0.011677420698106289,-0.00038709150976501405,0.016777152195572853
0.021373271942138672,0.004155226983129978,-0.014663651585578918,0.011514377780258656,-0.00036734112654812634,0.01744520105421543
0.020909739658236504,0.004133686423301697,-0.015327117405831814,0.01197882927954197,-0.0003495051059871912,0.017881950363516808
0.020782392472028732,0.0035815523006021976,-0.01529991626739502,0.011084495112299919,-0.0003381243150215596,0.01767648011445999
0.02130293659865856,0.0034974352456629276,-0.015603273175656796,0.011778637766838074,-0.00031593203311786056,0.018069716170430183
0.020704390481114388,0.004234194755554199,-0.01443214900791645,0.011389878578484058,-0.0002952913928311318,0.018360426649451256
0.020900610834360123,0.004233390558511019,-0.015375555492937565,0.011068027466535568,-0.00027710438007488847,0.018174726516008377
0.0213862843811512,0.003940894268453121,-0.015169957652688026,0.011644571088254452,-0.0003096088767051697,0.018327021971344948
0.021471941843628883,0.0037664598785340786,-0.015198913402855396,0.011130234226584435,-0.00029581296257674694,0.017771810293197632
0.020439976826310158,0.003730644006282091,-0.0150236701592803,0.0110221141949296,-0.00028064133948646486,0.01768151856958866
0.020725267007946968,0.0037814124953001738,-0.015237498097121716,0.011795751750469208,-0.00029959893436171114,0.018178513273596764
0.02134356088936329,0.0038177187088876963,-0.015159642323851585,0.012099284678697586,-0.0002958326367661357,0.01799805834889412
0.021825196221470833,0.003882315009832382,-0.015332670882344246,0.012089932337403297,-0.0002832047175616026,0.018190553411841393
0.021402759477496147,0.003433056641370058,-0.015253267250955105,0.011591343209147453,-0.0002710607659537345,0.018389392644166946
0.021451851353049278,0.0034220225643366575,-0.014941425994038582,0.011506014503538609,-0.0002598805585876107,0.017949707806110382
0.02189692109823227,0.0034500514157116413,-0.01539355143904686,0.012200979515910149,-0.00028281332924962044,0.018372172489762306
0.021204417571425438,0.003457749029621482,-0.01516706869006157,0.011550032533705235,-0.00026428280398249626,0.019025813788175583
0.021204417571425438,0.003457749029621482,-0.01516706869006157,0.011550032533705235,-0.00026428280398249626,0.019025813788175583
0.02227730117738247,0.0032371878623962402,-0.01548045501112938,0.011605312116444111,-0.0002702833735384047,0.018511587753891945
0.021920735016465187,0.0033542148303240538,-0.01489402074366808,0.011721603572368622,-0.00029969538445584476,0.018137678503990173
0.02186577394604683,0.0030864495784044266,-0.015414530411362648,0.011598301120102406,-0.000289698044070974,0.01813426986336708
0.022154001519083977,0.0032361275516450405,-0.014958003535866737,0.011503668501973152,-0.0002753205772023648,0.01830292120575905
0.02245362661778927,0.003478527767583728,-0.015505609102547169,0.011518808081746101,-0.0003026528866030276,0.018758688122034073
0.022275079041719437,0.003441750770434737,-0.014946691691875458,0.011617195792496204,-0.000311651558149606,0.018965359777212143
0.022409942001104355,0.003495335578918457,-0.015611923299729824,0.011796937324106693,-0.00031700849649496377,0.018805723637342453
0.022409942001104355,0.003495335578918457,-0.015611923299729824,0.011796937324106693,-0.00031700849649496377,0.018805723637342453
0.02214197628200054,0.0032809649128466845,-0.015115826390683651,0.012114182114601135,-0.00030483229784294963,0.01908232644200325
0.022269997745752335,0.0035100129898637533,-0.015413487330079079,0.0124092111364007,-0.0004555127816274762,0.01879638247191906
0.022587545216083527,0.003737557912245393,-0.015139969065785408,0.01184198446571827,-0.0004994107293896377,0.018781881779432297
0.022506864741444588,0.003359423018991947,-0.015755271539092064,0.012181411497294903,-0.000492919294629246,0.018922317773103714
0.022506864741444588,0.003359423018991947,-0.015755271539092064,0.012181411497294903,-0.000492919294629246,0.018922317773103714
0.022448236122727394,0.0035157622769474983,-0.015041646547615528,0.012233191169798374,-0.00047266040928661823,0.01901438646018505
0.022774191573262215,0.0032782757189124823,-0.015359257347881794,0.011993720196187496,-0.0004950555157847703,0.018182557076215744
0.022931287065148354,0.0034347509499639273,-0.015523646026849747,0.01153904851526022,-0.000470201950520277,0.018297908827662468
0.02272241935133934,0.003541430225595832,-0.015999332070350647,0.011921620927751064,-0.000563376524951309,0.018810434266924858
0.02278597466647625,0.0036624239291995764,-0.015490477904677391,0.011712542735040188,-0.0005676221917383373,0.019079944118857384
0.023022597655653954,0.0037087081000208855,-0.01603453978896141,0.01214949693530798,-0.0005550477653741837,0.019194424152374268
0.023534156382083893,0.004198196344077587,-0.01577559858560562,0.012806113809347153,-0.000546673487406224,0.01930120587348938
0.022931409999728203,0.0035687352064996958,-0.016083136200904846,0.012689640745520592,-0.0005370560102164745,0.019260158762335777
0.02307206578552723,0.00349337887018919,-0.01576913706958294,0.012840832583606243,-0.0005492150667123497,0.01915990561246872
0.023593679070472717,0.0036655887961387634,-0.01603754237294197,0.012452786788344383,-0.0005256920121610165,0.019250955432653427
0.02323143370449543,0.004277382977306843,-0.01616954617202282,0.012816140428185463,-0.0005766572430729866,0.019335901364684105
0.023144617676734924,0.004061826970428228,-0.015733323991298676,0.012488220818340778,-0.000607051479164511,0.019402969628572464
0.022358529269695282,0.003919384907931089,-0.01618226245045662,0.013194022700190544,-0.0006248644785955548,0.019493255764245987
0.023814288899302483,0.0034224921837449074,-0.016024496406316757,0.013376757502555847,-0.0006288333679549396,0.019737480208277702
0.024042729288339615,0.0035332818515598774,-0.016780449077486992,0.013088133186101913,-0.0006134164286777377,0.019446300342679024
0.023723512887954712,0.004077500198036432,-0.01593545824289322,0.012633588165044785,-0.0006602958310395479,0.019404545426368713
0.024257199838757515,0.003963158465921879,-0.016231559216976166,0.013114754110574722,-0.0006656356272287667,0.019722994416952133
0.023680072277784348,0.003436480648815632,-0.01644761487841606,0.012601111084222794,-0.0006157841999083757,0.02052460052073002
0.023093435913324356,0.003345279023051262,-0.016530683264136314,0.01283359806984663,-0.0005986545002087951,0.02099025994539261
0.023827670142054558,0.0034510192926973104,-0.01618797890841961,0.01241964753717184,-0.0005833125323988497,0.02040630765259266
0.023827670142054558,0.0034510192926973104,-0.01618797890841961,0.01241964753717184,-0.0005833125323988497,0.02040630765259266
0.024492116644978523,0.0036130528897047043,-0.016623172909021378,0.012495090253651142,-0.0005732945282943547,0.01974032260477543
0.023801540955901146,0.003507037879899144,-0.01616797037422657,0.012315022759139538,-0.0005623400793410838,0.01949465088546276
0.024311425164341927,0.0035377778112888336,-0.016772793605923653,0.012702231295406818,-0.0005236390861682594,0.019805440679192543
0.024995671585202217,0.0033246143721044064,-0.016012443229556084,0.012380479834973812,-0.000492078484967351,0.020237231627106667
0.024825332686305046,0.003541012993082404,-0.01592441275715828,0.011847831308841705,-0.00044835469452664256,0.020966919139027596
0.024273168295621872,0.003771624295040965,-0.01640198566019535,0.012148222886025906,-0.00048375161713920534,0.020977629348635674
0.024387670680880547,0.0034737144596874714,-0.016592565923929214,0.012078985571861267,-0.000513013219460845,0.020650869235396385
0.02396574057638645,0.002982434583827853,-0.017077689990401268,0.012506711296737194,-0.0005334920133464038,0.0201569851487875
0.024062715470790863,0.002914703916758299,-0.016257895156741142,0.012549749575555325,-0.000514501123689115,0.020521655678749084
0.0251840278506279,0.0030731582082808018,-0.016607295721769333,0.01344610471278429,-0.0007746960036456585,0.020676547661423683
0.025150641798973083,0.0035276259295642376,-0.016325749456882477,0.013704578392207623,-0.000745924306102097,0.02009383775293827
0.025113387033343315,0.0034527655225247145,-0.01674080826342106,0.013346015475690365,-0.0007616296061314642,0.019895879551768303
0.02453068643808365,0.003425279865041375,-0.017095237970352173,0.013447470963001251,-0.0007571367314085364,0.019893990829586983
0.024857960641384125,0.0032012932933866978,-0.016426684334874153,0.012918856926262379,-0.0007052948349155486,0.020238082855939865
0.02481880597770214,0.003474295372143388,-0.016649393364787102,0.013293062336742878,-0.0006497899885289371,0.01974511705338955
0.02512330748140812,0.0036943070590496063,-0.016562752425670624,0.013115731999278069,-0.0006474166293628514,0.0205813180655241
0.024796979501843452,0.0032755224965512753,-0.016989927738904953,0.013778059743344784,-0.00057111686328426,0.02117965929210186
0.025364071130752563,0.0031222975812852383,-0.01730015128850937,0.01306405384093523,-0.0005556732648983598,0.021066708490252495
0.025135772302746773,0.0032933042384684086,-0.01649181917309761,0.013114580884575844,-0.0005433092592284083,0.020899828523397446
0.025047510862350464,0.0032520312815904617,-0.01693478412926197,0.013001510873436928,-0.0005361171206459403,0.020932871848344803
0.025042500346899033,0.0034785724710673094,-0.016264012083411217,0.013339219614863396,-0.0005275378935039043,0.02103051356971264
0.025275610387325287,0.0034732127096503973,-0.017016304656863213,0.013293327763676643,-0.000514131155796349,0.021212181076407433
0.025355082005262375,0.003708980744704604,-0.016906317323446274,0.013264046981930733,-0.000483529205666855,0.021471651270985603
0.024982888251543045,0.003311125561594963,-0.016948552802205086,0.013189134187996387,-0.00045075968955643475,0.02134806476533413
0.026584280654788017,0.0032551682088524103,-0.01641644909977913,0.013577324338257313,-0.000410797365475446,0.02158363349735737
0.026584280654788017,0.0032551682088524103,-0.01641644909977913,0.013577324338257313,-0.000410797365475446,0.02158363349735737
0.025898462161421776,0.0032640360295772552,-0.016972774639725685,0.01302953902631998,-0.00044138936209492385,0.02148359641432762
0.025925952941179276,0.0035157292149960995,-0.016962867230176926,0.012871739454567432,-0.0004161903925705701,0.021569199860095978
0.02541605941951275,0.003786897286772728,-0.016783561557531357,0.01250588521361351,-0.0003869271313305944,0.021124903112649918
0.025350280106067657,0.003448199713602662,-0.017097394913434982,0.013013088144361973,-0.0004130704328417778,0.020895231515169144
0.025447851046919823,0.003476603887975216,-0.016653209924697876,0.013265560381114483,-0.0003943069896195084,0.021293120458722115
0.02635303884744644,0.003735767677426338,-0.0169201847165823,0.01348754670470953,-0.0004106104897800833,0.02190900780260563
0.026389971375465393,0.0034132099244743586,-0.016364850103855133,0.013704932294785976,-0.00040005118353292346,0.02158448100090027
0.026595590636134148,0.0035859146155416965,-0.01687416434288025,0.01370773185044527,-0.00037974619772285223,0.021455351263284683
0.02578178234398365,0.0032533982302993536,-0.016522768884897232,0.013949868269264698,-0.0004134352202527225,0.021980013698339462
0.02615816332399845,0.00331826601177454,-0.016861438751220703,0.013830938376486301,-0.00038665972533635795,0.021811699494719505
0.02673659846186638,0.00338349724188447,-0.016920510679483414,0.014022484421730042,-0.00042283866787329316,0.02181788720190525
0.026793992146849632,0.003406741190701723,-0.016643699258565903,0.013461113907396793,-0.00042820366797968745,0.022053014487028122
0.026288652792572975,0.0036093469243496656,-0.01713000237941742,0.013616969808936119,-0.0004286679613869637,0.02225765399634838
0.026897896081209183,0.0034057663287967443,-0.01763090118765831,0.013438900001347065,-0.00044556951615959406,0.02235727570950985
0.027234237641096115,0.003927142824977636,-0.0176545400172472,0.013743220828473568,-0.0004351282841525972,0.022375645115971565
0.027129976078867912,0.004220048896968365,-0.017933182418346405,0.013539067469537258,-0.0006374684162437916,0.021832838654518127
0.026734262704849243,0.003541261190548539,-0.017659172415733337,0.014011436142027378,-0.000627222761977464,0.02216319367289543
0.026400107890367508,0.0035357633605599403,-0.01748736761510372,0.013668074272572994,-0.0006530848331749439,0.02243763394653797
0.02672524005174637,0.0037795447278767824,-0.016976701095700264,0.014037422835826874,-0.0006705981213599443,0.02269994653761387
0.027228694409132004,0.0034839122090488672,-0.018066946417093277,0.013662893325090408,-0.0008183482568711042,0.022872041910886765
0.0274274293333292,0.0036578155122697353,-0.01831679791212082,0.014766397885978222,-0.0008683776250109076,0.022677822038531303
0.02754845656454563,0.004154484253376722,-0.017557283863425255,0.015547988004982471,-0.0007892522262409329,0.023022688925266266
0.027513934299349785,0.004263863433152437,-0.017928916960954666,0.014605914242565632,-0.0007960459915921092,0.022779082879424095
0.02759273536503315,0.003565639490261674,-0.018322650343179703,0.01486599538475275,-0.000792551611084491,0.022880084812641144
0.02801046334207058,0.003554952098056674,-0.019130103290081024,0.013888632878661156,-0.0007660997798666358,0.023993246257305145
0.027974996715784073,0.00380163942463696,-0.017959052696824074,0.013843170367181301,-0.0007235565572045743,0.02330067567527294
0.028788400813937187,0.003948977217078209,-0.017709609121084213,0.013245808891952038,-0.0007193086785264313,0.022874824702739716
0.02822910249233246,0.004390971269458532,-0.018990904092788696,0.014296998269855976,-0.0006671189330518246,0.023281149566173553
0.02822910249233246,0.004390971269458532,-0.018990904092788696,0.014296998269855976,-0.0006671189330518246,0.023281149566173553
0.028371615335345268,0.003630212740972638,-0.018199903890490532,0.014186851680278778,-0.0006045954069122672,0.023921994492411613
0.02841291017830372,0.003546549240127206,-0.017459867522120476,0.014862364158034325,-0.0006196021568030119,0.02390139363706112
0.02842084877192974,0.0037522600032389164,-0.01798797771334648,0.01439937949180603,-0.0005789802526123822,0.02263365313410759
0.028533104807138443,0.0038741128519177437,-0.018299367278814316,0.014827718958258629,-0.0005402598180808127,0.022347941994667053
0.029005106538534164,0.0038740145973861217,-0.01866728998720646,0.014454253949224949,-0.00048516772221773863,0.02330675907433033
0.029194055125117302,0.0038558694068342447,-0.018411992117762566,0.015283499844372272,-0.0004802872135769576,0.02443167194724083
0.028737077489495277,0.0034538095351308584,-0.01769626885652542,0.014606818556785583,-0.00047605205327272415,0.023421065881848335
0.029171671718358994,0.003399580018594861,-0.018363919109106064,0.01489597000181675,-0.0004935479373671114,0.02341189794242382
0.029404031112790108,0.0034435545094311237,-0.018208850175142288,0.014144640415906906,-0.00047329021617770195,0.024637511000037193
0.029265347868204117,0.0035392928402870893,-0.01812603697180748,0.014389346353709698,-0.0004998428048565984,0.025079479441046715
0.02976440265774727,0.0034989118576049805,-0.018431369215250015,0.013889211229979992,-0.0005962221184745431,0.024072159081697464
0.02965482883155346,0.003525501349940896,-0.018212921917438507,0.014785743318498135,-0.0006617607432417572,0.02333652600646019
0.02980080619454384,0.003649352816864848,-0.01831076666712761,0.014075911603868008,-0.0006036959239281714,0.02338247187435627
0.029917504638433456,0.0038369400426745415,-0.01856113225221634,0.01479885820299387,-0.0006279256194829941,0.024363553151488304
0.03037409298121929,0.0039633107371628284,-0.01803172565996647,0.014195659197866917,-0.0005760123021900654,0.025085855275392532
0.030457735061645508,0.003958377055823803,-0.0187094546854496,0.014813404530286789,-0.0005981085123494267,0.024973666295409203
0.03011777065694332,0.00408185226842761,-0.018652109429240227,0.014872081577777863,-0.0005598030984401703,0.025094669312238693
0.03022977150976658,0.0039004648569971323,-0.0182377640157938,0.014948179014027119,-0.0005952095380052924,0.024785581976175308
0.030787330120801926,0.003732125274837017,-0.018833627924323082,0.014740780927240849,-0.0006233727908693254,0.024792054668068886
0.03082050196826458,0.0037641136441379786,-0.018553100526332855,0.014615517109632492,-0.0005165198817849159,0.024634066969156265
0.028831200674176216,0.003799016587436199,-0.018671786412596703,0.014469392597675323,-0.0005443746922537684,0.02490992099046707
0.030806729570031166,0.003842662088572979,-0.018118714913725853,0.014482453465461731,-0.0005054355133324862,0.02480320818722248
0.03171040117740631,0.0038622186984866858,-0.01879434660077095,0.014929771423339844,-0.0005258882301859558,0.024607058614492416
0.031076176092028618,0.004221248906105757,-0.01926097832620144,0.014849653467535973,-0.000497428874950856,0.02496200241148472
0.03195163607597351,0.00407730508595705,-0.018180739134550095,0.015028141438961029,-0.0004931087023578584,0.025139156728982925
0.03195163607597351,0.00407730508595705,-0.018180739134550095,0.015028141438961029,-0.0004931087023578584,0.025139156728982925
0.03242047131061554,0.003947325050830841,-0.01842576637864113,0.015080642886459827,-0.0004979146760888398,0.024901991710066795
0.03202849626541138,0.003840702585875988,-0.01908610574901104,0.014934142120182514,-0.0005325091769918799,0.024933381006121635
0.030557991936802864,0.0038165904115885496,-0.018648114055395126,0.014843463897705078,-0.0005633126711472869,0.025222070515155792
0.031455762684345245,0.0038040983490645885,-0.01900564134120941,0.014720117673277855,-0.0005591912195086479,0.025121159851551056
0.031726837158203125,0.0038259467110037804,-0.018661577254533768,0.014629076234996319,-0.0007948439451865852,0.025213349610567093
0.03174697607755661,0.0043466719798743725,-0.01822047494351864,0.014618396759033203,-0.000822695903480053,0.025495976209640503
0.031980354338884354,0.004092351999133825,-0.018908554688096046,0.014572780579328537,-0.0007797578000463545,0.0253495704382658
0.032532814890146255,0.003938048146665096,-0.018976125866174698,0.014227260835468769,-0.0007396185537800193,0.02487996034324169
0.032226841896772385,0.003894553519785404,-0.018715783953666687,0.014223976992070675,-0.0007342175231315196,0.024605104699730873
0.03237716108560562,0.0037911622785031796,-0.019016660749912262,0.014299520291388035,-0.0006857507978565991,0.02518654055893421
0.03263423964381218,0.003746687201783061,-0.01873716711997986,0.014578396454453468,-0.0006409218185581267,0.02602008357644081
0.032394200563430786,0.004200302064418793,-0.018814273178577423,0.015450787730515003,-0.0005692449631169438,0.02613319829106331
0.031811296939849854,0.004197584465146065,-0.019187426194548607,0.0157455001026392,-0.0005926482263021171,0.025340326130390167
0.03258509188890457,0.004183291457593441,-0.01901371218264103,0.015560281462967396,-0.0005446123541332781,0.02472933754324913
0.03218064084649086,0.004145296290516853,-0.018971268087625504,0.0156752560287714,-0.0005664784694090486,0.024914618581533432
0.032742999494075775,0.004003387410193682,-0.019431252032518387,0.0153152234852314,-0.0005286234081722796,0.02594209648668766
0.03295168653130531,0.004266143776476383,-0.019493011757731438,0.016376007348299026,-0.0005484442226588726,0.02593093365430832
0.03294817730784416,0.004150527995079756,-0.019005760550498962,0.016000835224986076,-0.0005172648234292865,0.026129262521862984
0.032636288553476334,0.0036320225335657597,-0.019244294613599777,0.015872681513428688,-0.000532581761945039,0.026360124349594116
0.03411407023668289,0.0035635975655168295,-0.019571570679545403,0.016006028279662132,-0.0005221200990490615,0.02613556757569313
0.032808415591716766,0.00432945042848587,-0.020337697118520737,0.01611209474503994,-0.0005473425844684243,0.025363294407725334
0.031949397176504135,0.004542156588286161,-0.019874142482876778,0.01569901406764984,-0.000547800853382796,0.02568378485739231
0.03296101465821266,0.004268988501280546,-0.01898464746773243,0.015846475958824158,-0.0005396538181230426,0.026849525049328804
0.03366211801767349,0.003927331883460283,-0.019395682960748672,0.015452486462891102,-0.0006516562425531447,0.027322495356202126
0.03366211801767349,0.003927331883460283,-0.019395682960748672,0.015452486462891102,-0.0006516562425531447,0.027322495356202126
0.03344298526644707,0.004158090800046921,-0.01970682479441166,0.015435703098773956,-0.0006916866987012327,0.027144432067871094
0.033717282116413116,0.004236095119267702,-0.019175417721271515,0.01507387775927782,-0.0006767442100681365,0.026728328317403793
0.03360290825366974,0.004052651580423117,-0.020285816863179207,0.015715133398771286,-0.0006524240598082542,0.02633151039481163
0.03315811976790428,0.00391418905928731,-0.020348621532320976,0.0156792551279068,-0.0006726173451170325,0.026576679199934006
0.0328044667840004,0.004097728058695793,-0.01948682591319084,0.016063103452324867,-0.0008476621587760746,0.0267243143171072
0.03353847563266754,0.004115712828934193,-0.019858606159687042,0.016459953039884567,-0.0009107607183977962,0.026896415278315544
0.033602021634578705,0.004366707056760788,-0.019931694492697716,0.01675494574010372,-0.0009131093975156546,0.026913592591881752
0.03357189893722534,0.004090483300387859,-0.020014191046357155,0.016810012981295586,-0.0008355622412636876,0.02720690332353115
0.03358696773648262,0.0034920868929475546,-0.019861683249473572,0.016308385878801346,-0.0009164323564618826,0.027267776429653168
0.03311147913336754,0.003515250515192747,-0.02031560428440571,0.016527049243450165,-0.000920172082260251,0.02742220088839531
0.03343448415398598,0.004226268269121647,-0.019826820120215416,0.016115538775920868,-0.0009175601880997419,0.02790290117263794
0.034046150743961334,0.004498565569519997,-0.020153092220425606,0.0164837297052145,-0.0009000873542390764,0.027398813515901566
0.034004032611846924,0.004307933617383242,-0.019230155274271965,0.016360612586140633,-0.0008238605805672705,0.026584969833493233
0.03364802896976471,0.004501757677644491,-0.020384032279253006,0.01667671464383602,-0.0007461986388079822,0.027417749166488647
0.03395303711295128,0.004214148502796888,-0.02009672299027443,0.017669901251792908,-0.0006687671993859112,0.02775672823190689
0.03474663570523262,0.004005760420113802,-0.02018091082572937,0.0174554530531168,-0.0006688691792078316,0.027802282944321632
0.032990962266922,0.003491104580461979,-0.020510798320174217,0.017667388543486595,-0.0006935260607860982,0.027951477095484734
0.035017114132642746,0.0035850948188453913,-0.020294783636927605,0.017231058329343796,-0.0006470122607424855,0.027613233774900436
0.0344843715429306,0.004222208168357611,-0.020253987982869148,0.01685383915901184,-0.00064967101207003,0.0270643662661314
0.0339662991464138,0.004112375434488058,-0.020426161587238312,0.016887880861759186,-0.000613370502833277,0.02716883271932602
0.03424449637532234,0.004275801125913858,-0.020009679719805717,0.01623368263244629,-0.0005664571071974933,0.027414852753281593
0.034723006188869476,0.003739079227671027,-0.020374687388539314,0.01638440415263176,-0.0005551615613512695,0.02741251327097416
0.03467993810772896,0.0035538608208298683,-0.020682651549577713,0.01653119921684265,-0.0005431409226730466,0.02786163240671158
0.03471735864877701,0.0035505471751093864,-0.02004844881594181,0.016440395265817642,-0.00053598009981215,0.027567420154809952
0.035002853721380234,0.004215420689433813,-0.020493753254413605,0.01662754826247692,-0.0005274218856357038,0.027810946106910706
0.034929972141981125,0.004089063499122858,-0.020557096228003502,0.016877347603440285,-0.0004888492985628545,0.027683282271027565
0.034929972141981125,0.004089063499122858,-0.020557096228003502,0.016877347603440285,-0.0004888492985628545,0.027683282271027565
0.03512028604745865,0.004389271140098572,-0.020098553970456123,0.01683197356760502,-0.0005097398534417152,0.027957428246736526
0.034819215536117554,0.004324674140661955,-0.020052721723914146,0.01716703362762928,-0.00048316086758859456,0.028206907212734222
0.034738168120384216,0.003980872221291065,-0.020542755722999573,0.01605365052819252,-0.0004960329970344901,0.027999339625239372
0.03524959087371826,0.0037275368813425303,-0.02062501758337021,0.016169337555766106,-0.0005285924999043345,0.026896806433796883
0.03603274002671242,0.0041274637915194035,-0.020001383498311043,0.01575256511569023,-0.000541738816536963,0.027145152911543846
0.036430202424526215,0.004156889393925667,-0.020507853478193283,0.015916187316179276,-0.0005338427145034075,0.028047829866409302
0.034237343817949295,0.0040071881376206875,-0.02061009593307972,0.016673022881150246,-0.0005600656731985509,0.028677940368652344
0.035171881318092346,0.004005464259535074,-0.02001195400953293,0.016910899430513382,-0.0007752874516882002,0.02831813134253025
0.03607665002346039,0.0041887653060257435,-0.020021528005599976,0.01818830706179142,-0.0008240576717071235,0.029185129329562187
0.03610425814986229,0.004466084763407707,-0.020513497292995453,0.016874678432941437,-0.0008278833120130002,0.028928861021995544
0.03665423020720482,0.0040978724136948586,-0.020293783396482468,0.01660737581551075,-0.0007445645751431584,0.02752067521214485
0.03570004180073738,0.004267296753823757,-0.020246364176273346,0.016595112159848213,-0.000754895678255707,0.02768537774682045
0.035393744707107544,0.004273881204426289,-0.020579656586050987,0.016313156113028526,-0.000732039159629494,0.028379783034324646
0.035062044858932495,0.004106459207832813,-0.020151762291789055,0.016798654571175575,-0.0007360974559560418,0.02918761409819126
0.03630451112985611,0.003960147500038147,-0.019766122102737427,0.016785379499197006,-0.0007001599879004061,0.028915684670209885
0.03473594784736633,0.0039543756283819675,-0.02023973874747753,0.016952738165855408,-0.0007123600225895643,0.028244026005268097
0.03719907999038696,0.0043111140839755535,-0.021000798791646957,0.01677185297012329,-0.0006509864469990134,0.02844129502773285
0.03685498982667923,0.004296344239264727,-0.020517859607934952,0.017189208418130875,-0.0006633418379351497,0.0283509474247694
0.03585730493068695,0.004033236298710108,-0.02085774764418602,0.017268052324652672,-0.0006164260557852685,0.028766589239239693
0.03658801317214966,0.003577234223484993,-0.02024807594716549,0.01658642664551735,-0.0006167472456581891,0.028933076187968254
0.03599565103650093,0.003635250963270664,-0.020005254074931145,0.016916560009121895,-0.0006422940641641617,0.029097259044647217
0.036468688398599625,0.003767646150663495,-0.02083699218928814,0.01702263019979,-0.0006247016717679799,0.029063668102025986
0.03701510280370712,0.0038516665808856487,-0.021238718181848526,0.01731323078274727,-0.0006468004430644214,0.029534080997109413
0.03676661103963852,0.004325540736317635,-0.02052389085292816,0.01718324050307274,-0.0008732353453524411,0.029238644987344742
0.03643668070435524,0.004210397135466337,-0.02062619850039482,0.017659008502960205,-0.0009051815723069012,0.029315274208784103
0.037750113755464554,0.004044102970510721,-0.021502289921045303,0.017504630610346794,-0.0009064432233572006,0.029295720160007477
0.038513652980327606,0.0034979430492967367,-0.02093583531677723,0.01771525852382183,-0.0008614102844148874,0.029518451541662216
0.03602449223399162,0.004052361473441124,-0.019754786044359207,0.0180596262216568,-0.0010393643751740456,0.029367871582508087
0.036437779664993286,0.00418098783120513,-0.020872944965958595,0.017005331814289093,-0.0010263394797220826,0.029872054234147072
0.03796520456671715,0.003986018244177103,-0.02082064189016819,0.01674518547952175,-0.0009437772678211331,0.029803361743688583
0.03748556226491928,0.003834373317658901,-0.0208327304571867,0.016269242390990257,-0.0009336580988019705,0.02968251332640648
0.03748556226491928,0.003834373317658901,-0.0208327304571867,0.016269242390990257,-0.0009336580988019705,0.02968251332640648
0.03799177333712578,0.004067770205438137,-0.020794348791241646,0.01701282151043415,-0.0008689765818417072,0.02932477556169033
0.03860805928707123,0.0040732212364673615,-0.021623065695166588,0.017410021275281906,-0.000836505088955164,0.029915127903223038
0.0369163416326046,0.004346331115812063,-0.02163303643465042,0.017186317592859268,-0.0007810976821929216,0.030803807079792023
0.03745342418551445,0.004096443764865398,-0.02112444117665291,0.01796914078295231,-0.000846449751406908,0.030278032645583153
0.03856261819601059,0.0039141178131103516,-0.021055793389678,0.01737087033689022,-0.0008111334755085409,0.028857458382844925
0.03789743036031723,0.004345728084445,-0.02134331688284874,0.0178604107350111,-0.0009482124005444348,0.02887248992919922
0.03784765303134918,0.004488806705921888,-0.021582145243883133,0.017972249537706375,-0.0008787940023466945,0.03015831671655178
0.03783595561981201,0.004393884912133217,-0.02094458043575287,0.01714947447180748,-0.0008522795978933573,0.02994699776172638
0.038644347339868546,0.004325688350945711,-0.02124197408556938,0.017679786309599876,-0.000775436288677156,0.030082913115620613
0.03814232349395752,0.004113378934562206,-0.021154863759875298,0.017564993351697922,-0.000776916102040559,0.031156793236732483
0.03835969790816307,0.004423387348651886,-0.021480806171894073,0.017775148153305054,-0.0007116573397070169,0.030077189207077026
0.03878210112452507,0.004648304078727961,-0.02158414199948311,0.018014665693044662,-0.0006519634043797851,0.02997685968875885
0.03813984617590904,0.00440959632396698,-0.021361295133829117,0.017574187368154526,-0.0006589837721548975,0.029537420719861984
0.03875631093978882,0.004594813566654921,-0.02120879292488098,0.018143709748983383,-0.0006593107827939093,0.03062530793249607
0.03888716176152229,0.004552691243588924,-0.02128921076655388,0.018787642940878868,-0.0006380200502462685,0.03155570477247238
0.03845030069351196,0.00461204070597887,-0.020920434966683388,0.018129657953977585,-0.0006591984420083463,0.031068027019500732
0.03877401724457741,0.004277602769434452,-0.021297629922628403,0.018425537273287773,-0.0007799206068739295,0.03093833662569523
0.03732326254248619,0.004546463023871183,-0.021821612492203712,0.018032468855381012,-0.0008393054595217109,0.03068537265062332
0.0397900827229023,0.004371107090264559,-0.02095656283199787,0.017851388081908226,-0.0008776832837611437,0.030571045354008675
0.03915318101644516,0.004319507163017988,-0.021128498017787933,0.0177783090621233,-0.0011031655594706535,0.03081725910305977
0.03924957662820816,0.004796348046511412,-0.021303625777363777,0.018354130908846855,-0.0010803985642269254,0.03103487752377987
0.039860572665929794,0.004363370593637228,-0.021427234634757042,0.01826782338321209,-0.001053053536452353,0.031202008947730064
0.03962177410721779,0.004448478575795889,-0.020945264026522636,0.01707044430077076,-0.0009740258101373911,0.031084783375263214
0.039574578404426575,0.004493535030633211,-0.021578269079327583,0.017542971298098564,-0.0009024934261105955,0.030789563432335854
0.03959855064749718,0.004366903565824032,-0.021820351481437683,0.017655640840530396,-0.0008332873694598675,0.03144266456365585
0.0395677387714386,0.004077157936990261,-0.02144761197268963,0.018570249900221825,-0.0007765514310449362,0.03162802755832672
0.0394740104675293,0.004272980149835348,-0.02101956494152546,0.018480200320482254,-0.0007651171763427556,0.03127780929207802
0.04112159460783005,0.004599979147315025,-0.021281572058796883,0.017331315204501152,-0.0007533323368988931,0.03145172446966171
0.0401102639734745,0.004595079459249973,-0.021782459691166878,0.017475055530667305,-0.000722724013030529,0.0313962884247303
0.03907446935772896,0.004302969668060541,-0.02145484648644924,0.017207032069563866,-0.0007288422202691436,0.03135125711560249
0.0396064817905426,0.004493960179388523,-0.021612955257296562,0.017002413049340248,-0.0007799621671438217,0.03156282380223274
0.039861373603343964,0.004425059072673321,-0.02134975604712963,0.0174757968634367,-0.0007957277121022344,0.03161188215017319
0.039861373603343964,0.004425059072673321,-0.02134975604712963,0.0174757968634367,-0.0007957277121022344,0.03161188215017319
0.04120085388422012,0.004243949428200722,-0.021631084382534027,0.017903655767440796,-0.0010674596996977925,0.030796021223068237
0.04108165577054024,0.004387070424854755,-0.022391539067029953,0.018760651350021362,-0.0009558903984725475,0.03180837631225586
0.03981120139360428,0.004524597432464361,-0.02265113964676857,0.01889965310692787,-0.0009404640877619386,0.03225778788328171
0.03922809660434723,0.00459972582757473,-0.0224948488175869,0.018549028784036636,-0.0009068603394553065,0.03210081532597542
0.04129105806350708,0.0042580366134643555,-0.022517988458275795,0.01889500580728054,-0.000904184824321419,0.0331261083483696
0.04076815024018288,0.00433132192119956,-0.022752923890948296,0.018768971785902977,-0.0008280022302642465,0.03334754705429077
0.040349338203668594,0.004473191685974598,-0.021899357438087463,0.018249500542879105,-0.0007257986580953002,0.03207765892148018
0.040559668093919754,0.004243184346705675,-0.022163579240441322,0.018493566662073135,-0.0006733197951689363,0.03143895044922829
0.040570203214883804,0.004550115671008825,-0.02303813397884369,0.01836678571999073,-0.0006955774151720107,0.032645199447870255
0.04080592468380928,0.0040732575580477715,-0.02283417619764805,0.018038883805274963,-0.0007412973791360855,0.03250257670879364
0.04026776924729347,0.003812114242464304,-0.022301441058516502,0.018625618889927864,-0.0008668379741720855,0.03316698595881462
0.04030006751418114,0.003774746786803007,-0.022275233641266823,0.01863185316324234,-0.00099086610134691,0.03364592045545578
0.040379270911216736,0.004323284141719341,-0.022976981475949287,0.018657583743333817,-0.0008779829367995262,0.033108994364738464
0.04096054658293724,0.004186175763607025,-0.022827954962849617,0.01878046803176403,-0.0008743482176214457,0.03186938911676407
0.041853245347738266,0.004298013169318438,-0.0230167955160141,0.018349075689911842,-0.0008274302235804498,0.03157510608434677
0.04008376598358154,0.004469758365303278,-0.021978192031383514,0.018722983077168465,-0.0007848107488825917,0.03297557309269905
0.03982069343328476,0.0040413676761090755,-0.022273851558566093,0.018995346501469612,-0.0007228085887618363,0.03342212364077568
0.040721502155065536,0.003856346709653735,-0.02327726222574711,0.018931381404399872,-0.0007153106271289289,0.03315438702702522
0.04260675609111786,0.004280904307961464,-0.02306864969432354,0.019179778173565865,-0.0007583033293485641,0.03258153051137924
0.040505267679691315,0.004232924897223711,-0.022495586425065994,0.019008709117770195,-0.0009282416431233287,0.0327814519405365
0.03952169790863991,0.004435880575329065,-0.02249993197619915,0.019320180639624596,-0.0011103498982265592,0.0327775701880455
0.04141882807016373,0.0041494471952319145,-0.02285837009549141,0.019275899976491928,-0.0011084582656621933,0.03293981775641441
0.04158530384302139,0.003951875492930412,-0.023130688816308975,0.018699225038290024,-0.0012517564464360476,0.032787203788757324
0.04125657305121422,0.003966000396758318,-0.022887909784913063,0.01865817792713642,-0.0012084043119102716,0.03323807567358017
0.041120756417512894,0.003905938472598791,-0.022726066410541534,0.01881338655948639,-0.001153013203293085,0.03387861326336861
0.04151102527976036,0.0038363714702427387,-0.02268901653587818,0.018558287993073463,-0.0011035120114684105,0.032987017184495926
0.04194958880543709,0.003874664893373847,-0.022909069433808327,0.019092809408903122,-0.0010715958196669817,0.03363057225942612
0.04194958880543709,0.003874664893373847,-0.022909069433808327,0.019092809408903122,-0.0010715958196669817,0.03363057225942612
0.04195317625999451,0.004364984575659037,-0.02315697632730007,0.019204560667276382,-0.0010844740318134427,0.034080296754837036
0.04137257859110832,0.004108663182705641,-0.022971700876951218,0.01909617893397808,-0.0010785398771986365,0.03361302241683006
0.041775353252887726,0.004442897159606218,-0.022786444053053856,0.01943114958703518,-0.0013900932390242815,0.033964741975069046
0.04209333285689354,0.004163897596299648,-0.022575009614229202,0.019606120884418488,-0.0014253010740503669,0.03382391855120659
0.04215507209300995,0.004295978229492903,-0.02325068786740303,0.01911015808582306,-0.001303549506701529,0.03401447832584381
