davideferrari95/blind_handover_controller/data/Test 124 - [2024-02-07 -- 16-33-45]/joint_states_data.csv
shoulder_pan_joint,shoulder_lift_joint,elbow_joint,wrist_1_joint,wrist_2_joint,wrist_3_joint
0.004166797734797001,0.010147638618946075,-0.01257105078548193,0.003315332578495145,-2.97035523415712e-15,0.0042995307594537735
0.004166797734797001,0.010147638618946075,-0.01257105078548193,0.003315332578495145,-2.97035523415712e-15,0.0042995307594537735
0.004388910252600908,0.009958111681044102,-0.0121752405539155,0.0035069026052951813,-0.00011605192412389442,0.004148741252720356
0.004174353554844856,0.01038643904030323,-0.011843249201774597,0.00320818112231791,-0.00012401628191582859,0.003940430469810963
0.004443990532308817,0.01020119059830904,-0.011951453983783722,0.0030693565495312214,-0.0001213996292790398,0.003459871979430318
0.004238744731992483,0.009579816833138466,-0.011625677347183228,0.0029987338930368423,-0.00011825688852695748,0.0035645542666316032
0.003973108250647783,0.009733960032463074,-0.012667158618569374,0.003062797011807561,-0.00011523154535098001,0.003723730565980077
0.004075424280017614,0.009934082627296448,-0.012429079972207546,0.003213312476873398,-0.0001123545371228829,0.004211248364299536
0.004129292443394661,0.009378745220601559,-0.012080268003046513,0.0032163639552891254,-0.00010961746011162177,0.004208446480333805
0.0043561686761677265,0.009342124685645103,-0.012412558309733868,0.0031448849476873875,-0.00010701057180995122,0.00404060585424304
0.004494315944612026,0.009744161739945412,-0.012358075007796288,0.0029528497252613306,-0.00010452487913426012,0.0038767841178923845
0.004357671830803156,0.009374948218464851,-0.013033803552389145,0.002827388234436512,-0.00010215195652563125,0.0038232035003602505
0.0040353271178901196,0.009542622603476048,-0.012484019622206688,0.0026427553966641426,-9.988452802645043e-05,0.0037499123718589544
0.003953904379159212,0.009132059291005135,-0.012503230012953281,0.00245853909291327,-9.563866478856653e-05,0.004080319311469793
0.004062930587679148,0.009707406163215637,-0.012623561546206474,0.0023801971692591906,-9.364830475533381e-05,0.004054470453411341
0.004121007397770882,0.009731174446642399,-0.012655019760131836,0.0023848062846809626,-9.173907892545685e-05,0.00428272457793355
0.004121007397770882,0.009731174446642399,-0.012655019760131836,0.0023848062846809626,-9.173907892545685e-05,0.00428272457793355
0.0035302338656038046,0.009110217913985252,-0.011826072819530964,0.002466619713231921,-8.990625792648643e-05,0.004201311152428389
0.003624615026637912,0.00859673973172903,-0.01236614491790533,0.0024324862752109766,-8.814509055810049e-05,0.003987620584666729
0.0037083171773701906,0.00975094735622406,-0.012200483120977879,0.0025920721236616373,-8.645159687148407e-05,0.0038861900102347136
0.0037191722076386213,0.009613282978534698,-0.01273960992693901,0.002752091037109494,-8.482202974846587e-05,0.0038765333592891693
0.003753240220248699,0.009165508672595024,-0.011881452053785324,0.002729456638917327,-8.325278759002686e-05,0.003895061556249857
0.0038428197149187326,0.009913850575685501,-0.013356015086174011,0.0028129485435783863,-8.174045069608837e-05,0.0039494577795267105
0.003873072564601898,0.009930324740707874,-0.012415659613907337,0.0028237823862582445,-9.423644951311871e-05,0.004014465492218733
0.003898746334016323,0.009199165739119053,-0.011377397924661636,0.002602774417027831,-9.451271762372926e-05,0.00399362575262785
0.0033892658539116383,0.0099467309191823,-0.012069834396243095,0.0026293036062270403,-9.30105525185354e-05,0.003992907237261534
0.003332986496388912,0.00917108915746212,-0.01194996852427721,0.0027115310076624155,-9.144366777036339e-05,0.0039411382749676704
0.003555147908627987,0.009410817176103592,-0.012593088671565056,0.002741334494203329,-8.992150105768815e-05,0.003870036918669939
0.003701165784150362,0.009671211242675781,-0.01227280031889677,0.002703546779230237,-8.844864350976422e-05,0.003781666047871113
0.003597072558477521,0.009386379271745682,-0.011523813009262085,0.0030891178175807,-8.702340710442513e-05,0.0037566146347671747
0.0034533904399722815,0.010141830891370773,-0.012522118166089058,0.0034275096841156483,-8.564312156522647e-05,0.0037678522057831287
0.0036042467691004276,0.009961592964828014,-0.011775369755923748,0.0031610303558409214,-8.430606976617128e-05,0.003784369910135865
0.00399714196100831,0.009225372225046158,-0.012421727180480957,0.0028572443407028913,-8.301015623146668e-05,0.004146138206124306
0.0039829472079873085,0.009518247097730637,-0.012271584011614323,0.00268820789642632,-8.175327820936218e-05,0.004217932932078838
0.003698620479553938,0.010005731135606766,-0.01157013513147831,0.002988300519064069,-8.053415513131768e-05,0.004005237948149443
0.003612874075770378,0.009394507855176926,-0.011410699225962162,0.003272151341661811,-7.93507497292012e-05,0.003850208129733801
0.0035432393196970224,0.009258521720767021,-0.010987293906509876,0.0031663463450968266,-7.82015995355323e-05,0.0038355886936187744
0.0035408379044383764,0.009431971237063408,-0.01180326845496893,0.0030497005209326744,-7.708524935878813e-05,0.0037550742272287607
0.0036669753026217222,0.009398355148732662,-0.01188095286488533,0.0031643821857869625,-7.600037497468293e-05,0.004114522598683834
0.0040286751464009285,0.008915381506085396,-0.011974122375249863,0.0029858825728297234,-7.494557939935476e-05,0.004168386105448008
0.004021557047963142,0.009540867991745472,-0.011888304725289345,0.00310984393581748,-7.39196184440516e-05,0.004106659907847643
0.0037623809184879065,0.009451858699321747,-0.010954292491078377,0.003358702175319195,-7.292148075066507e-05,0.0035805206280201674
0.00373176415450871,0.00975322350859642,-0.011544744484126568,0.0030754837207496166,-7.100376387825236e-05,0.004180730786174536
0.0038595593068748713,0.009535368531942368,-0.01155013870447874,0.002802518429234624,-8.023913687793538e-05,0.004093122202903032
0.004249765537679195,0.009446644224226475,-0.011629144661128521,0.0026788576506078243,-8.06156313046813e-05,0.0039093345403671265
0.004072245210409164,0.009336864575743675,-0.01115103717893362,0.0026772930286824703,-7.968766294652596e-05,0.003686301875859499
0.003986057359725237,0.009987503290176392,-0.01148619968444109,0.002562053967267275,-7.869819819461554e-05,0.0035231132060289383
0.003986057359725237,0.009987503290176392,-0.01148619968444109,0.002562053967267275,-7.869819819461554e-05,0.0035231132060289383
0.003957765176892281,0.009444242343306541,-0.011149882338941097,0.002593425801023841,-7.772765820845962e-05,0.0036391252651810646
0.0038476597983390093,0.009372657164931297,-0.011260594241321087,0.002692151116207242,-7.678040856262669e-05,0.0036591244861483574
0.003857570933178067,0.00956657249480486,-0.011768472380936146,0.002697004470974207,-7.585593994008377e-05,0.0036922895815223455
0.003846534760668874,0.009093577042222023,-0.011708427220582962,0.002976056421175599,-7.495346653740853e-05,0.0036533167585730553
0.003803050145506859,0.008771955966949463,-0.011473567225039005,0.0031960399355739355,-7.407214434351772e-05,0.0036497802939265966
0.0037671865429729223,0.009454500861465931,-0.010908699594438076,0.0031788956839591265,-7.32114422135055e-05,0.003639357164502144
0.0037680717650800943,0.0092195188626647,-0.010701182298362255,0.0030791028402745724,-7.237042882479727e-05,0.0037484357599169016
0.004298464860767126,0.009064770303666592,-0.010964353568851948,0.002946348860859871,-7.154852210078388e-05,0.0034002463798969984
0.004090302158147097,0.009472045116126537,-0.010613975115120411,0.002893614349886775,-7.07450817571953e-05,0.0035733417607843876
0.003855070797726512,0.009153421968221664,-0.011104194447398186,0.0027679307386279106,-6.995950388954952e-05,0.003718291176483035
0.003906321246176958,0.008896009996533394,-0.011123613454401493,0.002819817280396819,-1.777767829480581e-05,0.003317565657198429
0.003977695945650339,0.009435933083295822,-0.010554613545536995,0.0028362604789435863,-1.1607553460635245e-06,0.003327345009893179
0.00391679722815752,0.009113202802836895,-0.011343901976943016,0.0030349791049957275,-7.578903193916631e-08,0.003564507933333516
0.0038150595501065254,0.009030486457049847,-0.010984634049236774,0.002987856278195977,-4.948482512645569e-09,0.003554495284333825
0.0038841308560222387,0.009579981677234173,-0.01099166739732027,0.0027445200830698013,-3.23100574073365e-10,0.003185585606843233
0.003932437859475613,0.009433251805603504,-0.011480338871479034,0.0026797279715538025,-2.1096156072042405e-11,0.0030618361197412014
0.004396312870085239,0.009571710601449013,-0.010619248263537884,0.002726634033024311,-1.3774283363215956e-12,0.003188279690220952
0.004062230698764324,0.009219365194439888,-0.011290984228253365,0.00278859562240541,-8.993622361598563e-14,0.003576861694455147
0.003875644411891699,0.009612517431378365,-0.011508193798363209,0.0028988192789256573,-5.872192279144945e-15,0.003783704712986946
0.004069671034812927,0.00877663679420948,-0.010810409672558308,0.0027304510585963726,-3.8341224290151723e-16,0.0032822987996041775
0.00400135712698102,0.008572697639465332,-0.011118095368146896,0.002571095246821642,-2.5034076954074323e-17,0.003103458322584629
0.0037256006617099047,0.009000027552247047,-0.010728510096669197,0.0024946012999862432,-1.6345463203275007e-18,0.0030461177229881287
0.003693081671372056,0.008863207884132862,-0.010535062290728092,0.002405991777777672,-1.067241997247841e-19,0.003435079474002123
0.00392973143607378,0.008979604579508305,-0.01150810718536377,0.0026113195344805717,-6.968327807685827e-21,0.003607477992773056
0.004577110521495342,0.009036573581397533,-0.01207498274743557,0.0026581978891044855,-2.9707075430106665e-23,0.003344073425978422
0.004577110521495342,0.009036573581397533,-0.01207498274743557,0.0026581978891044855,-2.9707075430106665e-23,0.003344073425978422
0.004114770796149969,0.008978810161352158,-0.011258403770625591,0.00275093549862504,-1.9396598712273813e-24,0.0034427419304847717
0.003935971297323704,0.009377021342515945,-0.010160906240344048,0.0029667471535503864,-1.2664591141762224e-25,0.0036882769782096148
0.004326394759118557,0.009228464215993881,-0.01203417032957077,0.002918999409303069,-8.269073431235905e-27,0.0034442248288542032
0.004212280735373497,0.009028556756675243,-0.010669699870049953,0.0027212316635996103,-5.399113968978775e-28,0.003355702618137002
0.004317416809499264,0.0093374103307724,-0.011933612637221813,0.002677388722077012,-3.525236012827872e-29,0.0034015963319689035
0.004453632514923811,0.009252144955098629,-0.011547940783202648,0.00254604360088706,-2.3017272128648914e-30,0.0032632441725581884
0.0045759836211800575,0.008662568405270576,-0.010415060445666313,0.002901769243180752,-1.5028634149556703e-31,0.0032542620319873095
0.004377860110253096,0.008941206149756908,-0.011049482971429825,0.0029923769179731607,-9.812624968533269e-33,0.0035196796525269747
0.004018954001367092,0.009060136042535305,-0.011799480766057968,0.0030569930095225573,-6.406942878725605e-34,0.0033557810820639133
0.004313881509006023,0.008649335242807865,-0.011648581363260746,0.002831848571076989,-4.18327559772069e-35,0.0030745076946914196
0.004352862481027842,0.008766324259340763,-0.01148818526417017,0.0025311396457254887,-2.7313799363087394e-36,0.0029957997612655163
0.004855842795222998,0.009368711151182652,-0.010947804898023605,0.002545642899349332,-1.783395897578368e-37,0.0029007226694375277
0.004757382906973362,0.00916149839758873,-0.0111047038808465,0.0026419416535645723,-1.1644299784076716e-38,0.003015532623976469
0.004335829522460699,0.008561464957892895,-0.010805715806782246,0.0028367028571665287,-7.60289896102537e-40,0.003174340119585395
0.004461875185370445,0.00922706350684166,-0.010705335065722466,0.0028143483214080334,-4.964099809870664e-41,0.0031458213925361633
0.004151392262428999,0.009009726345539093,-0.011479568667709827,0.0028226086869835854,-3.241203347983302e-42,0.0029636698309332132
0.004216175526380539,0.00878259539604187,-0.011374425143003464,0.002445551101118326,-2.1159606811304738e-43,0.0028108663391321898
0.004585910122841597,0.009221921674907207,-0.011310595087707043,0.0023735363502055407,-1.401298464324817e-44,0.0025928192771971226
0.004803388845175505,0.009133531711995602,-0.011668858118355274,0.0026901967357844114,-1.401298464324817e-45,0.0024803336709737778
0.004372523631900549,0.008795189671218395,-0.010943474248051643,0.003302584169432521,-1.4292980267782696e-05,0.002521820832043886
0.004484141245484352,0.008771256543695927,-0.011441852897405624,0.0032553868368268013,-9.332294439445832e-07,0.0028865549247711897
0.004644517321139574,0.009314057417213917,-0.010973408818244934,0.0030700417701154947,-6.09332104772875e-08,0.0031670373864471912
0.004976798314601183,0.008745867758989334,-0.010752418078482151,0.0026686720084398985,-3.978503748669482e-09,0.003146159229800105
0.004849492106586695,0.008861756883561611,-0.011788209900259972,0.002554799895733595,-2.597678461224717e-10,0.003099646419286728
0.004480312578380108,0.0091807059943676,-0.011144708842039108,0.002440243260934949,-1.696098296533055e-11,0.002863933565095067
0.004591297823935747,0.00858683418482542,-0.01107173040509224,0.0027219208423048258,-7.230732668433298e-14,0.0029264248441904783
0.004591297823935747,0.00858683418482542,-0.01107173040509224,0.0027219208423048258,-7.230732668433298e-14,0.0029264248441904783
0.004603176843374968,0.00883148331195116,-0.010536886751651764,0.002757731592282653,-4.721152007341025e-15,0.0028958118055015802
0.004634293727576733,0.00918600708246231,-0.011086022481322289,0.0027162067126482725,-3.082574976509257e-16,0.0027564852498471737
0.004578720778226852,0.008262752555310726,-0.010880245827138424,0.002781484043225646,-2.0127011604199473e-17,0.0028039535973221064
0.0046234712935984135,0.008236994966864586,-0.011134603060781956,0.0030102606397122145,-1.3141501109691206e-18,0.002852359088137746
0.005083641968667507,0.009405689314007759,-0.010076961480081081,0.003272976726293564,-8.580460816286196e-20,0.0028063259087502956
0.0048266928642988205,0.00834607519209385,-0.011073729954659939,0.0031922843772917986,-5.602427645852383e-21,0.0026667302008718252
0.004978073760867119,0.008140521124005318,-0.011387700214982033,0.002927783178165555,-3.657984620655834e-22,0.0026839079800993204
0.005230524577200413,0.008818789385259151,-0.011342411860823631,0.0027138071600347757,-2.3884026083014486e-23,0.002732227323576808
0.004814945627003908,0.008438950404524803,-0.010530070401728153,0.0025721071287989616,-1.5594562292196968e-24,0.002804874675348401
0.004907779861241579,0.008236187510192394,-0.01159687340259552,0.002496851608157158,-1.0182134619883537e-25,0.002671442925930023
0.0054269712418317795,0.008947479538619518,-0.010947836562991142,0.0028024439234286547,-6.648206167807741e-27,0.002651301911100745
0.005264952778816223,0.008572373539209366,-0.010898483917117119,0.002974844304844737,-4.340803908958323e-28,0.002581457607448101
0.005281803663820028,0.008067428134381771,-0.011007568798959255,0.0029092931654304266,-2.8342346173467135e-29,0.0024653158616274595
0.005067641381174326,0.007909025996923447,-0.010735749267041683,0.0027993484400212765,-1.8505527327142036e-30,0.002200249582529068
0.005108805373311043,0.008060994558036327,-0.01185805257409811,0.002817912958562374,-1.2082785356184159e-31,0.0021641727071255445
0.0055281235836446285,0.008642320521175861,-0.011381159536540508,0.002925410633906722,-7.889195888377407e-33,0.0024786461144685745
0.005508937872946262,0.007896704599261284,-0.010369212366640568,0.0032989871688187122,-5.151080989328055e-34,0.002563587622717023
0.005526504945009947,0.007545069325715303,-0.011862320825457573,0.0031850223895162344,-3.3632876449770807e-35,0.002646648557856679
0.005309445317834616,0.007564693223685026,-0.010597411543130875,0.0029215149115771055,-2.195986527088195e-36,0.002800759393721819
0.005374332889914513,0.007704456336796284,-0.010735670104622841,0.0029264192562550306,-1.4338222653701646e-37,0.0027555699925869703
0.005132236052304506,0.007448147516697645,-0.010832954198122025,0.0030040512792766094,-9.361835418116703e-39,0.002728305757045746
0.005026338156312704,0.007542426232248545,-0.010477944277226925,0.0030080995056778193,-6.1126040312312845e-40,0.0025668866001069546
0.005789136979728937,0.008124793879687786,-0.011247302405536175,0.0028202298562973738,-3.9910381562435115e-41,0.0024426369927823544
0.0054817795753479,0.008080527186393738,-0.010961153544485569,0.0023770765401422977,-2.6064151436441598e-42,0.0025993837043642998
0.00525696249678731,0.008181240409612656,-0.010857214219868183,0.0022705416195094585,-1.6955711418330287e-43,0.002601666608825326
0.005926142912358046,0.008004971779882908,-0.010886778123676777,0.00321436719968915,-1.401298464324817e-45,0.0027926811017096043
0.005926142912358046,0.008004971779882908,-0.010886778123676777,0.00321436719968915,-1.401298464324817e-45,0.0027926811017096043
0.00549774244427681,0.007691671140491962,-0.011113914661109447,0.0030877215322107077,-0.0,0.0025320781860500574
0.005376478191465139,0.0073690591380000114,-0.011391007341444492,0.002739202929660678,-0.0,0.0023691095411777496
0.0055142417550086975,0.00773032009601593,-0.01156335324048996,0.002473960630595684,-0.0,0.002183300908654928
0.0052450718358159065,0.007532836869359016,-0.011579271405935287,0.002620232757180929,-0.0,0.002270541386678815
0.00537180295214057,0.007424974348396063,-0.011134552769362926,0.0030921006109565496,-0.0,0.0024075715336948633
0.005249584559351206,0.008230741135776043,-0.011107136495411396,0.003347215009853244,-0.0,0.00286657502874732
0.005795994773507118,0.008749479427933693,-0.011174335144460201,0.003366366494446993,-0.0,0.002836148953065276
0.005343867465853691,0.008528420701622963,-0.010919032618403435,0.003151223761960864,-0.0,0.0028096435125917196
0.005300197284668684,0.008317545987665653,-0.011091869324445724,0.0028674891218543053,-0.0,0.0026089977473020554
0.005456716287881136,0.008220836520195007,-0.011019931174814701,0.00295646651647985,-0.0,0.002368995686993003
0.005577682051807642,0.008314001373946667,-0.010745516046881676,0.002761157928034663,-0.0,0.002147811697795987
0.005787425674498081,0.008252217434346676,-0.011143294163048267,0.002714437898248434,-0.0,0.0019290474010631442
0.005507409106940031,0.007955102249979973,-0.011179104447364807,0.002829384058713913,-0.0,0.0018216089811176062
0.005614439025521278,0.00828685611486435,-0.010882297530770302,0.003109007840976119,-0.0,0.001972945872694254
0.0060463035479187965,0.00805089995265007,-0.011268104426562786,0.0035434947349131107,-0.0,0.002065980574116111
0.005820936989039183,0.008098749443888664,-0.010561727918684483,0.003386709140613675,-0.0,0.0021301850210875273
0.006382365245372057,0.008414170704782009,-0.011020820587873459,0.003137118648737669,-0.0,0.002370299771428108
0.006054161116480827,0.008715017698705196,-0.01112846378237009,0.0028614467009902,-0.0,0.0023035877384245396
0.00585587602108717,0.00853278860449791,-0.010867735370993614,0.002892432501539588,-0.0,0.002416495233774185
0.005594946444034576,0.008421777747571468,-0.011244578287005424,0.0029723243787884712,-0.0,0.0023517345543950796
0.005820208229124546,0.008669217117130756,-0.01093132235109806,0.0032459148205816746,-0.0,0.0022211845498532057
0.006643582601100206,0.008152042515575886,-0.01086061168462038,0.0031433405820280313,-0.0,0.002210727659985423
0.005684627220034599,0.00787938479334116,-0.011473007500171661,0.0029490559827536345,-0.0,0.002074779011309147
0.005399354733526707,0.008019368164241314,-0.010431043803691864,0.002978280885145068,-0.0,0.002210871083661914
0.005703424569219351,0.008922907523810863,-0.010832509957253933,0.002937535522505641,-0.0,0.0023686212953180075
0.006156718824058771,0.008032889105379581,-0.010780852288007736,0.002934807911515236,-0.0,0.0023510942701250315
0.006406649015843868,0.007655106019228697,-0.010649725794792175,0.002999082440510392,-0.0,0.002153658540919423
0.006002786103636026,0.008354917168617249,-0.011214649304747581,0.0030680333729833364,-0.0,0.001969442004337907
0.006002786103636026,0.008354917168617249,-0.011214649304747581,0.0030680333729833364,-0.0,0.001969442004337907
0.00585993193089962,0.008462811820209026,-0.011201445013284683,0.0034270144533365965,-0.0,0.0015951008535921574
0.005847972352057695,0.00800295639783144,-0.011179199442267418,0.0032269712537527084,-0.0,0.0015362960984930396
0.006263792049139738,0.008417800068855286,-0.010708260349929333,0.003219334175810218,-0.0,0.001591870211996138
0.006045248359441757,0.008676541037857533,-0.011226790957152843,0.0029571233317255974,-0.0,0.001610517967492342
0.006311893463134766,0.00863015279173851,-0.011959641240537167,0.002941305283457041,-0.0,0.0019255870720371604
0.005747349467128515,0.008067911490797997,-0.011725544929504395,0.003066342556849122,-0.0,0.001877566217444837
0.005931936204433441,0.008210340514779091,-0.011516058817505836,0.0030150790698826313,-0.0,0.002094713505357504
0.0062649426981806755,0.007931139320135117,-0.011229307390749454,0.0034522037021815777,-0.0,0.002092118840664625
0.00594588415697217,0.007585642859339714,-0.011479592882096767,0.0033529414795339108,-0.0,0.002095053205266595
0.006281372159719467,0.008205048739910126,-0.011499009095132351,0.0031918606255203485,-0.0,0.0018982957117259502
0.005767612252384424,0.008199215866625309,-0.01118000689893961,0.0031017896253615618,-0.0,0.0018691755831241608
0.005840427242219448,0.00799299031496048,-0.011836147867143154,0.0030710322316735983,-0.0,0.001718889339827001
0.006672665476799011,0.007723616901785135,-0.011187195777893066,0.0030839070677757263,-0.0,0.0016476346645504236
0.006612980738282204,0.008168230764567852,-0.010783938691020012,0.003338778857141733,-0.0,0.0017490474274381995
0.006271689664572477,0.00871872715651989,-0.011571226641535759,0.0031770654022693634,-0.0,0.0018238850170746446
0.006250421982258558,0.008060975931584835,-0.01181002613157034,0.0029299824964255095,-0.0,0.0017437846399843693
0.006402709521353245,0.0077174995094537735,-0.011857077479362488,0.0029024386312812567,-0.0,0.0016048008110374212
0.006470335181802511,0.008268381468951702,-0.011629519052803516,0.003030890366062522,-0.0,0.001489108894020319
0.0064751217141747475,0.007948985323309898,-0.01138508040457964,0.0033786692656576633,-0.0,0.0013880979968234897
0.006469965446740389,0.007379488088190556,-0.011682102456688881,0.0037034235429018736,-0.0,0.0014000071678310633
0.006560026202350855,0.007656274363398552,-0.011045387014746666,0.0037257487419992685,-0.0,0.0015359001699835062
0.006290058605372906,0.008216941729187965,-0.012041634880006313,0.00362999364733696,-0.0,0.0019248927710577846
0.006445075385272503,0.00837057176977396,-0.011748593300580978,0.0032215816900134087,-0.0,0.0021178044844418764
0.006398980971425772,0.007719243876636028,-0.011762035079300404,0.0028573977760970592,-0.0,0.002127612242475152
0.006074124481528997,0.008173247799277306,-0.01271877996623516,0.002961411839351058,-0.0,0.0019058211473748088
0.006357417441904545,0.008093354292213917,-0.011384650133550167,0.0030153836123645306,-0.0,0.0017007949063554406
0.006911988370120525,0.007549725007265806,-0.011863752268254757,0.0032210000790655613,-0.0,0.0013472273712977767
0.006526417564600706,0.007550928276032209,-0.012600178830325603,0.0035888287238776684,-0.0,0.0012969428207725286
0.006199105177074671,0.007430937606841326,-0.01206582598388195,0.003654658095911145,-0.0,0.0013998631620779634
0.006199105177074671,0.007430937606841326,-0.01206582598388195,0.003654658095911145,-0.0,0.0013998631620779634
0.006599203683435917,0.007230391725897789,-0.01156054437160492,0.0032531777396798134,-0.0,0.0014961677370592952
0.00715600373223424,0.007218372076749802,-0.012078333646059036,0.0030782364774495363,-0.0,0.0019339940045028925
0.0070070973597466946,0.007460230495780706,-0.011781154200434685,0.0033374824561178684,-0.0,0.001891337102279067
0.006408270448446274,0.0073118326254189014,-0.012291171588003635,0.0033561212476342916,-0.0,0.001656237174756825
0.00663704564794898,0.007258664350956678,-0.012632098980247974,0.003521473379805684,-0.0,0.001397186890244484
0.007239040918648243,0.0071996357291936874,-0.012418277561664581,0.0036747499834746122,-0.0,0.0012828945182263851
0.007094613276422024,0.007594066672027111,-0.01271724235266447,0.0038888498675078154,-0.0,0.0011361162178218365
0.006919472943991423,0.007457905448973179,-0.011748561635613441,0.003995117731392384,-0.0,0.0010942741064354777
0.006646286230534315,0.007290336769074202,-0.01240768376737833,0.003905470948666334,-0.0,0.0008879966335371137
0.006897135637700558,0.007298756390810013,-0.011813963763415813,0.0035477580968290567,-0.0,0.0008744080550968647
0.006790603511035442,0.007649553939700127,-0.012167570181190968,0.0034911497496068478,-0.0,0.000937122676987201
0.0067940508015453815,0.008123913779854774,-0.012015498243272305,0.0032767034135758877,-0.0,0.0010335379047319293
0.006954381242394447,0.007845231331884861,-0.01180414017289877,0.0032288855873048306,-0.0,0.001230850350111723
0.007476950529962778,0.0069425953552126884,-0.012378834187984467,0.0031990637071430683,-0.0,0.0012272379826754332
0.007652844302356243,0.008079233579337597,-0.011996670626103878,0.003485539462417364,-0.0,0.0012994175776839256
0.007023159880191088,0.007768325507640839,-0.012183635495603085,0.0038697277195751667,-0.0,0.0012602817732840776
0.006706852000206709,0.007550437469035387,-0.012110388837754726,0.004073058720678091,-0.0,0.0011706474469974637
0.006745506543666124,0.007593678776174784,-0.011890175752341747,0.004011818207800388,-0.0,0.0010197792435064912
0.007399860769510269,0.008141424506902695,-0.012540972791612148,0.003739026142284274,-0.0,0.0009956576395779848
0.007395027671009302,0.007868200540542603,-0.011340056546032429,0.0034929774701595306,-0.0,0.0009264364489354193
0.007044874131679535,0.007670894730836153,-0.011350814253091812,0.0033613531850278378,-0.0,0.0009711126331239939
0.006770665291696787,0.007573829963803291,-0.012376676313579082,0.0033586344216018915,-0.0,0.0009885390754789114
0.007086689118295908,0.0075376457534730434,-0.012193389236927032,0.003567908890545368,-0.0,0.001379758701659739
0.007286480162292719,0.007409937679767609,-0.011448823846876621,0.0038164875004440546,-0.0,0.0013194645289331675
0.007286480162292719,0.007409937679767609,-0.011448823846876621,0.0038164875004440546,-0.0,0.0013194645289331675
0.007068433333188295,0.007714089937508106,-0.011666925624012947,0.00471609877422452,-0.0,0.001071400591172278
0.0074224998243153095,0.007418287917971611,-0.011764975264668465,0.004328061826527119,-0.0,0.0009172348654828966
0.007496718317270279,0.0073357075452804565,-0.011588595807552338,0.003903706092387438,-0.0,0.0007555042393505573
0.007088944315910339,0.007553774397820234,-0.011920778080821037,0.003830154426395893,-0.0,0.000646112603135407
0.007324812933802605,0.008006063289940357,-0.010940410196781158,0.0034466113429516554,-0.0,0.0006692626629956067
0.007665563374757767,0.007520328741520643,-0.011161116883158684,0.003997165244072676,-0.0,0.0006746042636223137
0.0079372338950634,0.008086728863418102,-0.01099113468080759,0.00443414319306612,-0.0,0.0006733964546583593
0.007485520094633102,0.007868081331253052,-0.011254759505391121,0.004725054372102022,-0.0,0.000656618329230696
0.007300249300897121,0.007640537805855274,-0.012174108996987343,0.004371629096567631,-0.0,0.0006849097553640604
0.00761115038767457,0.008074888959527016,-0.011663449928164482,0.004322347231209278,-0.0,0.0007386227953247726
0.00759171973913908,0.007796644698828459,-0.011812811717391014,0.004579715896397829,-0.0,0.0007581459358334541
0.007515295408666134,0.007072542794048786,-0.01135899405926466,0.004437393043190241,-0.0,0.0007074635941535234
0.007618200033903122,0.008020291104912758,-0.010998239740729332,0.004089905880391598,-0.0,0.0007693199440836906
0.007557440549135208,0.007939044386148453,-0.011942627839744091,0.004212522879242897,-0.0,0.0007593388436362147
0.007482647895812988,0.007094147149473429,-0.012088133953511715,0.0040532913990318775,-0.0,0.0006562630878761411
0.007509829476475716,0.007411730010062456,-0.01226822566241026,0.0037855408154428005,-0.0,0.000572988239582628
0.008114069700241089,0.008278737775981426,-0.012124729342758656,0.0037224970292299986,-0.0,0.0005081701674498618
0.0077324616722762585,0.007925260812044144,-0.012298385612666607,0.004087412729859352,-0.0,0.0005411956808529794
0.00807791855186224,0.007087912410497665,-0.012094379402697086,0.004112866707146168,-0.0,0.0004968762514181435
0.007599303498864174,0.007495213765650988,-0.011386921629309654,0.004011174663901329,-0.0,0.0005109389894641936
0.007919276133179665,0.007893739268183708,-0.012426074594259262,0.003962731454521418,-0.0,0.0004885463858954608
0.007957489229738712,0.007813315838575363,-0.011828754097223282,0.003954022657126188,-0.0,0.00045441582915373147
0.007810662500560284,0.006863588001579046,-0.012465784326195717,0.0039452300406992435,-0.0,0.000423894525738433
0.008294069208204746,0.006982796359807253,-0.012151622213423252,0.0038855529855936766,-0.0,0.0004247519827913493
0.008734535425901413,0.007386986631900072,-0.01186817791312933,0.004044536501169205,-0.0,0.00042506441241130233
0.00820250529795885,0.007270879112184048,-0.012277355417609215,0.004209845792502165,-0.0,0.00040293156052939594
0.008263153955340385,0.006797128822654486,-0.01190107874572277,0.004101254977285862,-0.0,0.00033539708238095045
0.00783286802470684,0.0069375960156321526,-0.01237310841679573,0.004345643799751997,-0.0,0.00029909363365732133
0.008169122040271759,0.007307032588869333,-0.012022429145872593,0.004060156177729368,-0.0,0.0003155415179207921
0.008169122040271759,0.007307032588869333,-0.012022429145872593,0.004060156177729368,-0.0,0.0003155415179207921
0.008166387677192688,0.007154511287808418,-0.012180047109723091,0.004040127154439688,-0.0,0.00029831985011696815
0.008413883857429028,0.007104629185050726,-0.01191254984587431,0.004062855150550604,-0.0,0.00028271053452044725
0.008710520341992378,0.007652143482118845,-0.012011077255010605,0.00389414606615901,-0.0,0.00026864264509640634
0.008592670783400536,0.0078109996393322945,-0.011625855229794979,0.0037876861169934273,-0.0,0.0002559077402111143
0.009590878151357174,0.007573266047984362,-0.012176456861197948,0.0037776364479213953,-0.0,0.0002443254634272307
0.009040400385856628,0.007524779066443443,-0.012140654027462006,0.004404393024742603,-0.0,0.00023374699230771512
0.009697644039988518,0.007666147779673338,-0.012040570378303528,0.005225803703069687,-0.0,0.0002240467438241467
0.009147227741777897,0.007866729982197285,-0.01260139886289835,0.005165507085621357,-0.0,0.0002151197986677289
0.00963668804615736,0.00708990590646863,-0.011567804031074047,0.005352216772735119,-0.0,0.0002237565058749169
0.008621909655630589,0.007569144479930401,-0.011893115006387234,0.005210148170590401,-0.0,0.00023130024783313274
0.008585060015320778,0.007769291754812002,-0.011462071910500526,0.004766760393977165,-0.0,0.00022410151723306626
0.009373736567795277,0.007840653881430626,-0.01174491923302412,0.004440404009073973,-0.0,0.00021646804816555232
0.00919273216277361,0.006883563939481974,-0.011955910362303257,0.004816161934286356,-0.0,0.00020928062440361828
0.009026375599205494,0.007012931630015373,-0.011631915345788002,0.00490543432533741,-0.0,0.00020255152776371688
0.009668470360338688,0.007346590980887413,-0.01217606756836176,0.004679250996559858,-0.0,0.0001962412497960031
0.009268990717828274,0.00740428501740098,-0.012205074541270733,0.004962307866662741,-0.0,0.00019031278498005122
0.009044051170349121,0.006986674852669239,-0.012913605198264122,0.004924673121422529,-0.0,0.0001847317034844309
0.009075982496142387,0.007063941098749638,-0.01231153029948473,0.00478437589481473,-0.0,0.00017946874140761793
0.009784973226487637,0.007287497632205486,-0.011681776493787766,0.005111844278872013,-0.0,9.251586743630469e-05
0.009363258257508278,0.007814066484570503,-0.012497397139668465,0.005029278341680765,-0.0,7.753509999020025e-05
0.009254785254597664,0.007021372672170401,-0.012453917413949966,0.00479904655367136,-0.0,7.364261546172202e-05
0.00933711975812912,0.0068881879560649395,-0.012532895430922508,0.00427378062158823,-3.482004785837489e-06,7.070221181493253e-05
0.009429031051695347,0.00705276383087039,-0.012261324562132359,0.0042965044267475605,-2.2735002858098596e-07,6.802675488870591e-05
0.009232202544808388,0.007389553822577,-0.012152859941124916,0.004524557385593653,-1.4844331985841563e-08,6.554886931553483e-05
0.009645071811974049,0.007106213830411434,-0.011851673945784569,0.004988532047718763,-6.328371160435609e-11,6.109827518230304e-05
0.009541841223835945,0.00724397087469697,-0.012629242613911629,0.005106245633214712,-4.131974276622152e-12,5.90922063565813e-05
0.00956665724515915,0.007646509911864996,-0.012091273441910744,0.0052877203561365604,-2.697883962673314e-13,5.7213735999539495e-05
0.009797296486794949,0.0074695078656077385,-0.012628728523850441,0.004978197626769543,-1.761525461900417e-14,5.5450964282499626e-05
0.00950627401471138,0.007391326129436493,-0.012289823964238167,0.004904148168861866,-1.1501503578137113e-15,3.3873890060931444e-05
0.00950627401471138,0.007391326129436493,-0.012289823964238167,0.004904148168861866,-1.1501503578137113e-15,3.3873890060931444e-05
0.010058988817036152,0.007430323865264654,-0.012210192158818245,0.004998594056814909,-7.509660437969638e-17,2.6571833586785942e-05
0.009938500821590424,0.0075571974739432335,-0.012414681725203991,0.005352684762328863,-4.903271899585682e-18,2.540949935792014e-05
0.009518577717244625,0.007624809164553881,-0.011821407824754715,0.005498447455465794,-3.201485980118912e-19,2.4685561584192328e-05
0.009875830262899399,0.007441295776516199,-0.013047154992818832,0.0051475525833666325,-2.090341468795047e-20,6.222078354767291e-06
0.010033944621682167,0.007111193612217903,-0.01265841443091631,0.0052176774479448795,-1.3648435678478775e-21,4.062572429575084e-07
0.011253170669078827,0.0078015136532485485,-0.012730205431580544,0.0049233450554311275,-8.911452412806924e-23,2.6525693641588077e-08
0.009818469174206257,0.007600813638418913,-0.0128762973472476,0.004955142270773649,-5.8185414014492935e-24,1.73193825947493e-09
0.009359456598758698,0.007300425320863724,-0.012896889820694923,0.004916316829621792,-3.7990919967481067e-25,1.1308319558533952e-10
0.009419451467692852,0.007266148459166288,-0.013116590678691864,0.0051895203068852425,-2.4805356763893527e-26,7.383525214843534e-12
0.010306520387530327,0.00752033619210124,-0.01214420422911644,0.005115811713039875,-1.619612520069396e-27,4.820914175675262e-13
0.009858891367912292,0.007283847313374281,-0.012736695818603039,0.0048331161960959435,-1.0574911786822233e-28,3.147712328960793e-14
0.010074972175061703,0.007309777196496725,-0.01180272176861763,0.0043051838874816895,-6.904661976052063e-30,2.0552314258554145e-15
0.010211004875600338,0.0073571219108998775,-0.012727719731628895,0.004717002622783184,-4.508250762098493e-31,1.3419192258770158e-16
0.010097303427755833,0.007873905822634697,-0.012652224861085415,0.005041693337261677,-2.943565395596072e-32,8.761774153666874e-18
0.010016018524765968,0.007531506009399891,-0.013121435418725014,0.00533101474866271,-1.921937855369248e-33,-0.00039814182673580945
0.010116077959537506,0.007269550114870071,-0.012904246337711811,0.005464320071041584,-1.254887973960794e-34,-0.0006410625646822155
0.009771144948899746,0.007364806719124317,-0.01262308843433857,0.005082041956484318,-8.193521354256779e-36,-0.00063256302382797
0.010329592041671276,0.007536610588431358,-0.012754383496940136,0.004658316727727652,-5.349784006673501e-37,-0.0006518114823848009
0.010220765136182308,0.007307275664061308,-0.012341359630227089,0.005051872693002224,-3.493026491111722e-38,-0.0006423779996111989
0.009793194010853767,0.007055431138724089,-0.012673924677073956,0.00539074931293726,-2.2806973285964993e-39,-0.00062479980988428
0.010610968805849552,0.007262140046805143,-0.012610144913196564,0.005444365553557873,-1.4891318520686966e-40,-0.0006816154927946627
0.0103440061211586,0.007985780015587807,-0.012889936566352844,0.005106673575937748,-9.723610043949906e-42,-0.0007155192433856428
0.009810827672481537,0.007421964313834906,-0.012972390279173851,0.005230391398072243,-6.347882043391421e-43,-0.0007384266937151551
0.010598715394735336,0.007126299664378166,-0.012975873425602913,0.004961350932717323,-4.203895392974451e-44,-0.0007561309612356126
0.010576118715107441,0.007258350495249033,-0.012603169307112694,0.005326094105839729,-0.00011955598893109709,-0.0008411662420257926
0.010987208224833012,0.007422677241265774,-0.013021796941757202,0.005600090138614178,-0.00012741867976728827,-0.0009661366348154843
0.010987208224833012,0.007422677241265774,-0.013021796941757202,0.005600090138614178,-0.00012741867976728827,-0.0009661366348154843
0.01054138969630003,0.008096441626548767,-0.012409290298819542,0.005592730361968279,-0.00012396846432238817,-0.0009582105558365583
0.010334677994251251,0.007959236390888691,-0.012947711162269115,0.0052893138490617275,-0.00012064838665537536,-0.00112513592466712
0.010238307528197765,0.007873861119151115,-0.01246977224946022,0.00533144548535347,-0.0001290407235501334,-0.0011085766600444913
0.010177531279623508,0.007757071405649185,-0.012905514799058437,0.005510665010660887,-0.0001366292271995917,-0.0010082272347062826
0.010268546640872955,0.007058928720653057,-0.012214603833854198,0.00603655306622386,-0.00013394882262218744,-0.0009885396575555205
0.010177121497690678,0.007014784030616283,-0.011807622388005257,0.005967325530946255,-0.00013075178139843047,-0.000907460751477629
0.010352461598813534,0.008203809149563313,-0.012426688335835934,0.0057218181900680065,-0.00012766355939675122,-0.0009955019922927022
0.010044336318969727,0.007772865705192089,-0.01212227437645197,0.0055078244768083096,-0.00014411186566576362,-0.0016622246475890279
0.010438558645546436,0.007674096617847681,-0.012880862690508366,0.005474824924021959,-0.0001421256602043286,-0.0021444926969707012
0.010281175374984741,0.006873962469398975,-0.012238580733537674,0.005240445490926504,-0.00013907099491916597,-0.0027071372605860233
0.010742359794676304,0.008165243081748486,-0.012757888063788414,0.005599765572696924,-0.00013607241271529347,-0.0025994828902184963
0.011210732161998749,0.007900131866335869,-0.012178291566669941,0.0054892017506062984,-0.0001331956882495433,-0.002215705346316099
0.010002603754401207,0.007592440117150545,-0.011717605404555798,0.0057243723422288895,-0.0001442606735508889,-0.0018756131175905466
0.009980898350477219,0.008231638930737972,-0.012509898282587528,0.005962730851024389,-0.00014573390944860876,-0.0013984738616272807
0.010040259920060635,0.008009394630789757,-0.01228626724332571,0.005890358705073595,-0.00014312397979665548,-0.001203620806336403
0.010782024823129177,0.0075156972743570805,-0.012920706532895565,0.005574500188231468,-0.00014035268395673484,-0.0012428428744897246
0.010306764394044876,0.007367187179625034,-0.012394119054079056,0.005833221599459648,-0.000137670140247792,-0.0013804893242195249
0.010511730797588825,0.0077781593427062035,-0.012667299248278141,0.005812204908579588,-0.00019632074690889567,-0.0016201055841520429
0.009964333847165108,0.007666181772947311,-0.01236085593700409,0.005910456646233797,-0.00020706689974758774,-0.002634813543409109
0.01010005921125412,0.007484798319637775,-0.012100721709430218,0.006037114653736353,-0.00019919230544473976,-0.0026117886882275343
0.010759926401078701,0.007743283174932003,-0.012374719604849815,0.005981262307614088,-0.0001908286940306425,-0.0023772984277457
0.009922150522470474,0.007582262624055147,-0.011834356002509594,0.005920695140957832,-0.000183069656486623,-0.00191604089923203
0.010350629687309265,0.007409989833831787,-0.01255236566066742,0.005683725234121084,-0.00020870337903033942,-0.0018470821669325233
0.010270869359374046,0.00731941731646657,-0.012201151810586452,0.006059534382075071,-0.00020299534662626684,-0.0018559213494881988
0.010571064427495003,0.007919583469629288,-0.01272446196526289,0.00582900270819664,-0.00018893320520874113,-0.0026889867149293423
0.010571064427495003,0.007919583469629288,-0.01272446196526289,0.00582900270819664,-0.00018893320520874113,-0.0026889867149293423
0.010032529011368752,0.007238210644572973,-0.012502964586019516,0.005969388876110315,-0.00020210884395055473,-0.002617260906845331
0.010032529011368752,0.007238210644572973,-0.012502964586019516,0.005969388876110315,-0.00020210884395055473,-0.002617260906845331
0.010175361298024654,0.007192539516836405,-0.01182514801621437,0.006044526118785143,-0.00019922771025449038,-0.0024482090957462788
0.009947173297405243,0.008047626353800297,-0.01240350492298603,0.006278923247009516,-0.0001933422317961231,-0.0023980136029422283
0.010588596574962139,0.00753717590123415,-0.012111044488847256,0.006142504513263702,-0.0001875995221780613,-0.0023214793764054775
0.011139723472297192,0.007224290166050196,-0.012407646514475346,0.005994249135255814,-0.00018217517936136574,-0.002473662607371807
0.010229690000414848,0.007237271871417761,-0.012305918149650097,0.005820342805236578,-0.00019579291983973235,-0.0030395137146115303
0.010790877044200897,0.007870255969464779,-0.012337777763605118,0.005903133191168308,-0.00019638906815089285,-0.0031638939399272203
0.010857841931283474,0.007575974799692631,-0.012350448407232761,0.006066859234124422,-0.00019155151676386595,-0.0031134583987295628
0.010086770169436932,0.007610692642629147,-0.012003442272543907,0.006038899067789316,-0.00018661229114513844,-0.0029666873160749674
0.01041712611913681,0.0076842899434268475,-0.012288389727473259,0.00616510771214962,-0.0002175260742660612,-0.0025783986784517765
0.010312533937394619,0.008340178057551384,-0.011937067843973637,0.0056964196264743805,-0.00021881057182326913,-0.0024380418471992016
0.010575739666819572,0.007765996735543013,-0.012751858681440353,0.005795187316834927,-0.00020940029935445637,-0.0026327206287533045
0.010885190218687057,0.007536918856203556,-0.012084108777344227,0.006536293309181929,-0.00020013516768813133,-0.0031910978723317385
0.010784201323986053,0.007635875605046749,-0.012185274623334408,0.006197516340762377,-0.00019161650561727583,-0.003358879592269659
0.010980305261909962,0.008144859224557877,-0.01246736291795969,0.005923917517066002,-0.00018378946697339416,-0.0034776264801621437
0.01108001172542572,0.0072359684854745865,-0.0119900181889534,0.0060557411052286625,-0.0001765748020261526,-0.00323910522274673
0.010530075058341026,0.0072381580248475075,-0.012605562806129456,0.006241666153073311,-0.00020158350525889546,-0.0030299003701657057
0.010826393961906433,0.008057464845478535,-0.011941102333366871,0.006232201587408781,-0.00019631847681012005,-0.003081466304138303
0.011070722714066505,0.007647008169442415,-0.01289939321577549,0.006145058199763298,-0.00018956181884277612,-0.003065044991672039
0.010970398783683777,0.00596738513559103,-0.013114633969962597,0.006023346912115812,-0.00018313998589292169,-0.003175189485773444
0.011226502247154713,0.005694932769984007,-0.012639905326068401,0.0062586599960923195,-0.00020466257410589606,-0.003603544319048524
0.011868874542415142,0.006654792465269566,-0.01265063975006342,0.006855209358036518,-0.00019996118498966098,-0.003403572365641594
0.01314398180693388,0.006996602285653353,-0.012382113374769688,0.006856036838144064,-0.0001939233479788527,-0.003538304939866066
0.01314398180693388,0.006996602285653353,-0.012382113374769688,0.006856036838144064,-0.0001939233479788527,-0.003538304939866066
0.013070261105895042,0.006091536488384008,-0.012879375368356705,0.006170578300952911,-0.00018268359417561442,-0.002847003983333707
0.012690095230937004,0.0066758994944393635,-0.01212481688708067,0.00676749600097537,-0.00019567969138734043,-0.003001374425366521
0.013083846308290958,0.006735486444085836,-0.012470701709389687,0.007249684538692236,-0.00019196351058781147,-0.003564485814422369
0.012823192402720451,0.006430535111576319,-0.012897027656435966,0.006530500948429108,-0.00018707336857914925,-0.003831449430435896
0.012823192402720451,0.006430535111576319,-0.012897027656435966,0.006530500948429108,-0.00018707336857914925,-0.003831449430435896
0.012920188717544079,0.00640709837898612,-0.012158386409282684,0.006255454383790493,-0.00020090784528292716,-0.003480130573734641
0.012771106325089931,0.006612525321543217,-0.013405715115368366,0.006646172609180212,-0.00020959826360922307,-0.0034163924865424633
0.013148719444870949,0.007302975282073021,-0.012598765082657337,0.006782562471926212,-0.00020139648404438049,-0.0035398886539041996
0.012983616441488266,0.006781559903174639,-0.012847548350691795,0.006422848906368017,-0.00019284157315269113,-0.003705889219418168
0.012974889948964119,0.006125026382505894,-0.012825503014028072,0.006073916796594858,-0.0001849200198194012,-0.0036859665997326374
0.013260665349662304,0.006124112289398909,-0.01387157291173935,0.005989117082208395,-0.00017761981871444732,-0.003432302502915263
0.013474280014634132,0.007175388280302286,-0.013128621503710747,0.006360058672726154,-0.0001708741474431008,-0.003513180883601308
0.013337316922843456,0.006652484647929668,-0.01333555392920971,0.006866370793431997,-0.00016462235362268984,-0.00370465824380517
0.013077809475362301,0.0063728759996593,-0.013079427182674408,0.00690413685515523,-0.000188423742656596,-0.0038223513402044773
0.013425540179014206,0.006351947318762541,-0.013181224465370178,0.006616449449211359,-0.00018393633945379406,-0.004203340969979763
0.012872598133981228,0.006066301837563515,-0.013442644849419594,0.006688923574984074,-0.0001779990125214681,-0.004027273505926132
0.013476043939590454,0.006520765833556652,-0.013205025345087051,0.0069815972819924355,-0.0001723260647850111,-0.0038070855662226677
0.013082168065011501,0.006897290237247944,-0.013384337536990643,0.006951034534722567,-0.0001669969642534852,-0.0036928257904946804
0.013287985697388649,0.006594141945242882,-0.013207860291004181,0.006912155542522669,-0.00016198708908632398,-0.0035849260166287422
0.01317637413740158,0.006164025980979204,-0.01342372689396143,0.007337033282965422,-0.00015726890705991536,-0.0036321706138551235
0.013511848635971546,0.0064492663368582726,-0.012853357940912247,0.007415007799863815,-0.0001653205690672621,-0.004190994426608086
0.013007651083171368,0.0072252280078828335,-0.01309629250317812,0.007015616167336702,-0.00017253418627660722,-0.004454111680388451
0.013188319280743599,0.006943870335817337,-0.012713687494397163,0.006849604193121195,-0.00016868114471435547,-0.004391480702906847
0.013319180347025394,0.00671358173713088,-0.013530369848012924,0.006728779058903456,-0.000164331155247055,-0.004464853089302778
0.013415485620498657,0.006465154699981213,-0.012868654914200306,0.007445964962244034,-0.00016015698201954365,-0.004238968249410391
0.013393798843026161,0.0070377541705966,-0.013187524862587452,0.006958105601370335,-0.00015618602628819644,-0.004013898782432079
0.013486442156136036,0.006934859789907932,-0.013968859799206257,0.006842980161309242,-0.00016854770365171134,-0.0038291148375719786
0.012597901746630669,0.006824783980846405,-0.013768181204795837,0.0067541515454649925,-0.000169697857927531,-0.0038410653360188007
0.013191090896725655,0.0068781329318881035,-0.013444659300148487,0.006942850071936846,-0.00016611737373750657,-0.003982118330895901
0.014410111121833324,0.007339279167354107,-0.013198887929320335,0.006647697649896145,-0.00016239224351011217,-0.004110546782612801
0.012995037250220776,0.0076010278426110744,-0.013307837769389153,0.006406901404261589,-0.00015881159924902022,-0.0041929446160793304
0.013352525420486927,0.0069541665725409985,-0.01246153749525547,0.006619554478675127,-0.0001678451371844858,-0.004208026919513941
0.013147509656846523,0.006542140152305365,-0.013264168985188007,0.006956263445317745,-0.00016025568766053766,-0.004537216387689114
0.013147509656846523,0.006542140152305365,-0.013264168985188007,0.006956263445317745,-0.00016025568766053766,-0.004537216387689114
0.013292635791003704,0.007184140849858522,-0.013484446331858635,0.00666082976385951,-0.00018362098489888012,-0.004356660880148411
0.013458027504384518,0.007062824442982674,-0.013171442784368992,0.007040125317871571,-0.0001794032723410055,-0.004409013781696558
0.013728427700698376,0.007064055185765028,-0.013904577121138573,0.006697772536426783,-0.00017375317111145705,-0.004504298325628042
0.013809283263981342,0.00693262554705143,-0.01314404234290123,0.007073698565363884,-0.00016834420966915786,-0.0048035322688519955
0.01377380732446909,0.007026581093668938,-0.013896672986447811,0.006933509837836027,-0.00017660483717918396,-0.004772938322275877
0.014046159572899342,0.006860620807856321,-0.013363205827772617,0.006946255452930927,-0.00018396932864561677,-0.004143844358623028
0.014012990519404411,0.006632201373577118,-0.013819302432239056,0.006836362183094025,-0.00017954457143787295,-0.004283260088413954
0.013838979415595531,0.006604812573641539,-0.013815714977681637,0.007266669534146786,-0.00018686892872210592,-0.0037118527106940746
0.0140979690477252,0.006606866605579853,-0.013964519836008549,0.007496275473386049,-0.00019335835531819612,-0.0046770344488322735
0.013914215378463268,0.0071365744806826115,-0.01385589875280857,0.00755630386993289,-0.00018903370073530823,-0.0057192351669073105
0.013952342793345451,0.006770173087716103,-0.013948015868663788,0.007576311938464642,-0.000293450866593048,-0.0052883378230035305
0.013815009035170078,0.006666446570307016,-0.013753269799053669,0.007294268812984228,-0.00030862330459058285,-0.00469952030107379
0.014412174932658672,0.00648086192086339,-0.01339034829288721,0.0077149937860667706,-0.00034129590494558215,-0.004513767547905445
0.013521211221814156,0.0069576771929860115,-0.01394945103675127,0.007428502198308706,-0.0003276097122579813,-0.00435708649456501
0.014123412780463696,0.006698679644614458,-0.013794660568237305,0.00712680583819747,-0.0003572799905668944,-0.004529312252998352
0.013910266570746899,0.006319909822195768,-0.014012818224728107,0.007401949260383844,-0.00034108891850337386,-0.0049115619622170925
0.014027285389602184,0.006432637572288513,-0.01374626625329256,0.00793053675442934,-0.000323762244079262,-0.005254803225398064
0.013662558048963547,0.007152896840125322,-0.013826677575707436,0.007630000822246075,-0.00034041283652186394,-0.004954506177455187
0.014231627807021141,0.007128298748284578,-0.013280359096825123,0.00729999877512455,-0.0003347796737216413,-0.00517510948702693
0.013764185830950737,0.006827264558523893,-0.013897358439862728,0.008018454536795616,-0.00032054042094387114,-0.005696001462638378
0.014209645800292492,0.0067496029660105705,-0.013541892170906067,0.008216273970901966,-0.00030691659776493907,-0.005151199176907539
0.013957497663795948,0.0064587970264256,-0.01398602593690157,0.007767733186483383,-0.0002943678991869092,-0.004733032081276178
0.014206979423761368,0.006853664293885231,-0.013481712900102139,0.007123298943042755,-0.0003412850492168218,-0.004863454028964043
0.013991034589707851,0.00644413847476244,-0.014283357188105583,0.007173744961619377,-0.00033549920772202313,-0.004866302479058504
0.014296049252152443,0.006131028290838003,-0.01379477884620428,0.007313149515539408,-0.0003134076832793653,-0.005169174633920193
0.01411500759422779,0.005939659662544727,-0.014155340380966663,0.007932702079415321,-0.0002930693735834211,-0.005539515987038612
0.01455503050237894,0.006549151614308357,-0.014154481701552868,0.00798972137272358,-0.00031019627931527793,-0.005234347656369209
0.01455503050237894,0.006549151614308357,-0.014154481701552868,0.00798972137272358,-0.00031019627931527793,-0.005234347656369209
0.014750802889466286,0.005882604513317347,-0.013398930430412292,0.00771236652508378,-0.0002941225247923285,-0.005178930703550577
0.014980236068367958,0.006273571867495775,-0.013334720395505428,0.007858849130570889,-0.000265271111857146,-0.00568234920501709
0.014980236068367958,0.006273571867495775,-0.013334720395505428,0.007858849130570889,-0.000265271111857146,-0.00568234920501709
0.014383816160261631,0.006556718610227108,-0.013959664851427078,0.008242377080023289,-0.0002839614753611386,-0.005867555737495422
0.014883473515510559,0.006592900492250919,-0.013965203426778316,0.007953042164444923,-0.00028107070829719305,-0.006031795404851437
0.014635968953371048,0.006359018385410309,-0.013662886805832386,0.007711626123636961,-0.0002696766168810427,-0.006000403314828873
0.015193386934697628,0.0061384933069348335,-0.01379750482738018,0.008274123072624207,-0.00025864416966214776,-0.005962434224784374
0.014793794602155685,0.006250561680644751,-0.013814214617013931,0.008070734329521656,-0.0002484455471858382,-0.005783142521977425
0.015238174237310886,0.006795407738536596,-0.014412324875593185,0.008048281073570251,-0.0002557382686063647,-0.006312783341854811
0.01495953369885683,0.006192093249410391,-0.014621177688241005,0.007661646697670221,-0.00026203907327726483,-0.00613522669300437
0.015687553212046623,0.005963725503534079,-0.014519063755869865,0.008063104003667831,-0.00025382128660567105,-0.005871174857020378
0.015578296035528183,0.005968254525214434,-0.014119178056716919,0.008852330036461353,-0.00024524101172573864,-0.005928368773311377
0.01575726643204689,0.006028912495821714,-0.01483692042529583,0.008104226551949978,-0.0002426972787361592,-0.005794953554868698
0.01595068909227848,0.006597131956368685,-0.014315941371023655,0.008267909288406372,-0.00023145134036894888,-0.005937589332461357
0.01589447259902954,0.006400428246706724,-0.01456204243004322,0.008753619156777859,-0.00022020257893018425,-0.005973865278065205
0.016003433614969254,0.005985361989587545,-0.014416733756661415,0.00863333884626627,-0.0002462993434164673,-0.0058805570006370544
0.015613248571753502,0.005979436915367842,-0.014880532398819923,0.008266882970929146,-0.000240321212913841,-0.005833817180246115
0.01626560091972351,0.006697207223623991,-0.015126209706068039,0.008671830408275127,-0.00023039190273266286,-0.0060843294486403465
0.015840725973248482,0.006785212084650993,-0.014846720732748508,0.009028321132063866,-0.00025530633865855634,-0.006462533492594957
0.015984943136572838,0.006229945924133062,-0.015162033960223198,0.008857235312461853,-0.0002648324298206717,-0.006561274640262127
0.01601281575858593,0.006245492026209831,-0.014782605692744255,0.009076705202460289,-0.0002711610868573189,-0.006492702756077051
0.016504498198628426,0.006792172789573669,-0.01532623078674078,0.009239030070602894,-0.00026324362261220813,-0.006301163230091333
0.01635177619755268,0.00693559180945158,-0.015217617154121399,0.008600768633186817,-0.0004121436213608831,-0.006426782812923193
0.01632647030055523,0.006735250353813171,-0.015580879524350166,0.008416472002863884,-0.00045497508835978806,-0.006584270391613245
0.01644078828394413,0.006161909084767103,-0.015179866924881935,0.00886819139122963,-0.00042869505705311894,-0.0063649131916463375
0.016139883548021317,0.0059557328931987286,-0.01580345816910267,0.00908134039491415,-0.00045936842798255384,-0.0064209806732833385
0.016723405569791794,0.007064076140522957,-0.015331665053963661,0.008203333243727684,-0.0004773261025547981,-0.006915108300745487
0.016723405569791794,0.007064076140522957,-0.015331665053963661,0.008203333243727684,-0.0004773261025547981,-0.006915108300745487
0.016948329284787178,0.006272340193390846,-0.014080742374062538,0.008331410586833954,-0.000631157192401588,-0.006693705450743437
0.016586313024163246,0.0063133854418993,-0.015375977382063866,0.008173882029950619,-0.0005670087411999702,-0.006870530545711517
0.01658184640109539,0.006306777708232403,-0.01548115536570549,0.00813021045178175,-0.0005978239350952208,-0.0067942142486572266
0.01705438271164894,0.006343842949718237,-0.015889111906290054,0.008172467350959778,-0.0005873874179087579,-0.0069672176614403725
0.016527941450476646,0.006675523705780506,-0.015574749559164047,0.008747164160013199,-0.0005736125749535859,-0.00676771393045783
0.01683165691792965,0.006679680198431015,-0.015275309793651104,0.00890115462243557,-0.000593165575992316,-0.007088994607329369
0.01656254008412361,0.0063547794707119465,-0.014770595356822014,0.009409436024725437,-0.0005563260056078434,-0.006757050286978483
0.017123743891716003,0.00629995483905077,-0.015073509886860847,0.009484118781983852,-0.000567201990634203,-0.007211123593151569
0.017628071829676628,0.006848184857517481,-0.01551757100969553,0.009250905364751816,-0.000561438559088856,-0.00788498017936945
0.017042547464370728,0.006741321180015802,-0.015266290865838528,0.009070102125406265,-0.0005489788018167019,-0.007792311254888773
0.017623471096158028,0.006300133652985096,-0.015337004326283932,0.009335733950138092,-0.0005728610558435321,-0.008067564107477665
0.017576614394783974,0.0063532679341733456,-0.01535564474761486,0.009007073938846588,-0.0006051839445717633,-0.007820675149559975
0.0174563005566597,0.006991191301494837,-0.015714548528194427,0.009308538399636745,-0.0008390385191887617,-0.008066299371421337
0.017610758543014526,0.007036224473267794,-0.014861194416880608,0.0092114033177495,-0.0008113400544971228,-0.007769798394292593
0.01725144498050213,0.006363280117511749,-0.015356294810771942,0.009042658843100071,-0.0008123738225549459,-0.0074236043728888035
0.017840061336755753,0.006368807051330805,-0.01474049687385559,0.009044105187058449,-0.0007319626165553927,-0.007774209603667259
0.017901595681905746,0.006846162490546703,-0.015574208460748196,0.010171259753406048,-0.0007434466970153153,-0.00768992118537426
0.017563024535775185,0.006941773928701878,-0.014786415733397007,0.009256632998585701,-0.000770953600294888,-0.00807599350810051
0.017958659678697586,0.006578738335520029,-0.015369935892522335,0.009418484754860401,-0.0007890855195000768,-0.007909111678600311
0.017966384068131447,0.006224946118891239,-0.014890680089592934,0.009997120127081871,-0.000803483126219362,-0.007785111200064421
0.017905527725815773,0.006612899713218212,-0.01520190853625536,0.009609168395400047,-0.0008146238978952169,-0.007672379724681377
0.018010931089520454,0.006693696137517691,-0.01527415681630373,0.009200175292789936,-0.000848734809551388,-0.007547886110842228
0.017877690494060516,0.007302105892449617,-0.01562226377427578,0.009584383107721806,-0.0008039159583859146,-0.00808849185705185
0.01813264563679695,0.006541281472891569,-0.015303649939596653,0.00939825177192688,-0.0007873252616263926,-0.007822953164577484
0.018008282408118248,0.0065029277466237545,-0.015083021484315395,0.009214451536536217,-0.000713611429091543,-0.007522944360971451
0.017861580476164818,0.00680896919220686,-0.01534164696931839,0.009996896609663963,-0.0006319391541182995,-0.00763587886467576
0.018299013376235962,0.0068349167704582214,-0.015285367146134377,0.009751398116350174,-0.0006531529943458736,-0.007199019659310579
0.01849735528230667,0.006705636624246836,-0.015522310510277748,0.008769185282289982,-0.0005969162448309362,-0.00723921786993742
0.018534421920776367,0.005809885449707508,-0.01586705632507801,0.009349212981760502,-0.0005733801517635584,-0.007345554884523153
0.018534421920776367,0.005809885449707508,-0.01586705632507801,0.009349212981760502,-0.0005733801517635584,-0.007345554884523153
0.01817440427839756,0.00560622476041317,-0.015218989923596382,0.008799471892416477,-0.000498394132591784,-0.007647180929780006
0.018628759309649467,0.006397186312824488,-0.0153157077729702,0.009600767865777016,-0.00044794665882363915,-0.007745133247226477
0.01866237446665764,0.006388021167367697,-0.014893822371959686,0.009940053336322308,-0.0004073008894920349,-0.007605724036693573
0.018232468515634537,0.005912375170737505,-0.015622886829078197,0.009393570013344288,-0.00043786148307844996,-0.0072205704636871815
0.018751053139567375,0.006231874693185091,-0.014862673357129097,0.009233334101736546,-0.0004131065506953746,-0.0073550669476389885
0.018983809277415276,0.00603510532528162,-0.015499597415328026,0.009692753665149212,-0.00038426354876719415,-0.00729728676378727
0.018472597002983093,0.0060971397906541824,-0.01540366094559431,0.009231037460267544,-0.00038781113107688725,-0.007141146343201399
0.01892686076462269,0.005937671754509211,-0.015595811419188976,0.009549799375236034,-0.00039045570883899927,-0.007038468960672617
0.019079534336924553,0.005715240258723497,-0.0153572428971529,0.010450211353600025,-0.0003693065373227,-0.006958692334592342
0.01861865259706974,0.006008946802467108,-0.015560997650027275,0.010046851821243763,-0.00034895731369033456,-0.007148018106818199
0.018862444907426834,0.005640926770865917,-0.01566019095480442,0.00999824982136488,-0.0003746233123820275,-0.007110218983143568
0.019119461998343468,0.00607447000220418,-0.015281818807125092,0.010036543011665344,-0.00035881708026863635,-0.007223339285701513
0.019162004813551903,0.005556544288992882,-0.01576962321996689,0.010511929169297218,-0.0003419585118535906,-0.007721382658928633
0.019835947081446648,0.005533470772206783,-0.0154194887727499,0.010174009948968887,-0.00032646142062731087,-0.007286195643246174
0.019513212144374847,0.005508466623723507,-0.015738457441329956,0.010521265678107738,-0.00031229821615852416,-0.007046599872410297
0.018977373838424683,0.005747367162257433,-0.015001622959971428,0.010132033377885818,-0.0002885850262828171,-0.007183094974607229
0.01883617974817753,0.006342042237520218,-0.015790490433573723,0.010419518686830997,-0.00026883574901148677,-0.007458005100488663
0.018409527838230133,0.005595500115305185,-0.015140158124268055,0.010418727062642574,-0.0002535192179493606,-0.007939180359244347
0.020236579701304436,0.005391312297433615,-0.015709031373262405,0.01054186187684536,-0.00023998312826734036,-0.008251987397670746
0.020181601867079735,0.005659845191985369,-0.015500405803322792,0.01107533648610115,-0.0002614474797155708,-0.007310518063604832
0.01961336098611355,0.005559003446251154,-0.015860246494412422,0.010394057258963585,-0.0002594358229544014,-0.0071288119070231915
0.018922539427876472,0.005931517109274864,-0.015258465893566608,0.009912499226629734,-0.00024819880491122603,-0.007964449003338814
0.02023080363869667,0.006388368550688028,-0.015465930104255676,0.010314647108316422,-0.0002373321185586974,-0.00829231459647417
0.019841721281409264,0.005414147395640612,-0.01592205837368965,0.01019130740314722,-0.0002273418940603733,-0.007772443350404501
0.019911641255021095,0.005440703127533197,-0.01543661393225193,0.009867090731859207,-0.00021815569198224694,-0.00798396859318018
0.020208677276968956,0.0052449656650424,-0.015624712221324444,0.010217435657978058,-0.0002399808436166495,-0.007637172006070614
0.020415421575307846,0.005930759012699127,-0.01514727994799614,0.009925933554768562,-0.00023518096713814884,-0.00807209312915802
0.01963789202272892,0.005904297810047865,-0.015529305674135685,0.01030333898961544,-0.00022697850363329053,-0.008248134516179562
0.020317327231168747,0.005149959120899439,-0.01614111289381981,0.009912462905049324,-0.00021173797722440213,-0.008435415104031563
0.0205319132655859,0.00579523341730237,-0.016203230246901512,0.0105300173163414,-0.00020485253480728716,-0.007974398322403431
0.0205319132655859,0.00579523341730237,-0.016203230246901512,0.0105300173163414,-0.00020485253480728716,-0.007974398322403431
0.020277434960007668,0.005477716214954853,-0.016075843945145607,0.010768106207251549,-0.00022483240172732621,-0.00807829387485981
0.020551567897200584,0.005811478942632675,-0.015969114378094673,0.010606600902974606,-0.000213298830203712,-0.008774945512413979
0.020551567897200584,0.005811478942632675,-0.015969114378094673,0.010606600902974606,-0.000213298830203712,-0.008774945512413979
0.020100222900509834,0.0054949382320046425,-0.016522681340575218,0.010794183239340782,-0.00020716893777716905,-0.007656672038137913
0.02017185464501381,0.005452805198729038,-0.01571529731154442,0.01094290055334568,-0.00020137436513323337,-0.007480969652533531
0.02060701884329319,0.0055787754245102406,-0.016193194314837456,0.010564872995018959,-0.00019589494331739843,-0.007880519144237041
0.020714344456791878,0.0057253106497228146,-0.015764441341161728,0.010514318011701107,-0.0001955949846887961,-0.008718525059521198
0.020436793565750122,0.006251032929867506,-0.016729749739170074,0.010081551037728786,-0.00019240434630773962,-0.00817246362566948
0.02081434801220894,0.005612398497760296,-0.01622345857322216,0.010496753267943859,-0.00018483847088646144,-0.008460796438157558
0.021021977066993713,0.0052897934801876545,-0.016258012503385544,0.010028543882071972,-0.00017756526358425617,-0.008560949936509132
0.02107895538210869,0.005339369177818298,-0.016607914119958878,0.010765144601464272,-0.00017082538397517055,-0.008509770035743713
0.020895415917038918,0.006063228938728571,-0.016132785007357597,0.01128007285296917,-0.00019312012591399252,-0.008935085497796535
0.021479543298482895,0.0058799912221729755,-0.016567692160606384,0.010369090363383293,-0.0001902376243378967,-0.009170572273433208
0.021579355001449585,0.005907868035137653,-0.016213173046708107,0.010564450174570084,-0.00018401080160401762,-0.008647605776786804
0.02123323827981949,0.005615705158561468,-0.016536109149456024,0.010183670558035374,-0.0001779624872142449,-0.008432375267148018
0.021314717829227448,0.005733807571232319,-0.015763964504003525,0.009895659983158112,-0.00017228508659172803,-0.009006623178720474
0.021686261519789696,0.005713069811463356,-0.016161436215043068,0.010596082545816898,-0.00019290918135084212,-0.00894598662853241
0.021764889359474182,0.005865869577974081,-0.01600773259997368,0.010248894803225994,-0.00018881970026995987,-0.009369787760078907
0.0214481633156538,0.006192637141793966,-0.016318973153829575,0.010342051275074482,-0.00018343207193538547,-0.009028350934386253
0.02151535265147686,0.005482352804392576,-0.01645372435450554,0.010507896542549133,-0.00017824886890593916,-0.009499344043433666
0.021990962326526642,0.0054129986092448235,-0.016309304162859917,0.010533628053963184,-0.000173344393260777,-0.009045131504535675
0.02235199138522148,0.005619132425636053,-0.01674589142203331,0.010688413865864277,-0.00018053776875603944,-0.009027650579810143
0.021787699311971664,0.0057090516202151775,-0.01594841666519642,0.011404880322515965,-0.0001869734696811065,-0.00875154510140419
0.022393066436052322,0.0052638002671301365,-0.016205187886953354,0.011698326095938683,-0.0001784616324584931,-0.009243249893188477
0.022393066436052322,0.0052638002671301365,-0.016205187886953354,0.011698326095938683,-0.0001784616324584931,-0.009243249893188477
0.022693699225783348,0.00529263261705637,-0.016842013224959373,0.0114890206605196,-0.00017414802277926356,-0.008988447487354279
0.022450365126132965,0.005539504811167717,-0.017085382714867592,0.011161879636347294,-0.00017003522953018546,-0.009506158530712128
0.02220447175204754,0.0061383116990327835,-0.01628274656832218,0.0106034055352211,-0.00020687190408352762,-0.009144732728600502
0.0228520929813385,0.005882908124476671,-0.016711845993995667,0.010692690499126911,-0.0002034773351624608,-0.009336555376648903
0.022977054119110107,0.005807267967611551,-0.016496596857905388,0.010909554548561573,-0.00019504624651744962,-0.009437710978090763
0.022699538618326187,0.005664805416017771,-0.0165944192558527,0.011104920879006386,-0.00022181270469445735,-0.00924310926347971
0.022518033161759377,0.005650488659739494,-0.016837220638990402,0.010865838266909122,-0.00021524359181057662,-0.009430132806301117
0.02192140556871891,0.0060058883391320705,-0.01668713614344597,0.011628883890807629,-0.00023706696811132133,-0.009533059783279896
0.023440534248948097,0.005811956711113453,-0.016927946358919144,0.011488495394587517,-0.00023244030307978392,-0.009001587517559528
0.023577066138386726,0.0058176470920443535,-0.016120480373501778,0.011478547006845474,-0.0002522361173760146,-0.00923161767423153
0.02321901172399521,0.00522024929523468,-0.016861634328961372,0.011467527598142624,-0.000248157448368147,-0.009457951411604881
0.022934217005968094,0.005747753661125898,-0.01694623753428459,0.011202667839825153,-0.0004926688270643353,-0.009572210721671581
0.023275012150406837,0.00547042116522789,-0.017077015712857246,0.011511935852468014,-0.0005019403179176152,-0.009675835259258747
0.02267126366496086,0.00591880502179265,-0.017057182267308235,0.011942860670387745,-0.0005341561045497656,-0.009678371250629425
0.022606033831834793,0.005681558977812529,-0.01649276539683342,0.012063627131283283,-0.000496904831379652,-0.009534534066915512
0.022815126925706863,0.005660647060722113,-0.01674293726682663,0.012151244096457958,-0.0005176935810595751,-0.009506200440227985
0.023127451539039612,0.00523390993475914,-0.016402868553996086,0.011670880950987339,-0.0004901987849734724,-0.00951794907450676
0.022711845114827156,0.005256528966128826,-0.0167524516582489,0.011903313919901848,-0.00046124361688271165,-0.00957485195249319
0.02321324311196804,0.005500755272805691,-0.016690868884325027,0.011771692894399166,-0.0005567017360590398,-0.009711707942187786
0.024139277637004852,0.005433447193354368,-0.016768667846918106,0.011708171106874943,-0.000504304189234972,-0.01057925820350647
0.023672182112932205,0.005596051923930645,-0.01682038977742195,0.012460949830710888,-0.0004977205535396934,-0.009942407719790936
0.022866683080792427,0.005235563963651657,-0.01648438721895218,0.011675060726702213,-0.0004917926271446049,-0.009185622446238995
0.022975118830800056,0.005264138337224722,-0.01711011677980423,0.011900384910404682,-0.0005084769800305367,-0.0094174575060606
0.023028379306197166,0.005351433530449867,-0.01678186096251011,0.01183799747377634,-0.0004865150258410722,-0.009943684563040733
0.023830706253647804,0.005410562735050917,-0.01704179123044014,0.0118781179189682,-0.0005226096254773438,-0.009953314438462257
0.023647435009479523,0.0055618747137486935,-0.016635295003652573,0.011712414212524891,-0.0005534756928682327,-0.009630423970520496
0.023647435009479523,0.0055618747137486935,-0.016635295003652573,0.011712414212524891,-0.0005534756928682327,-0.009630423970520496
0.023508954793214798,0.005309013649821281,-0.01722724549472332,0.012030217796564102,-0.0005879467935301363,-0.009548160247504711
0.024150103330612183,0.005288208834826946,-0.01758292131125927,0.012187407352030277,-0.0005767146358266473,-0.010587061755359173
0.024044949561357498,0.005549348425120115,-0.01776922307908535,0.012693269178271294,-0.0006013367092236876,-0.010244647040963173
0.0240563303232193,0.0051126135513186455,-0.017393404617905617,0.011987617239356041,-0.0008607966592535377,-0.010729789733886719
0.0240563303232193,0.0051126135513186455,-0.017393404617905617,0.011987617239356041,-0.0008607966592535377,-0.010729789733886719
0.023732895031571388,0.005041235592216253,-0.017466509714722633,0.012459531426429749,-0.0008677644655108452,-0.010056735016405582
0.023687677457928658,0.004973503760993481,-0.017096227034926414,0.011876656673848629,-0.0008573796367272735,-0.009949369356036186
0.02418505772948265,0.005197577178478241,-0.018073443323373795,0.011703269556164742,-0.0007972572930157185,-0.010373972356319427
0.024065352976322174,0.005148143507540226,-0.018398206681013107,0.011421156115829945,-0.0007934332243166864,-0.01033689733594656
0.02445819601416588,0.005749465897679329,-0.017741236835718155,0.011928563006222248,-0.0008079754770733416,-0.010662040673196316
0.024529296904802322,0.005340657662600279,-0.01741093210875988,0.012312778271734715,-0.000710304593667388,-0.01085858978331089
0.0239986814558506,0.004942005965858698,-0.017552709206938744,0.012094247154891491,-0.0006280809175223112,-0.01093115471303463
0.024241706356406212,0.00524287112057209,-0.018291309475898743,0.012424766086041927,-0.0006494916160590947,-0.010309351608157158
0.023991480469703674,0.0050451913848519325,-0.018814945593476295,0.01184094324707985,-0.0005938746617175639,-0.009757920168340206
0.023898590356111526,0.005307501647621393,-0.017819881439208984,0.011763541027903557,-0.00054300541523844,-0.010031461715698242
0.025714388117194176,0.005481683183461428,-0.017706627026200294,0.012333560734987259,-0.0004998993827030063,-0.010770505294203758
0.024917464703321457,0.005149415228515863,-0.018470730632543564,0.012354603037238121,-0.00046312203630805016,-0.011155527085065842
0.024425461888313293,0.005326725542545319,-0.017812246456742287,0.012414193712174892,-0.00046131908311508596,-0.010343948379158974
0.02440614253282547,0.0049886880442500114,-0.017471587285399437,0.011791300028562546,-0.0004593340854626149,-0.009907250292599201
0.02479194849729538,0.004556885454803705,-0.017472820356488228,0.012167483568191528,-0.0004334658442530781,-0.009755466133356094
0.02406248450279236,0.005093049723654985,-0.01766618713736534,0.012776771560311317,-0.0004089541907887906,-0.010621542111039162
0.02521669492125511,0.005484738387167454,-0.01848544180393219,0.012684892863035202,-0.0003888313367497176,-0.010353952646255493
0.02596277743577957,0.004918841645121574,-0.01739625819027424,0.012709877453744411,-0.00030562299070879817,-0.00971253402531147
0.02569741941988468,0.004710542503744364,-0.01748019829392433,0.012612231075763702,-0.00028268189635127783,-0.009895180352032185
0.025011885911226273,0.004726095590740442,-0.017984943464398384,0.013516661711037159,-0.00029161240672692657,-0.010023667477071285
0.024445200338959694,0.004728288855403662,-0.017618950456380844,0.012446274049580097,-0.000299295992590487,-0.010416192933917046
0.025227298960089684,0.00476692384108901,-0.017821677029132843,0.012569927610456944,-0.0002850545570254326,-0.01028878428041935
0.025227298960089684,0.00476692384108901,-0.017821677029132843,0.012569927610456944,-0.0002850545570254326,-0.01028878428041935
0.025309627875685692,0.005593438632786274,-0.017567405477166176,0.012231835164129734,-0.00029288604855537415,-0.010073008015751839
0.026246264576911926,0.004086090251803398,-0.01721581257879734,0.013753424398601055,-0.0003112147969659418,-0.011058885604143143
0.026246264576911926,0.004086090251803398,-0.01721581257879734,0.013753424398601055,-0.0003112147969659418,-0.011058885604143143
0.026313526555895805,0.004321214277297258,-0.018036270514130592,0.013318000361323357,-0.0003015654510818422,-0.011296475306153297
0.026570552960038185,0.0050325533375144005,-0.018268605694174767,0.013625678606331348,-0.000402301549911499,-0.011271316558122635
0.025652363896369934,0.004669724497944117,-0.01784955896437168,0.013825394213199615,-0.0003769680915866047,-0.011139811016619205
0.025794226676225662,0.004482572432607412,-0.01813366822898388,0.013613003306090832,-0.0004130555025767535,-0.01112862303853035
0.026164401322603226,0.0045195757411420345,-0.01806880161166191,0.013651221059262753,-0.0003876456758007407,-0.011359850876033306
0.02691367082297802,0.004637641366571188,-0.01797870360314846,0.012877165339887142,-0.0004140475648455322,-0.011616436764597893
0.026410264894366264,0.004863371141254902,-0.018137533217668533,0.01304623857140541,-0.00039519742131233215,-0.01186376716941595
0.02639820985496044,0.004731884226202965,-0.017798753455281258,0.01322068553417921,-0.0004183009441476315,-0.011434491723775864
0.026557831093668938,0.004832996521145105,-0.018356895074248314,0.01412746962159872,-0.00040129810804501176,-0.011433792300522327
0.02673141099512577,0.004711794201284647,-0.018244128674268723,0.01344887726008892,-0.00048629409866407514,-0.011780633591115475
0.02655157633125782,0.00468249199911952,-0.018029749393463135,0.013679529540240765,-0.0005203694454394281,-0.01189749501645565
0.02673754282295704,0.004524807911366224,-0.01856057532131672,0.013543859124183655,-0.0004942756495438516,-0.011867566034197807
0.02709992602467537,0.004814398940652609,-0.018321583047509193,0.014218781143426895,-0.0004540879453998059,-0.011829553171992302
0.027805229648947716,0.00476902024820447,-0.018027789890766144,0.01379882451146841,-0.00048380036605522037,-0.0120595283806324
0.027294907718896866,0.004900362808257341,-0.01843295991420746,0.013555438257753849,-0.0004532146267592907,-0.01200888678431511
0.02758263796567917,0.004776669666171074,-0.017982060089707375,0.013506313785910606,-0.0004752556560561061,-0.011808192357420921
0.027727071195840836,0.0047319186851382256,-0.01839675009250641,0.01377258449792862,-0.00045251683332026005,-0.012259125709533691
0.027844419702887535,0.00470446003600955,-0.018794871866703033,0.013628700748085976,-0.00042806679266504943,-0.01239059492945671
0.027788417413830757,0.004913582932204008,-0.018028724938631058,0.0137404166162014,-0.0004638436366803944,-0.01253905426710844
0.028001686558127403,0.004650767892599106,-0.01845686323940754,0.013862409628927708,-0.00042523053707554936,-0.012574749067425728
0.028511853888630867,0.004922729916870594,-0.018450887873768806,0.013834577985107899,-0.00045581822632811964,-0.011960664764046669
0.028142347931861877,0.005072582978755236,-0.017937062308192253,0.01430547796189785,-0.0004287410120014101,-0.011909947730600834
0.02848464623093605,0.004879490472376347,-0.018422847613692284,0.013875831849873066,-0.0004593612684402615,-0.012680468149483204
0.028691908344626427,0.0046415370889008045,-0.0181425828486681,0.014137417078018188,-0.0004852473211940378,-0.012634660117328167
0.02845425345003605,0.0052151987329125404,-0.01900673657655716,0.014541546814143658,-0.0006471807137131691,-0.012731351889669895
0.02845425345003605,0.0052151987329125404,-0.01900673657655716,0.014541546814143658,-0.0006471807137131691,-0.012731351889669895
0.029644977301359177,0.004940271843224764,-0.018659204244613647,0.014692616648972034,-0.0007028290419839323,-0.012367935851216316
0.029644977301359177,0.004940271843224764,-0.018659204244613647,0.014692616648972034,-0.0007028290419839323,-0.012367935851216316
0.02934969775378704,0.0048071458004415035,-0.018828904256224632,0.01439193170517683,-0.0008583677699789405,-0.01281879935413599
0.02958524040877819,0.004701949190348387,-0.018529461696743965,0.014581932686269283,-0.0010061863576993346,-0.012714513577520847
0.029943225905299187,0.00443806080147624,-0.01897943764925003,0.014289640821516514,-0.0008905739523470402,-0.013002037070691586
0.029863957315683365,0.004548985511064529,-0.018738139420747757,0.014314590021967888,-0.0008851726306602359,-0.01225932128727436
0.029934028163552284,0.004529617261141539,-0.018277298659086227,0.014071715995669365,-0.0008643056498840451,-0.012441533617675304
0.030447132885456085,0.005000858101993799,-0.019121134653687477,0.014098516665399075,-0.0008265528012998402,-0.01281371433287859
0.031202368438243866,0.004585550166666508,-0.02025540918111801,0.01422363705933094,-0.0008040426764637232,-0.01293258834630251
0.03137155994772911,0.004398961551487446,-0.019169537350535393,0.01528543047606945,-0.0008469581953249872,-0.012897911481559277
0.028682444244623184,0.004509235266596079,-0.019081562757492065,0.015423283912241459,-0.0008750400156714022,-0.01294622477144003
0.030347781255841255,0.004733069334179163,-0.018936172127723694,0.015471613965928555,-0.0012758697848767042,-0.013104143552482128
0.031455062329769135,0.004902543965727091,-0.018703246489167213,0.015543241053819656,-0.0013690782943740487,-0.012858412228524685
0.03079269640147686,0.004786808975040913,-0.01954031176865101,0.014927108772099018,-0.001648601028136909,-0.0134335458278656
0.03114193305373192,0.004688892513513565,-0.020035400986671448,0.014663681387901306,-0.001402418245561421,-0.013574489392340183
0.03171638399362564,0.004627275746315718,-0.019524484872817993,0.014747947454452515,-0.001121342065744102,-0.013705605641007423
0.03149120509624481,0.004671451635658741,-0.01917940191924572,0.015143181197345257,-0.001070694182999432,-0.013567960821092129
0.030797259882092476,0.004594531841576099,-0.01961200125515461,0.014975467696785927,-0.0009227360133081675,-0.013856234960258007
0.03086698427796364,0.004724703263491392,-0.019052935764193535,0.015213935635983944,-0.0008050852338783443,-0.014080087654292583
0.03196394816040993,0.004755167756229639,-0.019775619730353355,0.014754061587154865,-0.0007137167849577963,-0.014104640111327171
0.031858932226896286,0.004816066939383745,-0.02020622044801712,0.01516980491578579,-0.0006409732741303742,-0.013690737076103687
0.03202323988080025,0.005034018773585558,-0.0191678237169981,0.0151041429489851,-0.0006588275427930057,-0.013826167210936546
0.03212912753224373,0.004829581826925278,-0.01903938502073288,0.01495339348912239,-0.00060816272161901,-0.013665402308106422
0.03145024925470352,0.004792818799614906,-0.020384706556797028,0.014154684729874134,-0.000445162266260013,-0.013738809153437614
0.031196534633636475,0.004754395689815283,-0.018694212660193443,0.014948609285056591,-0.00039120292058214545,-0.013132952153682709
0.03188198804855347,0.004961650352925062,-0.018580978736281395,0.014755398035049438,-0.0004256463726051152,-0.013776111416518688
0.03165517374873161,0.005267399828881025,-0.020047971978783607,0.015495660714805126,-0.00039850277244113386,-0.014116072095930576
0.03196308761835098,0.004866879899054766,-0.019427094608545303,0.01518067717552185,-0.0004332536191213876,-0.014549484476447105
0.03196308761835098,0.004866879899054766,-0.019427094608545303,0.01518067717552185,-0.0004332536191213876,-0.014549484476447105
0.0321413055062294,0.004721231292933226,-0.01975657418370247,0.014793617650866508,-0.000433308508945629,-0.014416513033211231
0.032211095094680786,0.004833459388464689,-0.01966208592057228,0.015563421882689,-0.0004916313337162137,-0.013955002650618553
0.032760314643383026,0.004870500415563583,-0.019330045208334923,0.014785543084144592,-0.0005139790591783822,-0.013984940946102142
0.032402027398347855,0.005003903992474079,-0.019446684047579765,0.015181206166744232,-0.0005107306642457843,-0.014438082464039326
0.03092295490205288,0.004907776601612568,-0.019434727728366852,0.015588108450174332,-0.0005037547089159489,-0.014779902994632721
0.033064596354961395,0.004611995071172714,-0.019658168777823448,0.016104448586702347,-0.0005005078273825347,-0.015375162474811077
0.03395749256014824,0.0045396978966891766,-0.019960517063736916,0.01641623117029667,-0.0004952363087795675,-0.014994367957115173
0.03404417261481285,0.004669481422752142,-0.020024273544549942,0.015982583165168762,-0.00046119492617435753,-0.014122698456048965
0.0321405790746212,0.004848005715757608,-0.019790105521678925,0.01652432419359684,-0.0004869564436376095,-0.013758042827248573
0.03149232268333435,0.005281306803226471,-0.019827835261821747,0.016045311465859413,-0.0005053643835708499,-0.013857586309313774
0.03300216794013977,0.00552518991753459,-0.019780199974775314,0.01642528548836708,-0.0005671753897331655,-0.01413728017359972
0.03273988887667656,0.004691800102591515,-0.019137676805257797,0.016148854047060013,-0.0005360617651604116,-0.014804850332438946
0.0327577069401741,0.004547542426735163,-0.01981552504003048,0.016060082241892815,-0.0005647951038554311,-0.014781126752495766
0.033192895352840424,0.004997478798031807,-0.02018330991268158,0.016098063439130783,-0.0005590891814790666,-0.015805551782250404
0.03370289131999016,0.0050026425160467625,-0.019889216870069504,0.015964463353157043,-0.000549621821846813,-0.014684228226542473
0.03286528214812279,0.005279529839754105,-0.01972903497517109,0.016525045037269592,-0.000692184257786721,-0.014457708224654198
0.03230142965912819,0.005442412104457617,-0.019881268963217735,0.016436772421002388,-0.0007323501631617546,-0.014667600393295288
0.03284751623868942,0.004939612932503223,-0.019319545477628708,0.017182596027851105,-0.0007118787616491318,-0.014552751556038857
0.03292737528681755,0.004923174157738686,-0.019570307806134224,0.016405845060944557,-0.0006826495518907905,-0.014970972202718258
0.03325366973876953,0.0048524788580834866,-0.019981712102890015,0.016185080632567406,-0.0007007005624473095,-0.015077890828251839
0.0333082377910614,0.004809979349374771,-0.020178090780973434,0.0157184936106205,-0.0008559207781217992,-0.01506649050861597
0.0333082377910614,0.004809979349374771,-0.020178090780973434,0.0157184936106205,-0.0008559207781217992,-0.01506649050861597
0.03283366933465004,0.005127017851918936,-0.019956111907958984,0.015867451205849648,-0.0008819698705337942,-0.014866026118397713
0.03349822387099266,0.005000652279704809,-0.020295459777116776,0.015736130997538567,-0.0010061333887279034,-0.014982624910771847
0.033242952078580856,0.00487440824508667,-0.019581642001867294,0.016177745535969734,-0.0010528761195018888,-0.01494902279227972
0.03310079500079155,0.0053503322415053844,-0.019751936197280884,0.015941260382533073,-0.0009549556416459382,-0.014681580476462841
0.03310079500079155,0.0053503322415053844,-0.019751936197280884,0.015941260382533073,-0.0009549556416459382,-0.014681580476462841
0.03411614149808884,0.005354819819331169,-0.019982045516371727,0.016095956787467003,-0.0008822083473205566,-0.015114559791982174
0.03241698443889618,0.005280140787363052,-0.020816519856452942,0.016402963548898697,-0.0008315620943903923,-0.01540237758308649
0.03437408432364464,0.005038795527070761,-0.02075774036347866,0.016507316380739212,-0.0007473343284800649,-0.01521376334130764
0.03411594405770302,0.005097150802612305,-0.01984921284019947,0.01661941409111023,-0.0007626648293808103,-0.015486377291381359
0.03372260555624962,0.005044371820986271,-0.019467735663056374,0.01686146669089794,-0.000779353897087276,-0.015184617601335049
0.03374761343002319,0.0051348512060940266,-0.02001914568245411,0.016227368265390396,-0.0007926952093839645,-0.015209907665848732
0.03422120586037636,0.005553815048187971,-0.020105598494410515,0.016651807352900505,-0.0008756982279010117,-0.015202311798930168
0.03425794839859009,0.005273103713989258,-0.020490674301981926,0.016662482172250748,-0.0008940765401348472,-0.015158764086663723
0.034579530358314514,0.005186120979487896,-0.02044655568897724,0.016907120123505592,-0.000799220462795347,-0.01518233958631754
0.03453291952610016,0.004868962801992893,-0.020471172407269478,0.01724058948457241,-0.0007826968212611973,-0.0154130719602108
0.03428361564874649,0.004788092337548733,-0.020202403888106346,0.016885535791516304,-0.0007191327167674899,-0.015735791996121407
0.034963496029376984,0.00496061472222209,-0.020927464589476585,0.01712859608232975,-0.0007263764273375273,-0.015631260350346565
0.03527338057756424,0.005183467175811529,-0.020818552002310753,0.016653863713145256,-0.0006696372292935848,-0.016182608902454376
0.034974128007888794,0.005704348441213369,-0.020509453490376472,0.016908220946788788,-0.0006133405258879066,-0.015883667394518852
0.03495405614376068,0.0053297774866223335,-0.02052617259323597,0.0171124916523695,-0.0005367877893149853,-0.01601755991578102
0.035261139273643494,0.0045610894449055195,-0.02078208141028881,0.017004678025841713,-0.00047928665298968554,-0.01584070548415184
0.036580249667167664,0.004977916833013296,-0.02085624262690544,0.01743931695818901,-0.0005076281959190965,-0.015923459082841873
0.036208152770996094,0.005423095542937517,-0.020589936524629593,0.017092173919081688,-0.0005113930092193186,-0.015234477818012238
0.034134551882743835,0.005358321126550436,-0.020789630711078644,0.017333978787064552,-0.0005407832795754075,-0.015160330571234226
0.03522327542304993,0.005266673397272825,-0.02073119953274727,0.017471810802817345,-0.0006459457217715681,-0.015416382811963558
0.03624614328145981,0.004846927709877491,-0.020686743780970573,0.01710936240851879,-0.0007741951267234981,-0.015669314190745354
0.036012202501297,0.004463454242795706,-0.02059885859489441,0.017445450648665428,-0.0008044695132412016,-0.015837280079722404
0.03689979389309883,0.004599002189934254,-0.021109119057655334,0.017076630145311356,-0.0008162864833138883,-0.015616733580827713
0.03601451218128204,0.004961223807185888,-0.02108953706920147,0.01713349111378193,-0.0009875441901385784,-0.015800969675183296
0.035637181252241135,0.004991093650460243,-0.020824527367949486,0.017435893416404724,-0.001031865132972598,-0.01599644310772419
0.036664579063653946,0.005014494992792606,-0.020659422501921654,0.01800413802266121,-0.0008880639215931296,-0.01566818170249462
0.03537753224372864,0.004787962418049574,-0.021017424762248993,0.018133558332920074,-0.0008333773002959788,-0.016094066202640533
0.03537753224372864,0.004787962418049574,-0.021017424762248993,0.018133558332920074,-0.0008333773002959788,-0.016094066202640533
0.03663388267159462,0.004606419708579779,-0.02088593877851963,0.01795489713549614,-0.0007894590962678194,-0.01597682572901249
0.0367799811065197,0.0048749689012765884,-0.020827608183026314,0.01803836226463318,-0.0007141706300899386,-0.01585296168923378
0.035883598029613495,0.005299575161188841,-0.021101312711834908,0.01723490096628666,-0.0006069047376513481,-0.015929682180285454
0.036323562264442444,0.004936988931149244,-0.02132057398557663,0.01731909066438675,-0.0006089742528274655,-0.015853101387619972
0.03712530806660652,0.004211270250380039,-0.020756762474775314,0.01708231493830681,-0.0006139327306300402,-0.016338080167770386
0.036174822598695755,0.0035173094365745783,-0.02074543759226799,0.017440881580114365,-0.0005981915746815503,-0.016263389959931374
0.03647660091519356,0.003530303481966257,-0.020965363830327988,0.018054356798529625,-0.0006216521142050624,-0.016285667195916176
0.037257686257362366,0.0038829620461910963,-0.021203069016337395,0.018107779324054718,-0.0006739947712048888,-0.01617681235074997
0.03692077472805977,0.003999542444944382,-0.020780829712748528,0.018217653036117554,-0.0007651448249816895,-0.016214987263083458
0.03646613657474518,0.003868906293064356,-0.020974749699234962,0.01805463433265686,-0.0007574362680315971,-0.016104841604828835
0.03765316307544708,0.004076673649251461,-0.020782988518476486,0.017870241776108742,-0.0007722949958406389,-0.016167549416422844
0.038861311972141266,0.004041573964059353,-0.02047775499522686,0.019144386053085327,-0.0007483570370823145,-0.016181688755750656
0.03609346225857735,0.0037379018031060696,-0.020697999745607376,0.01876760646700859,-0.0009347649174742401,-0.0175918098539114
0.036557819694280624,0.0035381701309233904,-0.021089980378746986,0.01813315786421299,-0.0008707266533747315,-0.016937144100666046
0.0380791537463665,0.003503951011225581,-0.02100028470158577,0.018667537719011307,-0.0008621456217952073,-0.01665472984313965
0.03746531531214714,0.0034496651496738195,-0.02082301862537861,0.018409395590424538,-0.0008240778697654605,-0.01675640046596527
0.038462743163108826,0.0036016644444316626,-0.02093038149178028,0.018523603677749634,-0.0007824152708053589,-0.01657879166305065
0.03885585442185402,0.003682810114696622,-0.02109871432185173,0.01887603849172592,-0.0008181361481547356,-0.016757309436798096
0.036949917674064636,0.0037006251513957977,-0.020709438249468803,0.018905073404312134,-0.0008347199182026088,-0.01655607484281063
0.03754840046167374,0.0037364924792200327,-0.0207394789904356,0.01940748281776905,-0.0007891651475802064,-0.01662255823612213
0.03877975046634674,0.0037460143212229013,-0.021518051624298096,0.01908351480960846,-0.0007780842133797705,-0.0171036459505558
0.03785467892885208,0.0034117628820240498,-0.021651646122336388,0.01854453980922699,-0.0007226619054563344,-0.0174414049834013
0.03821301832795143,0.003618113696575165,-0.020814135670661926,0.018422730267047882,-0.0007493197335861623,-0.01783863641321659
0.03846967965364456,0.003839890006929636,-0.021114859730005264,0.018816182389855385,-0.0007689837366342545,-0.017524801194667816
0.038693204522132874,0.0038818661123514175,-0.021867962554097176,0.018566951155662537,-0.0007007850799709558,-0.01714593544602394
0.03847190737724304,0.0038835464511066675,-0.022554371505975723,0.018864145502448082,-0.0007180405082181096,-0.017659611999988556
0.03862139582633972,0.003974636550992727,-0.021435489878058434,0.018773691728711128,-0.0007301884470507503,-0.017856091260910034
0.03878173232078552,0.004052040167152882,-0.021569151431322098,0.018903283402323723,-0.0006778677925467491,-0.017886940389871597
0.03878173232078552,0.004052040167152882,-0.021569151431322098,0.018903283402323723,-0.0006778677925467491,-0.017886940389871597
0.03916731849312782,0.003932304680347443,-0.02138233184814453,0.018671827390789986,-0.0006591695128008723,-0.01727250963449478
0.039017874747514725,0.003973945509642363,-0.021288041025400162,0.018398508429527283,-0.0006331349723041058,-0.01747428998351097
0.03926476463675499,0.004021746106445789,-0.022030876949429512,0.01886540651321411,-0.0006152944406494498,-0.017322629690170288
0.03907673805952072,0.004055549390614033,-0.02184601128101349,0.018538838252425194,-0.0005980886635370553,-0.01761438325047493
0.038916926831007004,0.004034771118313074,-0.02172495424747467,0.018798597157001495,-0.0006214656750671566,-0.018319182097911835
0.040024805814027786,0.004046473652124405,-0.021560678258538246,0.019399315118789673,-0.0006384160369634628,-0.018420491367578506
0.03998695686459541,0.004045730922371149,-0.022003410384058952,0.01914440095424652,-0.0007299145217984915,-0.018336515873670578
0.03940870612859726,0.003982375375926495,-0.021817438304424286,0.018583860248327255,-0.0007044374942779541,-0.018365725874900818
0.03964069113135338,0.004346632864326239,-0.02220296859741211,0.018842488527297974,-0.0007212410564534366,-0.01800728589296341
0.039513468742370605,0.004221021663397551,-0.021023042500019073,0.01908368244767189,-0.0010145970154553652,-0.018116114661097527
0.039991460740566254,0.004014989361166954,-0.02145557664334774,0.019167659804224968,-0.0010319099528715014,-0.018611634150147438
0.040185365825891495,0.003935228567570448,-0.021660450845956802,0.019087109714746475,-0.0009497306891717017,-0.018673492595553398
0.03988278657197952,0.003860143246129155,-0.02246154099702835,0.018714506179094315,-0.0009388746111653745,-0.01867489330470562
0.039641525596380234,0.004178535658866167,-0.02189718186855316,0.019206371158361435,-0.0008397599449381232,-0.018567077815532684
0.0399630032479763,0.004092466551810503,-0.021861482411623,0.019560188055038452,-0.0007812769035808742,-0.018468109890818596
0.0413675457239151,0.004298115614801645,-0.02175694704055786,0.019186075776815414,-0.0007942073862068355,-0.018515117466449738
0.040560267865657806,0.0040902686305344105,-0.022292738780379295,0.01914105750620365,-0.000807525182608515,-0.018223745748400688
0.0389409102499485,0.003943920601159334,-0.022036684677004814,0.019268812611699104,-0.0008110807393677533,-0.018460730090737343
0.0401507169008255,0.004406544845551252,-0.02165093459188938,0.019048355519771576,-0.0008736120071262121,-0.0187551137059927
0.040820952504873276,0.004467468708753586,-0.02204309031367302,0.01947387121617794,-0.0009068113286048174,-0.01886444352567196
0.04153871536254883,0.004325721878558397,-0.022070979699492455,0.019782770425081253,-0.000890367547981441,-0.01865534670650959
0.041490960866212845,0.0043733385391533375,-0.021983463317155838,0.020651405677199364,-0.0008618244319222867,-0.019888902083039284
0.03957895562052727,0.004172941204160452,-0.021474819630384445,0.020154178142547607,-0.0008185243350453675,-0.018440403044223785
0.0407344289124012,0.0042960625141859055,-0.022171389311552048,0.020231151953339577,-0.0009060192387551069,-0.01841149665415287
0.041516706347465515,0.00457164878025651,-0.02243168279528618,0.01961429789662361,-0.0009453889797441661,-0.019160859286785126
0.041516706347465515,0.00457164878025651,-0.02243168279528618,0.01961429789662361,-0.0009453889797441661,-0.019160859286785126
0.041587911546230316,0.004384690895676613,-0.022512080147862434,0.020281890407204628,-0.0009943717159330845,-0.01914488896727562
0.04098083823919296,0.004236929584294558,-0.022422531619668007,0.020725084468722343,-0.001061093993484974,-0.0194852277636528
0.04157094657421112,0.004328591283410788,-0.022683035582304,0.020374586805701256,-0.0010392146650701761,-0.019114205613732338
0.041397664695978165,0.004466990940272808,-0.023109501227736473,0.019944582134485245,-0.0010364552726969123,-0.019323153421282768
0.041601356118917465,0.004101206548511982,-0.022767042741179466,0.02064608596265316,-0.0010676734382286668,-0.0195739958435297
0.04141031950712204,0.0044818720780313015,-0.022082101553678513,0.02077428251504898,-0.0010396891739219427,-0.01952463947236538
0.04136847332119942,0.004613039083778858,-0.022471483796834946,0.020849723368883133,-0.0010167943546548486,-0.019882503896951675
0.0426313616335392,0.0043843528255820274,-0.02312152273952961,0.020687462761998177,-0.0009835228556767106,-0.02005116268992424
0.04228346422314644,0.004440719727426767,-0.023400241509079933,0.0201933141797781,-0.0008908529416657984,-0.01921120285987854
0.040665287524461746,0.004555555991828442,-0.02325107716023922,0.019574495032429695,-0.0008894497295841575,-0.018878795206546783
0.04171331971883774,0.004534412175416946,-0.022557437419891357,0.020039595663547516,-0.0008932711789384484,-0.019152114167809486
0.041630420833826065,0.004277348984032869,-0.022803127765655518,0.020441928878426552,-0.0009244054672308266,-0.019304761663079262
0.042950067669153214,0.004524060059338808,-0.023213330656290054,0.02083721198141575,-0.0010068007977679372,-0.02002149447798729
0.04296426475048065,0.004173136781901121,-0.02315126359462738,0.02091497927904129,-0.001091402373276651,-0.019957346841692924
0.04046567529439926,0.004239958245307207,-0.023286733776330948,0.02108643390238285,-0.000950398447457701,-0.01969580352306366
0.04170064628124237,0.004556850530207157,-0.023342400789260864,0.020767370238900185,-0.000926088890992105,-0.019644219428300858
0.042716134339571,0.004671638831496239,-0.02347460761666298,0.020415281876921654,-0.0008769600535742939,-0.019999241456389427
0.04260999336838722,0.004730925429612398,-0.023355845361948013,0.02079143561422825,-0.00082685291999951,-0.02034488320350647
0.04240597411990166,0.004339371807873249,-0.023111119866371155,0.020641081035137177,-0.0007381069590337574,-0.019772792235016823
0.0421312116086483,0.004421591758728027,-0.02281787618994713,0.020551219582557678,-0.0006379818660207093,-0.01920766569674015
0.04298185557126999,0.0044861589558422565,-0.023402037099003792,0.0205778069794178,-0.0007157499785535038,-0.019204031676054
0.043209634721279144,0.0045265816152095795,-0.024004168808460236,0.020697537809610367,-0.0007639884133823216,-0.01940329186618328
0.04303150996565819,0.004759259056299925,-0.023053819313645363,0.02066395804286003,-0.0009955603163689375,-0.01980510726571083
0.04275844991207123,0.004499470815062523,-0.023306360468268394,0.02041148580610752,-0.0011483271373435855,-0.020251071080565453
0.04356444254517555,0.0044136992655694485,-0.02441367693245411,0.02055978775024414,-0.001155946170911193,-0.019994203001260757
0.04342985525727272,0.004594890866428614,-0.024303195998072624,0.0210618507117033,-0.0011690629180520773,-0.020932985469698906
0.043772924691438675,0.004740254022181034,-0.02278987690806389,0.020702466368675232,-0.00119115156121552,-0.019969288259744644
0.04411694407463074,0.004476819187402725,-0.024030571803450584,0.02065894566476345,-0.00099721341393888,-0.019826818257570267
0.04393196105957031,0.004479888826608658,-0.023720797151327133,0.020570985972881317,-0.000954398128669709,-0.02026844024658203
0.04393196105957031,0.004479888826608658,-0.023720797151327133,0.020570985972881317,-0.000954398128669709,-0.02026844024658203
0.04491468518972397,0.0045172069221735,-0.02425830438733101,0.02095680870115757,-0.0007365615456365049,-0.020502807572484016
0.04491468518972397,0.0045172069221735,-0.02425830438733101,0.02095680870115757,-0.0007365615456365049,-0.020502807572484016
0.044467709958553314,0.004375043325126171,-0.02376292459666729,0.021144459024071693,-0.0007401906768791378,-0.020412568002939224
0.04484395310282707,0.004584731999784708,-0.023663712665438652,0.02124018222093582,-0.0007586056017316878,-0.020399708300828934
0.0446532778441906,0.004256678279489279,-0.02393663488328457,0.020839586853981018,-0.0007818845915608108,-0.020341085270047188
0.044798001646995544,0.004302044864743948,-0.02468079701066017,0.0205661803483963,-0.0011030478635802865,-0.020547324791550636
0.044701095670461655,0.004181050229817629,-0.024545326828956604,0.020423201844096184,-0.0011958414688706398,-0.020750079303979874
0.044579412788152695,0.004366731271147728,-0.023993685841560364,0.020684393122792244,-0.0013118959031999111,-0.020914748311042786
0.046083517372608185,0.00412452407181263,-0.023970382288098335,0.021288007497787476,-0.001354017062112689,-0.020738700404763222
0.04630964621901512,0.0040215603075921535,-0.02403291128575802,0.021829288452863693,-0.0012684337561950088,-0.02094268798828125
0.043831124901771545,0.00448413472622633,-0.024741940200328827,0.021442200988531113,-0.0012048076605424285,-0.02118007279932499
