davideferrari95/blind_handover_controller/data/Test 288 - [2024-02-08 -- 13-57-51]/joint_states_data.csv
shoulder_pan_joint,shoulder_lift_joint,elbow_joint,wrist_1_joint,wrist_2_joint,wrist_3_joint
0.006796285510063171,0.005765940994024277,-0.010288290679454803,0.006052739452570677,0.0,0.007111184764653444
0.006796285510063171,0.005765940994024277,-0.010288290679454803,0.006052739452570677,0.0,0.007111184764653444
0.0069315508008003235,0.0056089055724442005,-0.010370672680437565,0.006298862397670746,0.0,0.007244883105158806
0.007142476737499237,0.005728439893573523,-0.010043162852525711,0.005814418196678162,0.0,0.007586949039250612
0.0072753699496388435,0.006170745939016342,-0.010782130993902683,0.006269160658121109,0.0,0.007612659130245447
0.006818281952291727,0.006115337833762169,-0.01026481669396162,0.005948181729763746,0.0,0.0069303666241467
0.006640603765845299,0.005574676673859358,-0.010377150028944016,0.005371810402721167,0.0,0.006952216848731041
0.006865618284791708,0.005462141241878271,-0.010145947337150574,0.0053572990000247955,0.0,0.007078000344336033
0.007079039700329304,0.00647748215124011,-0.009766042232513428,0.005526228807866573,0.0,0.007628964725881815
0.007079039700329304,0.00647748215124011,-0.009766042232513428,0.005526228807866573,0.0,0.007628964725881815
0.006730165332555771,0.0070611461997032166,-0.010811857879161835,0.005244128871709108,0.0,0.007540695834904909
0.006699039600789547,0.006320747546851635,-0.01032203622162342,0.005229973699897528,0.0,0.006954011972993612
0.007411750964820385,0.005817546509206295,-0.01000432949513197,0.005470404401421547,0.0,0.007125565316528082
0.007633912842720747,0.005478258244693279,-0.010583814233541489,0.005525263026356697,0.0,0.007088662590831518
0.00696588447317481,0.005821291822940111,-0.010458136908710003,0.005690722726285458,0.0,0.006967718247324228
0.0071632592007517815,0.006565262097865343,-0.010052138939499855,0.005334589630365372,0.0,0.0068129426799714565
0.0070333597250282764,0.005769012961536646,-0.010400572791695595,0.0053481776267290115,0.0,0.007309496868401766
0.007118554320186377,0.005933563690632582,-0.00978105142712593,0.005290653556585312,0.0,0.0074873738922178745
0.0067143188789486885,0.005601274315267801,-0.01051632035523653,0.004944365005940199,0.0,0.00676749786362052
0.006737004034221172,0.006535796914249659,-0.00986939761787653,0.004575309809297323,0.0,0.006637367885559797
0.007201203610748053,0.006096995901316404,-0.009543267078697681,0.005046446807682514,0.0,0.006866117939352989
0.007003404200077057,0.005704730283468962,-0.010591713711619377,0.005466627422720194,0.0,0.007116176653653383
0.0072502316907048225,0.005512410309165716,-0.010114273056387901,0.005397449713200331,0.0,0.007003854960203171
0.0066343857906758785,0.005763851571828127,-0.009943083859980106,0.005285290069878101,0.0,0.0065994663164019585
0.007000845391303301,0.006676423829048872,-0.010379753075540066,0.005067013669759035,0.0,0.0068714735098183155
0.006738572381436825,0.006154170725494623,-0.009567517787218094,0.004951885901391506,0.0,0.006838737055659294
0.00688741123303771,0.00569376302883029,-0.009505195543169975,0.005538444500416517,0.0,0.0069196163676679134
0.006816998589783907,0.005471362732350826,-0.010297676548361778,0.0055398414842784405,0.0,0.00729150278493762
0.006643045227974653,0.005699703004211187,-0.009922816418111324,0.005685566458851099,0.0,0.007177593652158976
0.006835993379354477,0.0062576779164373875,-0.009853033348917961,0.004899937193840742,0.0,0.007271199487149715
0.006722645368427038,0.006318911910057068,-0.010143284685909748,0.004641019273549318,0.0,0.007307449355721474
0.006677552592009306,0.0060411780141294,-0.009397841058671474,0.0049111442640423775,-2.7523615244717803e-06,0.007296527735888958
0.00722348690032959,0.005582654383033514,-0.009258226491510868,0.005138696637004614,-1.7970955923374277e-07,0.007372759282588959
0.00696104159578681,0.005870571359992027,-0.009809212759137154,0.005287857260555029,-1.1733749971654106e-08,0.007311118766665459
0.007416396867483854,0.00569500494748354,-0.009579448960721493,0.00554152624681592,-7.661299927796961e-10,0.007322507444769144
0.006593965459614992,0.005837458651512861,-0.009622898884117603,0.005035503301769495,-5.002281228128069e-11,0.007251966279000044
0.006593965459614992,0.005837458651512861,-0.009622898884117603,0.005035503301769495,-5.002281228128069e-11,0.007251966279000044
0.006542114540934563,0.00595878716558218,-0.009882246144115925,0.004760643932968378,-3.266132373239139e-12,0.007418343331664801
0.007083133794367313,0.005320343654602766,-0.009786715731024742,0.004910887684673071,-2.1325512699049004e-13,0.007381403353065252
0.007025839760899544,0.005319160409271717,-0.009815221652388573,0.0052528949454426765,-1.3924035806734542e-14,0.006963092368096113
0.0068011158145964146,0.005625600926578045,-0.010457733646035194,0.0050340136513113976,-9.091400499249458e-16,0.007232178933918476
0.006460170261561871,0.0059998249635100365,-0.010781257413327694,0.005121887195855379,-3.875806872495802e-18,0.007407350931316614
0.006460170261561871,0.0059998249635100365,-0.010781257413327694,0.005121887195855379,-3.875806872495802e-18,0.007407350931316614
0.006991803180426359,0.0051633743569254875,-0.009557826444506645,0.00510416179895401,-1.652317022705541e-20,0.0068476274609565735
0.0069276271387934685,0.005334522575139999,-0.010243499651551247,0.004841765854507685,-1.0788449622899053e-21,0.0067879268899559975
0.0063870749436318874,0.005836057011038065,-0.010625350289046764,0.004791770130395889,-7.04408738369416e-23,0.007053373847156763
0.0066887144930660725,0.00612352741882205,-0.009829972870647907,0.004728928208351135,-4.599285086087845e-24,0.007303112186491489
0.006870865821838379,0.0056365192867815495,-0.009961539879441261,0.004835512489080429,-3.003004386078172e-25,0.007252260576933622
0.007163884583860636,0.005580394063144922,-0.009707861579954624,0.004874105099588633,-1.960747368145055e-26,0.007045804988592863
0.006867238320410252,0.005298815201967955,-0.009324682876467705,0.004971125163137913,-1.2802278415713994e-27,0.007194492034614086
0.006715608760714531,0.0050497157499194145,-0.009781712666153908,0.004981261678040028,-8.358972903996736e-29,0.006953383795917034
0.006708928849548101,0.005777599755674601,-0.01021933276206255,0.004645911045372486,-5.4578123715458434e-30,0.007257604505866766
0.006677656900137663,0.005731055047363043,-0.010079308412969112,0.0044814422726631165,-3.5635612005771096e-31,0.007409893441945314
0.0066461460664868355,0.005543577950447798,-0.010201954282820225,0.004823937080800533,-2.3267508897513826e-32,0.007427147123962641
0.00668321643024683,0.00515866419300437,-0.009746706113219261,0.004866343457251787,-1.5192020113405125e-33,0.007293502800166607
0.007275898940861225,0.005362446885555983,-0.009830405935645103,0.004608355928212404,-9.919304616536993e-35,0.007002545055001974
0.007509319111704826,0.00521876709535718,-0.010277669876813889,0.004593891091644764,-6.476597204003594e-36,0.006858753506094217
0.006638319697231054,0.005494855809956789,-0.009768105112016201,0.004891933407634497,-4.228755100354836e-37,0.00718866428360343
0.006691458635032177,0.005656187888234854,-0.009900636039674282,0.00492224283516407,-2.7610747735935326e-38,0.006811228115111589
0.007149715442210436,0.005426442250609398,-0.010352352634072304,0.004662252496927977,-1.8027844873385204e-39,0.0070142121985554695
0.0070633781142532825,0.005047842860221863,-0.009967031888663769,0.004593656398355961,-1.1770907100328463e-40,0.007031281478703022
0.007003311067819595,0.004854212980717421,-0.009556232951581478,0.004680374637246132,-7.686122076821622e-42,0.007054776418954134
0.006469570565968752,0.00512147368863225,-0.009774439036846161,0.00445935083553195,-5.016648502282845e-43,0.0070791589096188545
0.007182755507528782,0.005573535803705454,-0.010097525082528591,0.004592709708958864,-3.2229864679470793e-44,0.006668783724308014
0.007489178329706192,0.0052199698984622955,-0.009678374044597149,0.004695319104939699,-2.802596928649634e-45,0.007048208732157946
0.007489178329706192,0.0052199698984622955,-0.009678374044597149,0.004695319104939699,-2.802596928649634e-45,0.007048208732157946
0.006813552230596542,0.005091074854135513,-0.010179335251450539,0.0049399505369365215,-0.0,0.007468502037227154
0.00661834329366684,0.004909314215183258,-0.010168644599616528,0.004995549097657204,-0.0,0.00739637715741992
0.006841370370239019,0.005243366118520498,-0.010249599814414978,0.005004511214792728,-0.0,0.006857832428067923
0.006853784434497356,0.005085550248622894,-0.010042636655271053,0.005209641996771097,-0.0,0.0068831490352749825
0.006959622260183096,0.005068184807896614,-0.010081186890602112,0.0050338744185864925,-0.0,0.007098162546753883
0.00653866259381175,0.004836038686335087,-0.010666541755199432,0.004991807043552399,-0.0,0.0067722550593316555
0.006848005577921867,0.004815388470888138,-0.009179273620247841,0.0047331200912594795,-0.0,0.006680972408503294
0.007189236115664244,0.00563139608129859,-0.009694886393845081,0.004480964504182339,-0.0,0.007227173075079918
0.006805135402828455,0.005361555609852076,-0.01012634951621294,0.004489679355174303,-0.0,0.00801094714552164
0.006623428780585527,0.004883157089352608,-0.009766287170350552,0.00499520730227232,-0.0,0.007596280425786972
0.007217325735837221,0.0052069080993533134,-0.009979295544326305,0.004630155395716429,-0.0,0.007492865435779095
0.007326291408389807,0.005189016927033663,-0.010342773050069809,0.004535146057605743,-0.0,0.007070763502269983
0.007254682946950197,0.004971541464328766,-0.009697425179183483,0.004157184157520533,-0.0,0.006956250406801701
0.00680705439299345,0.005173447076231241,-0.009371137246489525,0.004352751187980175,-0.0,0.006673483178019524
0.007425331044942141,0.005072508007287979,-0.010033217258751392,0.004980404861271381,-0.0,0.0069218291901052
0.006744033191353083,0.005277035757899284,-0.01038789376616478,0.004980306141078472,-0.0,0.0070098331198096275
0.006554702762514353,0.005008706822991371,-0.00980185717344284,0.004647770896553993,-0.0,0.007175987120717764
0.006643190048635006,0.004816589877009392,-0.009930633008480072,0.004435904789716005,-0.0,0.00733181880787015
0.007281110621988773,0.0046912506222724915,-0.009917477145791054,0.00475935498252511,-0.0,0.007366476580500603
0.007465464062988758,0.005071314051747322,-0.009778414852917194,0.0047961995005607605,-0.0,0.006993891205638647
0.0074900235049426556,0.005015597678720951,-0.00960133969783783,0.0045799920335412025,-0.0,0.0072153545916080475
0.006878561340272427,0.005250591319054365,-0.009113423526287079,0.004520327318459749,-0.0,0.006820663809776306
0.006600556895136833,0.005076820496469736,-0.00962405651807785,0.004674687050282955,-0.0,0.006911569274961948
0.006600556895136833,0.005076820496469736,-0.00962405651807785,0.004674687050282955,-0.0,0.006911569274961948
0.008139985613524914,0.005109288264065981,-0.009566402062773705,0.004684131592512131,-0.0,0.007070776075124741
0.007834636606276035,0.0055281417444348335,-0.009645558893680573,0.004669939633458853,-0.0,0.007246832828968763
0.007834636606276035,0.0055281417444348335,-0.009645558893680573,0.004669939633458853,-0.0,0.007246832828968763
0.00665499409660697,0.005506528541445732,-0.009856542572379112,0.00470692990347743,-0.0,0.007170733995735645
0.0070646656677126884,0.005445597227662802,-0.009400389157235622,0.004699788987636566,-0.0,0.00707143172621727
0.0071325344033539295,0.005146175157278776,-0.00956591498106718,0.004720078781247139,-0.0,0.00739655178040266
0.007151538971811533,0.005099739879369736,-0.00936275627464056,0.004835308995097876,-0.0,0.007809117436408997
0.007715282030403614,0.005386467557400465,-0.009359346702694893,0.004390857648104429,-0.0,0.0074102142825722694
0.007795833516865969,0.005565312225371599,-0.009821472689509392,0.004050823859870434,-0.0,0.007362906821072102
0.007214420009404421,0.005169515497982502,-0.009611358866095543,0.003975228872150183,-0.0,0.007304086349904537
0.007313571870326996,0.005661107134073973,-0.009269262664020061,0.004046053625643253,-0.0,0.007101527415215969
0.007759058848023415,0.005432966165244579,-0.009955844841897488,0.004008778836578131,-0.0,0.007324900943785906
0.0081934230402112,0.00537318829447031,-0.009535281918942928,0.0043087312951684,-0.0,0.007790925446897745
0.007714955136179924,0.005227682646363974,-0.009146707132458687,0.004688435234129429,-0.0,0.0076597523875534534
0.0070079234428703785,0.005096074193716049,-0.009512916207313538,0.0048500350676476955,-0.0,0.007457434665411711
0.007162511348724365,0.005360634531825781,-0.009100665338337421,0.004372738301753998,-0.0,0.007431867066770792
0.008077126927673817,0.005184526555240154,-0.00879320316016674,0.003986495081335306,-0.0,0.008134132251143456
0.007796977646648884,0.005222843959927559,-0.009512421675026417,0.00409685866907239,-0.0,0.007902558892965317
0.007054710295051336,0.005275364965200424,-0.009908857755362988,0.004210394341498613,-0.0,0.006887649651616812
0.007982402108609676,0.005484546534717083,-0.009051877073943615,0.004481388721615076,-0.0,0.006970719899982214
0.008299260400235653,0.005096077919006348,-0.009672289714217186,0.004141215234994888,-0.0,0.00741215143352747
0.007675257045775652,0.004870542790740728,-0.00945243239402771,0.004458087962120771,-0.0,0.0075604356825351715
0.007615572307258844,0.0054529765620827675,-0.00900297798216343,0.005054915323853493,-0.0,0.007390785962343216
0.00782153382897377,0.0052694352343678474,-0.009625016711652279,0.004636767320334911,-0.0,0.007130571641027927
0.00782153382897377,0.0052694352343678474,-0.009625016711652279,0.004636767320334911,-0.0,0.007130571641027927
0.007814421318471432,0.005908553954213858,-0.009405573830008507,0.004063119180500507,-0.0,0.0073529137298464775
0.0075951446779072285,0.005739869549870491,-0.009247858077287674,0.004092581104487181,-0.0,0.007397268898785114
0.0076958611607551575,0.005629067774862051,-0.00978376530110836,0.00456892279908061,-0.0,0.007209319155663252
0.008757181465625763,0.005225350148975849,-0.009419056586921215,0.004845030140131712,-0.0,0.007178501226007938
0.00806677620857954,0.005456169135868549,-0.009041113778948784,0.004606520291417837,-0.0,0.007086990866810083
0.009096290916204453,0.005558790173381567,-0.009279345162212849,0.004390937276184559,-4.941371298627928e-05,0.007263957988470793
0.007617998402565718,0.005475154146552086,-0.009035168215632439,0.004563892260193825,-4.982237805961631e-05,0.007279446814209223
0.00735069252550602,0.005008173640817404,-0.0090924222022295,0.004804225172847509,-6.421852049243171e-06,0.007798371836543083
0.007701137103140354,0.0053649055771529675,-0.009477326646447182,0.004772272892296314,-4.193010454400792e-07,0.007660250645130873
0.00785741675645113,0.005183038767427206,-0.009144862182438374,0.0046501061879098415,-2.737735904645433e-08,0.007238886319100857
0.008007786236703396,0.005993443541228771,-0.00910887774080038,0.004562797956168652,-1.7875460001093302e-09,0.00731474906206131
0.00810961239039898,0.00546934362500906,-0.008933886885643005,0.00465062540024519,-1.167139856983468e-10,0.008313018828630447
0.007982853800058365,0.0054309614934027195,-0.009066510014235973,0.004468944389373064,-7.62058992298531e-12,0.008002052083611488
0.008088826201856136,0.005559985991567373,-0.00866503082215786,0.004542035050690174,-4.975700298830155e-13,0.007948757149279118
0.007933867163956165,0.005292734131217003,-0.009292555041611195,0.004501991905272007,-3.248776912095387e-14,0.00787699967622757
0.007434369530528784,0.005444635171443224,-0.009293184615671635,0.004285406321287155,-2.121219104094787e-15,0.007742142770439386
0.008271041326224804,0.005599814001470804,-0.009010001085698605,0.0043630474247038364,-1.3850044831813918e-16,0.007526860572397709
0.008545156568288803,0.005547938868403435,-0.009657011367380619,0.004423134028911591,-9.043089181009421e-18,0.007730861194431782
0.00792908389121294,0.005260624457150698,-0.009315809234976768,0.004564011003822088,-5.90449120962229e-19,0.007546942215412855
0.0077759819105267525,0.0057196831330657005,-0.00871775671839714,0.004458980169147253,-3.8552106310052057e-20,0.00768109317868948
0.007865244522690773,0.005623643286526203,-0.009674510918557644,0.00430667120963335,-2.5171772469681363e-21,0.007811437826603651
0.008100321516394615,0.005701749585568905,-0.00959856528788805,0.004320768639445305,-1.6435367913089747e-22,0.007683940231800079
0.007689512800425291,0.005181239917874336,-0.009719965979456902,0.004774931818246841,-1.0731121807184758e-23,0.007431670092046261
0.008022665046155453,0.005231022834777832,-0.009439260698854923,0.004439714830368757,-7.006655657640106e-25,0.008129226043820381
0.008291700854897499,0.0055810739286243916,-0.009539538063108921,0.004447274375706911,-4.5748456698800803e-26,0.00797409936785698
0.008260437287390232,0.005303866695612669,-0.00927412137389183,0.004482327960431576,-2.9870474324876216e-27,0.0077675711363554
0.008260437287390232,0.005303866695612669,-0.00927412137389183,0.004482327960431576,-2.9870474324876216e-27,0.0077675711363554
0.008061517961323261,0.005849786102771759,-0.009279056452214718,0.00470746261999011,-1.950328467517084e-28,0.007759441155940294
0.008035566657781601,0.00545622268691659,-0.010119947604835033,0.004947982728481293,-1.2734251801553942e-29,0.008032627403736115
0.008765317499637604,0.005151032004505396,-0.009233220480382442,0.004883165471255779,-8.314556483196679e-31,0.007673243060708046
0.008059652522206306,0.005239062011241913,-0.00947362370789051,0.004653877578675747,-5.428811421278288e-32,0.007644169498234987
0.007918871007859707,0.0054924157448112965,-0.010786128230392933,0.004642958287149668,-3.544626073087835e-33,0.008061674423515797
0.008299345150589943,0.005524817854166031,-0.009916605427861214,0.004613759461790323,-2.3143874350620672e-34,0.008079935796558857
0.008692054077982903,0.005506766960024834,-0.009462771937251091,0.004881200380623341,-9.866597642418593e-37,0.007805479224771261
0.008130243979394436,0.005443115718662739,-0.009246989153325558,0.005062594078481197,-6.442183264327238e-38,0.008143353275954723
0.008251273073256016,0.005488422233611345,-0.01013204362243414,0.004754620138555765,-4.2062860081545894e-39,0.008184264414012432
0.008259661495685577,0.005606723949313164,-0.010225149802863598,0.004422446712851524,-2.746404860230209e-40,0.008421403355896473
0.008712520822882652,0.005655414890497923,-0.009783130139112473,0.00408545508980751,-1.7932416447964684e-41,0.008077850565314293
0.008749978616833687,0.005631255451589823,-0.00995756033807993,0.003920617513358593,-1.171485516175547e-42,0.007950774393975735
0.008942046202719212,0.005505774170160294,-0.010298706591129303,0.00428942684084177,-7.707141553786494e-44,0.008237550035119057
0.0085325688123703,0.005479294341057539,-0.009777749888598919,0.004471927415579557,-5.605193857299268e-45,0.00792466476559639
0.008209112100303173,0.00544927129521966,-0.00985419750213623,0.004578761290758848,-0.0,0.008135905489325523
0.008464298211038113,0.005602739751338959,-0.010318412445485592,0.004674364347010851,-0.0,0.008578019216656685
0.008410130627453327,0.005226834677159786,-0.009814800694584846,0.004372416064143181,-0.0,0.00831617321819067
0.008426741696894169,0.005301718134433031,-0.009904216974973679,0.004222993738949299,-0.0,0.008018694818019867
0.008546450175344944,0.00538259232416749,-0.010564512573182583,0.0043977368623018265,-0.0,0.008551535196602345
0.009042168967425823,0.005183142609894276,-0.009532076306641102,0.00464582210406661,-0.0,0.008009052835404873
0.008649618364870548,0.005284094717353582,-0.010172255337238312,0.005061149597167969,-0.0,0.008081496693193913
0.008167188614606857,0.0052435328252613544,-0.010122047737240791,0.005209543742239475,-0.0,0.007902742363512516
0.00849363673478365,0.005742128938436508,-0.01013309508562088,0.005216216668486595,-0.0,0.008399436250329018
0.008966331370174885,0.005574513226747513,-0.010088549926877022,0.004649079870432615,-0.0,0.007979693822562695
0.008114327676594257,0.0056807734072208405,-0.009957978501915932,0.004462542477995157,-0.0,0.008021770045161247
0.00877618882805109,0.005285682622343302,-0.009700366295874119,0.0046277339570224285,-0.0,0.008247524499893188
0.008448595181107521,0.00587040139362216,-0.01012194063514471,0.005143406335264444,-0.0,0.008215461857616901
0.008323456160724163,0.005783997010439634,-0.009626402519643307,0.004791539162397385,-0.0,0.008291402831673622
0.008323456160724163,0.005783997010439634,-0.009626402519643307,0.004791539162397385,-0.0,0.008291402831673622
0.009254489094018936,0.005249326582998037,-0.010391399264335632,0.004514530301094055,-0.0,0.008504094555974007
0.009254489094018936,0.005249326582998037,-0.010391399264335632,0.004514530301094055,-0.0,0.008504094555974007
0.009418408386409283,0.006094424054026604,-0.010216413997113705,0.0048622372560203075,-0.0,0.008271445520222187
0.009418408386409283,0.006094424054026604,-0.010216413997113705,0.0048622372560203075,-0.0,0.008271445520222187
0.009116354398429394,0.005708967335522175,-0.010533046908676624,0.005436520557850599,-6.572540587512776e-05,0.00801230501383543
0.008619233034551144,0.005620491225272417,-0.009732113219797611,0.005181034095585346,-7.770177035126835e-05,0.008160421624779701
0.008722271770238876,0.00529645849019289,-0.010058635845780373,0.004780683200806379,-7.722440204815939e-05,0.008156021125614643
0.0089098010212183,0.005387453828006983,-0.009922424331307411,0.004678049590438604,-7.597654621349648e-05,0.008326412178575993
0.008747873827815056,0.0057236128486692905,-0.009708398953080177,0.004705390892922878,-7.471868593711406e-05,0.008505810983479023
0.009189600124955177,0.005523756146430969,-0.010577104985713959,0.004888324998319149,-7.349858788074926e-05,0.008565880358219147
0.00922002736479044,0.005372284445911646,-0.00971584115177393,0.005743412766605616,-7.231742347357795e-05,0.008595416322350502
0.009074999950826168,0.005253780633211136,-0.009497261606156826,0.0054533048532903194,-7.117357745300978e-05,0.008600355125963688
0.009331108070909977,0.0058668204583227634,-0.010339029133319855,0.005053841043263674,-7.006544183241203e-05,0.00847139023244381
0.009448332712054253,0.005897290073335171,-0.009916244074702263,0.005118541419506073,-6.899119034642354e-05,0.00873696431517601
0.009271753020584583,0.005848107393831015,-0.009861133992671967,0.005051353946328163,-6.794950604671612e-05,0.009177847765386105
0.008619696833193302,0.005454608239233494,-0.010965140536427498,0.005171572789549828,-6.693867908325046e-05,0.00890112854540348
0.009694023989140987,0.005558369215577841,-0.009976856410503387,0.005564199294894934,-6.595758168259636e-05,0.008941395208239555
0.009445684030652046,0.005604309495538473,-0.009641825221478939,0.005323320161551237,-6.500478775706142e-05,0.008562077768146992
0.009190057404339314,0.005700578913092613,-0.010420460253953934,0.005118703003972769,-6.407912587746978e-05,0.008478747680783272
0.00883104745298624,0.006088024936616421,-0.010048884898424149,0.004966823849827051,-6.317951192613691e-05,0.008461376652121544
0.009044277481734753,0.005828928668051958,-0.010398520156741142,0.004448264371603727,-6.844467134214938e-05,0.008806160651147366
0.008839924819767475,0.005479790270328522,-0.010263770818710327,0.0045376066118478775,-7.333198300329968e-05,0.008843591436743736
0.009240614250302315,0.005088983103632927,-0.009653661400079727,0.004896091762930155,-7.272422953974456e-05,0.00890767015516758
0.009398264810442924,0.005891294684261084,-0.010881157591938972,0.004896989557892084,-7.178228406701237e-05,0.008653528988361359
0.009645229205489159,0.005689278710633516,-0.010405168868601322,0.0051632835529744625,-7.084223034325987e-05,0.008424730971455574
0.00913927424699068,0.005915486719459295,-0.009715220890939236,0.005114383064210415,-6.992497219471261e-05,0.008502749726176262
0.00913927424699068,0.005915486719459295,-0.009715220890939236,0.005114383064210415,-6.992497219471261e-05,0.008502749726176262
0.009732626378536224,0.005622759461402893,-0.01053863950073719,0.004844745621085167,-6.903112080181018e-05,0.008833806961774826
0.009422853589057922,0.005431371740996838,-0.01024417020380497,0.004695376381278038,-6.81598176015541e-05,0.008439440280199051
0.008799073286354542,0.0062719956040382385,-0.010260108858346939,0.00505449902266264,-6.648153794230893e-05,0.008664838038384914
0.008799073286354542,0.0062719956040382385,-0.010260108858346939,0.00505449902266264,-6.648153794230893e-05,0.008664838038384914
0.00914190523326397,0.006596757564693689,-0.009985141456127167,0.00460159732028842,-6.567308446392417e-05,0.008555490523576736
0.009002198465168476,0.005635437555611134,-0.009971321560442448,0.0046408879570662975,-6.48839704808779e-05,0.009449253790080547
0.00937995407730341,0.005394616164267063,-0.010619428008794785,0.004914792254567146,-6.411365029634908e-05,0.010011205449700356
0.009442299604415894,0.006198986433446407,-0.009666035883128643,0.0058282786048948765,-6.26265027676709e-05,0.008152377791702747
0.009617717005312443,0.006165547762066126,-0.010232559405267239,0.005527975503355265,-6.190857675392181e-05,0.008592610247433186
0.009867585264146328,0.005618500057607889,-0.010239636525511742,0.005758848041296005,-6.120686157373711e-05,0.008580806665122509
0.00958778616040945,0.005416471976786852,-0.010124758817255497,0.005445307586342096,-6.052089520380832e-05,0.00931567046791315
0.009670307859778404,0.005483844317495823,-0.011148851364850998,0.0051054563373327255,-5.985012830933556e-05,0.00915698241442442
0.009223868139088154,0.005611746106296778,-0.01030869409441948,0.005118486937135458,-7.709386409260333e-06,0.009012601338326931
0.009239427745342255,0.006200044881552458,-0.010125887580215931,0.005080690607428551,-5.033678576182865e-07,0.008787669241428375
0.009639323689043522,0.004790986888110638,-0.010784836485981941,0.005150753539055586,-3.286632122012634e-08,0.008975202217698097
0.010327150113880634,0.0043386067263782024,-0.010279730893671513,0.00495330523699522,-2.14593587344325e-09,0.0092164920642972
0.008946593850851059,0.004605329129844904,-0.010218982584774494,0.004864821210503578,-1.4011428128846148e-10,0.009064831770956516
0.009935125708580017,0.004672931972891092,-0.01044939924031496,0.004770501516759396,-9.148460634877953e-12,0.008924792520701885
0.009808006696403027,0.0045631080865859985,-0.009557124227285385,0.0055781519040465355,-5.973292064968827e-13,0.009023591876029968
0.009157954715192318,0.005733635742217302,-0.009815102443099022,0.005360905546694994,-3.900132373633146e-14,0.009233925491571426
0.009466661140322685,0.00437053432688117,-0.01023673266172409,0.005398192442953587,-2.546507994164067e-15,0.008733813650906086
0.009666286408901215,0.004945863503962755,-0.009703176096081734,0.004670827183872461,-1.6626878236753611e-16,0.008696075528860092
0.009725488722324371,0.005560035817325115,-0.010030282661318779,0.00457465834915638,-1.0856163204607251e-17,0.008725963532924652
0.009718326851725578,0.004939484875649214,-0.0098327761515975,0.00460051279515028,-7.088298335568367e-19,0.009084148332476616
0.009745254181325436,0.004857109393924475,-0.009663168340921402,0.005504913162440062,-4.628152429181763e-20,0.009384277276694775
0.009718397632241249,0.005013500805944204,-0.010636648163199425,0.005722941365092993,-3.0218529422147746e-21,0.009516404010355473
0.009733869694173336,0.004845477174967527,-0.00989264901727438,0.0057631745003163815,-1.973054215057123e-22,0.009507580660283566
0.009747292846441269,0.004800805822014809,-0.009785121306777,0.005200545769184828,-1.2882633429952863e-23,0.009711948223412037
0.009601706638932228,0.005023472476750612,-0.010238495655357838,0.0049759261310100555,-8.411439436135053e-25,0.009419208392500877
0.009783443063497543,0.004898862447589636,-0.010341170243918896,0.005164791364222765,-5.49206811107615e-26,0.009192933328449726
0.009783443063497543,0.004898862447589636,-0.010341170243918896,0.005164791364222765,-5.49206811107615e-26,0.009192933328449726
0.010510304942727089,0.004328622482717037,-0.009728490374982357,0.00534293195232749,-3.58592825242546e-27,0.008990827016532421
0.009770873002707958,0.00448694359511137,-0.010174349881708622,0.005924626253545284,-2.34135520006275e-28,0.009395819157361984
0.009825537912547588,0.004893995821475983,-0.009802364744246006,0.005193611141294241,-9.981563578312472e-31,0.009592713788151741
0.009825537912547588,0.004893995821475983,-0.009802364744246006,0.005193611141294241,-9.981563578312472e-31,0.009592713788151741
0.010091795586049557,0.005061245057731867,-0.010123195126652718,0.005086682736873627,-4.2552968968163734e-33,0.009490334428846836
0.010025588795542717,0.004937849007546902,-0.010234303772449493,0.005754015874117613,-2.77840487608829e-34,0.00934272725135088
0.009651507250964642,0.004930883180350065,-0.01120420265942812,0.005631753709167242,-1.814099880512764e-35,0.009168102405965328
0.010351845994591713,0.00519662257283926,-0.010138940997421741,0.005248054396361113,-1.184477638071953e-36,0.008971501141786575
0.010246538557112217,0.004858092870563269,-0.009761262685060501,0.004944681655615568,-7.733792569019795e-38,0.009255451150238514
0.010448673740029335,0.004660631064325571,-0.010178807191550732,0.004729424603283405,-2.9856484616175294e-05,0.009646683931350708
0.010133099742233753,0.005207073409110308,-0.009916404262185097,0.005447098519653082,-6.723558180965483e-05,0.009612943045794964
0.010143074207007885,0.005020518321543932,-0.010426840744912624,0.005708621349185705,-6.867836054880172e-05,0.009960695169866085
0.009767752140760422,0.00495888153091073,-0.010646842420101166,0.005764700472354889,-6.780473631806672e-05,0.00992631632834673
0.010325547307729721,0.005424486938863993,-0.00957249291241169,0.005769378039985895,-6.680862861685455e-05,0.009764106012880802
0.011008545756340027,0.005130109842866659,-0.010436942800879478,0.005629444494843483,-6.583196227438748e-05,0.00972941517829895
0.01015898771584034,0.004886464215815067,-0.010205298662185669,0.00573691027238965,-6.488286453532055e-05,0.009729132987558842
0.010113893076777458,0.005195752251893282,-0.010119983926415443,0.006028729025274515,-6.396065145963803e-05,0.009455985389649868
0.010136223398149014,0.0050957091152668,-0.010235500521957874,0.005938243120908737,-6.306430441327393e-05,0.009576348587870598
0.010171902365982533,0.0060781752690672874,-0.010073521174490452,0.0053377291187644005,-6.219271017471328e-05,0.010338877327740192
0.010782022029161453,0.005557912867516279,-0.010492898523807526,0.005241041071712971,-6.13449010415934e-05,0.009970036335289478
0.010174684226512909,0.0053710490465164185,-0.011358102783560753,0.005608315579593182,-6.051989475963637e-05,0.009863791987299919
0.01056490559130907,0.005121433641761541,-0.01057050283998251,0.005673880688846111,-6.858787673991174e-05,0.009886744432151318
0.010479032061994076,0.0051324148662388325,-0.010470672510564327,0.005780617706477642,-7.052102591842413e-05,0.009832152165472507
0.010239091701805592,0.005631252191960812,-0.011034096591174603,0.005483077373355627,-6.979423778830096e-05,0.010115770623087883
0.010239091701805592,0.005631252191960812,-0.011034096591174603,0.005483077373355627,-6.979423778830096e-05,0.010115770623087883
0.010699312202632427,0.005358440335839987,-0.01026784349232912,0.005613900721073151,-6.891564407851547e-05,0.010032358579337597
0.010688040405511856,0.005043343175202608,-0.010569674894213676,0.0052935597486793995,-6.804800796089694e-05,0.009685322642326355
0.010383615270256996,0.0049967896193265915,-0.011207845993340015,0.0056777093559503555,-6.720125384163111e-05,0.010280953720211983
0.010586186312139034,0.005240842700004578,-0.011085893027484417,0.0062214951030910015,-6.556930748047307e-05,0.00949039589613676
0.009941520169377327,0.005424374248832464,-0.011210895143449306,0.005830233450978994,-6.478263094322756e-05,0.009213530458509922
0.010645854286849499,0.00524979317560792,-0.010779756121337414,0.005528999026864767,-6.40147554804571e-05,0.009423886425793171
0.010576803237199783,0.005221925675868988,-0.011012815870344639,0.0055582765489816666,-6.846304313512519e-05,0.010453028604388237
0.010131566785275936,0.00506228394806385,-0.010317514650523663,0.005931932013481855,-7.260515849338844e-05,0.010290989652276039
0.010798838920891285,0.004992038942873478,-0.010849902406334877,0.006056671030819416,-7.209627074189484e-05,0.010632840916514397
0.01043197512626648,0.005818095523864031,-0.011246775276958942,0.006036544684320688,-7.130138692446053e-05,0.010203054174780846
0.01049455814063549,0.005604839418083429,-0.011190732009708881,0.005540235433727503,-7.05047496012412e-05,0.01040756143629551
0.010571063496172428,0.0052999164909124374,-0.011661582626402378,0.005738706793636084,-6.972460687393323e-05,0.010330596938729286
0.010499677620828152,0.005181809887290001,-0.011625372804701328,0.005937544628977776,-8.981369319371879e-06,0.010492469184100628
0.01113392785191536,0.005543491803109646,-0.011295143514871597,0.006212200038135052,-5.864192189619644e-07,0.010033455677330494
0.011212160810828209,0.005350695922970772,-0.011564269661903381,0.006266987416893244,-3.828898442748141e-08,0.01070397812873125
0.0111125148832798,0.005111297592520714,-0.01043685246258974,0.0055715846829116344,-2.4999968761818536e-09,0.010412083938717842
0.011254305019974709,0.00573048135265708,-0.010941708460450172,0.005887976381927729,-1.6323192797429442e-10,0.010409312322735786
0.011052471585571766,0.005247662775218487,-0.011089598760008812,0.0060213543474674225,-1.065787909315663e-11,0.010328351520001888
0.011426791548728943,0.004797059111297131,-0.010666963644325733,0.006172433961182833,-6.958833466061409e-13,0.010450352914631367
0.011582792736589909,0.004849678836762905,-0.011458217166364193,0.005747596733272076,-4.543620254343628e-14,0.010915064252912998
0.010245752520859241,0.004969588480889797,-0.011189689859747887,0.0058080158196389675,-2.9666594176500126e-15,0.011056805960834026
0.01046169362962246,0.005699955392628908,-0.010899361222982407,0.006299304310232401,-1.9370165166515094e-16,0.010287309996783733
0.011001206003129482,0.005338517017662525,-0.011688015423715115,0.006827162578701973,-1.2647334312765289e-17,0.010314390994608402
0.010749967768788338,0.004879123065620661,-0.010936806909739971,0.006584143731743097,-7.432553684338927e-05,0.010233437642455101
0.011855466291308403,0.005011518951505423,-0.011171562597155571,0.005915858782827854,-0.00010989971633534878,0.01003377977758646
0.01204995159059763,0.005100843962281942,-0.010917836800217628,0.005601935088634491,-0.00010966271656798199,0.01062082964926958
0.011842301115393639,0.005415956024080515,-0.010679110884666443,0.006294723600149155,-0.00010720967111410573,0.010386762209236622
0.011842301115393639,0.005415956024080515,-0.010679110884666443,0.006294723600149155,-0.00010720967111410573,0.010386762209236622
0.011928473599255085,0.005363673437386751,-0.011552669107913971,0.006053323391824961,-0.00010234379442408681,0.010295992717146873
0.011928473599255085,0.005363673437386751,-0.011552669107913971,0.006053323391824961,-0.00010234379442408681,0.010295992717146873
0.01213981956243515,0.005147814285010099,-0.01119477953761816,0.0057019516825675964,-0.00011745240772143006,0.010272898711264133
0.011933286674320698,0.004994284827262163,-0.011081735603511333,0.005532836075872183,-0.0001172975535155274,0.010120856575667858
0.012013121508061886,0.004776619840413332,-0.010527585633099079,0.006109303794801235,-0.00011495692888274789,0.010737334378063679
0.012003780342638493,0.004860030021518469,-0.010884169489145279,0.006347643211483955,-0.00011027241998817772,0.010139956139028072
0.012055299244821072,0.004793243017047644,-0.01081762369722128,0.005922082811594009,-0.00010806573845911771,0.010413219220936298
0.012069007381796837,0.004557003267109394,-0.011334747076034546,0.005430164746940136,-0.0001146326758316718,0.010120445862412453
0.012468117289245129,0.0045618354342877865,-0.010686822235584259,0.005871124565601349,-0.00012063893518643454,0.010448290966451168
0.012442702427506447,0.004813784267753363,-0.010715845040977001,0.006564912386238575,-0.00011889774032169953,0.010762431658804417
0.013041522353887558,0.004839151166379452,-0.0106187853962183,0.006544474512338638,-0.00011672983237076551,0.010293151251971722
0.012430134229362011,0.004730588290840387,-0.01083432137966156,0.006224442273378372,-0.00011460851965239272,0.010869553312659264
0.013212095014750957,0.004979833960533142,-0.011369151994585991,0.006041164509952068,-0.00011256098514422774,0.01081871148198843
0.012598634697496891,0.004935384728014469,-0.01100840698927641,0.006216250825673342,-0.0001253329828614369,0.010835457593202591
0.012465247884392738,0.004639590624719858,-0.010968220420181751,0.006330795586109161,-0.0001241342833964154,0.011500876396894455
0.012797007337212563,0.00474346149712801,-0.01135288830846548,0.006450974848121405,-0.00012209203850943595,0.011287094093859196
0.012288730591535568,0.00480422331020236,-0.010636656545102596,0.005860271863639355,-0.00012006043834844604,0.01136999111622572
0.012783011421561241,0.004951505456119776,-0.011036011390388012,0.005970049649477005,-0.00011824384273495525,0.01061868667602539
0.01287146471440792,0.0049559930339455605,-0.010735890828073025,0.006655134726315737,-0.00018925691256299615,0.010600718669593334
0.012732732109725475,0.005198632832616568,-0.010425277054309845,0.006336815655231476,-0.0001863823999883607,0.011135309003293514
0.012921098619699478,0.00489259697496891,-0.011136877350509167,0.006037209182977676,-0.00017928036686498672,0.011562014929950237
0.012883259914815426,0.0044092643074691296,-0.011186357587575912,0.006332318298518658,-0.0001724304456729442,0.0118082445114851
0.012709097936749458,0.004510391969233751,-0.011047703213989735,0.006234191823750734,-0.0001660674315644428,0.01104301493614912
0.012607057578861713,0.005187692120671272,-0.011529311537742615,0.006591630633920431,-0.00018793628260027617,0.010440340265631676
0.013387033715844154,0.0051357680931687355,-0.010921081528067589,0.007079031318426132,-0.00018530430679675192,0.01080993376672268
0.013065634295344353,0.0052245301194489,-0.011370440945029259,0.006743337959051132,-0.00017939689860213548,0.011556187644600868
0.01323876716196537,0.0049744220450520515,-0.011263495311141014,0.006402947939932346,-0.00017364391533192247,0.011369683779776096
0.013278414495289326,0.0042611886747181416,-0.010896152816712856,0.006455158814787865,-0.00016823485202621669,0.011363095603883266
0.013126464560627937,0.004436044488102198,-0.011767728254199028,0.006777710281312466,-0.0001631511840969324,0.011226484552025795
0.013331674039363861,0.0046555399894714355,-0.011337886564433575,0.006896155886352062,-0.000158366106916219,0.010555364191532135
0.013331674039363861,0.0046555399894714355,-0.011337886564433575,0.006896155886352062,-0.000158366106916219,0.010555364191532135
0.013877497054636478,0.005099442787468433,-0.011654919944703579,0.006877846084535122,-0.00015385360165964812,0.011522660963237286
0.01279363688081503,0.00501216109842062,-0.011111849918961525,0.007589629385620356,-0.0001697092375252396,0.011220674961805344
0.01279363688081503,0.00501216109842062,-0.011111849918961525,0.007589629385620356,-0.0001697092375252396,0.011220674961805344
0.013466035947203636,0.00477815605700016,-0.01147297490388155,0.0071350750513374805,-0.00016535399481654167,0.011438212357461452
0.013471096754074097,0.004718368873000145,-0.012021253816783428,0.0064888931810855865,-0.00015711286687292159,0.011045875959098339
0.01322843972593546,0.0051227109506726265,-0.011643754318356514,0.00669459905475378,-0.00015328964218497276,0.011480952613055706
0.013696519657969475,0.005493324715644121,-0.011346230283379555,0.006868914235383272,-0.00014964868023525923,0.011403768323361874
0.013338754884898663,0.005425076466053724,-0.012032454833388329,0.006810693070292473,-0.00016566243721172214,0.012144817039370537
0.013564744964241982,0.004977124277502298,-0.011556528508663177,0.006699398159980774,-0.0001631787745282054,0.011669917032122612
0.01314600370824337,0.004728684201836586,-0.011954515241086483,0.006415647454559803,-0.00015964357589837164,0.011704150587320328
0.013587179593741894,0.0051275757141411304,-0.01168078277260065,0.006951489020138979,-0.00015618588076904416,0.011749028228223324
0.013912761583924294,0.005147620104253292,-0.010872559621930122,0.007038808893412352,-0.00015287009591702372,0.012244947254657745
0.01394030824303627,0.005412475671619177,-0.011309869587421417,0.007136640138924122,-0.00014996177924331278,0.011679115705192089
0.013639945536851883,0.005509895738214254,-0.01138307061046362,0.007398033048957586,-0.00016575022891629487,0.011457243002951145
0.013696582987904549,0.005205728113651276,-0.011740882880985737,0.007150411605834961,-0.00016120474901981652,0.011787820607423782
0.014109219424426556,0.005330807063728571,-0.01186978816986084,0.007099156267940998,-0.00015571739641018212,0.011756774969398975
0.013953772373497486,0.005022662691771984,-0.011191051453351974,0.007477634586393833,-0.0001505140826338902,0.011915354058146477
0.013900971971452236,0.00513013731688261,-0.011846362613141537,0.007632946129888296,-0.00014564245066139847,0.01189381629228592
0.013652323745191097,0.005375893320888281,-0.011490975506603718,0.007643991149961948,-0.00016738951671868563,0.01170615665614605
0.014189205132424831,0.00506822532042861,-0.011273093521595001,0.007568429224193096,-0.00016402073379140347,0.012419966980814934
0.014041448943316936,0.005176857113838196,-0.012086956761777401,0.0070101418532431126,-0.00015929382061585784,0.011854575015604496
0.014538194052875042,0.005365594290196896,-0.011565898545086384,0.0068188803270459175,-0.00017383990052621812,0.012012137100100517
0.01388266496360302,0.0049340855330228806,-0.012212765403091908,0.007106522563844919,-0.00017506061703898013,0.011982237920165062
0.013991774059832096,0.005028841085731983,-0.011739072389900684,0.006997435353696346,-0.00017071209731511772,0.011844196356832981
0.013904817402362823,0.0054012443870306015,-0.012404044158756733,0.007072435691952705,-0.00016623319243080914,0.012232246808707714
0.014218026772141457,0.005174948368221521,-0.01231350190937519,0.006971124559640884,-0.00016196115757338703,0.01278737187385559
0.014218026772141457,0.005174948368221521,-0.01231350190937519,0.006971124559640884,-0.00016196115757338703,0.01278737187385559
0.014216175302863121,0.005230109207332134,-0.011953468434512615,0.007018117234110832,-0.0001540405210107565,0.012558415532112122
0.013964703306555748,0.005480785388499498,-0.011351881548762321,0.006801844108849764,-0.00016901915660127997,0.012436333112418652
0.013964703306555748,0.005480785388499498,-0.011351881548762321,0.006801844108849764,-0.00016901915660127997,0.012436333112418652
0.014276998117566109,0.005221406929194927,-0.012026512064039707,0.006794859655201435,-0.00016765391046646982,0.01247000228613615
0.013863089494407177,0.004979121033102274,-0.012127488851547241,0.007226327899843454,-0.0001640029950067401,0.012295017950236797
0.014486189931631088,0.005148223601281643,-0.011787336319684982,0.007386758923530579,-0.00016036105807870626,0.013354542665183544
0.014220025390386581,0.0055084675550460815,-0.011545422486960888,0.007036441471427679,-0.00015352305490523577,0.012285827659070492
0.013908996246755123,0.0052233049646019936,-0.01200550515204668,0.007396254222840071,-0.00015031779184937477,0.012419302016496658
0.014485671184957027,0.005812307819724083,-0.011517084203660488,0.007206970360130072,-0.0001831986737670377,0.012441035360097885
0.01414885837584734,0.005372623912990093,-0.011898604221642017,0.00720885070040822,-0.0001873189612524584,0.013102157041430473
0.014756504446268082,0.005381372757256031,-0.012768330983817577,0.007307028863579035,-0.00018057024863082916,0.013219330459833145
0.014115359634160995,0.00564946373924613,-0.012005796656012535,0.007483193650841713,-0.00017365053645335138,0.012977185659110546
0.014814640395343304,0.00523767713457346,-0.012885205447673798,0.007917197421193123,-0.00016720090934541076,0.01308698020875454
0.014400811865925789,0.005034263711422682,-0.012507669627666473,0.00767919234931469,-0.00017700526223052293,0.013479860499501228
0.014697082340717316,0.004884311463683844,-0.012707044370472431,0.007367911748588085,-0.00018568716768641025,0.013536272570490837
0.014231780543923378,0.004767265170812607,-0.012352068908512592,0.0080330865457654,-0.00018044680473394692,0.013640627264976501
0.014901049435138702,0.004818051587790251,-0.01210229191929102,0.007809919770807028,-0.00017467245925217867,0.013261407613754272
0.014436640776693821,0.005122065544128418,-0.012700792402029037,0.00733517948538065,-0.0001955024927156046,0.012680228799581528
0.014803874306380749,0.004854721948504448,-0.012113779783248901,0.00723446486517787,-0.00019128137500956655,0.012556834146380424
0.014344075694680214,0.005027373321354389,-0.01287294365465641,0.008015957660973072,-0.00019877591694239527,0.012749440968036652
0.01493188925087452,0.005385112017393112,-0.012404341250658035,0.007999242283403873,-0.00020533442148007452,0.013388104736804962
0.014672019518911839,0.004875609651207924,-0.012795764952898026,0.0075935013592243195,-0.00020041798416059464,0.013499259017407894
0.014901222661137581,0.004857330117374659,-0.012308045290410519,0.007538232486695051,-0.00019518927729222924,0.013655283488333225
0.014841746538877487,0.004806069657206535,-0.01248014997690916,0.007794525474309921,-0.0002832376630976796,0.013553192839026451
0.015288685448467731,0.0048169102519750595,-0.012482374906539917,0.008325104601681232,-0.0002726390666794032,0.01327421423047781
0.015280392952263355,0.005129744298756123,-0.012137708254158497,0.007692909333854914,-0.00030539726139977574,0.01293010264635086
0.015363093465566635,0.0048405178822577,-0.013157089240849018,0.0074414825066924095,-0.0003341818228363991,0.013430250808596611
0.01508665457367897,0.004635699093341827,-0.012755535542964935,0.007864799350500107,-0.00032302006729878485,0.013233307749032974
0.015127277933061123,0.00456773629412055,-0.012703406624495983,0.008061538450419903,-0.00034007165231741965,0.013662654906511307
0.014661873690783978,0.005076043773442507,-0.012622658163309097,0.00807967595756054,-0.0003344835713505745,0.013827062211930752
0.014743843115866184,0.00491728400811553,-0.012841418385505676,0.007782276254147291,-0.0003202696971129626,0.013946096412837505
0.014988900162279606,0.004773361142724752,-0.013196821324527264,0.007680544629693031,-0.00048103914014063776,0.013525250367820263
0.014988900162279606,0.004773361142724752,-0.013196821324527264,0.007680544629693031,-0.00048103914014063776,0.013525250367820263
0.01518903486430645,0.004894232377409935,-0.012794388458132744,0.007487854920327663,-0.0005020502139814198,0.013431673869490623
0.014945745468139648,0.004755683243274689,-0.013262378051877022,0.007668936159461737,-0.0004973423201590776,0.01319201197475195
0.015158620662987232,0.004865806084126234,-0.012727605178952217,0.007559888996183872,-0.0005236769211478531,0.012912400998175144
0.014757203869521618,0.004485119134187698,-0.012403134256601334,0.007655139081180096,-0.0005174703546799719,0.01382191851735115
0.015047040767967701,0.005065578036010265,-0.012753123417496681,0.008572785183787346,-0.0006357721867971122,0.014295422472059727
0.015047040767967701,0.005065578036010265,-0.012753123417496681,0.008572785183787346,-0.0006357721867971122,0.014295422472059727
0.01577257551252842,0.004784873221069574,-0.013190300203859806,0.008679469116032124,-0.0006156684830784798,0.014264697209000587
0.015163308009505272,0.004699044395238161,-0.012846500612795353,0.007962580770254135,-0.000635366013739258,0.01415205467492342
0.015274077653884888,0.004684504121541977,-0.012596960179507732,0.008441894315183163,-0.0006486077327281237,0.01456921175122261
0.01532051619142294,0.004434931557625532,-0.012717383913695812,0.009167729876935482,-0.0006183322402648628,0.013513201847672462
0.015956340357661247,0.004562919028103352,-0.012449250556528568,0.008262564428150654,-0.0007033253205008805,0.013613582588732243
0.015336328186094761,0.0047464435920119286,-0.013206252828240395,0.007715152110904455,-0.0007330402149818838,0.01366423163563013
0.015494804829359055,0.0050584678538143635,-0.01270511094480753,0.008000259287655354,-0.0007046741666272283,0.013986193574965
0.015769295394420624,0.004804113879799843,-0.013337232172489166,0.008500209078192711,-0.0006759841926395893,0.014130154624581337
0.015636591240763664,0.004391370806843042,-0.012815674766898155,0.00843931082636118,-0.0006554118008352816,0.014695951715111732
0.01582629233598709,0.004356559365987778,-0.01318440493196249,0.007860880345106125,-0.0006358140963129699,0.014619056135416031
0.015011971816420555,0.00470651313662529,-0.01258700992912054,0.008074638433754444,-0.0006267072749324143,0.014698376879096031
0.016414450481534004,0.004827949684113264,-0.012677280232310295,0.008239369839429855,-0.0006198998307809234,0.014507683925330639
0.016202133148908615,0.004983394406735897,-0.012951537035405636,0.00778563879430294,-0.000648624962195754,0.014653167687356472
0.016540899872779846,0.004453221336007118,-0.01310040708631277,0.008177517913281918,-0.000673829868901521,0.014454454183578491
0.016271892935037613,0.004397751297801733,-0.01349183451384306,0.008423348888754845,-0.0006613176665268838,0.014382768422365189
0.0164194218814373,0.004503362812101841,-0.01274180319160223,0.008391485549509525,-0.000954433751758188,0.014572884887456894
0.01670212484896183,0.004656303208321333,-0.013199400156736374,0.008289746940135956,-0.0009814777877181768,0.014693018980324268
0.01670212484896183,0.004656303208321333,-0.013199400156736374,0.008289746940135956,-0.0009814777877181768,0.014693018980324268
0.016325466334819794,0.004758488852530718,-0.012716826982796192,0.008923905901610851,-0.0009810590418055654,0.014214757829904556
0.016767315566539764,0.004759801086038351,-0.01326895784586668,0.008672758936882019,-0.0009861914440989494,0.014010840095579624
0.016523046419024467,0.005272699519991875,-0.01306968554854393,0.00836682878434658,-0.0009015224641188979,0.013979439623653889
0.01728818006813526,0.004580550827085972,-0.013195916078984737,0.007694374769926071,-0.0007568111759610474,0.01451052725315094
0.017107456922531128,0.004537062253803015,-0.01303044892847538,0.008693630807101727,-0.000741811643820256,0.014803487807512283
0.017081784084439278,0.005131845828145742,-0.01306125894188881,0.008382857777178288,-0.0006031951634213328,0.01503413263708353
0.01685064099729061,0.005041758995503187,-0.012518640607595444,0.009269531816244125,-0.0006264741532504559,0.014900809153914452
0.017484720796346664,0.0049287364818155766,-0.013042391277849674,0.008926176466047764,-0.0005747430841438472,0.014429066330194473
0.016937730833888054,0.005015204660594463,-0.012717898935079575,0.008315440267324448,-0.0005269782268442214,0.014250495471060276
0.01731536164879799,0.004795675165951252,-0.013485115021467209,0.007642335258424282,-0.00048628830700181425,0.014542604796588421
0.01739891804754734,0.004450920037925243,-0.0129236513748765,0.008695024996995926,-0.0005071015912108123,0.014736602082848549
0.016905995085835457,0.004475874360650778,-0.013255313038825989,0.009043167345225811,-0.00048081466229632497,0.015205124393105507
0.017367660999298096,0.004646651446819305,-0.01278297882527113,0.008135613985359669,-0.00045116784167476,0.015257691033184528
0.01706027239561081,0.005068867467343807,-0.012908895500004292,0.008625861257314682,-0.0004245829186402261,0.015442300587892532
0.01726873405277729,0.00483404565602541,-0.012712080031633377,0.009223672561347485,-0.00040093137067742646,0.01528667937964201
0.01761929877102375,0.004858281929045916,-0.012650643475353718,0.008623885922133923,-0.0003070379898417741,0.015058651566505432
0.017305513843894005,0.004797692410647869,-0.013250898569822311,0.008462494239211082,-0.0002786022378131747,0.014590272679924965
0.01780681312084198,0.004848364740610123,-0.012510360218584538,0.009494434110820293,-0.00026177021209150553,0.014618541114032269
0.017398089170455933,0.005266697611659765,-0.013252261094748974,0.008918496780097485,-0.0002473369531799108,0.015325872227549553
0.017828453332185745,0.005461184773594141,-0.012457159347832203,0.008475529961287975,-0.00023444306862074882,0.0149135896936059
0.0181692186743021,0.005072463769465685,-0.013111109845340252,0.009238563477993011,-0.0002228302910225466,0.014991671778261662
0.017638543620705605,0.0047823404893279076,-0.012994934804737568,0.009014391340315342,-0.00021231337450444698,0.015230267308652401
0.017638543620705605,0.0047823404893279076,-0.012994934804737568,0.009014391340315342,-0.00021231337450444698,0.015230267308652401
0.01813613250851631,0.0047986782155931,-0.013642014004290104,0.009039082564413548,-0.0001940027577802539,0.015680566430091858
0.017974944785237312,0.004858828615397215,-0.012768382206559181,0.009469504468142986,-0.0001859829353634268,0.015860779210925102
0.018332403153181076,0.005214695818722248,-0.01341999601572752,0.009565065614879131,-0.00017859991930890828,0.016661174595355988
0.018332403153181076,0.005214695818722248,-0.01341999601572752,0.009565065614879131,-0.00017859991930890828,0.016661174595355988
0.01801472343504429,0.004860405810177326,-0.012749487534165382,0.009653515182435513,-0.00017178109555970877,0.016395805403590202
0.017670825123786926,0.004595352336764336,-0.013607244938611984,0.008528602309525013,-0.00016546386177651584,0.01560243871062994
0.018087202683091164,0.00455006118863821,-0.013323130086064339,0.009613964706659317,-0.00015959472511895,0.015927383676171303
0.017946671694517136,0.004597174469381571,-0.013942801393568516,0.01009643916040659,-0.00015412745415233076,0.016277147457003593
0.018099108710885048,0.004683020059019327,-0.013324116356670856,0.010405958630144596,-0.00014902310795150697,0.01608804613351822
0.01836225762963295,0.005031578242778778,-0.0124938003718853,0.010042821057140827,-0.0001397650339640677,0.015949439257383347
0.018813515082001686,0.004795136861503124,-0.014047279953956604,0.009936665184795856,-0.00013555452460423112,0.01603730395436287
0.01869276538491249,0.004584350623190403,-0.01395799033343792,0.00944268424063921,-0.0001315902773058042,0.016679221764206886
0.018024198710918427,0.004686631727963686,-0.013847853057086468,0.00929601676762104,-0.0001517031341791153,0.016312669962644577
0.018069302663207054,0.0047274623066186905,-0.013724503107368946,0.009408297017216682,-0.0001490704744355753,0.016179058700799942
0.018141204491257668,0.00482579180970788,-0.014586002565920353,0.009245986118912697,-0.00014516449300572276,0.016316872090101242
0.01867131143808365,0.005064618308097124,-0.014272750355303288,0.010021334514021873,-0.00014137060497887433,0.015925025567412376
0.018820645287632942,0.004896979313343763,-0.014336739666759968,0.00986545067280531,-0.00013776405830867589,0.016025811433792114
0.018614226952195168,0.004675077740103006,-0.01411648653447628,0.009138251654803753,-0.00013433692220132798,0.01614494062960148
0.01838631182909012,0.004602620378136635,-0.01406426727771759,0.00910668820142746,-0.00013107599806971848,0.016934309154748917
0.018894696608185768,0.005080973729491234,-0.014287826605141163,0.00949165504425764,-0.00012796952796634287,0.016788028180599213
0.0189907755702734,0.0051405238918960094,-0.014138112775981426,0.00906593818217516,-0.00012500710727181286,0.016648519784212112
0.019132692366838455,0.005267314612865448,-0.013960978016257286,0.009080695919692516,-0.00012217853509355336,0.016754312440752983
0.019037164747714996,0.004915063269436359,-0.014423517510294914,0.00962402205914259,-0.00011947523307753727,0.016659431159496307
0.01851775497198105,0.004642612766474485,-0.0144425630569458,0.00962967611849308,-0.00012646842515096068,0.016834838315844536
0.019047295674681664,0.004649286158382893,-0.014283533208072186,0.009797819890081882,-0.0001328343787463382,0.01652224175632
0.018894586712121964,0.005003097001463175,-0.013752796687185764,0.009916861541569233,-0.00013066927203908563,0.016652051359415054
0.018473388627171516,0.005033109337091446,-0.014501906931400299,0.009582092054188251,-0.00012805190635845065,0.017319081351161003
0.019233576953411102,0.004891892895102501,-0.014077141880989075,0.009461023844778538,-0.0001255034003406763,0.01623782515525818
0.020042525604367256,0.004663946572691202,-0.013664470054209232,0.009705294854938984,-0.00012305211566854268,0.01587104983627796
0.020042525604367256,0.004663946572691202,-0.013664470054209232,0.009705294854938984,-0.00012305211566854268,0.01587104983627796
0.019031571224331856,0.004555623047053814,-0.014562911354005337,0.009856615215539932,-0.0001206947781611234,0.01597817987203598
0.019429843872785568,0.004814379848539829,-0.014036545529961586,0.009603150188922882,-0.00011842590902233496,0.01673809066414833
0.019711334258317947,0.004843243397772312,-0.014087719842791557,0.010291165672242641,-0.00011624078615568578,0.016689421609044075
0.01917354017496109,0.005225290544331074,-0.013942763209342957,0.009874227456748486,-0.0001141348184319213,0.01692945696413517
0.019789868965744972,0.005138144828379154,-0.014394786208868027,0.010104448534548283,-0.00011210385127924383,0.016879376024007797
0.019745631143450737,0.004399245139211416,-0.013569045811891556,0.010127067565917969,-0.00011014410847565159,0.016820304095745087
0.01974003203213215,0.004646281711757183,-0.013754550367593765,0.009946429170668125,-0.0001213658251799643,0.016504434868693352
0.01982032135128975,0.005057536531239748,-0.014126054011285305,0.01066617202013731,-0.00011958849790971726,0.016685662791132927
0.019608689472079277,0.004807049874216318,-0.01429746299982071,0.010982125997543335,-0.00011765002273023129,0.016752898693084717
0.019899317994713783,0.004944445099681616,-0.015318081714212894,0.011425431817770004,-0.00011575943062780425,0.016507519409060478
0.02009875699877739,0.004824130330234766,-0.013391414657235146,0.010693113319575787,-0.00011392793385311961,0.016892457380890846
0.020084282383322716,0.004913915880024433,-0.014033767394721508,0.009733017534017563,-0.00011215327685931697,0.017039615660905838
0.019993295893073082,0.004688255954533815,-0.013864569365978241,0.010365392081439495,-9.455410327063873e-05,0.017247268930077553
0.02047041803598404,0.004855646751821041,-0.01431981660425663,0.010394043289124966,-8.773006993578747e-05,0.01680043153464794
0.02045883983373642,0.004798974841833115,-0.013549796305596828,0.009727602824568748,-8.573327795602381e-05,0.017369423061609268
0.01998821645975113,0.005124538671225309,-0.0145431412383914,0.010227781720459461,-8.410950977122411e-05,0.01747925952076912
0.020730292424559593,0.005012215580791235,-0.01399993896484375,0.010264064185321331,-8.256493310909718e-05,0.01734122261404991
0.020482201129198074,0.0047445534728467464,-0.014584890566766262,0.010078824125230312,-9.311149187851697e-05,0.017232615500688553
0.020173538476228714,0.004645168781280518,-0.013767942786216736,0.010303575545549393,-9.529774251859635e-05,0.016913633793592453
0.02032185159623623,0.004471688065677881,-0.014424098655581474,0.010776892304420471,-9.389092883793637e-05,0.017322644591331482
0.02068241499364376,0.004823328927159309,-0.01405317522585392,0.01004620548337698,-0.00010567328718025237,0.017516035586595535
0.020314404740929604,0.0048584709875285625,-0.014546682126820087,0.009978191927075386,-0.00010574611224001274,0.017207402735948563
0.02025444619357586,0.004975128918886185,-0.01426706463098526,0.010148086585104465,-0.00011516163067426533,0.01754138059914112
0.02072676084935665,0.004771328065544367,-0.014561908319592476,0.010093098506331444,-0.0001168172966572456,0.017592759802937508
0.02077631652355194,0.004707068670541048,-0.014122812077403069,0.01071779802441597,-0.0002986401377711445,0.017510991543531418
0.02054429240524769,0.004679507110267878,-0.014653274789452553,0.010756858624517918,-0.0003843375016003847,0.017948076128959656
0.020548803731799126,0.004793817643076181,-0.013952468521893024,0.010750072076916695,-0.00037679829983972013,0.017648112028837204
0.020930107682943344,0.0046101780608296394,-0.014656838960945606,0.010976019315421581,-0.00040819068090058863,0.01800493709743023
0.021205034106969833,0.005089190322905779,-0.01425143051892519,0.010311149060726166,-0.0004274922830518335,0.01877460442483425
0.021312298253178596,0.004836624022573233,-0.014952280558645725,0.010842924937605858,-0.0004157598887104541,0.017264168709516525
0.021307973191142082,0.004669839981943369,-0.014207116328179836,0.01126957405358553,-0.0006607952527701855,0.017025839537382126
0.021307973191142082,0.004669839981943369,-0.014207116328179836,0.01126957405358553,-0.0006607952527701855,0.017025839537382126
0.020782962441444397,0.004889678210020065,-0.013897242024540901,0.010547605343163013,-0.0006441128789447248,0.017781937494874
0.01903698407113552,0.004869066644459963,-0.014527054503560066,0.010210135951638222,-0.0006249294965527952,0.01789774000644684
0.021505242213606834,0.004824606701731682,-0.014006544835865498,0.010541285388171673,-0.0006065776688046753,0.017936157062649727
0.02210438810288906,0.004626444540917873,-0.014775291085243225,0.010292631573975086,-0.0005941241979598999,0.01826034113764763
0.021517707034945488,0.0045989458449184895,-0.01384541392326355,0.010045083239674568,-0.0005811339360661805,0.01816081814467907
0.02080976404249668,0.004637440200895071,-0.014645161107182503,0.010038366541266441,-0.0005398275097832084,0.018334491178393364
0.021742111071944237,0.004391780123114586,-0.013758711516857147,0.010568814352154732,-0.0005091963103041053,0.017870981246232986
0.021644873544573784,0.00449273781850934,-0.014661484397947788,0.010531241074204445,-0.000466159894131124,0.017605191096663475
0.021841417998075485,0.0042222789488732815,-0.014667341485619545,0.010068419389426708,-0.0005014307098463178,0.01821417361497879
0.021981602534651756,0.00431106286123395,-0.015524004586040974,0.010641290806233883,-0.00046352134086191654,0.01837492734193802
0.021939286962151527,0.0042153880931437016,-0.01515807956457138,0.010516289621591568,-0.00047941197408363223,0.019030625000596046
0.021325597539544106,0.004300642758607864,-0.014850816689431667,0.010520139709115028,-0.0004605793219525367,0.019181206822395325
0.021487662568688393,0.0040008751675486565,-0.014796010218560696,0.01073578279465437,-0.0004301780427340418,0.018872657790780067
0.022052649408578873,0.004383680876344442,-0.015787247568368912,0.010090514086186886,-0.00040273170452564955,0.018961871042847633
0.022615477442741394,0.004677271470427513,-0.015053966082632542,0.010558542795479298,-0.0004183544951956719,0.019418807700276375
0.022341081872582436,0.004325412679463625,-0.015249972231686115,0.01065762247890234,-0.0004071416915394366,0.01953490450978279
0.022149471566081047,0.0043945019133389,-0.015477948822081089,0.009884250350296497,-0.0003873526002280414,0.019297901540994644
0.021970467641949654,0.004631839692592621,-0.01562846265733242,0.010700319893658161,-0.000401739205699414,0.01884865202009678
0.022002894431352615,0.004182571079581976,-0.015912925824522972,0.01105321291834116,-0.0004358939768280834,0.01854516565799713
0.022683128714561462,0.004430984612554312,-0.01584865339100361,0.010227706283330917,-0.0004115935298614204,0.01863071508705616
0.02240614779293537,0.00449574738740921,-0.016194134950637817,0.010266400873661041,-0.00038296921411529183,0.018493978306651115
0.02216770127415657,0.004349205642938614,-0.015182459726929665,0.010440998710691929,-0.00040147939580492675,0.018703430891036987
0.022318126633763313,0.004307080991566181,-0.016042444854974747,0.010741750709712505,-0.000390278291888535,0.019082169979810715
0.022807810455560684,0.004727728199213743,-0.015898525714874268,0.011163010261952877,-0.00036834593629464507,0.019025035202503204
0.02271951548755169,0.004322702530771494,-0.016839202493429184,0.01039407029747963,-0.000348045548889786,0.01847234182059765
0.022900855168700218,0.004232665523886681,-0.016354769468307495,0.011457541957497597,-0.0003551040426827967,0.0187580157071352
0.022900855168700218,0.004232665523886681,-0.016354769468307495,0.011457541957497597,-0.0003551040426827967,0.0187580157071352
0.022820306941866875,0.004005360882729292,-0.016647562384605408,0.01065464410930872,-0.0003423892776481807,0.018888507038354874
0.023016612976789474,0.0038633865769952536,-0.015800103545188904,0.01151295006275177,-0.00037489470560103655,0.019800517708063126
0.02265361323952675,0.004304963629692793,-0.016575969755649567,0.011183238588273525,-0.000410153268603608,0.018918167799711227
0.02317899279296398,0.0042424327693879604,-0.016171762719750404,0.011463673785328865,-0.00038907749694772065,0.01894930750131607
0.023106997832655907,0.004200853407382965,-0.016851169988512993,0.011586776003241539,-0.00039285735692828894,0.01942146010696888
0.02302500605583191,0.003967625088989735,-0.016731902956962585,0.011361020617187023,-0.00039525949978269637,0.019680917263031006
0.023382486775517464,0.003697793697938323,-0.01653873734176159,0.012258927337825298,-0.00037358325789682567,0.019493168219923973
0.023811057209968567,0.0034869795199483633,-0.016916971653699875,0.011892243288457394,-0.00038991912151686847,0.019884632900357246
0.023264896124601364,0.0035974723286926746,-0.01610315591096878,0.011966949328780174,-0.00038092501927167177,0.02016465924680233
0.02319350093603134,0.003983121830970049,-0.01658807136118412,0.01237150002270937,-0.0003625016543082893,0.019756952300667763
0.023458164185285568,0.004032146651297808,-0.016521696001291275,0.011733319610357285,-0.0004227033059578389,0.019580913707613945
0.023814810439944267,0.004394685383886099,-0.016964897513389587,0.011964935809373856,-0.0004105490224901587,0.019760262221097946
0.023639671504497528,0.004181067459285259,-0.016977904364466667,0.011609405279159546,-0.0004143354599364102,0.019684698432683945
0.02373870275914669,0.004039056599140167,-0.016477007418870926,0.012201440520584583,-0.0004157845105510205,0.019609550014138222
0.02401161380112171,0.003918397706001997,-0.017297619953751564,0.012435046955943108,-0.0004439421172719449,0.0196156557649374
0.024103453382849693,0.004400314763188362,-0.016648268327116966,0.01278507150709629,-0.00042195862624794245,0.019735664129257202
0.023842396214604378,0.004147754050791264,-0.017311302945017815,0.012399982661008835,-0.000395935436245054,0.019848207011818886
0.022637825459241867,0.004411347210407257,-0.016863465309143066,0.011887232773005962,-0.00037254291237331927,0.01999722607433796
0.024574827402830124,0.004172220826148987,-0.01676183193922043,0.012288973666727543,-0.000398509728256613,0.02001936547458172
0.024842295795679092,0.004262217320501804,-0.017256397753953934,0.011943935416638851,-0.00038101893733255565,0.020393196493387222
0.02486691065132618,0.0040660700760781765,-0.01685952953994274,0.01243902463465929,-0.00042782604577951133,0.020628824830055237
0.024527480825781822,0.00430168816819787,-0.01733540929853916,0.011988190934062004,-0.00039564131293445826,0.0203394778072834
0.024565022438764572,0.004500152077525854,-0.017176833003759384,0.011898571625351906,-0.00036396970972418785,0.019716808572411537
0.02323504164814949,0.004347293172031641,-0.017391521483659744,0.012445586733520031,-0.0003948632220271975,0.01953825168311596
0.02413305640220642,0.004053682088851929,-0.017490146681666374,0.01186766754835844,-0.0003753294295165688,0.019970087334513664
0.024989457800984383,0.004396339878439903,-0.01722569204866886,0.012386612594127655,-0.000351409544236958,0.020340248942375183
0.024989457800984383,0.004396339878439903,-0.01722569204866886,0.012386612594127655,-0.000351409544236958,0.020340248942375183
0.024636972695589066,0.004283823072910309,-0.01740928180515766,0.01228513102978468,-0.0003567177045624703,0.020943278446793556
0.024720553308725357,0.004442250356078148,-0.01728927344083786,0.012117711827158928,-0.000342898623785004,0.020316123962402344
0.025156304240226746,0.004079233855009079,-0.017068464308977127,0.01161911804229021,-0.00032529234886169434,0.020373839884996414
0.024682434275746346,0.003895130008459091,-0.0166629608720541,0.012011280283331871,-0.00030932240770198405,0.020956242457032204
0.02496396191418171,0.004364988766610622,-0.017276069149374962,0.011954491958022118,-0.0002948420005850494,0.02126971259713173
0.024841954931616783,0.004493954591453075,-0.016754787415266037,0.012318921275436878,-0.00028165680123493075,0.02086985483765602
0.02457352727651596,0.004356547258794308,-0.01692577637732029,0.012386481277644634,-0.0002696009469218552,0.02015092968940735
0.0248252023011446,0.004047745373100042,-0.017194503918290138,0.012330199591815472,-0.0002585352922324091,0.020628126338124275
0.025286700576543808,0.0038682855665683746,-0.016668636351823807,0.012542995624244213,-0.00028140732320025563,0.02015482634305954
0.025292200967669487,0.0040513803251087666,-0.01744009554386139,0.012307188473641872,-0.0002728965482674539,0.02010360173881054
0.02519380860030651,0.004096961114555597,-0.016865186393260956,0.013046144507825375,-0.00026306521613150835,0.020983800292015076
0.02522800862789154,0.004384911619126797,-0.016929972916841507,0.013203708454966545,-0.00024640807532705367,0.021752342581748962
0.025572169572114944,0.00417834147810936,-0.016902614384889603,0.013242355547845364,-0.0002278460597153753,0.02147982083261013
0.025610655546188354,0.00454682856798172,-0.016873091459274292,0.012665814720094204,-0.00021648299298249185,0.02101709507405758
0.025639235973358154,0.004576550330966711,-0.017384374514222145,0.012882458046078682,-0.0002065190637949854,0.021233344450592995
0.025790072977542877,0.004369828850030899,-0.016612429171800613,0.013155764900147915,-0.00023166857135947794,0.021529486402869225
0.02500607632100582,0.004086094442754984,-0.017078259959816933,0.012836245819926262,-0.00022663769777864218,0.02172435075044632
0.02489750273525715,0.00420269975438714,-0.016893519088625908,0.013049651868641376,-0.000244637718424201,0.021353229880332947
0.025278106331825256,0.00451089721173048,-0.01700146682560444,0.012886415235698223,-0.00024365316494368017,0.02124699577689171
0.025200970470905304,0.0042379251681268215,-0.0172725860029459,0.013232274912297726,-0.00023511350445915014,0.02139633521437645
0.025680402293801308,0.004567029420286417,-0.0167922992259264,0.012581382878124714,-0.0002547727490309626,0.021680336445569992
0.025689389556646347,0.004135303199291229,-0.01742279715836048,0.013145137578248978,-0.0002497948007658124,0.021285122260451317
0.02345428429543972,0.004392193630337715,-0.017025521025061607,0.01263255625963211,-0.00036091741640120745,0.02166551724076271
0.026721704751253128,0.004302359186112881,-0.01697106659412384,0.012977764941751957,-0.00042475294321775436,0.02176523767411709
0.026127418503165245,0.004202870652079582,-0.017021365463733673,0.01291168574243784,-0.0004118469951208681,0.02182651497423649
0.025614863261580467,0.00442593265324831,-0.017339609563350677,0.012991171330213547,-0.0004390885296743363,0.022087721154093742
0.025613635778427124,0.004689517430961132,-0.017552757635712624,0.013145588338375092,-0.00044662010623142123,0.022178541868925095
0.02544116973876953,0.004943221341818571,-0.017187461256980896,0.012398638762533665,-0.00044610307668335736,0.02167765609920025
0.025404255837202072,0.00434734346345067,-0.017264673486351967,0.013354238122701645,-0.0006550771649926901,0.02190159074962139
0.025404255837202072,0.00434734346345067,-0.017264673486351967,0.013354238122701645,-0.0006550771649926901,0.02190159074962139
0.026447631418704987,0.003887797938659787,-0.018036821857094765,0.012937158346176147,-0.0007151389727368951,0.021998267620801926
0.027076220139861107,0.0040750326588749886,-0.01734713464975357,0.013582520186901093,-0.0007177378865890205,0.022054459899663925
0.025990474969148636,0.0047994921915233135,-0.017582284286618233,0.013527771458029747,-0.0006669599679298699,0.022485148161649704
0.025863496586680412,0.0047911386936903,-0.017629705369472504,0.013224124908447266,-0.0006282716640271246,0.02225051075220108
0.026395656168460846,0.004342035856097937,-0.01770774833858013,0.013289209455251694,-0.0006575672887265682,0.02227403223514557
0.02682443894445896,0.004358818754553795,-0.017279984429478645,0.013163875788450241,-0.0007017800235189497,0.02215423621237278
0.026303274556994438,0.004585213493555784,-0.01827382668852806,0.01292265485972166,-0.0007121905800886452,0.02210173010826111
0.026884205639362335,0.004560432396829128,-0.01820758357644081,0.013131595216691494,-0.0006619376363232732,0.022388894110918045
0.02759687788784504,0.004823901224881411,-0.017435161396861076,0.013091188855469227,-0.0006417421973310411,0.022427402436733246
0.027437057346105576,0.004383626393973827,-0.018117031082510948,0.013444582000374794,-0.0006236085901036859,0.02308710664510727
0.026830868795514107,0.004407905507832766,-0.018180452287197113,0.013484242372214794,-0.0006575686275027692,0.023367928341031075
0.02660553529858589,0.004593195393681526,-0.018832162022590637,0.01388285867869854,-0.0007035649614408612,0.02299821563065052
0.02694004587829113,0.004648636095225811,-0.018568329513072968,0.013061323203146458,-0.0007277053082361817,0.023104995489120483
0.02792680822312832,0.004206963814795017,-0.017601553350687027,0.01384482067078352,-0.0007459803600795567,0.022875841706991196
0.028119415044784546,0.004422205034643412,-0.018573042005300522,0.013394343666732311,-0.0006941294996067882,0.02320820279419422
0.02781551703810692,0.0044016786850988865,-0.018394917249679565,0.013510528951883316,-0.0008978752885013819,0.02327880822122097
0.027924252673983574,0.004356342367827892,-0.017693351954221725,0.013001343235373497,-0.0008425243431702256,0.023558130487799644
0.02791461907327175,0.004933061543852091,-0.01824907772243023,0.013900229707360268,-0.000846492184791714,0.02276422455906868
0.028162380680441856,0.004492256790399551,-0.018626106902956963,0.013940580189228058,-0.0008452588808722794,0.02289436385035515
0.02817915380001068,0.004533450119197369,-0.01847176067531109,0.014685441739857197,-0.0007679744157940149,0.023710694164037704
0.028225889429450035,0.004255799576640129,-0.01852138340473175,0.014690366573631763,-0.000741342140827328,0.024008281528949738
0.028724784031510353,0.004435592330992222,-0.017908258363604546,0.014829009771347046,-0.0007565480191260576,0.022946787998080254
0.02858182042837143,0.0047430372796952724,-0.01833924651145935,0.014056408777832985,-0.0007593779009766877,0.02215702272951603
0.02882733754813671,0.0051590935327112675,-0.018902434036135674,0.014380414970219135,-0.0007008895627222955,0.022886984050273895
0.028732186183333397,0.004622511565685272,-0.018241871148347855,0.013990364037454128,-0.0007159412489272654,0.024289624765515327
0.02896597422659397,0.004383099731057882,-0.018628835678100586,0.014770975336432457,-0.0007774308905936778,0.023852163925766945
0.02896597422659397,0.004383099731057882,-0.018628835678100586,0.014770975336432457,-0.0007774308905936778,0.023852163925766945
0.02904617227613926,0.004156564362347126,-0.018527938053011894,0.014487769454717636,-0.0007989321020431817,0.023438267409801483
0.02936614863574505,0.004323069471865892,-0.01799708604812622,0.01454964466392994,-0.0007970153237693012,0.02409408427774906
0.029306933283805847,0.004972671624273062,-0.018812136724591255,0.014407353475689888,-0.0007316858391277492,0.02528592199087143
0.029310578480362892,0.0047975024208426476,-0.018974311649799347,0.014874333515763283,-0.0007021882338449359,0.024509377777576447
0.029673317447304726,0.004404183477163315,-0.01869715377688408,0.014326078817248344,-0.0006264191470108926,0.023133711889386177
0.030108937993645668,0.004479319788515568,-0.018860848620533943,0.014020610600709915,-0.0005957994144409895,0.023884939029812813
0.030062364414334297,0.0043024178594350815,-0.018549831584095955,0.014547877945005894,-0.0005797847989015281,0.024806160479784012
0.029674332588911057,0.004500090144574642,-0.01832803711295128,0.01431416254490614,-0.0005646353820338845,0.024727970361709595
0.030131664127111435,0.004391578957438469,-0.018202295526862144,0.015192261897027493,-0.0005551399663090706,0.024606605991721153
0.03021683543920517,0.004840726498514414,-0.01875334046781063,0.014671403914690018,-0.0005446514114737511,0.02433878369629383
0.03034099005162716,0.004970561247318983,-0.0187857523560524,0.01441984809935093,-0.0005035473732277751,0.024296803399920464
0.030556414276361465,0.00479670288041234,-0.017739130184054375,0.014100373722612858,-0.0005153474630787969,0.024505695328116417
0.0304852407425642,0.004304114729166031,-0.018871227279305458,0.014647495932877064,-0.0004964463296346366,0.024678068235516548
0.030891504138708115,0.004025181755423546,-0.018827881664037704,0.014480303972959518,-0.0004990724846720695,0.02502775937318802
0.03135951980948448,0.00432188156992197,-0.018214765936136246,0.014987490139901638,-0.0005366180557757616,0.024703407660126686
0.03213105350732803,0.004975332412868738,-0.018996840342879295,0.014526383951306343,-0.0005329948617145419,0.024588679894804955
0.031114445999264717,0.004917781334370375,-0.019388047978281975,0.014870917424559593,-0.0005249134846962988,0.024955404922366142
0.030591638758778572,0.00451281201094389,-0.01857551746070385,0.014795364812016487,-0.0004867159004788846,0.02511543408036232
0.03198028728365898,0.004287643823772669,-0.018643818795681,0.015100979246199131,-0.0005119508714415133,0.024839134886860847
0.03130423650145531,0.004104583989828825,-0.018736090511083603,0.014636359177529812,-0.00048374038306064904,0.024833854287862778
0.031401246786117554,0.004460436291992664,-0.018922891467809677,0.01482305210083723,-0.0005649483646266162,0.025030674412846565
0.03204217925667763,0.004656114615499973,-0.0199116263538599,0.014560749754309654,-0.000559187785256654,0.025165101513266563
0.03202489763498306,0.004790806211531162,-0.019694004207849503,0.015207710675895214,-0.0005469913012348115,0.025018703192472458
0.030868738889694214,0.004838385619223118,-0.019080379977822304,0.015064622275531292,-0.0005765503155998886,0.025219231843948364
0.030565762892365456,0.004947146400809288,-0.019112534821033478,0.01501897070556879,-0.0005986513569951057,0.02525637112557888
0.03226267173886299,0.004264095798134804,-0.019251888617873192,0.014311667531728745,-0.0007032374269329011,0.02523391880095005
0.03215960040688515,0.0044494615867733955,-0.019363965839147568,0.014714422635734081,-0.0007640884723514318,0.025006910786032677
0.03237199783325195,0.004618515260517597,-0.02017492614686489,0.014614843763411045,-0.0007913304725661874,0.025245090946555138
0.03214374929666519,0.0044783237390220165,-0.020011745393276215,0.014939960092306137,-0.0008042065310291946,0.025653928518295288
0.03191308304667473,0.004501406103372574,-0.01859155111014843,0.014889556914567947,-0.0009802343556657434,0.025561077520251274
0.03199891373515129,0.004670227877795696,-0.019526537507772446,0.015124750323593616,-0.0011171952355653048,0.02504168450832367
0.03199891373515129,0.004670227877795696,-0.019526537507772446,0.015124750323593616,-0.0011171952355653048,0.02504168450832367
0.03204074129462242,0.004252523649483919,-0.019362209364771843,0.014925355091691017,-0.0011783652007579803,0.024971121922135353
0.03204074129462242,0.004252523649483919,-0.019362209364771843,0.014925355091691017,-0.0011783652007579803,0.024971121922135353
0.032581429928541183,0.004294376354664564,-0.020260553807020187,0.015330756083130836,-0.0011198535794392228,0.025881296023726463
0.032213836908340454,0.004227012395858765,-0.019118523225188255,0.015445567667484283,-0.0009671389707364142,0.025738025084137917
0.03230862691998482,0.00480694929137826,-0.018609503284096718,0.015410024672746658,-0.0009419009438715875,0.02623191848397255
0.03276943787932396,0.004872635006904602,-0.01924961432814598,0.015343856997787952,-0.0008239583112299442,0.026331113651394844
0.03214116394519806,0.004432979971170425,-0.019783733412623405,0.01499839499592781,-0.0007994334446266294,0.025974364951252937
0.03056289255619049,0.004275123588740826,-0.02031605876982212,0.015328919515013695,-0.0008106238092295825,0.025488650426268578
0.03199604153633118,0.004085551481693983,-0.02022898942232132,0.015228391624987125,-0.0007435184670612216,0.024752739816904068
0.032783716917037964,0.004413527902215719,-0.019551562145352364,0.0157183688133955,-0.0007549009169451892,0.02530626766383648
0.03310920298099518,0.004160846117883921,-0.01978294737637043,0.015580999664962292,-0.0008231961983256042,0.02646227926015854
0.03178014978766441,0.004426205530762672,-0.020286783576011658,0.016102369874715805,-0.0008489185129292309,0.026695629581809044
0.03170902281999588,0.004759365227073431,-0.01994113251566887,0.015529950149357319,-0.0008482614648528397,0.026499148458242416
0.0324055552482605,0.0045061130076646805,-0.019537435844540596,0.015548688359558582,-0.0008540034177713096,0.026050012558698654
0.032731689512729645,0.004449198953807354,-0.02000739984214306,0.015362191945314407,-0.0008968905895017087,0.0263519287109375
0.03215369954705238,0.00447154650464654,-0.020038094371557236,0.015822792425751686,-0.0008632165845483541,0.026791175827383995
0.03312386944890022,0.004642711021006107,-0.019665520638227463,0.016688790172338486,-0.0008026339346542954,0.02687780186533928
0.03252731263637543,0.004595691803842783,-0.02000805363059044,0.016206512227654457,-0.0007024619844742119,0.026769043877720833
0.032187797129154205,0.004419002216309309,-0.020184922963380814,0.01641070283949375,-0.0006216993788257241,0.026926526799798012
0.03214908763766289,0.004425024148076773,-0.019901148974895477,0.01503283716738224,-0.0006435654941014946,0.027016540989279747
0.03296534717082977,0.004201727453619242,-0.020068328827619553,0.014821713790297508,-0.0005889600142836571,0.027085045352578163
0.03294581547379494,0.004305602051317692,-0.020359188318252563,0.014431281015276909,-0.0005388928111642599,0.026911621913313866
0.03304063528776169,0.004461354110389948,-0.02015792578458786,0.015925979241728783,-0.0005484640714712441,0.026683563366532326
0.03297926113009453,0.004350586794316769,-0.019493529573082924,0.015904976055026054,-0.0005246312939561903,0.027044987305998802
0.03256912901997566,0.004061185289174318,-0.020177602767944336,0.01622198335826397,-0.00046378286788240075,0.02637670561671257
0.032722897827625275,0.004378248006105423,-0.02016311138868332,0.015673749148845673,-0.0004011171986348927,0.0268230102956295
0.03338073939085007,0.0044721136800944805,-0.01964232325553894,0.015870260074734688,-0.0004302447778172791,0.026882318779826164
0.03369652479887009,0.004400139208883047,-0.019998637959361076,0.01656321808695793,-0.0004063708183821291,0.026903251186013222
0.03369652479887009,0.004400139208883047,-0.019998637959361076,0.01656321808695793,-0.0004063708183821291,0.026903251186013222
0.033289290964603424,0.004345433320850134,-0.020065531134605408,0.016334619373083115,-0.00043290876783430576,0.027033725753426552
0.033785220235586166,0.004511083010584116,-0.020299449563026428,0.016147898510098457,-0.0003872018132824451,0.02738642506301403
0.03221644461154938,0.0043265726417303085,-0.02036271058022976,0.01584783010184765,-0.0004098787030670792,0.02720501832664013
0.03423241525888443,0.004478145390748978,-0.019684260711073875,0.015163054689764977,-0.0003936307621188462,0.02708393894135952
0.034305866807699203,0.004710276611149311,-0.01987658627331257,0.0163573045283556,-0.00043044608901254833,0.026911063119769096
0.03388572111725807,0.004660230595618486,-0.02007746510207653,0.015925180166959763,-0.00044320643064565957,0.026942472904920578
0.03369121626019478,0.004699203185737133,-0.020087100565433502,0.015891307964920998,-0.00046635285252705216,0.027215665206313133
0.03407340869307518,0.004466091748327017,-0.019969899207353592,0.015952978283166885,-0.00044642985449172556,0.027128243818879128
0.03460652381181717,0.0044245850294828415,-0.020347557961940765,0.01628296636044979,-0.00047749525401741266,0.026940807700157166
0.03454039245843887,0.004643780644983053,-0.020740613341331482,0.017054736614227295,-0.0004948498099111021,0.026856407523155212
0.03455183655023575,0.004783803131431341,-0.019792044535279274,0.01651647500693798,-0.00047697965055704117,0.027070365846157074
0.03446358069777489,0.0049078622832894325,-0.020028917118906975,0.016846271231770515,-0.0006045958143658936,0.027558615431189537
0.03471646085381508,0.004410156048834324,-0.02042047120630741,0.01654105819761753,-0.0005548537592403591,0.028094036504626274
0.035115014761686325,0.0044066025875508785,-0.020430782809853554,0.0162368007004261,-0.0005871292669326067,0.027246711775660515
0.0355706661939621,0.004482988268136978,-0.020617419853806496,0.01638471707701683,-0.0005349981947802007,0.02690397948026657
0.03538082540035248,0.004589465446770191,-0.020441146567463875,0.016246946528553963,-0.0005465364083647728,0.027474554255604744
0.03506594896316528,0.004659285768866539,-0.020335692912340164,0.01649000123143196,-0.0005558235570788383,0.027678923681378365
0.03603862226009369,0.00463482178747654,-0.02081599086523056,0.016071340069174767,-0.0005475290818139911,0.027676889672875404
0.0367729589343071,0.004733137786388397,-0.021242816001176834,0.01629866287112236,-0.0005841805250383914,0.028802983462810516
0.0346887968480587,0.004719078075140715,-0.020983314141631126,0.016340309754014015,-0.0006055101985111833,0.029355941340327263
0.03447097912430763,0.004417655989527702,-0.019841350615024567,0.016425838693976402,-0.0005663763149641454,0.028274130076169968
0.03606824204325676,0.004543368238955736,-0.020317573100328445,0.016176164150238037,-0.0005935049266554415,0.027138374745845795
0.035977598279714584,0.004140033386647701,-0.021162675693631172,0.01565457507967949,-0.0006045339978300035,0.028208591043949127
0.036704905331134796,0.004376456141471863,-0.021236103028059006,0.015903610736131668,-0.0005769261042587459,0.028798898681998253
0.03538069501519203,0.004988386295735836,-0.020950714126229286,0.01564260758459568,-0.000720679759979248,0.028626276180148125
0.03522094711661339,0.0044662198051810265,-0.02059398777782917,0.016572175547480583,-0.0007504823734052479,0.027990462258458138
0.03520410507917404,0.004483506549149752,-0.021186238154768944,0.016573255881667137,-0.000718653027433902,0.027930375188589096
0.03520410507917404,0.004483506549149752,-0.021186238154768944,0.016573255881667137,-0.000718653027433902,0.027930375188589096
0.03629862517118454,0.004160100128501654,-0.020945250988006592,0.016814304515719414,-0.0007347009959630668,0.027643341571092606
0.036419063806533813,0.004383626393973827,-0.021150438115000725,0.01664171740412712,-0.0009033230599015951,0.02775830589234829
0.0369362011551857,0.0049089728854596615,-0.021425554528832436,0.01657503843307495,-0.0007888177642598748,0.02786211296916008
0.03641107305884361,0.004424947313964367,-0.020689768716692924,0.01602949947118759,-0.0007870253175497055,0.028196211904287338
0.035890985280275345,0.004190925508737564,-0.02104138396680355,0.016406109556555748,-0.0007113454630598426,0.028128692880272865
0.03668307885527611,0.004481469746679068,-0.020506443455815315,0.016190944239497185,-0.0007246260647661984,0.028024017810821533
0.03635832294821739,0.004636038560420275,-0.021858667954802513,0.016526348888874054,-0.0006619199994020164,0.028475875034928322
0.03620300814509392,0.004852069541811943,-0.02127411775290966,0.016589801758527756,-0.0006804578588344157,0.02792445197701454
0.0363345742225647,0.004672363866120577,-0.020971912890672684,0.016844525933265686,-0.0006657583871856332,0.028275007382035255
0.036094263195991516,0.00448188092559576,-0.021391982212662697,0.01716180145740509,-0.0006428236956708133,0.0284102912992239
0.03634294494986534,0.004339917097240686,-0.021684838458895683,0.016336891800165176,-0.0006472240202128887,0.02812870405614376
0.03638525307178497,0.004457138013094664,-0.021022338420152664,0.016718218103051186,-0.0006113380077295005,0.02830221690237522
0.037713177502155304,0.004709617700427771,-0.021188177168369293,0.016631988808512688,-0.0006281411624513566,0.02890622243285179
0.036670099943876266,0.0044671930372715,-0.021675756201148033,0.016718316823244095,-0.0006060690502636135,0.029008200392127037
0.035679493099451065,0.004512029699981213,-0.021271247416734695,0.01686711795628071,-0.0006299790693446994,0.028705250471830368
0.03697063401341438,0.005073379725217819,-0.02094774693250656,0.017051508650183678,-0.000658101518638432,0.028723541647195816
0.03636062890291214,0.004467663820832968,-0.021398987621068954,0.017001528292894363,-0.0006814064690843225,0.029520219191908836
0.03784170746803284,0.004458933603018522,-0.021431684494018555,0.017083117738366127,-0.0007975465850904584,0.02991626039147377
0.03794058784842491,0.004274833481758833,-0.02127041667699814,0.01745486818253994,-0.0007280540885403752,0.02941076271235943
0.03657970204949379,0.004953598137944937,-0.021135402843356133,0.01727137714624405,-0.0007462722714990377,0.028125984594225883
0.035571351647377014,0.004875905346125364,-0.021527372300624847,0.017112111672759056,-0.0007152777980081737,0.028207561001181602
0.03785618767142296,0.004877894651144743,-0.02199692465364933,0.01784479431807995,-0.0006850151112303138,0.02923600934445858
0.03780613839626312,0.004715488292276859,-0.02161802351474762,0.01776394248008728,-0.0006632934091612697,0.02882218360900879
0.036545541137456894,0.00464024068787694,-0.02102571912109852,0.017982954159379005,-0.0006427800399251282,0.029132908210158348
0.03756283223628998,0.004757406190037727,-0.021563367918133736,0.01793222315609455,-0.0005995659739710391,0.030476974323391914
0.03762219101190567,0.004927128553390503,-0.021595990285277367,0.017846841365098953,-0.0005403328686952591,0.02996283397078514
0.03754246607422829,0.0045709190890192986,-0.021103471517562866,0.01874992810189724,-0.0005726278177462518,0.029765427112579346
0.03764777630567551,0.004622218199074268,-0.021065544337034225,0.018309595063328743,-0.0005980985006317496,0.029059940949082375
0.03764777630567551,0.004622218199074268,-0.021065544337034225,0.018309595063328743,-0.0005980985006317496,0.029059940949082375
0.037484873086214066,0.004980713594704866,-0.02170843631029129,0.017821073532104492,-0.000555864127818495,0.029669463634490967
0.03754275292158127,0.004438017960637808,-0.021893315017223358,0.017869260162115097,-0.0005744047812186182,0.031109053641557693
0.03768260404467583,0.0044737085700035095,-0.021793430671095848,0.017704656347632408,-0.0005399281508289278,0.030810097232460976
0.03792443126440048,0.0038397200405597687,-0.021608442068099976,0.018235769122838974,-0.0006116079166531563,0.030122067779302597
0.03846248984336853,0.0038754804991185665,-0.022014589980244637,0.01801455393433571,-0.0005942158750258386,0.02990485168993473
0.03790716081857681,0.003910935018211603,-0.022003551945090294,0.018264979124069214,-0.0006214404129423201,0.0303544532507658
0.03751981258392334,0.004276950377970934,-0.021554166451096535,0.018030645325779915,-0.0006492725806310773,0.03066880628466606
0.03900020942091942,0.004484219942241907,-0.02170551009476185,0.01780407503247261,-0.0009356967057101429,0.030597148463129997
0.038558997213840485,0.004131896886974573,-0.02161100134253502,0.018645310774445534,-0.0009649476269260049,0.030651116743683815
0.038284189999103546,0.004052900243550539,-0.021202953532338142,0.017753012478351593,-0.0009667500853538513,0.03077506460249424
0.038659773766994476,0.004079085309058428,-0.02184891141951084,0.017667023465037346,-0.0011153791565448046,0.03066806122660637
0.03853020444512367,0.0040725842118263245,-0.02216337062418461,0.017759092152118683,-0.0011028499575331807,0.03072969987988472
0.038838084787130356,0.003955778665840626,-0.022359872236847878,0.01746612787246704,-0.0010696727549657226,0.030996426939964294
0.039073921740055084,0.004415304400026798,-0.021789368242025375,0.017804890871047974,-0.0010355898411944509,0.030834941193461418
0.0385926216840744,0.00416101049631834,-0.021436912938952446,0.01777484640479088,-0.0009587985696271062,0.030811365693807602
0.03868168592453003,0.004330421797931194,-0.02271152473986149,0.017816152423620224,-0.0009259523940272629,0.03135378286242485
0.03873823583126068,0.00412392383441329,-0.022442232817411423,0.018291087821125984,-0.0008863626862876117,0.03087036870419979
0.04062310606241226,0.003911914303898811,-0.02236570045351982,0.018327726051211357,-0.0008290589321404696,0.03139365464448929
0.039734017103910446,0.00406173150986433,-0.022251570597290993,0.01764155924320221,-0.0008333523874171078,0.03145900368690491
0.038310740143060684,0.0040810368955135345,-0.022040674462914467,0.017610345035791397,-0.0008187291095964611,0.03152564913034439
0.038310740143060684,0.0040810368955135345,-0.022040674462914467,0.017610345035791397,-0.0008187291095964611,0.03152564913034439
0.038310740143060684,0.0040810368955135345,-0.022040674462914467,0.017610345035791397,-0.0008187291095964611,0.03152564913034439
0.040676262229681015,0.003998155239969492,-0.022651195526123047,0.017847353592514992,-0.0008550951606594026,0.031784456223249435
0.04054030776023865,0.0038078941870480776,-0.022025367245078087,0.018183855339884758,-0.000942940590903163,0.032169029116630554
0.03912149742245674,0.004161742981523275,-0.02234259992837906,0.01874561421573162,-0.0009543116902932525,0.032635293900966644
0.03872160613536835,0.004223467316478491,-0.02273007109761238,0.018640629947185516,-0.0009376707021147013,0.03186875209212303
0.04045246168971062,0.004326157737523317,-0.022723602131009102,0.018648413941264153,-0.0009320965618826449,0.030895531177520752
0.0405295267701149,0.004251157399266958,-0.022113865241408348,0.018708987161517143,-0.0008382208761759102,0.03108883462846279
0.04010862484574318,0.004087610635906458,-0.022360211238265038,0.0184407290071249,-0.0007793204276822507,0.03230898827314377
0.04010862484574318,0.004087610635906458,-0.022360211238265038,0.0184407290071249,-0.0007793204276822507,0.03230898827314377
0.04045490548014641,0.004166856873780489,-0.022471267729997635,0.01899251528084278,-0.0006715426570735872,0.03200269863009453
0.039916202425956726,0.003910389728844166,-0.022496944293379784,0.018985789269208908,-0.0006927726208232343,0.03344607725739479
0.04042195901274681,0.0037252360489219427,-0.022487739101052284,0.018367081880569458,-0.0006201804499141872,0.03327231854200363
0.03999367356300354,0.0037509526591748,-0.022028475999832153,0.018613694235682487,-0.0006426346953958273,0.03231905773282051
0.04008733108639717,0.004206836689263582,-0.023083556443452835,0.01846449263393879,-0.0006123307393863797,0.03193007409572601
0.04020193964242935,0.004014746285974979,-0.022856565192341805,0.018862374126911163,-0.0005838564247824252,0.03283330798149109
0.041182395070791245,0.00438397703692317,-0.02197934128344059,0.018727602437138557,-0.0006106423679739237,0.0329199954867363
0.040717851370573044,0.0040345462039113045,-0.022209007292985916,0.018515707924962044,-0.0006279813824221492,0.03243700787425041
0.03930407762527466,0.004329465329647064,-0.022415876388549805,0.019148757681250572,-0.0006637167534790933,0.032530684024095535
0.04060714691877365,0.0041006640531122684,-0.022439103573560715,0.01906772144138813,-0.000983282458037138,0.032089151442050934
0.040153712034225464,0.004171529319137335,-0.022388529032468796,0.018911350518465042,-0.0010483934311196208,0.032750215381383896
0.04156653583049774,0.004115027841180563,-0.022101540118455887,0.019164729863405228,-0.001058425405062735,0.03249889239668846
0.041068851947784424,0.004444020334631205,-0.022386305034160614,0.01876157522201538,-0.001214558375068009,0.03273642808198929
0.03927336633205414,0.004815183114260435,-0.0228611771017313,0.01905140094459057,-0.0011666410136967897,0.032908085733652115
0.0405782014131546,0.004751137457787991,-0.022942107170820236,0.01925169676542282,-0.0010977295460179448,0.03307999297976494
0.04122171178460121,0.004186422098428011,-0.022311871871352196,0.019065484404563904,-0.0010314479004591703,0.033461954444646835
0.04107449948787689,0.0041596246883273125,-0.022201379761099815,0.019426919519901276,-0.0009604553924873471,0.03222154453396797
0.04115881398320198,0.004701884463429451,-0.02239941619336605,0.019644910469651222,-0.0008755875169299543,0.03382583335042
0.040658507496118546,0.0043283551931381226,-0.022707320749759674,0.018830738961696625,-0.0009082810720428824,0.03376465663313866
0.041107404977083206,0.004472650587558746,-0.022580526769161224,0.018750948831439018,-0.0009245662367902696,0.03329635038971901
0.04151259362697601,0.0045618172734975815,-0.02234777994453907,0.01955660991370678,-0.0012781706172972918,0.03338398411870003
0.041151534765958786,0.004388715140521526,-0.0223934818059206,0.020066946744918823,-0.0012466389453038573,0.03343785181641579
0.04113897308707237,0.004272883292287588,-0.022714942693710327,0.0198675524443388,-0.0010786973871290684,0.033321838825941086
0.041159626096487045,0.0043900394812226295,-0.02297433465719223,0.019869364798069,-0.0010449172696098685,0.033084116876125336
0.041638851165771484,0.004121641628444195,-0.023450937122106552,0.019312065094709396,-0.0009387367754243314,0.03459327295422554
0.041396670043468475,0.004383350722491741,-0.02311323583126068,0.018733274191617966,-0.0009237858466804028,0.035041842609643936
0.041396670043468475,0.004383350722491741,-0.02311323583126068,0.018733274191617966,-0.0009237858466804028,0.035041842609643936
0.04202405363321304,0.004860094282776117,-0.023002784699201584,0.019311007112264633,-0.0009196217870339751,0.03351958841085434
0.04209163039922714,0.004675211384892464,-0.023064296692609787,0.01915530115365982,-0.0009249622817151248,0.0326564684510231
0.04200970008969307,0.004386487416923046,-0.022902319207787514,0.019309362396597862,-0.0009843222796916962,0.033929239958524704
0.04199687018990517,0.004381042905151844,-0.02318301983177662,0.019472353160381317,-0.0009751513134688139,0.03415042534470558
0.04165258631110191,0.004652314353734255,-0.022552872076630592,0.01913285441696644,-0.0008473420748487115,0.034981951117515564
0.04222080484032631,0.00439148535951972,-0.023603221401572227,0.020527178421616554,-0.0008494387730024755,0.033776942640542984
0.042671218514442444,0.004813056439161301,-0.02409105934202671,0.02005305327475071,-0.0007865348015911877,0.03288816660642624
0.04225644841790199,0.004308822564780712,-0.023715896531939507,0.01878543384373188,-0.0007567145512439311,0.034151557832956314
0.04253968223929405,0.00441405363380909,-0.0229340773075819,0.019223788753151894,-0.0007728216587565839,0.035008642822504044
0.04263787716627121,0.0041562216356396675,-0.022708268836140633,0.018699556589126587,-0.0007876871386542916,0.0336231105029583
0.04257778450846672,0.0044127460569143295,-0.023183273151516914,0.018447957932949066,-0.0008964398293755949,0.03540971875190735
0.04376550391316414,0.0042493911460042,-0.02315073274075985,0.01895889826118946,-0.0010940002975985408,0.03552151843905449
0.0441405288875103,0.004398798104375601,-0.023479249328374863,0.019137222319841385,-0.00108616822399199,0.03467905521392822
0.0417579710483551,0.004454662557691336,-0.02349664829671383,0.019385742023587227,-0.0010132520692422986,0.03492102399468422
0.043030012398958206,0.004552790895104408,-0.023310240358114243,0.019672276452183723,-0.0012112624244764447,0.0349806547164917
0.04392315074801445,0.004221430979669094,-0.023349035531282425,0.020361730828881264,-0.0011663174955174327,0.03536749631166458
0.04396350309252739,0.004301223438233137,-0.02378152683377266,0.020055968314409256,-0.0010877257445827127,0.035196997225284576
0.0453408844769001,0.004293486010283232,-0.023611033335328102,0.01964355632662773,-0.0009994088904932141,0.03502192720770836
0.04297327250242233,0.004343754146248102,-0.02321694605052471,0.01971559226512909,-0.000888198905158788,0.03530159592628479
0.04372958466410637,0.004758617840707302,-0.023289497941732407,0.01960398629307747,-0.0008339291671290994,0.03555949777364731
0.04418293759226799,0.0048247831873595715,-0.023598723113536835,0.01979205198585987,-0.0008724202052690089,0.03573478385806084
0.04453601315617561,0.004854599945247173,-0.0236867293715477,0.02003857120871544,-0.0008779065101407468,0.03597971424460411
0.04382053762674332,0.00433280598372221,-0.024287229403853416,0.019722919911146164,-0.0009590508998371661,0.03604863956570625
0.04441629722714424,0.004358162172138691,-0.02393590286374092,0.019967403262853622,-0.001070715021342039,0.03580247610807419
0.044492460787296295,0.004579928703606129,-0.02348565123975277,0.0206485353410244,-0.0011711422121152282,0.03590255603194237
