davideferrari95/blind_handover_controller/data/Test 190 - [2024-02-08 -- 11-28-29]/joint_states_data.csv
shoulder_pan_joint,shoulder_lift_joint,elbow_joint,wrist_1_joint,wrist_2_joint,wrist_3_joint
-0.00654167216271162,-0.008855754509568214,-0.003388748038560152,0.010401910170912743,0.0,-0.007086593192070723
-0.00665400130674243,-0.009222371503710747,-0.0025778403505682945,0.011391285806894302,0.0,-0.006928117014467716
-0.00665400130674243,-0.009222371503710747,-0.0025778403505682945,0.011391285806894302,0.0,-0.006928117014467716
-0.006855210289359093,-0.00955532118678093,-0.002175672445446253,0.011687966994941235,0.0,-0.006964381318539381
-0.006616223603487015,-0.009246728383004665,-0.0020051265601068735,0.011483012698590755,0.0,-0.007500313222408295
-0.006475344300270081,-0.009747582487761974,-0.0022371828090399504,0.010578801855444908,0.0,-0.007243607193231583
-0.0069598243571817875,-0.009677284397184849,-0.0031601511873304844,0.009923434816300869,0.0,-0.007681222632527351
-0.006499181967228651,-0.008965237066149712,-0.00324509060010314,0.010785013437271118,0.0,-0.00767210079357028
-0.006258068606257439,-0.008594452403485775,-0.0028141264338046312,0.010958527214825153,0.0,-0.007500357925891876
-0.006409299094229937,-0.009654871188104153,-0.0024636483285576105,0.010513165965676308,0.0,-0.007209588773548603
-0.006409299094229937,-0.009654871188104153,-0.0024636483285576105,0.010513165965676308,0.0,-0.007209588773548603
-0.006978088058531284,-0.009293119423091412,-0.002880373504012823,0.010277064517140388,0.0,-0.008023402653634548
-0.006978088058531284,-0.009293119423091412,-0.002880373504012823,0.010277064517140388,0.0,-0.008023402653634548
-0.0068489122204482555,-0.009264850988984108,-0.003227677894756198,0.010921119712293148,0.0,-0.007863783277571201
-0.00645499536767602,-0.008864824660122395,-0.0030070319771766663,0.0104014091193676,0.0,-0.007786572445183992
-0.006796495523303747,-0.009061058983206749,-0.002811830723658204,0.010166668333113194,0.0,-0.007096246816217899
-0.0066263722255826,-0.008542881347239017,-0.002730000764131546,0.01060634758323431,0.0,-0.007862291298806667
-0.006384328007698059,-0.008370164781808853,-0.0028120323549956083,0.010309325531125069,0.0,-0.007917685434222221
-0.006386526860296726,-0.008746787905693054,-0.003152795135974884,0.01061310712248087,0.0,-0.0078763822093606
-0.006238122470676899,-0.008564166724681854,-0.003172023221850395,0.010757596231997013,0.0,-0.007708777207881212
-0.006486203521490097,-0.007967337965965271,-0.003122880822047591,0.010750283487141132,0.0,-0.007794369477778673
-0.006555790547281504,-0.008219464682042599,-0.0028491911944001913,0.011492235586047173,0.0,-0.0077260807156562805
-0.006359635386615992,-0.00896490179002285,-0.002838317072018981,0.011166381649672985,0.0,-0.007267825771123171
-0.0062098633497953415,-0.008532844483852386,-0.002893131459131837,0.011221718043088913,0.0,-0.007107773795723915
-0.006717648822814226,-0.00837941188365221,-0.002927011577412486,0.011685371398925781,0.0,-0.007926499471068382
-0.006614355836063623,-0.008935031481087208,-0.0028568319976329803,0.01098909042775631,0.0,-0.007844439707696438
-0.006544957868754864,-0.008699395693838596,-0.0030204900540411472,0.011539903469383717,0.0,-0.007030930835753679
-0.0061083207838237286,-0.008192433044314384,-0.003208756446838379,0.011228098534047604,0.0,-0.007007545325905085
-0.006591956131160259,-0.008925974369049072,-0.0031308855395764112,0.011137406341731548,0.0,-0.0069001829251646996
-0.006673885975033045,-0.008374236524105072,-0.003096177941188216,0.01139155961573124,0.0,-0.006981974933296442
-0.006304924841970205,-0.008302063681185246,-0.002919475082308054,0.01047085877507925,0.0,-0.007381184492260218
-0.006193133071064949,-0.00796614307910204,-0.0031328420154750347,0.009992273524403572,0.0,-0.007104153279215097
-0.006602887064218521,-0.008800914511084557,-0.003299074014648795,0.01067323051393032,0.0,-0.007374362554401159
-0.006820190232247114,-0.008079302497208118,-0.0032924790866672993,0.010163824073970318,0.0,-0.007064753212034702
-0.006328169722110033,-0.007448074873536825,-0.003408055519685149,0.010476135648787022,0.0,-0.007327130064368248
-0.006328169722110033,-0.007448074873536825,-0.003408055519685149,0.010476135648787022,0.0,-0.007327130064368248
-0.006404607556760311,-0.00787846278399229,-0.003681306727230549,0.010856134817004204,0.0,-0.007932262495160103
-0.006169311702251434,-0.0083871865645051,-0.003429315984249115,0.010187283158302307,0.0,-0.007504699286073446
-0.006811188068240881,-0.00784568302333355,-0.003133440623059869,0.01041854452341795,0.0,-0.007129688281565905
-0.006651056464761496,-0.008212721906602383,-0.003154237987473607,0.010116443037986755,0.0,-0.007184236776083708
-0.006398354656994343,-0.008010470308363438,-0.0034343162551522255,0.010564761236310005,0.0,-0.007468636147677898
-0.005914634559303522,-0.007952687330543995,-0.0035368180833756924,0.010616248473525047,0.0,-0.007443438749760389
-0.006388314068317413,-0.007779182866215706,-0.0034215098712593317,0.01083175465464592,0.0,-0.00756143219769001
-0.006411003414541483,-0.007831152528524399,-0.0035758037120103836,0.010563855059444904,0.0,-0.006974715273827314
-0.006278051063418388,-0.008148753084242344,-0.003943311516195536,0.01066409982740879,0.0,-0.007113958243280649
-0.006153411231935024,-0.00814308226108551,-0.0036341394297778606,0.010815707966685295,0.0,-0.007240179926156998
-0.006545232143253088,-0.007728768978267908,-0.0035668988712131977,0.010474080219864845,0.0,-0.007351224776357412
-0.006768251769244671,-0.007644351106137037,-0.0032059885561466217,0.010307255201041698,0.0,-0.007376166991889477
-0.00646307785063982,-0.00796540454030037,-0.003404417308047414,0.010503627359867096,0.0,-0.007262821309268475
-0.0062147402204573154,-0.007596150506287813,-0.0036641533952206373,0.010462423786520958,0.0,-0.006318668369203806
-0.006120217498391867,-0.007170326542109251,-0.0033776613418012857,0.010647816583514214,0.0,-0.0073351929895579815
-0.006084449123591185,-0.007826479151844978,-0.003305976279079914,0.010492580011487007,0.0,-0.007490645628422499
-0.00635576993227005,-0.008329328149557114,-0.003372823353856802,0.010512430220842361,0.0,-0.0073521314188838005
-0.006692142225801945,-0.007918821647763252,-0.0036129599902778864,0.00981056410819292,0.0,-0.006796916015446186
-0.006191263906657696,-0.007997581735253334,-0.0036070034839212894,0.010123458690941334,0.0,-0.006731271743774414
-0.005868580192327499,-0.007870027795433998,-0.003550295252352953,0.010554961860179901,0.0,-0.00672145513817668
-0.006092927418649197,-0.007756919600069523,-0.0033701257780194283,0.009569613263010979,0.0,-0.007059128955006599
-0.006218033377081156,-0.007766746450215578,-0.003421234665438533,0.009693431667983532,0.0,-0.007382537238299847
-0.006159065756946802,-0.007869557477533817,-0.0036405951250344515,0.01034784410148859,0.0,-0.006905241869390011
-0.006025371141731739,-0.007578505203127861,-0.0037269003223627806,0.009872553870081902,0.0,-0.0068928273394703865
-0.005845021456480026,-0.007358937989920378,-0.0036974437534809113,0.010085299611091614,0.0,-0.007164383307099342
-0.006224412005394697,-0.007279917597770691,-0.00368725904263556,0.00984870083630085,0.0,-0.007193709723651409
-0.006224412005394697,-0.007279917597770691,-0.00368725904263556,0.00984870083630085,0.0,-0.007193709723651409
-0.005913081578910351,-0.008117903023958206,-0.0037153824232518673,0.010506819002330303,0.0,-0.007025246042758226
-0.005998135078698397,-0.007648387923836708,-0.003998136613518,0.010060891509056091,0.0,-0.007023584563285112
-0.006256947293877602,-0.006819277070462704,-0.004177969880402088,0.009643487632274628,0.0,-0.007280921097844839
-0.0062079341150820255,-0.007164635229855776,-0.003778503742069006,0.009855072945356369,0.0,-0.007259764242917299
-0.006471214350312948,-0.007317495997995138,-0.0035449424758553505,0.009666561149060726,0.0,-0.0072606210596859455
-0.006210547871887684,-0.008047913201153278,-0.003654359607025981,0.009816737845540047,0.0,-0.007385029457509518
-0.005836464464664459,-0.00718769570812583,-0.003910487052053213,0.009448970668017864,0.0,-0.006884607952088118
-0.00613988284021616,-0.007967367768287659,-0.004334772936999798,0.009438392706215382,0.0,-0.0068298946134746075
-0.006540023256093264,-0.007922491058707237,-0.0043179672211408615,0.0088955694809556,0.0,-0.006422434933483601
-0.006161728873848915,-0.007631022948771715,-0.003581828437745571,0.009709739126265049,0.0,-0.0065431795082986355
-0.006295027676969767,-0.006924350745975971,-0.0035767636727541685,0.01029528584331274,0.0,-0.007393747102469206
-0.005733574274927378,-0.00717585813254118,-0.0037758739199489355,0.009359929710626602,0.0,-0.006972641218453646
-0.006051706150174141,-0.00804675929248333,-0.003835983108729124,0.009977825917303562,0.0,-0.006468526087701321
-0.006726869381964207,-0.007635531015694141,-0.0037439235020428896,0.010213074274361134,0.0,-0.006557420827448368
-0.0060773566365242004,-0.006861541420221329,-0.0037145342212170362,0.009235398843884468,0.0,-0.006716706790030003
-0.005854764021933079,-0.007378272712230682,-0.0037739472463726997,0.010047986172139645,2.7735241019399837e-06,-0.007541636470705271
-0.006155680865049362,-0.007528929505497217,-0.0038932973984628916,0.010185593739151955,1.81091323270266e-07,-0.006958962883800268
-0.006094244308769703,-0.007410469464957714,-0.0038958140648901463,0.009174924343824387,1.1823969359170405e-08,-0.006432672496885061
-0.006315469741821289,-0.0074531082063913345,-0.0038545874413102865,0.009672146290540695,7.720207251260547e-10,-0.00667155534029007
-0.006435941439121962,-0.0075491550378501415,-0.0038573264610022306,0.009912008419632912,5.040743517037427e-11,-0.0067680408246815205
-0.005749462638050318,-0.007411816157400608,-0.0034362401347607374,0.009821191430091858,3.2912450976391172e-12,-0.0066480389796197414
-0.005818464793264866,-0.007322933524847031,-0.0035442160442471504,0.010134805925190449,2.1489479304099418e-13,-0.006504841148853302
-0.0058813332580029964,-0.007306518033146858,-0.0042959824204444885,0.009614774957299232,1.4031094842036854e-14,-0.0067829047329723835
-0.0060652787797153,-0.0068270303308963776,-0.004155373200774193,0.00928587932139635,9.161302952012803e-16,-0.0064994157291948795
-0.0064744786359369755,-0.0071946135722100735,-0.0038554202765226364,0.009941346943378448,5.981676528593924e-17,-0.006955893710255623
-0.0058555095456540585,-0.007238138932734728,-0.003688484663143754,0.010437492281198502,3.9056068812436374e-18,-0.006607291754335165
-0.005812381394207478,-0.0067359404638409615,-0.004238349851220846,0.010180207900702953,1.665021676809046e-20,-0.006673949770629406
-0.005812381394207478,-0.0067359404638409615,-0.004238349851220846,0.010180207900702953,1.665021676809046e-20,-0.006673949770629406
-0.006303179543465376,-0.007196445483714342,-0.004065102897584438,0.010004702024161816,1.087140194428877e-21,-0.0062313503585755825
-0.005696913227438927,-0.007376588881015778,-0.0038234142120927572,0.009267649613320827,7.098248680180462e-23,-0.006212709937244654
-0.005618031602352858,-0.0067061008885502815,-0.0037767989560961723,0.009669667109847069,4.6346489316079974e-24,-0.006452755071222782
-0.005992557853460312,-0.007240035571157932,-0.003332591848447919,0.009664321318268776,3.0260948378120566e-25,-0.006517391186207533
-0.005557662807404995,-0.0077130114659667015,-0.0028252401389181614,0.009323760867118835,1.9758235477497182e-26,-0.006055302452296019
-0.00601575244218111,-0.0071409475058317184,-0.0025501546915620565,0.009656975977122784,1.2900715584066542e-27,-0.006193109788000584
-0.005849125329405069,-0.007262337952852249,-0.0029195731040090322,0.009760124608874321,8.423245399212692e-29,-0.005849019158631563
-0.005638006143271923,-0.006658721715211868,-0.0034568782430142164,0.009008736349642277,5.4997769556329106e-30,-0.005998985376209021
-0.004881962668150663,-0.007008054293692112,-0.0036389916203916073,0.009646972641348839,3.590961738795907e-31,-0.0065843574702739716
-0.005855807103216648,-0.0070974621921777725,-0.0032255430705845356,0.00983997993171215,2.3446413260237224e-32,-0.006754029542207718
-0.006879872642457485,-0.006857617758214474,-0.002990528242662549,0.009435446932911873,1.5308833027808167e-33,-0.006309643853455782
-0.005822709761559963,-0.006816413719207048,-0.002767366822808981,0.00971772987395525,9.995573996096205e-35,-0.005844073835760355
-0.005335571710020304,-0.0068245818838477135,-0.002999549964442849,0.00956546701490879,6.526395719260078e-36,-0.005675698164850473
-0.0054998877458274364,-0.006663264706730843,-0.0033647927921265364,0.00939179863780737,4.261269708882258e-37,-0.006276379805058241
-0.006117271725088358,-0.006771062966436148,-0.0032097615767270327,0.010347472503781319,2.7823047255877465e-38,-0.006803411059081554
-0.005777144804596901,-0.006678720470517874,-0.0030067774932831526,0.009931064210832119,1.8166461317476215e-39,-0.006825303193181753
-0.00587830226868391,-0.00686675263568759,-0.002747250720858574,0.009081576950848103,1.1861430981123847e-40,-0.0064492495730519295
-0.005728804040700197,-0.0069145276211202145,-0.002892019459977746,0.009550025686621666,7.744976612323264e-42,-0.0064001833088696
-0.00544656440615654,-0.007292081601917744,-0.0029994212090969086,0.009808078408241272,5.05868745621259e-43,-0.0064171175472438335
-0.005360923707485199,-0.0069611091166734695,-0.0030804595444351435,0.009516052901744843,3.363116314379561e-44,-0.006180496886372566
-0.005571354646235704,-0.006583943031728268,-0.003252014284953475,0.00949412863701582,2.802596928649634e-45,-0.006391158327460289
-0.00558477034792304,-0.006898957770317793,-0.0029444859828799963,0.009191454388201237,0.00010052185825770721,-0.006289402488619089
-0.005573822185397148,-0.006970777176320553,-0.003090634010732174,0.00825489591807127,0.00012556908768601716,-0.005986946634948254
-0.0051910122856497765,-0.006859360262751579,-0.003413738217204809,0.00873209722340107,0.00012393007637001574,-0.006138743832707405
-0.0051910122856497765,-0.006859360262751579,-0.003413738217204809,0.00873209722340107,0.00012393007637001574,-0.006138743832707405
-0.005012094508856535,-0.007487168535590172,-0.0028182717505842447,0.008205719292163849,0.00015447867917828262,-0.006115878466516733
-0.005012094508856535,-0.007487168535590172,-0.0028182717505842447,0.008205719292163849,0.00015447867917828262,-0.006115878466516733
-0.004997540265321732,-0.006317352410405874,-0.0033573717810213566,0.009422746486961842,0.00016878345923032612,-0.0060019539669156075
-0.004997540265321732,-0.006317352410405874,-0.0033573717810213566,0.009422746486961842,0.00016878345923032612,-0.0060019539669156075
-0.0050938306376338005,-0.006619177293032408,-0.003303717589005828,0.008341426961123943,0.0001699525018921122,-0.006468389183282852
-0.004922013264149427,-0.007306850049644709,-0.0032613654620945454,0.008724262937903404,0.0003945052158087492,-0.006304217968136072
-0.004798078443855047,-0.007068294566124678,-0.003343974007293582,0.009320240467786789,0.0004710682260338217,-0.0059490264393389225
-0.004976427182555199,-0.006488063372671604,-0.003060289192944765,0.00919180829077959,0.0004724605823867023,-0.006025980226695538
-0.005233208183199167,-0.006282913964241743,-0.003189130686223507,0.009383472613990307,0.00047226043534465134,-0.005842379294335842
-0.005210942588746548,-0.006872744765132666,-0.003302074270322919,0.00917911808937788,0.00046937528531998396,-0.006312333047389984
-0.004599335137754679,-0.007052402012050152,-0.003567836945876479,0.0096610551699996,0.0004970886511728168,-0.006504116114228964
-0.004510212689638138,-0.006852155085653067,-0.0037787887267768383,0.009274342097342014,0.0006352939526550472,-0.005985409952700138
-0.005009837448596954,-0.006251326762139797,-0.0034071127884089947,0.009592890739440918,0.0006649693823419511,-0.005997145548462868
-0.00510168494656682,-0.006439972668886185,-0.003484550165012479,0.009114069864153862,0.0006412699003703892,-0.005685316864401102
-0.004907567985355854,-0.00692133279517293,-0.00327132036909461,0.009352792985737324,0.0006225472316145897,-0.006140639074146748
-0.0047399913892149925,-0.006961821112781763,-0.0035610459744930267,0.009611149318516254,0.0006044886540621519,-0.00635260995477438
-0.00470870453864336,-0.006314018741250038,-0.0038142434787005186,0.009265976026654243,0.0006120295147411525,-0.005679530091583729
-0.00475816335529089,-0.006303645670413971,-0.0037839245051145554,0.008759746327996254,0.0005813695606775582,-0.005402372684329748
-0.004559543915092945,-0.006516861263662577,-0.003357962239533663,0.009403463453054428,0.0006104575586505234,-0.005142110399901867
-0.004187671467661858,-0.007190078031271696,-0.0031904212664812803,0.009402825497090816,0.0006229577702470124,-0.005320321768522263
-0.003811132861301303,-0.006430644076317549,-0.003229808760806918,0.00908774882555008,0.0005805811961181462,-0.005672890227288008
-0.004182036966085434,-0.006256856024265289,-0.0037581459619104862,0.008642937988042831,0.0006069008377380669,-0.00537802604958415
-0.004063059110194445,-0.006183687597513199,-0.0038638277910649776,0.009218849241733551,0.0005970188067294657,-0.005529884248971939
-0.003901698160916567,-0.0064069959335029125,-0.0035455869510769844,0.00894148088991642,0.0005839063669554889,-0.00547070661559701
-0.004370571579784155,-0.0064069610089063644,-0.003566229483112693,0.00943071860820055,0.0005967040779069066,-0.005367265082895756
-0.0035297409631311893,-0.0058423676528036594,-0.003919096663594246,0.008742349222302437,0.0005630195955745876,-0.005656282417476177
-0.003618531860411167,-0.005966114345937967,-0.0037703390698879957,0.008749676868319511,0.0005499775870703161,-0.00545115303248167
-0.003618531860411167,-0.005966114345937967,-0.0037703390698879957,0.008749676868319511,0.0005499775870703161,-0.00545115303248167
-0.004319872707128525,-0.005915515590459108,-0.003714206861332059,0.009049988351762295,0.0005017378716729581,-0.005064379423856735
-0.004178292583674192,-0.006095193792134523,-0.003367312951013446,0.009079831652343273,0.0005251892143860459,-0.005219092592597008
-0.003967066295444965,-0.0063415574841201305,-0.00351535202935338,0.008222843520343304,0.0004930468858219683,-0.0050688255578279495
-0.003911701496690512,-0.005942242685705423,-0.003677636617794633,0.008582874201238155,0.00045778340427204967,-0.005066370591521263
-0.003457471961155534,-0.006403801962733269,-0.0043069287203252316,0.00853092409670353,0.000483488169265911,-0.005573259200900793
-0.0035434181336313486,-0.006603896617889404,-0.004102027975022793,0.008461731486022472,0.000456518231658265,-0.005475414916872978
-0.0037182902451604605,-0.0063495635986328125,-0.0035261022858321667,0.0081153754144907,0.00042951415525749326,-0.00571006815880537
-0.003718465333804488,-0.0060028452426195145,-0.0033064631279557943,0.008655878715217113,0.00040521015762351453,-0.005168907344341278
-0.003660025540739298,-0.006153893191367388,-0.0031608708668500185,0.00892159529030323,0.0003730315074790269,-0.004926367197185755
-0.003656692337244749,-0.006173858419060707,-0.0035961216781288385,0.008209428749978542,0.00034453999251127243,-0.0052801440469920635
-0.0036141809541732073,-0.006320260930806398,-0.004387605469673872,0.00841030478477478,0.0003795307711698115,-0.005042612552642822
-0.00363703491166234,-0.0061304750852286816,-0.0036293186713010073,0.008775160647928715,0.00035822324571199715,-0.004913168493658304
-0.0037160932552069426,-0.005936603061854839,-0.003494344186037779,0.008710124529898167,0.0003882946039084345,-0.00521170673891902
-0.003374446416273713,-0.006167436949908733,-0.0037356694228947163,0.008575108833611012,0.00036896212259307504,-0.0051879193633794785
-0.0032691978849470615,-0.006384606938809156,-0.0038673996459692717,0.008843952789902687,0.00038548122392967343,-0.005230351351201534
-0.0033690803684294224,-0.006168539635837078,-0.003829657332971692,0.008471201173961163,0.00037682082620449364,-0.005129165481775999
-0.0034494854044169188,-0.006215967703610659,-0.003726361785084009,0.008449739776551723,0.00035996269434690475,-0.0054206233471632
-0.0035399263724684715,-0.005783888511359692,-0.0037429167423397303,0.009468230418860912,0.0004213775391690433,-0.005790967959910631
-0.003653334453701973,-0.005851684603840113,-0.00332062179222703,0.008865048177540302,0.00039098988054320216,-0.005648086778819561
-0.0033852390479296446,-0.006633434444665909,-0.0034742793068289757,0.0083928806707263,0.00041293329559266567,-0.0054875388741493225
-0.0034840265288949013,-0.006262516137212515,-0.004258081316947937,0.008948873728513718,0.00039883991121314466,-0.005161062348634005
-0.0032572566997259855,-0.005980586167424917,-0.003759953659027815,0.00858386792242527,0.00040253650513477623,-0.004980645142495632
-0.0030157112050801516,-0.005843149498105049,-0.0034597828052937984,0.008336130529642105,0.0004044104425702244,-0.004736772738397121
-0.0030157112050801516,-0.005843149498105049,-0.0034597828052937984,0.008336130529642105,0.0004044104425702244,-0.004736772738397121
-0.002922322601079941,-0.005830640904605389,-0.003428346710279584,0.007962989620864391,0.0003817117540165782,-0.004702464677393436
-0.0032335135620087385,-0.005762483924627304,-0.003764750435948372,0.008451701141893864,0.000388964923331514,-0.00526476139202714
-0.0032335135620087385,-0.005762483924627304,-0.003764750435948372,0.008451701141893864,0.000388964923331514,-0.00526476139202714
-0.003242270089685917,-0.00553341768682003,-0.0035979070235043764,0.008539414033293724,0.0004111310699954629,-0.005331113934516907
-0.002922895597293973,-0.005765586160123348,-0.0035381452180445194,0.008528370410203934,0.0004444160731509328,-0.005288250278681517
-0.002922180574387312,-0.006364292465150356,-0.003802310209721327,0.00800344068557024,0.00041897883056662977,-0.005050223786383867
-0.0033426980953663588,-0.005804894957691431,-0.004488407168537378,0.008047278970479965,0.0004370355745777488,-0.004887664224952459
-0.003343943040817976,-0.005856452975422144,-0.004169598687440157,0.008202720433473587,0.00042258627945557237,-0.004671165719628334
-0.0029782685451209545,-0.005426900926977396,-0.0034454672131687403,0.008282285183668137,0.0004459463234525174,-0.004719993099570274
-0.002804606454446912,-0.005719401873648167,-0.003294970840215683,0.00831175222992897,0.00042744827806018293,-0.005039318930357695
-0.002828223630785942,-0.005874118767678738,-0.0035279004368931055,0.0079731410369277,0.0005366883124224842,-0.004856303799897432
-0.003240823745727539,-0.006129481829702854,-0.0035722414031624794,0.008461750112473965,0.0005603574682027102,-0.004737294744700193
-0.0032520913518965244,-0.005930039566010237,-0.0035816666204482317,0.007964067161083221,0.0005281312623992562,-0.004557648207992315
-0.0035233970265835524,-0.00582209974527359,-0.003649299032986164,0.00744265504181385,0.0005412908503785729,-0.005002339370548725
-0.0028935817535966635,-0.005292879417538643,-0.0036721210926771164,0.008016156032681465,0.0005152909434400499,-0.005065347999334335
-0.002860546810552478,-0.005869580898433924,-0.003681980771943927,0.0083471005782485,0.00047741123125888407,-0.0048325201496481895
-0.0030451796483248472,-0.006226303055882454,-0.003802187740802765,0.0078096273355185986,0.0005027837469242513,-0.004735390190035105
-0.0031341395806521177,-0.0056860907934606075,-0.003601628355681896,0.007504895329475403,0.0004735496186185628,-0.005083275493234396
-0.003033251967281103,-0.005880393553525209,-0.003590731881558895,0.0075540379621088505,0.0004479044582694769,-0.005162369925528765
-0.0029246858321130276,-0.005289645865559578,-0.0036621824838221073,0.00792749784886837,0.00045404047705233097,-0.0056915283203125
-0.002917132107540965,-0.0053831287659704685,-0.00374588742852211,0.0076077962294220924,0.0004555686900857836,-0.005414130631834269
-0.0031097594182938337,-0.005681759212166071,-0.003893599146977067,0.007754225749522448,0.0004538070352282375,-0.0049473741091787815
-0.0030914810486137867,-0.0060373167507350445,-0.003909038845449686,0.008392374962568283,0.00042081557330675423,-0.004745263606309891
-0.003023045603185892,-0.005768260918557644,-0.003949273843318224,0.007903718389570713,0.00045102255535311997,-0.005028780084103346
-0.0028078288305550814,-0.005519884638488293,-0.0036128885112702847,0.007499706465750933,0.00042456903611309826,-0.004760692361742258
-0.0028642979450523853,-0.0050270818173885345,-0.003559608943760395,0.008022170513868332,0.0004471393767744303,-0.0046257092617452145
-0.002941545331850648,-0.004874920938163996,-0.003664893563836813,0.007850246503949165,0.00042881269473582506,-0.004886976443231106
-0.002759219380095601,-0.005667234305292368,-0.0038426879327744246,0.007479434367269278,0.0005339434137567878,-0.0045084464363753796
-0.002759219380095601,-0.005667234305292368,-0.0038426879327744246,0.007479434367269278,0.0005339434137567878,-0.0045084464363753796
-0.002723168581724167,-0.005537180230021477,-0.003551534842699766,0.007599178701639175,0.0005618548602797091,-0.0041464148089289665
-0.0025130831636488438,-0.005205575842410326,-0.0035833418369293213,0.007495115511119366,0.0005897360388189554,-0.0043230438604950905
-0.0024082751478999853,-0.005564181134104729,-0.0036765679251402617,0.0071011739782989025,0.0008130557253025472,-0.0049429405480623245
-0.002661513164639473,-0.005370451137423515,-0.0038621495477855206,0.007236165460199118,0.0009050443186424673,-0.004559268243610859
-0.0028516575694084167,-0.005984099581837654,-0.003943667281419039,0.007711904589086771,0.0009093218250200152,-0.004578071646392345
-0.002887475537136197,-0.005402135197073221,-0.003638963680714369,0.0077746352180838585,0.0009083590121008456,-0.004172234330326319
-0.002702986588701606,-0.005015552509576082,-0.003216149751096964,0.0075212689116597176,0.000989366672001779,-0.004205589648336172
-0.0028876240830868483,-0.005215230397880077,-0.003272149246186018,0.007359345443546772,0.000992616405710578,-0.0042580426670610905
-0.0026760981418192387,-0.005065457429736853,-0.003722485387697816,0.007441336754709482,0.0009693377069197595,-0.004744591657072306
-0.002517842222005129,-0.005653670523315668,-0.004423860926181078,0.007947764359414577,0.0009128538658842444,-0.004464941564947367
-0.0025663941632956266,-0.0050369747914373875,-0.003503149375319481,0.007535749115049839,0.0007927189581096172,-0.004157088231295347
-0.0025663941632956266,-0.0050369747914373875,-0.003503149375319481,0.007535749115049839,0.0007927189581096172,-0.004157088231295347
-0.002465583384037018,-0.005146770738065243,-0.0034372720401734114,0.008118374273180962,0.000803856470156461,-0.004252937622368336
-0.002667335094884038,-0.005272321403026581,-0.0038377903401851654,0.00838738027960062,0.0007926379330456257,-0.004530457779765129
-0.0025265845470130444,-0.005529474932700396,-0.004022082779556513,0.007996944710612297,0.0007775561534799635,-0.004667957313358784
-0.0023656021803617477,-0.00530652841553092,-0.004022958688437939,0.007590140216052532,0.0007435936131514609,-0.0044612460769712925
-0.0026759866159409285,-0.005121177528053522,-0.003981591202318668,0.007718199398368597,0.0007195128127932549,-0.004564245697110891
-0.0026306805666536093,-0.005242757499217987,-0.004011757206171751,0.008049282245337963,0.0006625020178034902,-0.00456539960578084
-0.0025095324963331223,-0.004854209255427122,-0.00351255782879889,0.00755727756768465,0.000664493243675679,-0.004650801885873079
-0.0024234962183982134,-0.005229608621448278,-0.003553123213350773,0.007221187464892864,0.0006639441708102822,-0.004265122581273317
-0.0024223325308412313,-0.005438635125756264,-0.004133313428610563,0.008015318773686886,0.0006864042952656746,-0.0043089683167636395
-0.0023091924376785755,-0.004703775979578495,-0.004320310894399881,0.00837024487555027,0.0006694167968817055,-0.004293260630220175
-0.0024238228797912598,-0.004661177285015583,-0.00402320921421051,0.007811482530087233,0.000807796255685389,-0.004555060528218746
-0.00229424680583179,-0.004916855599731207,-0.0033834257628768682,0.007719182875007391,0.0008278809254989028,-0.004462335258722305
-0.0024174614809453487,-0.004747013095766306,-0.0036392358597368,0.007690617348998785,0.0007836358854547143,-0.004315769765526056
-0.002253187820315361,-0.004687463399022818,-0.00442386232316494,0.007461057975888252,0.0007929946295917034,-0.004419356118887663
-0.0022000926546752453,-0.004916119854897261,-0.0044638062827289104,0.006940410938113928,0.0008613241370767355,-0.00419010641053319
-0.0023317448794841766,-0.004788047634065151,-0.003990714903920889,0.007094780448824167,0.000839021522551775,-0.003940644674003124
-0.002369394525885582,-0.004458081442862749,-0.0036478638648986816,0.007109585218131542,0.0007863158243708313,-0.004243516828864813
-0.0022917231544852257,-0.004398178309202194,-0.004223302472382784,0.006990036927163601,0.0007110022706910968,-0.004115051124244928
-0.0021604117937386036,-0.004484235774725676,-0.00420416658744216,0.006642332300543785,0.0007181955734267831,-0.003963389899581671
-0.0021604117937386036,-0.004484235774725676,-0.00420416658744216,0.006642332300543785,0.0007181955734267831,-0.003963389899581671
-0.002062462503090501,-0.004561591427773237,-0.0040124570950865746,0.007100379094481468,0.0006627379916608334,-0.003898558672517538
-0.0020567234605550766,-0.00457646744325757,-0.0037637599743902683,0.007023145444691181,0.0006013450911268592,-0.0038434674497693777
-0.002045357134193182,-0.004224870353937149,-0.003667978337034583,0.006687019020318985,0.0005318759940564632,-0.004040348809212446
-0.001989920623600483,-0.004426336381584406,-0.0041013313457369804,0.006238926667720079,0.0005638506263494492,-0.0036679417826235294
-0.0022151872981339693,-0.004667217843234539,-0.004456437658518553,0.006423529237508774,0.0005571714718826115,-0.0035981524270027876
-0.001956257736310363,-0.004530902020633221,-0.0037869152147322893,0.006889540236443281,0.000546652649063617,-0.0036735788453370333
-0.0020575697999447584,-0.004372708965092897,-0.0034836733248084784,0.006954982876777649,0.0005723432986997068,-0.003720581531524658
-0.0018898033304139972,-0.0045661767944693565,-0.003577211406081915,0.006558568216860294,0.0006109685637056828,-0.0037731770426034927
-0.0020570443011820316,-0.004263609182089567,-0.0041472455486655235,0.0061886911280453205,0.0007193650817498565,-0.0038804253563284874
-0.0018461085855960846,-0.004257122986018658,-0.004665760323405266,0.006614326033741236,0.0007937535992823541,-0.0035049603320658207
-0.0017538231331855059,-0.0045531876385211945,-0.004216627683490515,0.007314241025596857,0.0007625902071595192,-0.00351970293559134
-0.0017656964482739568,-0.004257854074239731,-0.003936190158128738,0.007025263272225857,0.0007343606557697058,-0.003715153317898512
-0.0017517870292067528,-0.004436237271875143,-0.0034129212144762278,0.007182851899415255,0.0007080541690811515,-0.0038938357029110193
-0.0016268470790237188,-0.004592228680849075,-0.003506437176838517,0.006509359460324049,0.000808029028121382,-0.004036112688481808
-0.0016567701241001487,-0.004465015605092049,-0.00423033582046628,0.006265155039727688,0.0008096736273728311,-0.003994570579379797
-0.0016872098203748465,-0.004405173473060131,-0.004586757626384497,0.006366395857185125,0.0007673526997677982,-0.0034503189381211996
-0.0015684283571317792,-0.0041730403900146484,-0.004621410276740789,0.006450927350670099,0.0007716203108429909,-0.002997982082888484
-0.0013787189964205027,-0.004310103133320808,-0.004169362131506205,0.006561852991580963,0.0007721331785432994,-0.0032347559463232756
-0.0014123419532552361,-0.004561405163258314,-0.003914965316653252,0.0070707774721086025,0.0007687646429985762,-0.004354816395789385
-0.0013701127609238029,-0.0042134299874305725,-0.003918069880455732,0.006981068290770054,0.0007039053598418832,-0.00408149603754282
-0.0014730149414390326,-0.0039891889318823814,-0.004411837086081505,0.006471435539424419,0.0007247858447954059,-0.0034216323401778936
-0.0014971757773309946,-0.004329494200646877,-0.004494122229516506,0.005862845107913017,0.0007453257567249238,-0.0030610153917223215
-0.0014817939372733235,-0.0042191133834421635,-0.004497639834880829,0.006256125867366791,0.0007617934606969357,-0.0029974940698593855
-0.0013160050148144364,-0.003913494758307934,-0.004046846181154251,0.0066374377347528934,0.000958855205681175,-0.003654023166745901
-0.0013160050148144364,-0.003913494758307934,-0.004046846181154251,0.0066374377347528934,0.000958855205681175,-0.003654023166745901
-0.0010693632066249847,-0.0035792465787380934,-0.004361018538475037,0.005582371726632118,0.0010611108737066388,-0.0036422491539269686
-0.0010338494321331382,-0.00371967232786119,-0.0043028853833675385,0.0058574615977704525,0.0009956216672435403,-0.0031638764776289463
-0.0010338494321331382,-0.00371967232786119,-0.0043028853833675385,0.0058574615977704525,0.0009956216672435403,-0.0031638764776289463
-0.0011101081036031246,-0.004024287685751915,-0.004312874749302864,0.0066528539173305035,0.0009755934588611126,-0.002821496222168207
-0.001176113961264491,-0.0039673144929111,-0.004037623759359121,0.006484619341790676,0.0009538607555441558,-0.002951973117887974
-0.0011947848834097385,-0.0037224781699478626,-0.003951121587306261,0.005871618166565895,0.0009459179709665477,-0.0033037951216101646
-0.0011466864962130785,-0.0035190870985388756,-0.004450032487511635,0.005514191929250956,0.0008690069662407041,-0.003663136623799801
-0.0011085018049925566,-0.00349316094070673,-0.004509590566158295,0.005659873131662607,0.000859297753777355,-0.003392684506252408
-0.0010473624570295215,-0.0034511119592934847,-0.004323264118283987,0.006352758500725031,0.0008321060449816287,-0.003119945526123047
-0.0008617791463620961,-0.0035754721611738205,-0.0039979531429708,0.006124453153461218,0.0008385088294744492,-0.002852902514860034
-0.0008613887475803494,-0.0036725150421261787,-0.0037972996942698956,0.005650999490171671,0.0007987194112502038,-0.002896955469623208
-0.0007474964368157089,-0.00379901472479105,-0.003994512837380171,0.005221938714385033,0.0008594972314313054,-0.0029692177195101976
-0.0007612802437506616,-0.0038020452484488487,-0.004739915486425161,0.005654462613165379,0.0008686853107064962,-0.0030565084889531136
-0.0006828694022260606,-0.003798621939495206,-0.004353157244622707,0.0057998765259981155,0.0008644743938930333,-0.002880724612623453
-0.0007028139079920948,-0.0033506606705486774,-0.004404847510159016,0.005799196660518646,0.000773355015553534,-0.0028824310284107924
-0.0006413569208234549,-0.0032142128329724073,-0.004159372299909592,0.005852706264704466,0.0007808365626260638,-0.00285072042606771
-0.0005959419067949057,-0.003349813399836421,-0.0040637836791574955,0.00581919914111495,0.000754798180423677,-0.0028315274976193905
-0.00047586142318323255,-0.0036627338267862797,-0.004017331171780825,0.005523884668946266,0.0007606057333759964,-0.0030215296428650618
-0.00042963409214280546,-0.003353291191160679,-0.004382495768368244,0.005950880702584982,0.0007487181574106216,-0.002883641514927149
-0.0004672874929383397,-0.003165867645293474,-0.004576949868351221,0.006179280579090118,0.0007148532313294709,-0.0030919730197638273
-0.00043281709076836705,-0.003209344344213605,-0.004362945910543203,0.0057297744788229465,0.0007331707747653127,-0.0031517967581748962
-0.0004007276729680598,-0.0035545295104384422,-0.0038418325129896402,0.005894861649721861,0.0009448330383747816,-0.0028411676175892353
-0.00037304009310901165,-0.0033716484904289246,-0.004210932180285454,0.005820792634040117,0.0009500837186351418,-0.0027427023742347956
-0.0004001219931524247,-0.003534940769895911,-0.004585786256939173,0.006237067747861147,0.0009716898202896118,-0.0027367256116122007
-0.0003822802100330591,-0.003257677424699068,-0.0049803550355136395,0.005803991574794054,0.0013167329598218203,-0.0024349798914045095
-0.00036048845504410565,-0.0028866298962384462,-0.004815461114048958,0.005684790201485157,0.0012548279482871294,-0.0023149950429797173
-0.00034097646130248904,-0.0028808568604290485,-0.004743029363453388,0.005462189670652151,0.0012155096046626568,-0.002310170792043209
-0.00032346733496524394,-0.0029856846667826176,-0.004175742156803608,0.005239120684564114,0.001157762249931693,-0.0025628614239394665
-0.0002933417563326657,-0.0032864997629076242,-0.004292493220418692,0.005636660382151604,0.0011579026468098164,-0.0027619178872555494
-0.000280290114460513,-0.0030705146491527557,-0.004609867464751005,0.005358841270208359,0.0011455039493739605,-0.0026609436608850956
-0.0002683502098079771,-0.002983330748975277,-0.0045906370505690575,0.005315890535712242,0.0011653023539111018,-0.0025509456172585487
-0.0002573863312136382,-0.0028755920939147472,-0.004617772530764341,0.005427025258541107,0.0011216701241210103,-0.002577209146693349
-0.00024728287826292217,-0.0032881784718483686,-0.004703844431787729,0.005129406228661537,0.0010694850934669375,-0.0025352633092552423
-0.00023829280689824373,-0.0032099937088787556,-0.004670711234211922,0.004948191810399294,0.0010221159318462014,-0.0024716383777558804
-9.615511953597888e-05,-0.0030046626925468445,-0.004357418976724148,0.004778148606419563,0.0010391197865828872,-0.002521259244531393
-9.615511953597888e-05,-0.0030046626925468445,-0.004357418976724148,0.004778148606419563,0.0010391197865828872,-0.002521259244531393
-8.962386345956475e-05,-0.002908675465732813,-0.004281137138605118,0.004738370422273874,0.001018729992210865,-0.0024714909959584475
-8.535059896530584e-05,-0.0028701864648610353,-0.0049762059934437275,0.004583884961903095,0.0010107089765369892,-0.0023196011316031218
-8.148606139002368e-05,-0.002819425892084837,-0.005105739925056696,0.0050842901691794395,0.001034744898788631,-0.0022536776959896088
-7.795667625032365e-05,-0.0026834956370294094,-0.004749975632876158,0.00519900256767869,0.001105430070310831,-0.0022152489982545376
-7.472043216694146e-05,-0.0029602462891489267,-0.00441416772082448,0.00498289056122303,0.0010788528015837073,-0.0022668070159852505
-7.1742084401194e-05,-0.0033325119875371456,-0.004325875546783209,0.00527934217825532,0.0010084776440635324,-0.0021707448177039623
-6.899212166899815e-05,-0.0032441336661577225,-0.004126591142266989,0.005271269474178553,0.0010551579762250185,-0.002120149554684758
-6.644526729360223e-05,-0.003103559836745262,-0.004910983145236969,0.004944138694554567,0.0009567052475176752,-0.0022440943866968155
-6.407974433386698e-05,-0.002878079656511545,-0.0046217492781579494,0.005131014622747898,0.0009337148512713611,-0.0022380121517926455
-6.18768681306392e-05,-0.0029358442407101393,-0.004468404222279787,0.00515364296734333,0.0008833781466819346,-0.0024584257043898106
-5.982043148833327e-05,-0.002855021972209215,-0.004523574374616146,0.004920348059386015,0.000832230900414288,-0.002345748944208026
-2.9349426768021658e-05,-0.0028602106031030416,-0.004618682898581028,0.005324096884578466,0.0007511642761528492,-0.0024302222300320864
-2.805137228278909e-05,-0.00264127179980278,-0.004354575648903847,0.005233837757259607,0.0007430916884914041,-0.0022949124686419964
-2.7198488169233315e-05,-0.002651532180607319,-0.004539103247225285,0.004833891987800598,0.0007610117318108678,-0.0021701334044337273
-3.103460130660096e-06,-0.0028544149827212095,-0.00428769551217556,0.004861928056925535,0.0007765142363496125,-0.002155363792553544
-4.163688060998538e-08,-0.0028126537799835205,-0.004350003786385059,0.004815723747014999,0.0008522720891050994,-0.002088390989229083
-5.586118234646165e-10,-0.002881173510104418,-0.0046037668362259865,0.004904936999082565,0.0009638919145800173,-0.002200070070102811
-7.494489404069604e-12,-0.002865261398255825,-0.004671368282288313,0.005102828610688448,0.0009704892290756106,-0.0020630306098610163
0.0016458450118079782,-0.0026565338484942913,-0.004696916323155165,0.004872373305261135,0.0009619205375202,-0.002120591700077057
0.0014388358686119318,-0.002594627905637026,-0.004418534226715565,0.00480241235345602,0.0010379282757639885,-0.0019490689737722278
0.0014388358686119318,-0.002594627905637026,-0.004418534226715565,0.00480241235345602,0.0010379282757639885,-0.0019490689737722278
0.000667506130412221,-0.002457174239680171,-0.004284834023565054,0.00455840490758419,0.0009866683976724744,-0.001525836531072855
0.0006916997954249382,-0.002610323717817664,-0.0040596299804747105,0.004683977924287319,0.0010859481990337372,-0.0013831272954121232
0.0006837996188551188,-0.00237410725094378,-0.004998913034796715,0.0043123746290802956,0.0011635387782007456,-0.0013836510479450226
0.0007056008325889707,-0.002273338846862316,-0.004709106404334307,0.004245903808623552,0.0017172059742733836,-0.0013050023699179292
0.0007056008325889707,-0.002273338846862316,-0.004709106404334307,0.004245903808623552,0.0017172059742733836,-0.0013050023699179292
0.0006691984599456191,-0.0023977498058229685,-0.004524848889559507,0.004116394091397524,0.0018713388126343489,-0.001525404746644199
0.0004868951509706676,-0.0023422562517225742,-0.004465812351554632,0.0043814098462462425,0.001955342711880803,-0.0020731063559651375
0.0004998286603949964,-0.0024837034288793802,-0.004509830381721258,0.004274908918887377,0.0017662036698311567,-0.002133468398824334
0.0005340257775969803,-0.0024040841963142157,-0.00485296081751585,0.004522810224443674,0.0014296791050583124,-0.001998242689296603
0.0005468974122777581,-0.0023032082244753838,-0.0049801473505795,0.004543208051472902,0.0012457248521968722,-0.001777368364855647
0.0005294361035339534,-0.002390817739069462,-0.005285539664328098,0.0044501121155917645,0.0011205036425963044,-0.0016094088787212968
0.0008974256925284863,-0.0024596741423010826,-0.005041690077632666,0.004461886361241341,0.000819292850792408,-0.0012764877174049616
0.0009107085061259568,-0.0023099458776414394,-0.004715390503406525,0.004174902569502592,0.0008137711556628346,-0.0011587332701310515
0.0009095765417441726,-0.0022984729148447514,-0.0047644199803471565,0.004292956553399563,0.0008806900586932898,-0.001237276359461248
0.0008439305238425732,-0.0021567759104073048,-0.004718043841421604,0.00403538066893816,0.0009923408506438136,-0.001357060158625245
0.0010511578293517232,-0.0020018599461764097,-0.005035114008933306,0.0038528600707650185,0.0012012880761176348,-0.001360258786007762
0.0010280795395374298,-0.0019478125032037497,-0.005719869397580624,0.004062124993652105,0.0012239842908456922,-0.0015257216291502118
0.001039623748511076,-0.002109385561197996,-0.0051999869756400585,0.004260203801095486,0.0015439362032338977,-0.001656922628171742
0.0012803529389202595,-0.0019300795393064618,-0.004656047560274601,0.004110265057533979,0.001470684539526701,-0.0016020940383896232
0.0012716458877548575,-0.002148910891264677,-0.004209108185023069,0.003894792404025793,0.001377150765620172,-0.00166787370108068
0.0014874630142003298,-0.0020642345771193504,-0.00480038532987237,0.004202279727905989,0.0013270009076222777,-0.0015259606298059225
0.0014590821228921413,-0.0020510205067694187,-0.005248845089226961,0.003672407940030098,0.001246412517502904,-0.0014036265201866627
0.0015141419135034084,-0.001954002771526575,-0.005750793498009443,0.003591358894482255,0.001185605418868363,-0.0011859920341521502
0.0014052302576601505,-0.0018893986707553267,-0.005129719618707895,0.003914270084351301,0.0011395678156986833,-0.0009498695144429803
0.001493013696745038,-0.0017668893560767174,-0.004351549316197634,0.00426938571035862,0.0011113997315987945,-0.0009287651628255844
0.001493013696745038,-0.0017668893560767174,-0.004351549316197634,0.00426938571035862,0.0011113997315987945,-0.0009287651628255844
0.0019243878778070211,-0.002037836704403162,-0.00545627623796463,0.003147846320644021,0.0012465290492400527,-0.0010302159935235977
0.0020032417960464954,-0.0018388686003163457,-0.005579942371696234,0.0033945536706596613,0.0012155002914369106,-0.001132981269620359
0.0020032417960464954,-0.0018388686003163457,-0.005579942371696234,0.0033945536706596613,0.0012155002914369106,-0.001132981269620359
0.0018989155068993568,-0.001711710006929934,-0.004981545731425285,0.0037617222405970097,0.001329645048826933,-0.001477863872423768
0.0018432511715218425,-0.0016619159141555429,-0.004457015078514814,0.0035110984463244677,0.0013608282897621393,-0.0015339485835283995
0.0019123395904898643,-0.0014555171364918351,-0.004509120713919401,0.0034286051522940397,0.0013746061595156789,-0.001463677966967225
0.002143286634236574,-0.0014730660477653146,-0.005095018073916435,0.0034105004742741585,0.0013350475346669555,-0.0014719421742483974
0.0026657627895474434,-0.001417403225786984,-0.005159781314432621,0.0033791393507272005,0.0014328419929370284,-0.0013040563790127635
0.00295495567843318,-0.001548477914184332,-0.00522116431966424,0.0031603791285306215,0.0014085200382396579,-0.0011493016500025988
0.0027354236226528883,-0.0015635803574696183,-0.004803398624062538,0.003112797625362873,0.0015802675625309348,-0.001095194835215807
0.0028355401009321213,-0.0015423557488247752,-0.004646829329431057,0.0033479586709290743,0.00159960996825248,-0.0009644919191487134
0.00293434108607471,-0.0016103802481666207,-0.0045838444493710995,0.003143109381198883,0.001720130443572998,-0.0008627576753497124
0.0030531540978699923,-0.0014831132721155882,-0.005154553800821304,0.0032853472512215376,0.001636194414459169,-0.0006538587622344494
0.0036007764283567667,-0.0015343311242759228,-0.005231610499322414,0.00307394634000957,0.001512205577455461,-0.0006627674447372556
0.0033861342817544937,-0.0014109855983406305,-0.005854769144207239,0.003151399316266179,0.001433315803296864,-0.0006878126878291368
0.0032840671483427286,-0.0013194711646065116,-0.005309082102030516,0.00312657724134624,0.0013739109272137284,-0.0007187455776147544
0.0031984876841306686,-0.0013632653281092644,-0.004411947447806597,0.003496152814477682,0.0013190270401537418,-0.0010114230681210756
0.003473111195489764,-0.001285371370613575,-0.004386413376778364,0.003236555028706789,0.0013790411176159978,-0.001010240870527923
0.0037476320285350084,-0.0012439873535186052,-0.005061729345470667,0.003181572537869215,0.001313561573624611,-0.0009956177091225982
0.004084108397364616,-0.001358871697448194,-0.005266202613711357,0.0029008358251303434,0.0013840619940310717,-0.0009015323012135923
0.00405886908993125,-0.0012828272301703691,-0.005987627897411585,0.002795224543660879,0.001379466149955988,-0.0008050656761042774
0.004287469666451216,-0.0012508663348853588,-0.005281995050609112,0.0026641367003321648,0.0012867306359112263,-0.000764353375416249
0.003996828570961952,-0.0013155739288777113,-0.004650318529456854,0.003120394889265299,0.0012460864381864667,-0.0007211709744296968
0.00440242188051343,-0.0012494683032855392,-0.004735790658742189,0.003169348230585456,0.0013001082697883248,-0.0006850528297945857
0.00440242188051343,-0.0012494683032855392,-0.004735790658742189,0.003169348230585456,0.0013001082697883248,-0.0006850528297945857
0.004627896472811699,-0.0012200046330690384,-0.0054847425781190395,0.002931159222498536,0.001325948745943606,-0.0006985574145801365
0.0050680930726230145,-0.0012336195213720202,-0.005798004567623138,0.002717172261327505,0.001529364031739533,-0.000668955035507679
0.005071023479104042,-0.001187876332551241,-0.00481859827414155,0.002870638854801655,0.0016726619796827435,-0.0006570514524355531
0.004868833348155022,-0.0011086423182860017,-0.00450740335509181,0.002913183532655239,0.0017843837849795818,-0.0006773045170120895
0.0047816806472837925,-0.0010667253518477082,-0.004938279744237661,0.002797248074784875,0.0016780556179583073,-0.0006139517645351589
0.004985562060028315,-0.0010225365404039621,-0.005094144027680159,0.0027538491412997246,0.00166482909116894,-0.0005519973346963525
0.005284170154482126,-0.0008932281052693725,-0.005578713957220316,0.0026918386574834585,0.001527077634818852,-0.0005007929867133498
0.005623023025691509,-0.0008924684370867908,-0.005628707353025675,0.0024943179450929165,0.001499705365858972,-0.00045824836706742644
0.005350115243345499,-0.0006983957136981189,-0.0051317219622433186,0.002545291557908058,0.001541529200039804,-0.0004223728319630027
0.005246731452643871,-0.00018170179100707173,-0.004728697240352631,0.002602887572720647,0.0014913988998159766,-0.0003917088615708053
0.005601654760539532,-0.00011456201173132285,-0.004779816139489412,0.0024358313530683517,0.001605446683242917,-0.00036519987042993307
0.006090783979743719,-0.0001667632459430024,-0.0049050841480493546,0.0025018383748829365,0.0016134337056428194,-0.00034205307019874454
0.005913476459681988,-0.00018125356291420758,-0.005808768793940544,0.0025944674853235483,0.001508096233010292,-0.0003216673794668168
0.006204553879797459,-0.00024635912268422544,-0.005868831649422646,0.0023767133243381977,0.0016169551527127624,-0.00030357539071701467
0.006209737621247768,-0.0002267647796543315,-0.005347064696252346,0.002506429562345147,0.0015079540899023414,-0.0002874112979043275
0.006028166972100735,1.1401961273804773e-05,-0.005007709376513958,0.0024740449152886868,0.0015972559340298176,-0.00027288252022117376
0.006697304081171751,0.0001125465496443212,-0.004864661954343319,0.002433614805340767,0.0015768276061862707,-0.0002597526181489229
0.006905031856149435,0.0001012693828670308,-0.00585613027215004,0.00261685810983181,0.0014893081970512867,-0.0002478277310729027
0.00646187411621213,9.103951742872596e-05,-0.005886642728000879,0.0027343130204826593,0.0015352119226008654,-0.0002369504509260878
0.007081637158989906,8.267261000582948e-05,-0.0057503399439156055,0.0025163027457892895,0.0015048390487208962,-0.0002269880351377651
0.006902866996824741,7.571480819024146e-05,-0.004811354912817478,0.0025433916598558426,0.0017366106621921062,-0.00021782952535431832
0.006744757294654846,6.983788625802845e-05,-0.0050209700129926205,0.0022738815750926733,0.0016857056180015206,-0.00020938173111062497
0.006680621765553951,6.480787124019116e-05,-0.005046731326729059,0.0022028028033673763,0.0020368387922644615,-0.00020156509708613157
0.007096953224390745,6.045349800842814e-05,-0.005340900272130966,0.002098971279338002,0.0020509667228907347,-0.00019431099644862115
0.007096953224390745,6.045349800842814e-05,-0.005340900272130966,0.002098971279338002,0.0020509667228907347,-0.00019431099644862115
0.007336874026805162,5.329315172275528e-05,-0.005444597918540239,0.0019874933641403913,0.0019394677365198731,-0.00018126406939700246
0.007336874026805162,5.329315172275528e-05,-0.005444597918540239,0.0019874933641403913,0.0019394677365198731,-0.00018126406939700246
0.0074532609432935715,4.764921686728485e-05,-0.005168094299733639,0.002192337531596422,0.0017676586285233498,-0.00016985925321932882
0.0074532609432935715,4.764921686728485e-05,-0.005168094299733639,0.002192337531596422,0.0017676586285233498,-0.00016985925321932882
0.00783070083707571,4.308655843487941e-05,-0.005989063996821642,0.0015561562031507492,0.001735170604661107,-0.0001598047383595258
0.007425804156810045,4.1117844375548884e-05,-0.0055910926312208176,0.0013336999109014869,0.0019223617855459452,-0.0001552111643832177
0.007308385334908962,3.9321323129115626e-05,-0.005339659284800291,0.0012401739368215203,0.0018205404048785567,-0.00015087441715877503
0.008069474250078201,3.767518501263112e-05,-0.004999336786568165,0.0011816852493211627,0.0017944828141480684,-0.00012553646229207516
0.008005277253687382,3.616132016759366e-05,-0.005119628272950649,0.0009945863857865334,0.0017622027080506086,-0.00011928489402635023
0.007943404838442802,6.542238406836987e-05,-0.0054771252907812595,0.0009514950797893107,0.0017699109157547355,-0.00011601833830354735
0.00822608731687069,6.68881693854928e-05,-0.0062023429200053215,0.0010165371932089329,0.0017123111756518483,-0.0001130899618146941
0.008178052492439747,6.454188405768946e-05,-0.005889007356017828,0.0011285312939435244,0.0017697436269372702,-0.00011031657049898058
0.008617633022367954,6.23084488324821e-05,-0.005682938266545534,0.0012287718709558249,0.0018083032919093966,-9.709295409265906e-05
0.00882344413548708,6.022371962899342e-05,-0.005139857996255159,0.0011760212946683168,0.0019384011393412948,-8.484334102831781e-05
0.008346819318830967,5.827401400892995e-05,-0.005217391531914473,0.0011321506462991238,0.0020441545639187098,-8.225378405768424e-05
0.008576430380344391,5.6446559028699994e-05,-0.005712893325835466,0.0010693144286051393,0.0023846710100769997,-8.037474617594853e-05
0.008830606006085873,5.473026976687834e-05,-0.005989874247461557,0.0009784781141206622,0.0021551414392888546,-6.0274476709309965e-05
0.008578531444072723,7.056695903884247e-05,-0.0057458519004285336,0.0009616718161851168,0.001883246237412095,-5.778788181487471e-05
0.009382562711834908,7.726703188382089e-05,-0.005986245349049568,0.0009527208167128265,0.001788691384717822,-7.638150236743968e-06
0.009259500540792942,7.52312334952876e-05,-0.005404268391430378,0.000893701333552599,0.001547756022773683,3.8609985494986176e-05
0.00922472681850195,7.319336145883426e-05,-0.005902137607336044,0.0008370689465664327,0.0015738325892016292,5.8528396039037034e-05
0.009690482169389725,9.468819916946813e-05,-0.006123856175690889,0.00083309062756598,0.0017055532662197948,6.972270784899592e-05
0.009476170875132084,9.256779594579712e-05,-0.006019871216267347,0.0008252649568021297,0.002040835563093424,7.767092029098421e-05
0.009157990105450153,9.025140752783045e-05,-0.006025732960551977,0.0007544799009338021,0.0021350060123950243,9.328816668130457e-05
0.01022463757544756,8.804434764897451e-05,-0.005819146055728197,0.0007647532620467246,0.002097208285704255,0.00040108029497787356
0.009901006706058979,8.594244718551636e-05,-0.006143644452095032,0.0007519288337789476,0.002045418368652463,0.0006186485989019275
0.009758781641721725,8.214092667913064e-05,-0.0058049848303198814,0.0007790806703269482,0.0019309741910547018,0.0005979055422358215
0.009761029854416847,0.00011707169323926792,-0.006062105298042297,0.0007672647479921579,0.001756018027663231,0.000538689608220011
0.009761029854416847,0.00011707169323926792,-0.006062105298042297,0.0007672647479921579,0.001756018027663231,0.000538689608220011
0.008785760961472988,0.00011458808876341209,-0.005931264720857143,0.0007348516955971718,0.0017234039260074496,0.0005655682762153447
0.011171827092766762,0.000133201276184991,-0.006420579738914967,0.0007914826855994761,0.0019531090511009097,0.0005783636588603258
0.011299161240458488,0.0001308379287365824,-0.00619127182289958,0.0007122242823243141,0.002483587944880128,0.0006087119108997285
0.009947635233402252,0.00012775399954989552,-0.005856421310454607,0.000617301557213068,0.002325752517208457,0.0007139000226743519
0.008124426007270813,0.0001248015178134665,-0.005957415793091059,0.0006359934923239052,0.002251585479825735,0.0007639367249794304
0.008226955309510231,0.0001399310422129929,-0.006488120649009943,0.0005802226951345801,0.002023193286731839,0.0013744054595008492
0.007926883175969124,0.0001391373371006921,-0.006263856776058674,0.0005666912184096873,0.0017430237494409084,0.0014252468245103955
0.00892029982060194,0.00013616103387903422,-0.0062242066487669945,0.0005549779743887484,0.0017474157502874732,0.0013360705925151706
0.009003148414194584,0.00013328097702469677,-0.005728854797780514,0.0005122372531332076,0.002095694886520505,0.0011855718912556767
0.008502950891852379,0.00014890998136252165,-0.0058555384166538715,0.0005323431687429547,0.00262302509509027,0.0010733007220551372
0.009511500597000122,0.00014637371350545436,-0.0064888596534729,0.0005031292093917727,0.002587987342849374,0.001079012406989932
0.009309901855885983,0.00034412796958349645,-0.006437191739678383,0.00047074203030206263,0.002389138098806143,0.0010721604339778423
0.009457134641706944,0.0003644183452706784,-0.0064048548229038715,0.0004418725147843361,0.002096849260851741,0.0012193456059321761
0.008704476989805698,0.0003606434620451182,-0.006338636856526136,0.00041631137719377875,0.0017193927196785808,0.0013425886863842607
0.009558401070535183,0.0003383206785656512,-0.00590034294873476,0.0003957097069360316,0.0015934982802718878,0.0018467186018824577
0.009724886156618595,0.0003183743974659592,-0.005720454268157482,0.000318819482345134,0.0015580315375700593,0.001906682038679719
0.009147228673100471,0.0003486937494017184,-0.0059000467881560326,0.0002947178727481514,0.0017889076843857765,0.002184239448979497
0.009558002464473248,0.00033222700585611165,-0.005862646736204624,0.0002763944212347269,0.0021368262823671103,0.0019997002091258764
0.0097794309258461,0.0003600583004299551,-0.006437078583985567,0.00026038059149868786,0.0022473239805549383,0.0018843275029212236
0.009814837947487831,0.00044463848462328315,-0.006256589200347662,0.00024613202549517155,0.0025513428263366222,0.0018245438113808632
0.010259345173835754,0.0004901937791146338,-0.006530039478093386,0.00022185509442351758,0.0024822677951306105,0.0018875785171985626
0.009399563074111938,0.00045039074029773474,-0.005846015177667141,0.00021142858895473182,0.002560925902798772,0.002228646771982312
0.010209949687123299,0.00048400284140370786,-0.006373408250510693,0.0002019379026023671,0.0023728483356535435,0.0023746106307953596
0.010701415129005909,0.0004503171076066792,-0.006708421744406223,0.0001932642189785838,0.002284284681081772,0.0022576821502298117
0.010099440813064575,0.00042028227471746504,-0.006681592669337988,0.00018530343368183821,0.002267422154545784,0.002103258855640888
0.010813377797603607,0.00044795137364417315,-0.006126217544078827,0.00017797389591578394,0.002136664930731058,0.002023800276219845
0.011738674715161324,0.0004237421089783311,-0.005402825772762299,0.00017120159463956952,0.002302379347383976,0.001752978190779686
0.011738674715161324,0.0004237421089783311,-0.005402825772762299,0.00017120159463956952,0.002302379347383976,0.001752978190779686
0.011748094111680984,0.00047666439786553383,-0.005607509985566139,0.00016492597933392972,0.002074107062071562,0.0016895707231014967
0.01061911042779684,0.0005198545404709876,-0.006651083007454872,0.0001590942993061617,0.0019329205388203263,0.0019779247231781483
0.010531757026910782,0.0006049811490811408,-0.007482598535716534,0.00015366144361905754,0.0018178322352468967,0.0029929664451628923
0.011109498329460621,0.0005886740400455892,-0.006376625504344702,0.00014858681242913008,0.001945185475051403,0.004247684497386217
0.011066816747188568,0.0011202228488400578,-0.005798450671136379,0.00014383706729859114,0.0022780827712267637,0.0038769759703427553
0.010939360596239567,0.0010880143381655216,-0.006041308864951134,0.00013938150368630886,0.002322100568562746,0.0032659750431776047
0.011863254941999912,0.001060004928149283,-0.0060220942832529545,0.00013519375352188945,0.0024289621505886316,0.0024851402267813683
0.011186998337507248,0.000936605385504663,-0.006580355577170849,0.0001312502718064934,0.0022222399711608887,0.002158793853595853
0.011205448769032955,0.0008823915850371122,-0.0067046708427369595,0.00010539014328969643,0.0023609171621501446,0.0023367321118712425
0.011185357347130775,0.000981881283223629,-0.006537578068673611,9.94323127088137e-05,0.0023164607118815184,0.003394372994080186
0.010808388702571392,0.0009717770735733211,-0.006033013574779034,9.656573820393533e-05,0.0022726913448423147,0.004231469240039587
0.011245430447161198,0.0010608005104586482,-0.0063093616627156734,9.403040166944265e-05,0.002316840225830674,0.003726419759914279
0.011384613811969757,0.0012253375025466084,-0.0067679258063435555,9.163587674265727e-05,0.0023490579333156347,0.0033815051428973675
0.011386438272893429,0.0012078951112926006,-0.006286570802330971,8.936112135415897e-05,0.002527124248445034,0.0029110342729836702
0.01154760830104351,0.001495767617598176,-0.006213161163032055,8.719663310330361e-05,0.0024102767929434776,0.0027654797304421663
0.010985414497554302,0.0014216972049325705,-0.00657320162281394,8.513457578374073e-05,0.002287802519276738,0.003142151515930891
0.01199333742260933,0.0013639263343065977,-0.006312526296824217,8.316765888594091e-05,0.002183007076382637,0.0036549284122884274
0.011316366493701935,0.0014652780955657363,-0.0063353790901601315,7.129813457140699e-05,0.0023998557589948177,0.0038922587409615517
0.011192177422344685,0.001520603196695447,-0.005925384350121021,6.0295427829260007e-05,0.002445454942062497,0.00392761779949069
0.011524788103997707,0.0017500764224678278,-0.006000776309520006,5.8376885135658085e-05,0.002570552285760641,0.0036078153643757105
0.011433256790041924,0.001713859848678112,-0.006566787604242563,5.7102031860267743e-05,0.0026642403099685907,0.003456869861111045
0.01185713429003954,0.001584898098371923,-0.006878115236759186,5.6018910981947556e-05,0.0024926885962486267,0.003542673774063587
0.010975474491715431,0.0017635589465498924,-0.0062088812701404095,-4.826063013751991e-05,0.002168782288208604,0.004179012030363083
0.011722498573362827,0.002043175743892789,-0.005675042048096657,-6.498127186205238e-05,0.002262428170070052,0.003981884103268385
0.011561587452888489,0.002253799932077527,-0.005928928963840008,-6.892269448144361e-05,0.0022060053888708353,0.003834454109892249
0.011632176116108894,0.002157580805942416,-0.006916892249137163,-6.756383663741872e-05,0.002195865148678422,0.0037165177054703236
0.011926946230232716,0.002306287409737706,-0.006787423510104418,-8.644633635412902e-05,0.0022336523979902267,0.003650121157988906
0.010963145643472672,0.002233528532087803,-0.005730742122977972,-8.572692604502663e-05,0.0021819607354700565,0.004098004661500454
0.010963145643472672,0.002233528532087803,-0.005730742122977972,-8.572692604502663e-05,0.0021819607354700565,0.004098004661500454
0.011752279475331306,0.002376555697992444,-0.005847988650202751,-9.935660636983812e-05,0.002453331369906664,0.004157039802521467
0.011021025478839874,0.0022137805353850126,-0.005996955558657646,-0.00010204228601651266,0.00240604137070477,0.004516486078500748
0.011506249196827412,0.0022122119553387165,-0.00693366676568985,-0.00035778069286607206,0.002538384171202779,0.004463972058147192
0.011948728002607822,0.0026388606056571007,-0.006621943321079016,-0.0004771731037180871,0.002840300090610981,0.004190756939351559
0.011663378216326237,0.0029539193492382765,-0.006203233730047941,-0.000507552525959909,0.0031578594353049994,0.004409622400999069
0.012035964988172054,0.0029263871256262064,-0.006007546093314886,-0.00048648330266587436,0.002782382071018219,0.004726095590740442
0.011288170702755451,0.0026564185973256826,-0.006215055473148823,-0.000513157865498215,0.0026533924974501133,0.004770755767822266
0.011498644948005676,0.00258323410525918,-0.006688231136649847,-0.0009237629710696638,0.0024596434086561203,0.004740812350064516
0.011717468500137329,0.0028840152081102133,-0.006684720516204834,-0.0010283880401402712,0.0023086313158273697,0.004763399250805378
0.011196770705282688,0.0032262022141367197,-0.006334602367132902,-0.001404109294526279,0.002621703315526247,0.0046096607111394405
0.011561286635696888,0.00361785595305264,-0.006074388977140188,-0.0015839178813621402,0.002868435811251402,0.004691651090979576
0.01185410562902689,0.0032662253361195326,-0.0069000814110040665,-0.0015000045532360673,0.0029417930636554956,0.004815046209841967
0.011945415288209915,0.0032642902806401253,-0.006960385013371706,-0.0017306831432506442,0.002779090777039528,0.004689014051109552
0.012109022587537766,0.003299437928944826,-0.007779709994792938,-0.0016858377493917942,0.002584845758974552,0.004690512549132109
0.011552581563591957,0.0035324261989444494,-0.007004625629633665,-0.002052605850622058,0.0024431825149804354,0.004913809709250927
0.01187108550220728,0.0037223566323518753,-0.007291142828762531,-0.0022629720624536276,0.0026285869535058737,0.00476054847240448
0.011713775806128979,0.003822071710601449,-0.008083878085017204,-0.0023570097982883453,0.002821157453581691,0.005333267617970705
0.012222427874803543,0.0038980299141258,-0.007047329097986221,-0.0026416347827762365,0.0026833515148609877,0.0051921699196100235
0.012135188095271587,0.0039033477660268545,-0.006502809934318066,-0.0025978311896324158,0.002500788774341345,0.004365603439509869
0.01192423701286316,0.0038976669311523438,-0.007125479634851217,-0.0025149208959192038,0.0024822887498885393,0.0052983760833740234
0.012155059725046158,0.004146354738622904,-0.007861659862101078,-0.00271688774228096,0.0022045786026865244,0.005804099608212709
0.012306876480579376,0.004692402668297291,-0.0072667538188397884,-0.002922646002843976,0.002102157799527049,0.005761615000665188
0.011970050632953644,0.004267552867531776,-0.006581287365406752,-0.002973532536998391,0.0020681621972471476,0.005416512489318848
0.012533747591078281,0.004484496079385281,-0.007857703603804111,-0.0029670442454516888,0.002618561964482069,0.004926593508571386
0.012388828210532665,0.004388757050037384,-0.007515621837228537,-0.0031213900074362755,0.0027451131027191877,0.005557345692068338
0.012146693654358387,0.00451362319290638,-0.007127834018319845,-0.0030664524529129267,0.0026280030142515898,0.0054475776851177216
0.012335074134171009,0.005092238541692495,-0.007085120305418968,-0.0030304351821541786,0.0026018365751951933,0.005362852942198515
0.012198429554700851,0.005133648868650198,-0.007432661950588226,-0.0029281554743647575,0.0026679672300815582,0.005275296047329903
0.012198429554700851,0.005133648868650198,-0.007432661950588226,-0.0029281554743647575,0.0026679672300815582,0.005275296047329903
0.012468625791370869,0.004737003706395626,-0.007300093770027161,-0.003021306823939085,0.0025889454409480095,0.005231693387031555
0.012073520570993423,0.004785076715052128,-0.0073188492096960545,-0.0031746402382850647,0.002704101614654064,0.005233288276940584
0.012282107025384903,0.004903221037238836,-0.007544523570686579,-0.003240882186219096,0.0027646231465041637,0.005403862334787846
0.011082639917731285,0.004903491586446762,-0.00768999895080924,-0.0033188057132065296,0.0026507708244025707,0.005518476944416761
0.01250165980309248,0.0056825485080480576,-0.007031123619526625,-0.003182516898959875,0.0027254971209913492,0.005267196334898472
0.0129423588514328,0.005437616258859634,-0.006714852061122656,-0.003402182599529624,0.0027308522257953882,0.005727707874029875
0.012708292342722416,0.005357903894037008,-0.006718099117279053,-0.0037251536268740892,0.0028279246762394905,0.005439193919301033
0.012624344788491726,0.0055563864298164845,-0.00732454564422369,-0.003487766720354557,0.002700384706258774,0.005186396185308695
0.012593517079949379,0.005086106713861227,-0.007176224607974291,-0.003436196595430374,0.002623459557071328,0.005572871305048466
0.012558981776237488,0.00531575595960021,-0.006655799690634012,-0.0032410379499197006,0.002380182733759284,0.005504122469574213
0.012833024375140667,0.005677193868905306,-0.006753468886017799,-0.0031603467650711536,0.002451834734529257,0.005876591429114342
0.012897650711238384,0.006249109283089638,-0.007333415560424328,-0.0032925542909651995,0.0026988063473254442,0.005550479982048273
0.013280523009598255,0.00569350179284811,-0.007595940493047237,-0.0036317617632448673,0.002907153917476535,0.005651479121297598
0.012689854949712753,0.005704636685550213,-0.007093541324138641,-0.004174866247922182,0.003102673217654228,0.005838193465024233
0.012720526196062565,0.005425374489277601,-0.00650187861174345,-0.0041745370253920555,0.0028893398120999336,0.005869356915354729
0.012338762171566486,0.006000357214361429,-0.0069893281906843185,-0.0038933223113417625,0.00272393343038857,0.006126672960817814
0.013005873188376427,0.006403327453881502,-0.0069952476769685745,-0.0037881520111113787,0.0023857844062149525,0.0059150103479623795
0.012940602377057076,0.006000222638249397,-0.00669005885720253,-0.003920834045857191,0.002391710178926587,0.005712572950869799
0.01305907592177391,0.0057273004204034805,-0.006943439599126577,-0.0039655594155192375,0.0026764750946313143,0.005606238264590502
0.01305907592177391,0.0057273004204034805,-0.006943439599126577,-0.0039655594155192375,0.0026764750946313143,0.005606238264590502
0.013116034679114819,0.006128401029855013,-0.008012741804122925,-0.003820528509095311,0.0027449349872767925,0.005942684598267078
0.01393194030970335,0.005772077012807131,-0.006460095290094614,-0.003857068018987775,0.002450883388519287,0.00639527989551425
0.01422164961695671,0.005924610886722803,-0.006623107474297285,-0.004213597625494003,0.0024774472694844007,0.006104208994656801
0.01393201109021902,0.005845705978572369,-0.007432997692376375,-0.004417531192302704,0.0026273750700056553,0.006145638879388571
0.014579902403056622,0.006265436764806509,-0.006967176217585802,-0.004360964987426996,0.003212463343515992,0.0064770798198878765
0.01397342886775732,0.006245162338018417,-0.006901573855429888,-0.0044394079595804214,0.0032489344011992216,0.006525660399347544
0.014394830912351608,0.006029949523508549,-0.00693482905626297,-0.004472779110074043,0.0030264637898653746,0.0062699588015675545
0.014246532693505287,0.006127762142568827,-0.007283462677150965,-0.0047853849828243256,0.002660739002749324,0.006462221033871174
0.014246532693505287,0.006127762142568827,-0.007283462677150965,-0.0047853849828243256,0.002660739002749324,0.006462221033871174
0.01504484936594963,0.006367627996951342,-0.007416433189064264,-0.004878798499703407,0.0026138490065932274,0.006721598096191883
0.014467152766883373,0.006467868108302355,-0.007477117236703634,-0.004884717520326376,0.0029702000319957733,0.006663400214165449
0.01474140677601099,0.006925585214048624,-0.006992429960519075,-0.004442222416400909,0.0030765302944928408,0.006617571227252483
0.01462347898632288,0.006621329579502344,-0.0074220141395926476,-0.004363216459751129,0.0032157402019947767,0.006415169220417738
0.014538762159645557,0.006849345751106739,-0.00734888669103384,-0.0048030284233391285,0.0034039763268083334,0.00643712654709816
0.014898193068802357,0.006989274173974991,-0.007195890415459871,-0.005044140387326479,0.0033420459367334843,0.006607184186577797
0.015107442624866962,0.007606492377817631,-0.006665163207799196,-0.004680986516177654,0.0030814416240900755,0.006716025993227959
0.014541925862431526,0.006637898273766041,-0.007087774574756622,-0.0043777539394795895,0.002938424237072468,0.006675141863524914
0.014687092043459415,0.006575705949217081,-0.00742235966026783,-0.004504839889705181,0.002783170435577631,0.006503844168037176
0.014634809456765652,0.006833782885223627,-0.00713370880112052,-0.004606152419000864,0.0029285261407494545,0.006350482348352671
0.014961626380681992,0.007085372693836689,-0.007061194162815809,-0.004390517249703407,0.002902667038142681,0.0070271980948746204
0.014665924943983555,0.007426166441291571,-0.007435475941747427,-0.004440545104444027,0.0028035463765263557,0.006623947527259588
0.015117036178708076,0.0076077776029706,-0.007675287779420614,-0.0046238973736763,0.002661539241671562,0.006544126197695732
0.015316321514546871,0.007097717374563217,-0.007469379808753729,-0.00478303711861372,0.0028202615212649107,0.006569845136255026
0.015106127597391605,0.007744281552731991,-0.0072653647512197495,-0.004847311414778233,0.0029560329858213663,0.006666501052677631
0.015086143277585506,0.007714780978858471,-0.008059297688305378,-0.004738111514598131,0.002973443828523159,0.006660726852715015
0.015338185243308544,0.007684140466153622,-0.007769780699163675,-0.0044795009307563305,0.0032683343160897493,0.006433994509279728
0.015178968198597431,0.0067226276732981205,-0.00813417136669159,-0.0042881108820438385,0.0031822731252759695,0.006499592214822769
0.015103009529411793,0.0071723745204508305,-0.00785532034933567,-0.00449361652135849,0.003099077381193638,0.0065641882829368114
0.015776371583342552,0.00744808092713356,-0.007834630087018013,-0.004715644288808107,0.0028474873397499323,0.007052125874906778
0.015060613863170147,0.007242522668093443,-0.007743707858026028,-0.005099801812320948,0.0028502470813691616,0.007476670201867819
0.015210091136395931,0.007344753015786409,-0.00782072450965643,-0.005555522162467241,0.003304900601506233,0.006831226404756308
0.0159109178930521,0.0076610129326581955,-0.008512845262885094,-0.005257528740912676,0.003155273851007223,0.007018728647381067
0.015396260656416416,0.00802240613847971,-0.008421006612479687,-0.0057303118519485,0.003305794671177864,0.006897784303873777
0.015246440656483173,0.007781393360346556,-0.008006438612937927,-0.00596493948251009,0.003232973162084818,0.007145029958337545
0.015382383950054646,0.007841846905648708,-0.007961605675518513,-0.005816223565489054,0.0034706073347479105,0.00696177314966917
0.015382383950054646,0.007841846905648708,-0.007961605675518513,-0.005816223565489054,0.0034706073347479105,0.00696177314966917
0.01595044694840908,0.00799188669770956,-0.00862832274287939,-0.005703153554350138,0.0032827213872224092,0.006825747899711132
0.015874594449996948,0.00782169308513403,-0.0088456766679883,-0.005687415134161711,0.00315944105386734,0.006414271891117096
0.015599568374454975,0.007829183712601662,-0.008059592917561531,-0.006075169891119003,0.0031855865381658077,0.006525897886604071
0.01423009391874075,0.007969848811626434,-0.008205583319067955,-0.005877682473510504,0.0033528050407767296,0.006569562945514917
0.016302822157740593,0.005828340072184801,-0.008081474341452122,-0.005969892255961895,0.003315709065645933,0.007026250008493662
0.01707274094223976,0.005729061551392078,-0.007705776020884514,-0.006532918196171522,0.0031121426727622747,0.006839166395366192
0.01576134003698826,0.005969213321805,-0.0074453591369092464,-0.0060118804685771465,0.0034234223421663046,0.006919513456523418
0.016596734523773193,0.006716043222695589,-0.008195530623197556,-0.0057032485492527485,0.003713788464665413,0.006775349844247103
0.016674349084496498,0.006981127429753542,-0.008127258159220219,-0.005473239812999964,0.0034292535856366158,0.006751826498657465
0.016420762985944748,0.006326373666524887,-0.00765053229406476,-0.0057352096773684025,0.003527701599523425,0.007317523937672377
0.016905082389712334,0.006081541068851948,-0.007777185644954443,-0.005301065742969513,0.0032357443124055862,0.007051893975585699
0.016692589968442917,0.006374255754053593,-0.00855216570198536,-0.005645262077450752,0.003204959211871028,0.006653230171650648
0.01648690178990364,0.006922749802470207,-0.008255363442003727,-0.005504249129444361,0.0032410509884357452,0.006972259841859341
0.01641722023487091,0.006392051465809345,-0.007628034800291061,-0.005553865339607,0.0032173271756619215,0.007290879264473915
0.01784254051744938,0.007081504445523024,-0.008291644044220448,-0.005465717054903507,0.003100356785580516,0.0072760204784572124
0.01795891299843788,0.006711986847221851,-0.008054491132497787,-0.005482210777699947,0.003222139086574316,0.0068472884595394135
0.01664825901389122,0.006510701030492783,-0.007655867375433445,-0.005398855544626713,0.003577361349016428,0.006955200340598822
0.017517268657684326,0.006794964894652367,-0.007586558349430561,-0.005456216167658567,0.003418936626985669,0.007179752457886934
0.017630774527788162,0.006903710309416056,-0.008521257899701595,-0.005490417592227459,0.003264643717557192,0.007474116049706936
0.017094610258936882,0.006753778550773859,-0.0077887773513793945,-0.005868677049875259,0.0031779296696186066,0.006605259142816067
0.017351273447275162,0.006565231364220381,-0.008050835691392422,-0.006321872118860483,0.0030694911256432533,0.0074205040000379086
0.017530491575598717,0.007116004824638367,-0.007978186011314392,-0.00611114501953125,0.0033311748411506414,0.007677146233618259
0.018016787245869637,0.0071336738765239716,-0.008512594737112522,-0.006464359816163778,0.0032649459317326546,0.0077800326980650425
0.018074747174978256,0.006960047408938408,-0.008650198578834534,-0.006792564410716295,0.003490413771942258,0.007417724933475256
0.0182977132499218,0.00767474202439189,-0.008235576562583447,-0.0063122594729065895,0.003323124721646309,0.007668076083064079
0.018206153064966202,0.007302046287804842,-0.008306517265737057,-0.006283612456172705,0.0033503705635666847,0.008041956461966038
0.018900470808148384,0.007178236730396748,-0.007974735461175442,-0.006570891942828894,0.003424370661377907,0.0077217333018779755
0.01893320493400097,0.007370390463620424,-0.008267084136605263,-0.006756605580449104,0.0034693917259573936,0.007503117434680462
0.01826970838010311,0.007811771705746651,-0.00851046945899725,-0.00658472441136837,0.0032697273418307304,0.008175973780453205
0.01826970838010311,0.007811771705746651,-0.00851046945899725,-0.00658472441136837,0.0032697273418307304,0.008175973780453205
0.01926911063492298,0.007671053521335125,-0.007877669297158718,-0.006172732450067997,0.003217690624296665,0.008435326628386974
0.018515942618250847,0.007685806602239609,-0.00727990223094821,-0.006070756819099188,0.0032697536516934633,0.008117811754345894
0.01846679300069809,0.007976592518389225,-0.007719699759036303,-0.00662988843396306,0.0036286732647567987,0.007963519543409348
0.018997162580490112,0.00830607395619154,-0.008136939257383347,-0.006776075344532728,0.0039035240188241005,0.008161849342286587
0.01903621107339859,0.008221135474741459,-0.0076578157022595406,-0.006872940808534622,0.0038963989354670048,0.007970239035785198
0.018906395882368088,0.00801253691315651,-0.008120104670524597,-0.006536650937050581,0.0038384117651730776,0.008120729587972164
0.019116800278425217,0.007855985313653946,-0.008540133014321327,-0.006284358445554972,0.003517356002703309,0.007729742676019669
0.018972475081682205,0.008740168996155262,-0.007936610840260983,-0.006684197578579187,0.003272181609645486,0.007909738458693027
0.019214743748307228,0.008304310031235218,-0.007482877932488918,-0.006966287735849619,0.002946338150650263,0.008124076761305332
0.019301315769553185,0.008102497085928917,-0.00790607463568449,-0.00641709053888917,0.003146432340145111,0.007836551405489445
0.01912037655711174,0.009174985811114311,-0.00842206459492445,-0.006061719264835119,0.00337057001888752,0.008215054869651794
0.019355298951268196,0.008315794169902802,-0.007811440620571375,-0.006946945562958717,0.003399511333554983,0.008493606001138687
0.019715648144483566,0.008062995038926601,-0.008095066994428635,-0.007439448498189449,0.003567624604329467,0.008337202481925488
0.019279083237051964,0.008975379168987274,-0.007803326938301325,-0.007275426760315895,0.003229812253266573,0.008033965714275837
0.017771609127521515,0.00881569366902113,-0.008227650076150894,-0.0066520823165774345,0.0033524478785693645,0.007981029339134693
0.020556025207042694,0.008766477927565575,-0.008053580299019814,-0.006881114095449448,0.00372596038505435,0.008090422488749027
0.02074851468205452,0.009007749147713184,-0.007759853266179562,-0.007850224152207375,0.004351201932877302,0.007892240770161152
0.01969844289124012,0.009319726377725601,-0.007900280877947807,-0.007656339555978775,0.004178856499493122,0.008096935227513313
0.019903475418686867,0.008805638179183006,-0.008771616965532303,-0.007018522825092077,0.003863598220050335,0.007843796163797379
0.020572902634739876,0.008636696264147758,-0.008052648045122623,-0.007519598118960857,0.003410883480682969,0.00806490145623684
0.020342057570815086,0.009483106434345245,-0.008054093457758427,-0.007747742813080549,0.0032454931642860174,0.008125599473714828
0.02017204277217388,0.00891481526196003,-0.00839022733271122,-0.007208849303424358,0.0035443129017949104,0.008749151602387428
0.020491892471909523,0.009392189793288708,-0.008784879930317402,-0.006800290197134018,0.003814378520473838,0.008304598741233349
0.02063603140413761,0.009304700419306755,-0.00810067355632782,-0.0070149581879377365,0.004226633347570896,0.008550216443836689
0.02048082835972309,0.009494300931692123,-0.008352931588888168,-0.007568698842078447,0.00414886511862278,0.009047199971973896
0.021095309406518936,0.009561014361679554,-0.008430183865129948,-0.00850121770054102,0.004245226737111807,0.009394201450049877
0.020726533606648445,0.009569053538143635,-0.007849224843084812,-0.007632297929376364,0.003612947417423129,0.009249747730791569
0.02075493149459362,0.009407224133610725,-0.008345519192516804,-0.006919838488101959,0.003568575019016862,0.009405617602169514
0.0212123841047287,0.01004878245294094,-0.008691992610692978,-0.007719059009104967,0.003698373446241021,0.009287132881581783
0.0212123841047287,0.01004878245294094,-0.008691992610692978,-0.007719059009104967,0.003698373446241021,0.009287132881581783
0.0212984848767519,0.009538191370666027,-0.00835872907191515,-0.007707083132117987,0.0037826145999133587,0.009124650619924068
0.020843785256147385,0.009361105039715767,-0.008278951980173588,-0.008208652958273888,0.003778801066800952,0.00963485985994339
0.021357854828238487,0.010310940444469452,-0.008534193970263004,-0.008582490496337414,0.0038750329986214638,0.00952557846903801
0.021556653082370758,0.009697611443698406,-0.008800245821475983,-0.008141591213643551,0.0036094312090426683,0.009314564988017082
0.021353432908654213,0.009372229687869549,-0.008194808848202229,-0.0076992749236524105,0.0036374672781676054,0.00924558937549591
0.021449854597449303,0.010576721280813217,-0.00888058077543974,-0.00856399443000555,0.003703607711941004,0.009726916439831257
0.02156044729053974,0.009970822371542454,-0.008862893097102642,-0.008578197099268436,0.004216079134494066,0.009231808595359325
0.021234169602394104,0.009568516165018082,-0.008254832588136196,-0.0084159504622221,0.004086570348590612,0.009638926945626736
0.02131139673292637,0.01043635793030262,-0.008381054736673832,-0.007874075323343277,0.0039058777038007975,0.009662693366408348
0.021267510950565338,0.009917786344885826,-0.008830280974507332,-0.00822691060602665,0.003885733662173152,0.009467351250350475
0.022009920328855515,0.009865323081612587,-0.008560814894735813,-0.008129898458719254,0.003915206529200077,0.009737888351082802
0.021709397435188293,0.010497324168682098,-0.008953464217483997,-0.00811081100255251,0.003670712234452367,0.009842127561569214
0.0216070469468832,0.010092808865010738,-0.008795739151537418,-0.008486920967698097,0.003487416310235858,0.00918771605938673
0.021851275116205215,0.009831740520894527,-0.008621958084404469,-0.008297007530927658,0.00357432896271348,0.009940169751644135
0.02237742953002453,0.010721908882260323,-0.008520512841641903,-0.008270750753581524,0.0033358100336045027,0.009901436045765877
0.02334415353834629,0.01017591543495655,-0.008882712572813034,-0.007907404564321041,0.004033492878079414,0.009579206816852093
0.023375732824206352,0.010382653214037418,-0.00888110976666212,-0.008791949599981308,0.004083557054400444,0.01025107130408287
0.022125737741589546,0.010944012552499771,-0.00891126599162817,-0.00869988277554512,0.003940025344491005,0.009992046281695366
0.02081191912293434,0.010236794129014015,-0.008733758702874184,-0.008238974958658218,0.0039242967031896114,0.009917905554175377
0.02290225960314274,0.010178349912166595,-0.008928596042096615,-0.008562286384403706,0.00361740798689425,0.009096095338463783
0.02306748367846012,0.010882629081606865,-0.00849652849137783,-0.008635226637125015,0.0033829277381300926,0.010513544082641602
0.023041602224111557,0.011213439516723156,-0.008317848667502403,-0.008364960551261902,0.0033953101374208927,0.01081614475697279
0.023081906139850616,0.010756871663033962,-0.008519231341779232,-0.009052285924553871,0.0038598310202360153,0.010161803103983402
0.023383814841508865,0.010549566708505154,-0.00861683115363121,-0.009096297435462475,0.004077253397554159,0.010182423517107964
0.023488815873861313,0.010571019724011421,-0.009404256939888,-0.008331547491252422,0.0044254278764128685,0.010225591249763966
0.023199034854769707,0.01045179646462202,-0.008879274129867554,-0.008493687026202679,0.004563174210488796,0.010458499193191528
0.023199034854769707,0.01045179646462202,-0.008879274129867554,-0.008493687026202679,0.004563174210488796,0.010458499193191528
0.022620048373937607,0.010321995243430138,-0.008456381969153881,-0.00901038572192192,0.004368109162896872,0.009932462126016617
0.02266574092209339,0.010884801857173443,-0.008822133764624596,-0.008628730662167072,0.004083994776010513,0.010549663566052914
0.02315562404692173,0.010897873900830746,-0.0093319620937109,-0.00863772351294756,0.003966821823269129,0.01026205811649561
0.023702196776866913,0.01062039379030466,-0.00931149534881115,-0.009425193071365356,0.004067729227244854,0.009997192770242691
0.023645086213946342,0.010704363696277142,-0.008132457733154297,-0.009310581721365452,0.004096515942364931,0.0104977423325181
0.02362206019461155,0.01023222878575325,-0.009013529866933823,-0.009186637587845325,0.004502729047089815,0.01030036248266697
0.023393841460347176,0.010960441082715988,-0.009669594466686249,-0.009449589066207409,0.004650408867746592,0.010488740168511868
0.023778622969985008,0.01093898806720972,-0.010050651617348194,-0.009582364931702614,0.004822864197194576,0.010761503130197525
0.02368769235908985,0.011016545817255974,-0.00999162346124649,-0.008688838221132755,0.004055365454405546,0.01088679675012827
0.02375164069235325,0.011357189156115055,-0.00974400993436575,-0.008852076716721058,0.0035407543182373047,0.011271930299699306
0.02384045720100403,0.011170167475938797,-0.009649773128330708,-0.008920886553823948,0.003478968981653452,0.011143641546368599
0.023576676845550537,0.011033820919692516,-0.010791349224746227,-0.008641887456178665,0.003720995271578431,0.010574028827250004
0.02388879284262657,0.010898977518081665,-0.010171524249017239,-0.008922661654651165,0.004224609117954969,0.010840283706784248
0.024436652660369873,0.0104830302298069,-0.009613171219825745,-0.009483451955020428,0.004684024956077337,0.010703474283218384
0.024276945739984512,0.011100443080067635,-0.01027304120361805,-0.009288938716053963,0.004624019842594862,0.01085157785564661
0.023818401619791985,0.011052437126636505,-0.010268396697938442,-0.009101453237235546,0.004595479927957058,0.010806034319102764
0.023946885019540787,0.010504582896828651,-0.009740223176777363,-0.009213979355990887,0.004269586876034737,0.010540966875851154
0.02388501912355423,0.011041770689189434,-0.010411947034299374,-0.009484217502176762,0.0039154719561338425,0.010797852650284767
0.024095075204968452,0.010906070470809937,-0.010113530792295933,-0.009548861533403397,0.0038198716938495636,0.01078394241631031
0.024668166413903236,0.01094934530556202,-0.010111712850630283,-0.010037875734269619,0.004030406940728426,0.010784192010760307
0.02478453516960144,0.010890412144362926,-0.010770079679787159,-0.010348081588745117,0.0042360625229775906,0.011092198081314564
0.02478453516960144,0.010890412144362926,-0.010770079679787159,-0.010348081588745117,0.0042360625229775906,0.011092198081314564
0.02508142963051796,0.011063484475016594,-0.010347085073590279,-0.009869890287518501,0.004323756322264671,0.010686182416975498
0.02508142963051796,0.011063484475016594,-0.010347085073590279,-0.009869890287518501,0.004323756322264671,0.010686182416975498
0.025421051308512688,0.010875815525650978,-0.010509587824344635,-0.010697354562580585,0.004113020841032267,0.011058278381824493
0.02521384507417679,0.01070778165012598,-0.01021451037377119,-0.01016797125339508,0.004160166252404451,0.01077898871153593
0.02521384507417679,0.01070778165012598,-0.01021451037377119,-0.01016797125339508,0.004160166252404451,0.01077898871153593
0.025256088003516197,0.010686910711228848,-0.011428122408688068,-0.01045538391917944,0.0040446557104587555,0.010940947569906712
0.025256088003516197,0.010686910711228848,-0.011428122408688068,-0.01045538391917944,0.0040446557104587555,0.010940947569906712
0.025901712477207184,0.010481735691428185,-0.010394290089607239,-0.010208318009972572,0.004342805128544569,0.011232548393309116
0.026310913264751434,0.010721733793616295,-0.01030018087476492,-0.009994353167712688,0.004840285982936621,0.011141839437186718
0.025693576782941818,0.010829919949173927,-0.010631668381392956,-0.010577652603387833,0.004889090545475483,0.010844110511243343
0.02535068430006504,0.010497256182134151,-0.010512051172554493,-0.010586834512650967,0.004704298451542854,0.010775207541882992
0.025900179520249367,0.010707298293709755,-0.010528091341257095,-0.010627835057675838,0.004203773569315672,0.011178321205079556
0.025693856179714203,0.010607179254293442,-0.010305192321538925,-0.010463114827871323,0.004282054491341114,0.011345242150127888
0.025799792259931564,0.010420966893434525,-0.010252291336655617,-0.009850895963609219,0.004156789742410183,0.011159650981426239
0.02555888332426548,0.01096770353615284,-0.0099733741953969,-0.010579295456409454,0.0044631315395236015,0.01147737167775631
0.02573937177658081,0.011220285668969154,-0.010485286824405193,-0.010100038722157478,0.00465898122638464,0.011212676763534546
0.026358408853411674,0.01017074752599001,-0.010058308951556683,-0.009646442718803883,0.0044787852093577385,0.011838979087769985
0.026377175003290176,0.01037483662366867,-0.010494082234799862,-0.010356522165238857,0.004234048537909985,0.010896050371229649
0.02627064660191536,0.010084152221679688,-0.010629321448504925,-0.009889520704746246,0.003981466870754957,0.011310688219964504
0.026134496554732323,0.010249368846416473,-0.010351404547691345,-0.009538402780890465,0.004249943885952234,0.011764933355152607
0.02622849866747856,0.010780131444334984,-0.010949677787721157,-0.010034498758614063,0.004581930115818977,0.011667206883430481
0.025915542617440224,0.01068984903395176,-0.010977565310895443,-0.009764744900166988,0.004718183074146509,0.011671438813209534
0.025558896362781525,0.011223295703530312,-0.010293754749000072,-0.009644600562751293,0.004394107963889837,0.011607443913817406
0.026454254984855652,0.01129827555269003,-0.010895242914557457,-0.010062392801046371,0.004393255338072777,0.011366019956767559
0.02643459662795067,0.010289721190929413,-0.010716116055846214,-0.010028855875134468,0.004476787522435188,0.011702659539878368
0.026403022930026054,0.010672074742615223,-0.010707395151257515,-0.010599077679216862,0.004041992127895355,0.01139382366091013
0.026720786467194557,0.010173123329877853,-0.010023996233940125,-0.010228992439806461,0.004200081340968609,0.011981274001300335
0.0267937071621418,0.010227852500975132,-0.010449559427797794,-0.010765253566205502,0.004555147606879473,0.01131571363657713
0.027280155569314957,0.010521749034523964,-0.010518071241676807,-0.011308719404041767,0.004632763564586639,0.011266053654253483
0.02528974786400795,0.010016127489507198,-0.010906229726970196,-0.010948199778795242,0.004969646222889423,0.011469912715256214
0.02528974786400795,0.010016127489507198,-0.010906229726970196,-0.010948199778795242,0.004969646222889423,0.011469912715256214
0.02684325911104679,0.010471445508301258,-0.01072967890650034,-0.01153988391160965,0.00499175488948822,0.011827395297586918
0.026773612946271896,0.010355614125728607,-0.010490426793694496,-0.011909617111086845,0.004432779271155596,0.012141704559326172
0.0269352775067091,0.010736663825809956,-0.01009318232536316,-0.011566783301532269,0.004336840473115444,0.011716388165950775
0.02676025778055191,0.010664049535989761,-0.010955356061458588,-0.011505411006510258,0.004594746977090836,0.011813053861260414
0.02661178447306156,0.010204565711319447,-0.01002458855509758,-0.01050974614918232,0.00470358319580555,0.011911592446267605
0.026978062465786934,0.010335891507565975,-0.01022037398070097,-0.010877056047320366,0.004899456165730953,0.011916032992303371
0.027047863230109215,0.010721643455326557,-0.011245543137192726,-0.01095799170434475,0.00485360249876976,0.011694603599607944
0.02678009308874607,0.01012863777577877,-0.010221106000244617,-0.010242662392556667,0.00447469437494874,0.011672848835587502
0.026971934363245964,0.010953959077596664,-0.009785926900804043,-0.010751362890005112,0.004376218654215336,0.012666300870478153
0.02726888656616211,0.010493983514606953,-0.010276279412209988,-0.010706816799938679,0.004510422237217426,0.012220734730362892
0.02700701542198658,0.009788022376596928,-0.010433402843773365,-0.010660012252628803,0.0041511100716888905,0.012477834708988667
0.027293723076581955,0.010201661847531796,-0.0099790683016181,-0.011198297142982483,0.0039398265071213245,0.012487072497606277
0.027493558824062347,0.01076419372111559,-0.010129713453352451,-0.01095215417444706,0.004225923214107752,0.012568938545882702
0.02762177214026451,0.010324079543352127,-0.009902609512209892,-0.011734584346413612,0.00435625808313489,0.012170026078820229
0.027799179777503014,0.010762663558125496,-0.010364244692027569,-0.011988017708063126,0.00454686488956213,0.01238897256553173
0.027591843158006668,0.01076074130833149,-0.010936848819255829,-0.011565031483769417,0.004490144085139036,0.012761186808347702
0.02710704132914543,0.011008231900632381,-0.00994543731212616,-0.011829928494989872,0.004356955178081989,0.012130861170589924
0.027495266869664192,0.010707786306738853,-0.010096509009599686,-0.011496017687022686,0.004534921608865261,0.012352189049124718
0.028209730982780457,0.010063729248940945,-0.010202176868915558,-0.012693422846496105,0.004502424970269203,0.012628807686269283
0.028293462470173836,0.011081939563155174,-0.010516341775655746,-0.012036689557135105,0.004539864137768745,0.012780563905835152
0.028318485245108604,0.010837653651833534,-0.010285718366503716,-0.010914993472397327,0.004972055554389954,0.012759064324200153
0.027222394943237305,0.010754676535725594,-0.010089194402098656,-0.01161635760217905,0.0049986280500888824,0.012858753092586994
0.027919450774788857,0.011167512275278568,-0.0099908746778965,-0.010828058235347271,0.004557861015200615,0.012951068580150604
0.027919450774788857,0.011167512275278568,-0.0099908746778965,-0.010828058235347271,0.004557861015200615,0.012951068580150604
0.02802538126707077,0.010593900457024574,-0.010323820635676384,-0.011931979097425938,0.00449748570099473,0.013010337948799133
0.028817864134907722,0.012248591519892216,-0.00982597190886736,-0.011549900285899639,0.0046418593265116215,0.012662963010370731
0.029312696307897568,0.012141402810811996,-0.010730639100074768,-0.011925091035664082,0.004633932374417782,0.012956574559211731
0.02856484055519104,0.012912546284496784,-0.010386994108557701,-0.011369938030838966,0.004715724848210812,0.012017247267067432
0.028335025534033775,0.01232788898050785,-0.010024975053966045,-0.012229067273437977,0.004620497114956379,0.013164065778255463
0.02821623720228672,0.012507002800703049,-0.010381863452494144,-0.012135668657720089,0.004267127253115177,0.013108555227518082
0.02874832972884178,0.01189656462520361,-0.010433677583932877,-0.011973866261541843,0.004336148034781218,0.012969848699867725
0.029471751302480698,0.012077772989869118,-0.010059651918709278,-0.012526609003543854,0.004572100006043911,0.013141196221113205
0.027689224109053612,0.012363658286631107,-0.010696393437683582,-0.012104766443371773,0.004400130361318588,0.012889248318970203
0.029196685180068016,0.012048504315316677,-0.010092142038047314,-0.012173881754279137,0.004498910624533892,0.013193369843065739
0.02974354848265648,0.012903592549264431,-0.010512560606002808,-0.01188686117529869,0.005016143899410963,0.012741568498313427
0.0295539703220129,0.01231024507433176,-0.01010775938630104,-0.012225295417010784,0.0051406375132501125,0.012764119543135166
0.02917027659714222,0.012469204142689705,-0.009843490086495876,-0.01250852458178997,0.00492464005947113,0.012955333106219769
0.029685799032449722,0.012444346211850643,-0.010741827078163624,-0.01171677652746439,0.004852486774325371,0.013077332638204098
0.030054893344640732,0.012642665766179562,-0.010711124166846275,-0.012382256798446178,0.004677574150264263,0.01308602374047041
0.02973012439906597,0.013380960561335087,-0.009701977483928204,-0.012398958206176758,0.00481780618429184,0.012841942720115185
0.0303416196256876,0.012758729048073292,-0.010095197707414627,-0.012072792276740074,0.004861247725784779,0.013149712234735489
0.030599543824791908,0.01304177287966013,-0.010816030204296112,-0.012067693285644054,0.005021730437874794,0.013300687074661255
0.030491987243294716,0.012690706178545952,-0.01012477744370699,-0.011901180259883404,0.004963158164173365,0.013436956331133842
0.03049365058541298,0.013119582086801529,-0.010441001504659653,-0.012289902195334435,0.004853959660977125,0.013230668380856514
0.03047974780201912,0.013066763989627361,-0.01007148064672947,-0.011841120198369026,0.004906678106635809,0.013666611164808273
0.03057687170803547,0.013207366690039635,-0.00996625330299139,-0.011904253624379635,0.005027990322560072,0.013376294635236263
0.031819187104701996,0.012986738234758377,-0.01100030355155468,-0.011901387013494968,0.004781155847012997,0.01360633596777916
0.03154899179935455,0.012892289087176323,-0.010245217941701412,-0.012444569729268551,0.004860339220613241,0.013491662219166756
0.03000025451183319,0.012991206720471382,-0.00999035220593214,-0.012865692377090454,0.004777071997523308,0.01398168783634901
0.030786529183387756,0.01279829628765583,-0.010355123318731785,-0.012899145483970642,0.004877889528870583,0.013654615730047226
0.03176466003060341,0.01288620475679636,-0.009946572594344616,-0.013132378458976746,0.004870702046900988,0.013698018155992031
0.031022557988762856,0.012879966758191586,-0.010694807395339012,-0.013123556971549988,0.0050672367215156555,0.013797499239444733
0.031022557988762856,0.012879966758191586,-0.010694807395339012,-0.013123556971549988,0.0050672367215156555,0.013797499239444733
0.031966596841812134,0.013215925544500351,-0.01010806392878294,-0.012919359840452671,0.004796356428414583,0.014027755707502365
0.032468441873788834,0.013839298859238625,-0.01037571020424366,-0.013250347226858139,0.004830958787351847,0.013986127451062202
0.031228216364979744,0.013662881217896938,-0.010606920346617699,-0.013052869588136673,0.00489661144092679,0.01392240822315216
0.03158458694815636,0.013824047520756721,-0.010071320459246635,-0.013068613596260548,0.004907422233372927,0.01394735462963581
0.03239317238330841,0.01323306281119585,-0.01062113605439663,-0.012865363620221615,0.005152154713869095,0.013795783743262291
0.03198027238249779,0.013819925487041473,-0.010528940707445145,-0.01267355028539896,0.005393526516854763,0.014011472463607788
0.031443193554878235,0.013487165793776512,-0.010166349820792675,-0.013163110241293907,0.005016201641410589,0.014258957467973232
0.03191360458731651,0.013589157722890377,-0.010737983509898186,-0.012704133987426758,0.004614008124917746,0.013936858624219894
0.03183258697390556,0.014085101895034313,-0.010511198081076145,-0.01314573734998703,0.004903802182525396,0.014223041944205761
0.032490648329257965,0.013807512819766998,-0.010315651074051857,-0.012430273927748203,0.005072655156254768,0.01462582591921091
0.0322444811463356,0.013659394346177578,-0.010782995261251926,-0.012922682799398899,0.005328935105353594,0.01445704884827137
0.032285649329423904,0.013815691694617271,-0.010410463437438011,-0.012517440132796764,0.0054639531299471855,0.014118419028818607
0.03213970735669136,0.01382521353662014,-0.010586383752524853,-0.012577688321471214,0.004755179397761822,0.01490310113877058
0.032362986356019974,0.013262487016618252,-0.010247763246297836,-0.012632440775632858,0.004613742232322693,0.014283031225204468
0.03229127451777458,0.013860450126230717,-0.01063153799623251,-0.012979814782738686,0.004941211547702551,0.01422593928873539
0.03255634382367134,0.013282131403684616,-0.011334856040775776,-0.013150744140148163,0.005073239095509052,0.014025737531483173
0.032434336841106415,0.01366148330271244,-0.010422451421618462,-0.012800433672964573,0.005290641449391842,0.014058953151106834
0.03268575668334961,0.013584630563855171,-0.010297607630491257,-0.013316528871655464,0.0054722316563129425,0.014255542308092117
0.0329383946955204,0.014253598637878895,-0.011006442829966545,-0.012944457121193409,0.005199084058403969,0.014629599638283253
0.03212985768914223,0.01382481586188078,-0.010080104693770409,-0.013546958565711975,0.004837246611714363,0.014688411727547646
0.03219922259449959,0.014297375455498695,-0.010277845896780491,-0.013451517559587955,0.004821400158107281,0.014876330271363258
0.033237017691135406,0.013888702727854252,-0.011152633465826511,-0.013569621369242668,0.005209104623645544,0.014817274175584316
0.0328955315053463,0.014343401417136192,-0.010774260386824608,-0.013480662368237972,0.005455886013805866,0.01458992063999176
0.03234211355447769,0.013831828720867634,-0.01064613088965416,-0.013813601806759834,0.005258315708488226,0.01445019617676735
0.03263383358716965,0.014082321897149086,-0.010853086598217487,-0.01351922657340765,0.005288153421133757,0.014890997670590878
0.03263383358716965,0.014082321897149086,-0.010853086598217487,-0.01351922657340765,0.005288153421133757,0.014890997670590878
0.03315281495451927,0.013504155911505222,-0.011978983879089355,-0.013676777482032776,0.0050264326855540276,0.01502312533557415
