davideferrari95/blind_handover_controller/data/Test 179 - [2024-02-08 -- 11-22-03]/joint_states_data.csv
shoulder_pan_joint,shoulder_lift_joint,elbow_joint,wrist_1_joint,wrist_2_joint,wrist_3_joint
0.004289001692086458,0.0004389558162074536,-0.011260978877544403,0.009245125576853752,-0.0,0.0014539125841110945
0.004289001692086458,0.0004389558162074536,-0.011260978877544403,0.009245125576853752,-0.0,0.0014539125841110945
0.003888546722009778,0.00034908484667539597,-0.011095819063484669,0.009157922118902206,-0.0,0.0014819016214460135
0.004190773703157902,0.0003865184262394905,-0.011353859677910805,0.009697705507278442,-0.0,0.0022445633076131344
0.004269971512258053,0.0004577214131131768,-0.010940794833004475,0.010053391568362713,-0.0,0.002505433978512883
0.004021486267447472,0.00044049255666323006,-0.012588722631335258,0.00979616492986679,-0.0,0.002782473573461175
0.004185795318335295,0.00039291183929890394,-0.011341439560055733,0.010075529105961323,-0.0,0.00223323842510581
0.004204530734568834,0.00035423465305939317,-0.011056525632739067,0.010261575691401958,-0.0,0.0020438297651708126
0.004204530734568834,0.00035423465305939317,-0.011056525632739067,0.010261575691401958,-0.0,0.0020438297651708126
0.004059448838233948,0.0003224915126338601,-0.011907567270100117,0.010542741976678371,-0.0,0.0018106702482327819
0.003461195155978203,0.00029596753302030265,-0.011274030432105064,0.01061833743005991,-0.0,0.001746344962157309
0.0035829434636980295,0.00027347818831913173,-0.011314718052744865,0.010446923784911633,-0.0,0.002192562445998192
0.00378704397007823,0.00017295668658334762,-0.011551476083695889,0.00994838122278452,-0.0,0.0024190989788621664
0.003754445817321539,0.00015501213783863932,-0.01159566082060337,0.010063336230814457,-0.0,0.0026174362283200026
0.003634708933532238,0.00014267877850215882,-0.011863499879837036,0.009959317743778229,-0.0,0.00234896969050169
0.003633104031905532,0.00019034658907912672,-0.011489295400679111,0.010486266575753689,-0.0,0.0019129847642034292
0.0038186591118574142,0.0002296985621796921,-0.011677023023366928,0.010359374806284904,-0.0,0.0014993256190791726
0.003513587871566415,0.0002700294426176697,-0.01175011694431305,0.010467826388776302,-0.0,0.0014433611650019884
0.0036297428887337446,0.0005482119740918279,-0.011699298396706581,0.010506023652851582,-0.0,0.0017052257899194956
0.0038379416801035404,0.0006133263232186437,-0.011059843935072422,0.010084663517773151,-0.0,0.002092924201861024
0.003622510004788637,0.0005613585817627609,-0.011401320807635784,0.010628624819219112,-0.0,0.0025452268309891224
0.0034937155432999134,0.0005921344272792339,-0.011642072349786758,0.01082932110875845,-0.0,0.002458988456055522
0.0036499181296676397,0.0005927935126237571,-0.011171855963766575,0.010214477777481079,-0.0,0.002352606039494276
0.0038201985880732536,0.0005702647613361478,-0.012316068634390831,0.010497286915779114,-0.0,0.002076809760183096
0.0031739992555230856,0.0006746658473275602,-0.011900311335921288,0.010040665976703167,-0.0,0.0019912568386644125
0.002232116647064686,0.000722950033377856,-0.01282475609332323,0.010070297867059708,-0.0,0.0021171364933252335
0.0014933402417227626,0.0007441161433234811,-0.011654830537736416,0.010762403719127178,-0.0,0.002203485229983926
0.001204130006954074,0.0007605887367390096,-0.011508552357554436,0.010378273203969002,-0.0,0.002497789915651083
0.0011707902885973454,0.0008745982777327299,-0.011910750530660152,0.009976410306990147,-0.0,0.0026235587429255247
0.0009536107536405325,0.0008080527768470347,-0.011266271583735943,0.010639459826052189,-0.0,0.002469003899022937
0.001724913832731545,0.0008170390501618385,-0.01220926083624363,0.010272526182234287,-0.0,0.0020049954764544964
0.001724913832731545,0.0008170390501618385,-0.01220926083624363,0.010272526182234287,-0.0,0.0020049954764544964
0.002044344088062644,0.0008183474419638515,-0.011728445999324322,0.010374692268669605,-0.0,0.0018924149917438626
0.0018339870730414987,0.0008277884917333722,-0.011494231410324574,0.010932199656963348,-0.0,0.0019789559300988913
0.0014243405312299728,0.0008146626641973853,-0.012066748924553394,0.010240045376121998,-0.0,0.0019893483258783817
0.0012204969534650445,0.0008433301118202507,-0.011835814453661442,0.010194922797381878,-0.0,0.0023907856084406376
0.0011574667878448963,0.000861354754306376,-0.012167509645223618,0.010408961214125156,-0.0,0.002259820234030485
0.0011492425110191107,0.0008661509491503239,-0.011670045554637909,0.009967821650207043,-0.0,0.0025029366370290518
0.0010583148105069995,0.0010211318731307983,-0.011633696034550667,0.010733339935541153,-0.0,0.0026773554272949696
0.0011769805569201708,0.0011396282352507114,-0.011712189763784409,0.010315348394215107,-0.0,0.0025460661854594946
0.0019320360152050853,0.0011363193625584245,-0.011192957870662212,0.009733575396239758,-0.0,0.002568637952208519
0.001923033269122243,0.0011588182533159852,-0.011744867078959942,0.01028941385447979,-0.0,0.002458147006109357
0.0016491401474922895,0.0012997108278796077,-0.011798144318163395,0.010040204972028732,-0.0,0.0022988023702055216
0.0015104190679267049,0.0013190386816859245,-0.011622605845332146,0.010559809394180775,-0.0,0.002550051547586918
0.0014091003686189651,0.0013871309347450733,-0.011188714765012264,0.009994983673095703,-0.0,0.0024924203753471375
0.0014863404212519526,0.0012976096477359533,-0.011489025317132473,0.009859553538262844,-0.0,0.0024845723528414965
0.0018671040888875723,0.001242057653144002,-0.011321314610540867,0.010600746609270573,-0.0,0.0025211218744516373
0.0018942848546430469,0.0011985015589743853,-0.011203107424080372,0.009916706942021847,-0.0,0.002453670371323824
0.0018191162962466478,0.0011573705123737454,-0.01222005020827055,0.009653142653405666,-0.0,0.002682541497051716
0.0018197358585894108,0.0013098429189994931,-0.011285257525742054,0.010064172558486462,-0.0,0.0026587725151330233
0.0016134318429976702,0.0014395758043974638,-0.01137058436870575,0.010231918655335903,-0.0,0.0025344230234622955
0.00132773257791996,0.0014394483296200633,-0.011119263246655464,0.010871833190321922,-0.0,0.00248530856333673
0.0014100720873102546,0.0019360561855137348,-0.011115704663097858,0.010438746772706509,-0.0,0.0025286551099270582
0.0013744840398430824,0.001743842614814639,-0.011501767672598362,0.009784337133169174,-0.0,0.002382498001679778
0.0017432012828066945,0.0017048409208655357,-0.01112149003893137,0.00999582652002573,-0.0,0.002320180181413889
0.001910898368805647,0.0017269860254600644,-0.01159751508384943,0.010496068745851517,-0.0,0.0021846226882189512
0.0019926573149859905,0.0014916962245479226,-0.01101270318031311,0.009908848442137241,-0.0,0.0021816911175847054
0.0018923990428447723,0.001553172362037003,-0.010457651689648628,0.010070973075926304,-0.0,0.0022103209048509598
0.0019021385814994574,0.0014880482340231538,-0.0113323163241148,0.010324865579605103,-0.0,0.0025012490805238485
0.0017287012888118625,0.0016954870661720634,-0.011549274437129498,0.00990753248333931,-0.0,0.0030504276510328054
0.001829586224630475,0.0016201662365347147,-0.012129256501793861,0.010692473500967026,-0.0,0.003085674252361059
0.001829586224630475,0.0016201662365347147,-0.012129256501793861,0.010692473500967026,-0.0,0.003085674252361059
0.002276530722156167,0.001915211440064013,-0.011445012874901295,0.010290198028087616,-0.0,0.0029585242737084627
0.002358019817620516,0.0017319399630650878,-0.011250946670770645,0.009895768947899342,-0.0,0.002685047220438719
0.0026658677961677313,0.0016900042537599802,-0.011642375029623508,0.010270718485116959,-0.0,0.0025638085789978504
0.0025832653045654297,0.0015712513122707605,-0.01138874888420105,0.0102867865934968,-0.0,0.0026406249962747097
0.00233889720402658,0.0015849259216338396,-0.011433502659201622,0.0097799776121974,-0.0,0.0025731585919857025
0.0020828493870794773,0.001687073614448309,-0.011500968597829342,0.00999973714351654,-0.0,0.002786321798339486
0.002003602683544159,0.002189172664657235,-0.011380307376384735,0.010060596279799938,-0.0,0.0028609002474695444
0.0023925905115902424,0.002203706419095397,-0.010609891265630722,0.009787552058696747,-0.0,0.0026328638195991516
0.00271813478320837,0.0024258019402623177,-0.010707602836191654,0.010481609962880611,-0.0,0.002649925649166107
0.002582632005214691,0.0020577094983309507,-0.010725768283009529,0.010043558664619923,-0.0,0.0023097381927073
0.0022794795222580433,0.001870014937594533,-0.010693065822124481,0.010012132115662098,-0.0,0.0026327648665755987
0.0023918580263853073,0.0019177455687895417,-0.010603785514831543,0.009880606085062027,-0.0,0.0029277990106493235
0.0027636135928332806,0.0018025432946160436,-0.011184443719685078,0.0100460946559906,-0.0,0.0030708303675055504
0.0029082901310175657,0.002078590216115117,-0.010654738172888756,0.010637146420776844,-0.0,0.002870085882022977
0.0028740318957716227,0.0020333908032625914,-0.01062370091676712,0.009980414062738419,-0.0,0.0027723927050828934
0.002917321864515543,0.002234159968793392,-0.010934462770819664,0.010698559693992138,-0.0,0.002688242122530937
0.0028202184475958347,0.0022812671959400177,-0.010596141219139099,0.010397993959486485,-0.0,0.002758224494755268
0.0028660495299845934,0.0021608779206871986,-0.011031384579837322,0.010020021349191666,-0.0,0.0027038666885346174
0.0027496430557221174,0.002029233379289508,-0.010865542106330395,0.010372981429100037,-0.0,0.002972854534164071
0.002954919822514057,0.002042517764493823,-0.010419936850667,0.010109731927514076,-0.0,0.0029457455966621637
0.0029918914660811424,0.0024374311324208975,-0.01110981684178114,0.009566053748130798,-0.0,0.0029010542202740908
0.0027643891517072916,0.002557627623900771,-0.010764594189822674,0.009901842102408409,-0.0,0.0027503229212015867
0.0026877038180828094,0.0023999668192118406,-0.010627898387610912,0.009819820523262024,-0.0,0.0029844222590327263
0.002806246979162097,0.0024680758360773325,-0.011348252184689045,0.009461483918130398,-0.0,0.003022911725565791
0.00320618343539536,0.002517896704375744,-0.010603789240121841,0.010149220004677773,-0.0,0.0029264623299241066
0.0036681359633803368,0.002378078643232584,-0.010651882737874985,0.010044984519481659,-0.0,0.0027635316364467144
0.0036681359633803368,0.002378078643232584,-0.010651882737874985,0.010044984519481659,-0.0,0.0027635316364467144
0.0033019816037267447,0.0024409068282693624,-0.010675416328012943,0.009798419661819935,-0.0,0.0028804352041333914
0.0030680245254188776,0.0023598335683345795,-0.010450567118823528,0.009932716377079487,-0.0,0.002879590028896928
0.002798262983560562,0.0025584662798792124,-0.010953637771308422,0.01034855842590332,-0.0,0.0031127911061048508
0.002929477021098137,0.0026530148461461067,-0.010571935214102268,0.009706192649900913,-0.0,0.0029270618688315153
0.0033844884019345045,0.0027552014216780663,-0.010841789655387402,0.009884846396744251,-0.0,0.0028232985641807318
0.0034607420675456524,0.0025681788101792336,-0.011132837273180485,0.010015428997576237,-0.0,0.0027110169176012278
0.003438326297327876,0.002558305626735091,-0.010735347867012024,0.009689684957265854,-0.0,0.0024841271806508303
0.00315845082513988,0.0026988652534782887,-0.011289136484265327,0.010204385966062546,-0.0,0.0025372339878231287
0.0029435951728373766,0.003110019490122795,-0.011135180480778217,0.01025378331542015,-0.0,0.0028276778757572174
0.003183386754244566,0.0029456745833158493,-0.01090011466294527,0.009976442903280258,-0.0,0.0029171386267989874
0.003468060167506337,0.0029948465526103973,-0.011240136809647083,0.009890221059322357,-0.0,0.002786099910736084
0.0036137388087809086,0.0028882580809295177,-0.011059682816267014,0.009756800718605518,-0.0,0.0027395847719162703
0.0033089250791817904,0.0027099372819066048,-0.011596561409533024,0.00992940366268158,-0.0,0.003630586201325059
0.0034066210500895977,0.00306449132040143,-0.012008902616798878,0.009789611212909222,-0.0,0.003431023331359029
0.003705498529598117,0.003086248179897666,-0.011602153070271015,0.009539386257529259,-0.0,0.0032711224630475044
0.003956514410674572,0.002991284243762493,-0.010996448807418346,0.009658720344305038,-0.0,0.002952348440885544
0.004017314873635769,0.0030017176177352667,-0.010990133509039879,0.009771058335900307,-0.0,0.002929708221927285
0.003482123138383031,0.0030331553425639868,-0.011560453101992607,0.009269886650145054,-0.0,0.003093109931796789
0.0035403042566031218,0.0031450632959604263,-0.011138632893562317,0.009424934163689613,-0.0,0.0034806851763278246
0.0040544914081692696,0.0030360810924321413,-0.011383259668946266,0.009931749664247036,-0.0,0.00333449337631464
0.004200810566544533,0.0029909946024417877,-0.011325985193252563,0.009731079451739788,-0.0,0.0035242768935859203
0.0034971318673342466,0.0028345731552690268,-0.010762734338641167,0.010129484347999096,-0.0,0.0033650025725364685
0.003531897207722068,0.0028607097920030355,-0.011383427307009697,0.009893775917589664,-0.0,0.003461339045315981
0.004139245022088289,0.002862814348191023,-0.011100688017904758,0.009516032412648201,-0.0,0.0036425641737878323
0.004392107017338276,0.0028525732923299074,-0.012161889113485813,0.009988811798393726,-0.0,0.0033156522549688816
0.004031755495816469,0.0028621931560337543,-0.01137634553015232,0.009968483820557594,-0.0,0.00337082683108747
0.0038168022874742746,0.0029229475185275078,-0.010822257027029991,0.01015158835798502,-0.0,0.0033955860417336226
0.0038168022874742746,0.0029229475185275078,-0.010822257027029991,0.01015158835798502,-0.0,0.0033955860417336226
0.004187969956547022,0.002766277175396681,-0.010540507733821869,0.009647713042795658,-0.0,0.003615346970036626
0.004187969956547022,0.002766277175396681,-0.010540507733821869,0.009647713042795658,-0.0,0.003615346970036626
0.00402664253488183,0.0021397857926785946,-0.010699612088501453,0.008993512019515038,-0.0,0.003397312480956316
0.003971175756305456,0.0016191580798476934,-0.011321150697767735,0.009669896215200424,-0.0,0.003529834561049938
0.003968937322497368,0.000541108485776931,-0.010588346049189568,0.01002485305070877,-0.0,0.0036630730610340834
0.003962300717830658,0.0003938663867302239,-0.010899560526013374,0.009696046821773052,-0.0,0.0033841824624687433
0.003880199510604143,0.00047667959006503224,-0.010900069959461689,0.010254725813865662,-0.0,0.0034546314273029566
0.0038434993475675583,0.0005409385776147246,-0.010415801778435707,0.010119124315679073,-0.0,0.0031856594141572714
0.004033050499856472,0.00038198396214284003,-0.011128085665404797,0.009712993167340755,-0.0,0.003365147626027465
0.003695771796628833,0.0003927268844563514,-0.010214858688414097,0.009414252825081348,-0.0,0.003657798282802105
0.003657774068415165,0.000343361753039062,-0.010958767496049404,0.009030237793922424,-0.0,0.0038330170791596174
0.00377222103998065,0.0004017669416498393,-0.009893093258142471,0.00943567045032978,-0.0,0.003834366798400879
0.0038480705115944147,0.0004449847328942269,-0.010068777948617935,0.009534791111946106,-0.0,0.0037326880265027285
0.003838317934423685,0.0005954525549896061,-0.010766278021037579,0.009201481007039547,-0.0,0.0036734596360474825
0.004389639478176832,0.0007165764691308141,-0.010944001376628876,0.009837568737566471,-7.462810458491731e-07,0.0036400295794010162
0.004594283644109964,0.0007423119386658072,-0.010381273925304413,0.009702353738248348,-4.872682168866049e-08,0.003601382253691554
0.004308425355702639,0.0007589919841848314,-0.010670758783817291,0.009315299801528454,-3.1815137191415488e-09,0.0034443428739905357
0.004343576263636351,0.0010257523972541094,-0.01041379664093256,0.008794015273451805,-2.0773011089048055e-10,0.0035783983767032623
0.00430674385279417,0.001015039044432342,-0.011607805266976357,0.009129580110311508,-1.356329198259898e-11,0.0033309408463537693
0.004484876990318298,0.0009926765924319625,-0.010978938080370426,0.008967782370746136,-8.85586146515821e-13,0.0027777787763625383
0.00455737579613924,0.0008621179149486125,-0.010144608095288277,0.008812413550913334,-5.782245342256243e-14,0.0026363241486251354
0.004744608886539936,0.0008619643049314618,-0.01090814545750618,0.00938977487385273,-3.775392711403026e-15,0.0023934764321893454
0.004648268688470125,0.0007747478084638715,-0.010602672584354877,0.009163889102637768,-2.4650617528790665e-16,0.0022475668229162693
0.00434125354513526,0.0007910628919489682,-0.010456572286784649,0.00869677308946848,-1.609509176187715e-17,0.002576790051534772
0.004396010655909777,0.000883307948242873,-0.010738554410636425,0.009355874732136726,-1.050894504350138e-18,0.0029401551000773907
0.0047957985661923885,0.0013078628107905388,-0.010651279240846634,0.008932557888329029,-6.861590489393515e-20,0.003018941730260849
0.0047957985661923885,0.0013078628107905388,-0.010651279240846634,0.008932557888329029,-6.861590489393515e-20,0.003018941730260849
0.004791353829205036,0.0014599311398342252,-0.011211218312382698,0.008570794947445393,-4.4801277315511886e-21,0.0028564357198774815
0.004787095822393894,0.0013706149766221642,-0.010961407795548439,0.008656935766339302,-2.925203521642622e-22,0.0025086707901209593
0.004350030794739723,0.001299835043027997,-0.010037482716143131,0.009241897612810135,-1.9099491607262233e-23,0.002207324607297778
0.003472878597676754,0.0012244351673871279,-0.010596919804811478,0.008946177549660206,-1.2470603096116423e-24,0.002093845745548606
0.0035138814710080624,0.001164337620139122,-0.010654215700924397,0.008956000208854675,-8.142412106215752e-26,0.0023771636188030243
0.0033454576041549444,0.0011265698121860623,-0.009937976486980915,0.009710479527711868,-5.3164132853123236e-27,0.0025054477155208588
0.0041834451258182526,0.00120037910528481,-0.010800963267683983,0.008955186232924461,-3.471237872382736e-28,0.002965961117297411
0.00417992053553462,0.0012697074562311172,-0.010337305255234241,0.008485754951834679,-2.2664701688148026e-29,0.003003725316375494
0.003893223125487566,0.0014037590008229017,-0.010422635823488235,0.00909249484539032,-1.479843191866003e-30,0.003146620700135827
0.0035317461006343365,0.0014795390889048576,-0.010052838362753391,0.008808732964098454,0.00010205421858699992,0.0028065883088856936
0.003765827976167202,0.0015296509955078363,-0.010874532163143158,0.008760079741477966,0.0001857579918578267,0.00304513075388968
0.003910065162926912,0.0014396763872355223,-0.011077865958213806,0.009266247041523457,0.0001839083997765556,0.002822217997163534
0.003939571790397167,0.0013526424299925566,-0.010177001357078552,0.008237446658313274,0.0001770469971233979,0.002734219655394554
0.003476481419056654,0.0013584893895313144,-0.010926212184131145,0.008129469119012356,0.00019556633196771145,0.0028407000936567783
0.004139527678489685,0.001315344125032425,-0.010760055854916573,0.008388658054172993,0.00019640481332316995,0.0030865026637911797
0.0035882352385669947,0.0012959445593878627,-0.010089709423482418,0.00880865566432476,0.0001900127826957032,0.0032496002968400717
0.0034794220700860023,0.0016375168925151229,-0.01083401683717966,0.008194074966013432,0.0001985827984753996,0.0030713938176631927
0.004157220013439655,0.001589320250786841,-0.010660303756594658,0.008710132911801338,0.00020612422667909414,0.0031322387512773275
0.004197524860501289,0.0019072149880230427,-0.010449732653796673,0.008483766578137875,0.00020048180886078626,0.0028901344630867243
0.003935146611183882,0.0017267696093767881,-0.010494183748960495,0.008288554847240448,0.00020797624893020838,0.0030134031549096107
0.004116129130125046,0.0016622546827420592,-0.010360296815633774,0.008272835053503513,0.00021455404930748045,0.0030441749840974808
0.004209944978356361,0.0015508687356486917,-0.01077074371278286,0.008809661492705345,0.0002091832720907405,0.0029764834325760603
0.00413761381059885,0.0015755189815536141,-0.010768507607281208,0.008696744218468666,0.0003353548818267882,0.0029291247483342886
0.003990647383034229,0.0016791308298707008,-0.010104174725711346,0.00830045621842146,0.0003679817309603095,0.0029618232510983944
0.00402000593021512,0.0017858271021395922,-0.010873844847083092,0.008707033470273018,0.0003588358813431114,0.0031037861481308937
0.003538743359968066,0.001886243000626564,-0.010289404541254044,0.008668730035424232,0.0003860308788716793,0.0034771200735121965
0.004159152042120695,0.0019110034918412566,-0.009926050901412964,0.00847022607922554,0.00037005721242167056,0.003430226119235158
0.004183318931609392,0.00195891922339797,-0.01042775809764862,0.008487691171467304,0.00039647205267101526,0.003480101004242897
0.004183318931609392,0.00195891922339797,-0.01042775809764862,0.008487691171467304,0.00039647205267101526,0.003480101004242897
0.0039965021423995495,0.0017523375572636724,-0.01066078245639801,0.008527707308530807,0.00037867718492634594,0.003636706853285432
0.004299256484955549,0.0018549836240708828,-0.009814674034714699,0.008565536700189114,0.0005469913594424725,0.0033641711343079805
0.004167277831584215,0.0017297499580308795,-0.010502418503165245,0.0085813133046031,0.0005128459888510406,0.0031680772081017494
0.004122486338019371,0.0019988652784377337,-0.010486711747944355,0.008548161946237087,0.00046197822666727006,0.0029711269307881594
0.004026307258754969,0.0018756258068606257,-0.01008982677012682,0.008160298690199852,0.00048036372754722834,0.002978506963700056
0.003957511857151985,0.0020885616540908813,-0.010399002581834793,0.007931654341518879,0.0004584909474942833,0.003235992742702365
0.004280011169612408,0.0019982687663286924,-0.009914742782711983,0.00843985565006733,0.00042372793541289866,0.0035798398312181234
0.004662689752876759,0.0019324817694723606,-0.010493068024516106,0.008457528427243233,0.0004267459153197706,0.00373200885951519
0.004315185826271772,0.0021496424451470375,-0.010344605892896652,0.008176909759640694,0.000427930528530851,0.0037772199138998985
0.004113835748285055,0.002310723764821887,-0.01046849973499775,0.00802326574921608,0.0004280908906366676,0.0034008172806352377
0.004179240670055151,0.0025144631508737803,-0.010285858064889908,0.008576946333050728,0.00041455679456703365,0.003092213999480009
0.004485764540731907,0.0026255466509610415,-0.010565056465566158,0.00812695361673832,0.00042650665272958577,0.0030275932513177395
0.004642879124730825,0.0027388751041144133,-0.010178692638874054,0.00807544868439436,0.00046231018495745957,0.003272710368037224
0.0047337980940938,0.0024134034756571054,-0.009978613816201687,0.008313789032399654,0.0004623213317245245,0.003432447323575616
0.004670808557420969,0.002306089038029313,-0.010100682266056538,0.007849391549825668,0.0004861951165366918,0.0034410073421895504
0.004733121022582054,0.002359897131100297,-0.010907480493187904,0.00799983087927103,0.00046239321818575263,0.003567761043086648
0.004666679073125124,0.002350644674152136,-0.01019658800214529,0.008030276745557785,0.0006846213364042342,0.003311845939606428
0.004326082766056061,0.0027517948765307665,-0.010930736549198627,0.008489694446325302,0.0006273582112044096,0.003504679538309574
0.0045242770574986935,0.0028855411801487207,-0.010613057762384415,0.008555995300412178,0.0005526688182726502,0.0036672288551926613
0.004417712334543467,0.0028882313054054976,-0.010369314812123775,0.008318617939949036,0.000583487213589251,0.003672398626804352
0.004767688922584057,0.0026365823578089476,-0.009979930706322193,0.0079795615747571,0.0005319156916812062,0.0037014461122453213
0.004862263798713684,0.002565570641309023,-0.010359943844377995,0.008176956325769424,0.0005540906568057835,0.0034458020236343145
0.004863988608121872,0.0027066527400165796,-0.010230100713670254,0.008143028244376183,0.0005179819418117404,0.0032704619225114584
0.004613330587744713,0.002659195801243186,-0.011190318502485752,0.008297298103570938,0.0005382553208619356,0.003181363455951214
0.004263062495738268,0.0028060043696314096,-0.010287955403327942,0.008340132422745228,0.0005083237774670124,0.003245692467316985
0.00483656395226717,0.002539700595661998,-0.009921640157699585,0.008279005065560341,0.0004702461592387408,0.003345561446622014
0.00495608476921916,0.002422450575977564,-0.010996956378221512,0.007791565731167793,0.000468102574814111,0.003610506420955062
0.00484826834872365,0.002553294412791729,-0.010651892982423306,0.008006379008293152,0.00046508375089615583,0.004228543024510145
0.00484826834872365,0.002553294412791729,-0.010651892982423306,0.008006379008293152,0.00046508375089615583,0.004228543024510145
0.004924711771309376,0.0025322481524199247,-0.010174455121159554,0.008036771789193153,0.0004971108282916248,0.0038667451590299606
0.004840984009206295,0.002629105933010578,-0.011018505319952965,0.008091992698609829,0.0005266943480819464,0.003501261118799448
0.004924603272229433,0.002759734634310007,-0.010670561343431473,0.007986833341419697,0.0007982595125213265,0.0031776127871125937
0.005223656073212624,0.002675049938261509,-0.010541006922721863,0.007777485065162182,0.0008409316069446504,0.0029823449440300465
0.005313267931342125,0.002557339845225215,-0.010258009657263756,0.007385982666164637,0.0007562930695712566,0.0032486317213624716
0.005313267931342125,0.002557339845225215,-0.010258009657263756,0.007385982666164637,0.0007562930695712566,0.0032486317213624716
0.005775189492851496,0.0026950640603899956,-0.010744002647697926,0.007676001638174057,0.0007278631674125791,0.003225325606763363
0.005300044547766447,0.0026919192168861628,-0.010029188357293606,0.007658424321562052,0.0006659980863332748,0.003700082888826728
0.005023602396249771,0.002779111498966813,-0.010334192775189877,0.007898669689893723,0.0006950810202397406,0.0034106927923858166
0.005898429546505213,0.002558852080255747,-0.010734069161117077,0.00771046057343483,0.0007683662697672844,0.0032274113036692142
0.005850447341799736,0.0024661424104124308,-0.010371110402047634,0.007819227874279022,0.0007474385784007609,0.003140521002933383
0.005749057978391647,0.002696331823244691,-0.010773150250315666,0.007433092687278986,0.00108960154466331,0.003130714176222682
0.0055051203817129135,0.0028306960593909025,-0.010812762193381786,0.007185626775026321,0.0010980454972013831,0.0034378415439277887
0.005642374511808157,0.0029359187465161085,-0.010195932351052761,0.0070037804543972015,0.0010800926247611642,0.0036709345877170563
0.005285247694700956,0.0027381700929254293,-0.01108767744153738,0.007251030299812555,0.001107536256313324,0.004052568692713976
0.005898531526327133,0.0027742690872401,-0.010776330716907978,0.0071794139221310616,0.0011699540773406625,0.0038874049205332994
0.005739819258451462,0.0029198629781603813,-0.010477987118065357,0.0066950214095413685,0.001131347380578518,0.0037349367048591375
0.005659370683133602,0.003230555448681116,-0.01097113173455,0.007080442737787962,0.0010532429441809654,0.0034972396679222584
0.005207096226513386,0.0031281905248761177,-0.010585221461951733,0.007707198150455952,0.0011197153944522142,0.003573862137272954
0.0058593773283064365,0.002835600171238184,-0.011048855260014534,0.0070982133038342,0.0011082408018410206,0.0033723742235451937
0.00591428205370903,0.002951247850432992,-0.010506849735975266,0.006524949800223112,0.0010876257438212633,0.003517893608659506
0.005729652475565672,0.0029915659688413143,-0.01016181893646717,0.006512032821774483,0.0012026976328343153,0.003691943595185876
0.005724890623241663,0.003058783710002899,-0.010665285401046276,0.007040783762931824,0.001210710615850985,0.003772687865421176
0.005981827154755592,0.0033615208230912685,-0.010147999972105026,0.006900221575051546,0.0011829378781840205,0.004033370409160852
0.005940995644778013,0.002946824999526143,-0.010880354791879654,0.006662309635430574,0.001115573919378221,0.004222061485052109
0.005940995644778013,0.002946824999526143,-0.010880354791879654,0.006662309635430574,0.001115573919378221,0.004222061485052109
0.005939587485045195,0.0030841759871691465,-0.010843600146472454,0.0068232398480176926,0.0010696928948163986,0.0037005445919930935
0.005939587485045195,0.0030841759871691465,-0.010843600146472454,0.0068232398480176926,0.0010696928948163986,0.0037005445919930935
0.006105080712586641,0.003124387003481388,-0.010278157889842987,0.007632253225892782,0.0009461527806706727,0.0034487873781472445
0.006016802042722702,0.003130099968984723,-0.010851255618035793,0.006949535571038723,0.0008806832483969629,0.003629465587437153
0.006117467302829027,0.0031472675036638975,-0.010260273702442646,0.0067069437354803085,0.0008291238336823881,0.0037466727662831545
0.0061101289466023445,0.003174080513417721,-0.010697200894355774,0.007203968241810799,0.000729901425074786,0.0041767992079257965
0.006306215655058622,0.003398275002837181,-0.010458434000611305,0.00770806148648262,0.0008457102230750024,0.0041526248678565025
0.006113242357969284,0.003263629972934723,-0.010076961480081081,0.007090034428983927,0.0008660838357172906,0.003998501691967249
0.006304717157036066,0.003278215415775776,-0.010896655730903149,0.006717370823025703,0.0008786815451458097,0.0038810945115983486
0.006670826114714146,0.003144980873912573,-0.01014494989067316,0.006903068628162146,0.0012104129418730736,0.004014309495687485
0.006605078000575304,0.0033021720591932535,-0.011829880997538567,0.006943284068256617,0.001098918728530407,0.003876766888424754
0.006211079191416502,0.0034315893426537514,-0.01043993141502142,0.006883390247821808,0.0010442134225741029,0.004150728229433298
0.006162402220070362,0.0033330994192510843,-0.009760021232068539,0.006780730560421944,0.0009583692299202085,0.004189795348793268
0.006509677041321993,0.0027013656217604876,-0.010284983552992344,0.006664216052740812,0.0008575028623454273,0.004522254690527916
0.006554209161549807,0.0025062961503863335,-0.010320017114281654,0.0068438355810940266,0.0008578390697948635,0.004218902438879013
0.0065144323743879795,0.002491255523636937,-0.011050326749682426,0.006414677947759628,0.0008629820658825338,0.004202459938824177
0.0065273987129330635,0.0028333633672446012,-0.010302658192813396,0.006439633201807737,0.0008269468671642244,0.004286108538508415
0.006435765884816647,0.003039340954273939,-0.009951305575668812,0.007435001898556948,0.0010286124888807535,0.004076321143656969
0.006462991237640381,0.002990693785250187,-0.010556590743362904,0.007016225717961788,0.0010196176590397954,0.004139086231589317
0.0064637307077646255,0.002995601389557123,-0.010493412613868713,0.0064125508069992065,0.0010031836573034525,0.0040422482416033745
0.00666154595091939,0.003146889852359891,-0.010142706334590912,0.006541484035551548,0.0010080517968162894,0.0038064068648964167
0.0063446746207773685,0.0031190370209515095,-0.011251582764089108,0.006710711866617203,0.0010619621025398374,0.003487816546112299
0.006234961561858654,0.0029334533028304577,-0.010357741266489029,0.00662881089374423,0.001039570546709001,0.003395359730347991
0.0068444497883319855,0.0026612705551087856,-0.009770062752068043,0.006876815110445023,0.0010026560630649328,0.003735946025699377
0.006829798221588135,0.0028467122465372086,-0.010861583054065704,0.006389896851032972,0.0009166857926174998,0.0039933817461133
0.006601865869015455,0.003020205069333315,-0.010455088689923286,0.0057527292519807816,0.0009860317222774029,0.004152847453951836
0.006614277139306068,0.003060384653508663,-0.010047728195786476,0.006076682824641466,0.0009770747274160385,0.004164611455053091
0.007508712355047464,0.002802259288728237,-0.010767207480967045,0.006751460488885641,0.0009354227804578841,0.003945840056985617
0.006919882260262966,0.0027828991878777742,-0.01020941324532032,0.00679802056401968,0.00088629184756428,0.003810897236689925
0.00693378783762455,0.0026346843224018812,-0.010476232506334782,0.006301479879766703,0.0010306419571861625,0.0038391617126762867
0.00693378783762455,0.0026346843224018812,-0.010476232506334782,0.006301479879766703,0.0010306419571861625,0.0038391617126762867
0.006461613811552525,0.002581954002380371,-0.010686197318136692,0.0062146917916834354,0.0010182432597503066,0.004207543097436428
0.0067769866436719894,0.0027740674559026957,-0.010172879323363304,0.006527024786919355,0.0009694193722680211,0.004042887594550848
0.007366142235696316,0.00287122605368495,-0.010817231610417366,0.006416574120521545,0.0009043122408911586,0.004351235460489988
0.007530762813985348,0.0028147289995104074,-0.010468738153576851,0.006403443869203329,0.0008912247139960527,0.00416690343990922
0.006986381486058235,0.0026293520350009203,-0.010161906480789185,0.006381590850651264,0.0008314790320582688,0.004010810516774654
0.006610881071537733,0.002850735792890191,-0.01087774895131588,0.006152561400085688,0.0007755698170512915,0.0035515674389898777
0.0071951658464968204,0.0030282430816441774,-0.011192867532372475,0.006319856736809015,0.0007923527155071497,0.0041907066479325294
0.006714113987982273,0.002811755985021591,-0.010572381317615509,0.006149962544441223,0.0007813856354914606,0.004464161116629839
0.0066604772582650185,0.0030090678483247757,-0.010371953248977661,0.0063067213632166386,0.0008059028768911958,0.004269673489034176
0.007177575491368771,0.002990028355270624,-0.01024264469742775,0.005716933868825436,0.0008840563823468983,0.0043119993060827255
0.007741826586425304,0.00302378018386662,-0.01072736456990242,0.005770722404122353,0.000850000127684325,0.0042115082032978535
0.007240260951220989,0.00282067758962512,-0.010503122583031654,0.006415727082639933,0.0011734147556126118,0.004327921662479639
0.006486890837550163,0.003021272597834468,-0.010308856144547462,0.006052242126315832,0.001165424706414342,0.004601658787578344
0.007176734507083893,0.0031280454713851213,-0.010318578220903873,0.005688891746103764,0.0011069963220506907,0.004445813596248627
0.007418305613100529,0.0030063437297940254,-0.009630612097680569,0.005276336334645748,0.0009973051492124796,0.004539740737527609
0.008032556623220444,0.0028188221622258425,-0.010279713198542595,0.0051506515592336655,0.0009886814514175057,0.004182435106486082
0.007136426400393248,0.002866554306820035,-0.010479310527443886,0.00584403146058321,0.0009746126597747207,0.004353445954620838
0.006654383148998022,0.003086202312260866,-0.00995752215385437,0.005623240489512682,0.0009640036732889712,0.004557867534458637
0.007214799989014864,0.003103541675955057,-0.010025381110608578,0.005705957300961018,0.0009095575660467148,0.004593690391629934
0.0081115597859025,0.0030698312912136316,-0.010487288236618042,0.005356998648494482,0.0009949776576831937,0.004720763769000769
0.0078106652945280075,0.003270898712798953,-0.009971153922379017,0.0055879042483866215,0.00102303980384022,0.004364832770079374
0.0078106652945280075,0.003270898712798953,-0.009971153922379017,0.0055879042483866215,0.00102303980384022,0.004364832770079374
0.007980777882039547,0.0032704961486160755,-0.010283813811838627,0.005770829040557146,0.0010136051569133997,0.004148606210947037
0.007858631201088428,0.003217169316485524,-0.009687387384474277,0.005575278773903847,0.0010033628204837441,0.004574198741465807
0.007858631201088428,0.003217169316485524,-0.009687387384474277,0.005575278773903847,0.0010033628204837441,0.004574198741465807
0.007018683012574911,0.003396505955606699,-0.010310040786862373,0.005749467760324478,0.0009143081260845065,0.004699659068137407
0.007917855866253376,0.003563416190445423,-0.0101233571767807,0.005412607919424772,0.0009058675495907664,0.004911754280328751
0.008151540532708168,0.0037087525706738234,-0.01000218465924263,0.005634712520986795,0.0008738557808101177,0.004983979277312756
0.008151540532708168,0.0037087525706738234,-0.01000218465924263,0.005634712520986795,0.0008738557808101177,0.004983979277312756
0.0071304491721093655,0.003746556816622615,-0.009790204465389252,0.005602691322565079,0.000871803262270987,0.004513232968747616
0.008123022504150867,0.0038474733009934425,-0.009901250712573528,0.005267444998025894,0.0008753581205382943,0.004540175199508667
0.007948512211441994,0.003433023113757372,-0.010435966774821281,0.005090425722301006,0.0008783801458775997,0.004622465465217829
0.007666269317269325,0.003753016237169504,-0.009709656238555908,0.005193500313907862,0.0009421510039828718,0.004846189171075821
0.007694249041378498,0.0037834409158676863,-0.010248788632452488,0.005605408456176519,0.0009360649273730814,0.004859178327023983
0.007614904548972845,0.0037740080151706934,-0.009956586174666882,0.005195648409426212,0.0009393790969625115,0.005009920336306095
0.0077402107417583466,0.003793633310124278,-0.010315821506083012,0.004746953025460243,0.0010556720662862062,0.004990323446691036
0.0075982715934515,0.003787154797464609,-0.010043020360171795,0.004837091080844402,0.0010467985412105918,0.00477615324780345
0.008242160081863403,0.003851484740152955,-0.009635895490646362,0.004779791459441185,0.0010600265813991427,0.004787531681358814
0.008550923317670822,0.003899297444149852,-0.010158631019294262,0.005135160870850086,0.001130646443925798,0.005250734742730856
0.00794756319373846,0.003889796556904912,-0.010429266840219498,0.005511010065674782,0.0011255943682044744,0.004976414609700441
0.008218208327889442,0.0038672497030347586,-0.009771723300218582,0.0052042268216609955,0.0010884315706789494,0.0046915276907384396
0.008184865117073059,0.0038954992778599262,-0.01017110887914896,0.004861021414399147,0.001078603439964354,0.004932079464197159
0.008383406326174736,0.003902977332472801,-0.010555113665759563,0.004819991998374462,0.0011375646572560072,0.005028306040912867
0.007863509468734264,0.0039006571751087904,-0.009754928760230541,0.005104861222207546,0.0010993147734552622,0.004748737905174494
0.008349915966391563,0.003487075911834836,-0.010194404050707817,0.005293685477226973,0.0010679628467187285,0.004806745797395706
0.008143166080117226,0.003430428449064493,-0.010266831144690514,0.0052951336838305,0.0010557649657130241,0.004753532353788614
0.007980999536812305,0.0042424555867910385,-0.010077724233269691,0.004989280365407467,0.0010811242973431945,0.004856547806411982
0.007971812039613724,0.004156784620136023,-0.01038550864905119,0.0047112866304814816,0.001053804182447493,0.004470290616154671
0.007874805480241776,0.003942463546991348,-0.010336624458432198,0.004960611462593079,0.0010413991985842586,0.004496877081692219
0.007874805480241776,0.003942463546991348,-0.010336624458432198,0.004960611462593079,0.0010413991985842586,0.004496877081692219
0.007638467475771904,0.003774066921323538,-0.01038255076855421,0.004828866571187973,0.0011924749705940485,0.004042628221213818
0.007638467475771904,0.003774066921323538,-0.01038255076855421,0.004828866571187973,0.0011924749705940485,0.004042628221213818
0.008036211133003235,0.004365121014416218,-0.010221724398434162,0.004961463622748852,0.0011477958178147674,0.004164925776422024
0.008112665265798569,0.00417915778234601,-0.00980759970843792,0.005105486139655113,0.001094955950975418,0.0055053457617759705
0.008236601017415524,0.004437279421836138,-0.01091322023421526,0.0048719351179897785,0.0011065069120377302,0.005359771195799112
0.007814541459083557,0.0042492421343922615,-0.010484903119504452,0.004825864918529987,0.001158740371465683,0.005215260200202465
0.00826225709170103,0.004140110220760107,-0.009487836621701717,0.004762209486216307,0.001062819384969771,0.004951289854943752
0.008591385558247566,0.004118579905480146,-0.011432104744017124,0.00483106542378664,0.0011483157286420465,0.004802433308213949
0.007786381524056196,0.004461589269340038,-0.010303921066224575,0.004624416120350361,0.0011623811442404985,0.0047665187157690525
0.008580601774156094,0.004458646755665541,-0.010418679565191269,0.004466985817998648,0.0010012526763603091,0.005190070252865553
0.008235497400164604,0.004581649787724018,-0.010186473838984966,0.004098762758076191,0.0010378742590546608,0.00508822500705719
0.008139075711369514,0.004551903810352087,-0.009966617450118065,0.004340420477092266,0.0010571037419140339,0.005223833490163088
0.009268790483474731,0.004311008844524622,-0.010679790750145912,0.004182782955467701,0.0010541413212195039,0.004932519979774952
0.008541864342987537,0.004369754809886217,-0.01019306480884552,0.004416275303810835,0.0012562100309878588,0.004788672085851431
0.008455581963062286,0.004566534887999296,-0.010388722643256187,0.00423070415854454,0.0012631056597456336,0.004959978628903627
0.008433934301137924,0.004619332030415535,-0.01086853165179491,0.004262978211045265,0.0012428462505340576,0.005256336648017168
0.008536429144442081,0.00454831263050437,-0.010153756476938725,0.004040519706904888,0.001337404944933951,0.005254673305898905
0.008650482632219791,0.004803108982741833,-0.01096719317138195,0.0035511290188878775,0.001303740544244647,0.0053475480526685715
0.008538045920431614,0.004848555661737919,-0.009996006265282631,0.0042967041954398155,0.0012356305960565805,0.005112846381962299
0.00873697642236948,0.004815565887838602,-0.009990591555833817,0.003777339356020093,0.001146847615018487,0.005269318353384733
0.008710253052413464,0.004389419686049223,-0.010926961898803711,0.003992349840700626,0.0011129925260320306,0.005024739541113377
0.008944371715188026,0.0044780815951526165,-0.010091644711792469,0.004267804324626923,0.001076836371794343,0.005175726022571325
0.009559678845107555,0.004889992065727711,-0.010513455606997013,0.004463563673198223,0.001050536404363811,0.0055238897912204266
0.009559678845107555,0.004889992065727711,-0.010513455606997013,0.004463563673198223,0.001050536404363811,0.0055238897912204266
0.008342014625668526,0.0047783320769667625,-0.009722892194986343,0.003850542940199375,0.0011269372189417481,0.005608391482383013
0.008872214704751968,0.004605759400874376,-0.010321374051272869,0.0037590675055980682,0.0013260081177577376,0.005077803507447243
0.008872214704751968,0.004605759400874376,-0.010321374051272869,0.0037590675055980682,0.0013260081177577376,0.005077803507447243
0.008822926320135593,0.004483128432184458,-0.010227864608168602,0.0038656846154481173,0.0014712143456563354,0.00512214470654726
0.008822926320135593,0.004483128432184458,-0.010227864608168602,0.0038656846154481173,0.0014712143456563354,0.00512214470654726
0.008739599026739597,0.0046253870241343975,-0.009937410242855549,0.003966284450143576,0.0013971852604299784,0.005667841527611017
0.00844955537468195,0.0045946440659463406,-0.010364093817770481,0.003957230132073164,0.0013069282285869122,0.005875743925571442
0.008736846037209034,0.004743222612887621,-0.009697841480374336,0.003879504045471549,0.001239948789589107,0.005514508578926325
0.008463189005851746,0.004663550760596991,-0.010435127653181553,0.0036560879088938236,0.001173490658402443,0.005221676547080278
0.008700846694409847,0.004627993796020746,-0.010002459399402142,0.003398782340809703,0.0010306222829967737,0.004899683874100447
0.009313357062637806,0.004214302636682987,-0.009558035992085934,0.003381378250196576,0.001005216152407229,0.004945168271660805
0.008734438568353653,0.003991755656898022,-0.010135531425476074,0.0031755338422954082,0.0010557846399024129,0.00541056040674448
0.008656984195113182,0.004140632692724466,-0.010935027152299881,0.002925728913396597,0.0011180801084265113,0.0056316787376999855
0.009025076404213905,0.0047735124826431274,-0.009447692893445492,0.0029377450700849295,0.001276983879506588,0.005652622319757938
0.008794271387159824,0.004922003485262394,-0.010563635267317295,0.003317617578431964,0.0015043213497847319,0.004761919844895601
0.00883219763636589,0.004395290277898312,-0.009863918647170067,0.0030298354104161263,0.0014872837346047163,0.004864149261265993
0.009417837485671043,0.004392798058688641,-0.009915383532643318,0.002765391021966934,0.0013803145848214626,0.005298490636050701
0.00903793890029192,0.004563689697533846,-0.01032933872193098,0.0027918778359889984,0.0012168630491942167,0.005408956203609705
0.008582229726016521,0.005026649683713913,-0.009327306412160397,0.002914982382208109,0.0012507359497249126,0.005571229849010706
0.009020273573696613,0.005112483166158199,-0.01001779641956091,0.0030230290722101927,0.0012349701719358563,0.00522036524489522
0.009780128486454487,0.004811691120266914,-0.010316786356270313,0.0029766743537038565,0.0013525999384000897,0.00558193726465106
0.00888881366699934,0.004600054118782282,-0.009595385752618313,0.002981462748721242,0.0013554178876802325,0.005545196123421192
0.00990987103432417,0.004610324744135141,-0.00990154966711998,0.0030686825048178434,0.0013303901068866253,0.0056322794407606125
0.00935949757695198,0.0048258486203849316,-0.00992192979902029,0.0030300694052129984,0.0014569119084626436,0.005367419682443142
0.009615249931812286,0.005118564702570438,-0.009511347860097885,0.00297513953410089,0.0013756040716543794,0.005206725560128689
0.009028698317706585,0.004908033646643162,-0.009839523583650589,0.0028130521532148123,0.001324107637628913,0.005107272416353226
0.009001549333333969,0.004684269428253174,-0.009863348677754402,0.0028519281186163425,0.0013119991635903716,0.005688049830496311
0.009001549333333969,0.004684269428253174,-0.009863348677754402,0.0028519281186163425,0.0013119991635903716,0.005688049830496311
0.00896058976650238,0.005041524767875671,-0.009462330490350723,0.0026493638288229704,0.0013443854404613376,0.005397723522037268
0.009596585296094418,0.004851071629673243,-0.009863978251814842,0.0026346587110310793,0.0014409299474209547,0.005583782214671373
0.009596585296094418,0.004851071629673243,-0.009863978251814842,0.0026346587110310793,0.0014409299474209547,0.005583782214671373
0.009308426640927792,0.004937827121466398,-0.00946898479014635,0.00273699383251369,0.0014282226329669356,0.005194994620978832
0.00950657483190298,0.0048369127325713634,-0.009689770638942719,0.002838346641510725,0.0016139093786478043,0.005140276160091162
0.009665203280746937,0.004784264136105776,-0.00995503831654787,0.0027286389376968145,0.0016118178609758615,0.005000946577638388
0.009407797828316689,0.005005138926208019,-0.00945482961833477,0.002655457705259323,0.0015285138506442308,0.005330816376954317
0.009412134997546673,0.005640476010739803,-0.00961850956082344,0.002651835326105356,0.0015745763666927814,0.005718902684748173
0.010208943858742714,0.004866860341280699,-0.009699052199721336,0.002530827419832349,0.001491422881372273,0.005451579112559557
0.010227281600236893,0.005029001273214817,-0.009000622667372227,0.002490411279723048,0.0013221877161413431,0.0054501318372786045
0.009621310979127884,0.00528416084125638,-0.009307080879807472,0.0024824088905006647,0.0012731492752209306,0.005845933686941862
0.010172061622142792,0.005451391451060772,-0.008837832137942314,0.002424292964860797,0.0012498897267505527,0.00569887924939394
0.009819800034165382,0.0051523842848837376,-0.009164967574179173,0.0022756466642022133,0.0013445510994642973,0.0057856556959450245
0.009908456355333328,0.004921822343021631,-0.009661761112511158,0.0022797337733209133,0.001326560857705772,0.0053640794940292835
0.009336900897324085,0.005201683379709721,-0.009135564789175987,0.002220999449491501,0.001461824169382453,0.0054397182539105415
0.009604462422430515,0.005125199910253286,-0.009118378162384033,0.0024731718003749847,0.0015778735978528857,0.0051999930292367935
0.009902028366923332,0.005442224442958832,-0.009455176070332527,0.0026431153528392315,0.0016754878452047706,0.005575518123805523
0.010328457690775394,0.005489315837621689,-0.009092124179005623,0.0024224903900176287,0.001742392429150641,0.005809711292386055
0.009542551822960377,0.005268516950309277,-0.008635696955025196,0.002484966302290559,0.0017450988525524735,0.0057114954106509686
0.010005543008446693,0.0052498760633170605,-0.009501533582806587,0.002272438956424594,0.0018325911369174719,0.005611005239188671
0.010107065550982952,0.005034400150179863,-0.009165882132947445,0.0021377690136432648,0.0018413314828649163,0.005984668619930744
0.00976997334510088,0.0058974167332053185,-0.009213327430188656,0.002074160147458315,0.0018396442756056786,0.005679648835211992
0.009822793304920197,0.005397222936153412,-0.010595346800982952,0.0020925537683069706,0.0017325482331216335,0.005981341004371643
0.010242359712719917,0.0054138218984007835,-0.009821572341024876,0.002539650537073612,0.0016966875409707427,0.006228080950677395
0.009406902827322483,0.005558095406740904,-0.009093663655221462,0.0025748261250555515,0.0016622351249679923,0.005601531360298395
0.009406902827322483,0.005558095406740904,-0.009093663655221462,0.0025748261250555515,0.0016622351249679923,0.005601531360298395
0.009704586118459702,0.005271702539175749,-0.009726293385028839,0.002463732613250613,0.0016923181246966124,0.0053930445574223995
0.009702871553599834,0.005417027045041323,-0.00966908223927021,0.002321913605555892,0.0017458483343943954,0.005614603403955698
0.00958572793751955,0.005590729881078005,-0.009664526209235191,0.002084543462842703,0.001982829300686717,0.006066367030143738
0.010135800577700138,0.0055465432815253735,-0.009838707745075226,0.0020119764376431704,0.0018873855005949736,0.005934630520641804
0.010180558077991009,0.005179391708225012,-0.009521082043647766,0.0018487509805709124,0.0017817860934883356,0.006023959256708622
0.009846373461186886,0.005780112463980913,-0.009454676881432533,0.0019265732262283564,0.0017444174736738205,0.005791075062006712
0.009990793652832508,0.005392081569880247,-0.010223327204585075,0.001850371016189456,0.001628316123969853,0.005785096902400255
0.00970080029219389,0.005477780941873789,-0.009730933234095573,0.002055576303973794,0.00143177411518991,0.005833705887198448
0.009691587649285793,0.0055986265651881695,-0.009494679048657417,0.0019333412637934089,0.0014291676925495267,0.005857972893863916
0.00983327254652977,0.005396232008934021,-0.010354130528867245,0.0019990799482911825,0.0014109364710748196,0.005926103796809912
0.009600247256457806,0.005620649084448814,-0.010012631304562092,0.001845806953497231,0.001561933197081089,0.005992205813527107
0.010273258201777935,0.005811118986457586,-0.010655662044882774,0.0013684669975191355,0.0017650636145845056,0.006673344410955906
0.009639405645430088,0.005599798168987036,-0.010199096985161304,0.001357521628960967,0.001804010127671063,0.0062379371374845505
0.010049432516098022,0.005365998018532991,-0.009783348999917507,0.0012317098444327712,0.002159169875085354,0.005887010134756565
0.011054137721657753,0.0050157285295426846,-0.010488550178706646,0.0013145488919690251,0.0019940908532589674,0.0055788494646549225
0.009912664070725441,0.005710361525416374,-0.00997562613338232,0.0012778881937265396,0.0020513006020337343,0.006054026540368795
0.009823154658079147,0.005483779590576887,-0.010636108927428722,0.001555521390400827,0.0018946245545521379,0.006426245905458927
0.01038605161011219,0.005905804689973593,-0.010916285216808319,0.0014552505454048514,0.001798259443603456,0.006462616380304098
0.009759966284036636,0.005936191882938147,-0.010994335636496544,0.0013517236802726984,0.0017349690897390246,0.005752131342887878
0.010010097175836563,0.005917811766266823,-0.010184472426772118,0.0011724618962034583,0.001517459866590798,0.00586553243920207
0.010358807630836964,0.005575519986450672,-0.010312200523912907,0.0011149230413138866,0.0013911137357354164,0.006053710822016001
0.010325713083148003,0.005931279622018337,-0.010095268487930298,0.0010771723464131355,0.0014407909475266933,0.006630559917539358
0.01014851126819849,0.006352555006742477,-0.010210751555860043,0.0010416118893772364,0.0018507565837353468,0.006551835685968399
0.01014851126819849,0.006352555006742477,-0.010210751555860043,0.0010416118893772364,0.0018507565837353468,0.006551835685968399
0.010434901341795921,0.006149825640022755,-0.010748228058218956,0.0009725028066895902,0.0017756025772541761,0.0063182637095451355
0.010221300646662712,0.006263704504817724,-0.010194443166255951,0.0010391543619334698,0.0018851218046620488,0.006006140727549791
0.012079451233148575,0.006406543310731649,-0.01065610907971859,0.0010576415807008743,0.001835563569329679,0.006368010304868221
0.012232331559062004,0.006051358766853809,-0.010569265112280846,0.001330280676484108,0.0017854252364486456,0.006435958668589592
0.012520994059741497,0.006425200030207634,-0.00982636772096157,0.0014486474683508277,0.0017186851473525167,0.005933867301791906
0.012137355282902718,0.006339280866086483,-0.010537391528487206,0.0014976757811382413,0.0015737030189484358,0.005665865261107683
0.012043287046253681,0.006020312663167715,-0.01054240483790636,0.0016892764251679182,0.0014565982855856419,0.005297875497490168
0.012285774573683739,0.006277960725128651,-0.010443970561027527,0.0015644412487745285,0.001444021938368678,0.006199733354151249
0.011853965930640697,0.006418927572667599,-0.01091764122247696,0.0013570706360042095,0.0014888455625623465,0.006756606511771679
0.012348219752311707,0.006168324034661055,-0.010122483596205711,0.0012632288271561265,0.0015738721704110503,0.006462021730840206
0.01288361381739378,0.006112233269959688,-0.010068672709167004,0.0012745155254378915,0.0019881846383213997,0.006348739843815565
0.01227944903075695,0.005963485222309828,-0.01047504786401987,0.00117123790550977,0.0020669209770858288,0.006303365807980299
0.012282473035156727,0.006634569261223078,-0.01067661214619875,0.0009819711558520794,0.002204952761530876,0.00637096120044589
0.012338312342762947,0.006658554542809725,-0.01103068608790636,0.0009637035545893013,0.0021320900414139032,0.006221844349056482
0.012427126057446003,0.006002962589263916,-0.010193254798650742,0.0009307014406658709,0.00193599215708673,0.0061164433136582375
0.012626223266124725,0.006208709441125393,-0.01061298605054617,0.0008480806136503816,0.0019205644493922591,0.006511118728667498
0.012721486389636993,0.006579030770808458,-0.010047569870948792,0.000767673016525805,0.0017507533775642514,0.006962551735341549
0.012685122899711132,0.006374811287969351,-0.009893191047012806,0.0006481347372755408,0.0018872818909585476,0.006865533068776131
0.012737829238176346,0.006424156948924065,-0.01066036056727171,0.0005658248555846512,0.001739194500260055,0.006600840948522091
0.012356254272162914,0.006252344697713852,-0.010593421757221222,0.0005887851002626121,0.0015230616554617882,0.0062145087867975235
0.012364651076495647,0.0058706593699753284,-0.009201319888234138,0.0005413780454546213,0.0015398452524095774,0.006475887726992369
0.012242781929671764,0.005717367399483919,-0.010384979657828808,0.0005528209148906171,0.0014459104277193546,0.007145903073251247
0.012835987843573093,0.005998264532536268,-0.010045303963124752,0.0005253168637864292,0.0014398973435163498,0.006943307351320982
0.01189400628209114,0.006248404271900654,-0.009498005732893944,0.0004859802720602602,0.0014631396625190973,0.006389414891600609
0.012115945108234882,0.00599067285656929,-0.009955081157386303,0.0005111579084768891,0.0016576447524130344,0.006239830981940031
0.012115945108234882,0.00599067285656929,-0.009955081157386303,0.0005111579084768891,0.0016576447524130344,0.006239830981940031
0.012732762843370438,0.00597395421937108,-0.009812739677727222,0.0004809105594176799,0.001807690947316587,0.00667980033904314
0.012276798486709595,0.006108354311436415,-0.01009905431419611,0.00045126795885153115,0.002063549356535077,0.006435312796384096
0.012499836273491383,0.006102565675973892,-0.010522560216486454,0.00041174705256707966,0.0020315733272582293,0.00629025511443615
0.012063506059348583,0.006067806389182806,-0.009761200286448002,0.00044236265239305794,0.0019579604268074036,0.00695886230096221
0.012478688731789589,0.006038920022547245,-0.009689495898783207,0.00041704188333824277,0.0019234282663092017,0.006962648592889309
0.011904159560799599,0.006123920902609825,-0.010915545746684074,0.00044345480273477733,0.0020576573442667723,0.007296127267181873
0.013151795603334904,0.0061363335698843,-0.00995961856096983,0.0004214258515276015,0.001965113915503025,0.006774872075766325
0.012967812828719616,0.006664114538580179,-0.009531735442578793,0.0003954591229557991,0.002100582467392087,0.0069092935882508755
0.012529134750366211,0.006370705086737871,-0.010418837890028954,0.00037212230381555855,0.0019952573347836733,0.006808651145547628
0.012577323243021965,0.0064987605437636375,-0.009879831224679947,0.00035136245423927903,0.0019688482861965895,0.007267822045832872
0.012287396937608719,0.006241915747523308,-0.00990963913500309,0.0003327953745611012,0.001956655876711011,0.007117263041436672
0.012357314117252827,0.006891458760946989,-0.010104073211550713,0.00030098698334768414,0.001948449993506074,0.0067244707606732845
0.012959357351064682,0.006039740983396769,-0.009883827529847622,0.0002872586192097515,0.0019861336331814528,0.006477150600403547
0.012906861491501331,0.006029107607901096,-0.009955749846994877,0.00027472947840578854,0.002188060199841857,0.006639451254159212
0.012791215442121029,0.006161368917673826,-0.009846803732216358,0.0002632474061101675,0.0021353885531425476,0.006835856009274721
0.012861419469118118,0.0070874048396945,-0.01119223516434431,0.0002526861208025366,0.002187222708016634,0.006899530533701181
0.012606823816895485,0.006562512833625078,-0.010203022509813309,0.00024294122704304755,0.0021885521709918976,0.006680462509393692
0.013263767585158348,0.006310480181127787,-0.009213380515575409,0.0002339192433282733,0.0022313736844807863,0.006668203976005316
0.01258187834173441,0.0067815049551427364,-0.009273163042962551,0.00022554371389560401,0.002044154331088066,0.006742515135556459
0.01277903001755476,0.007422837428748608,-0.010324048809707165,0.00021774705965071917,0.0019543005619198084,0.006784473545849323
0.01261093094944954,0.007050232030451298,-0.009636609815061092,0.00021047193149570376,0.001807207241654396,0.006801775190979242
0.013173382729291916,0.006627557799220085,-0.009593579918146133,0.00020366694661788642,0.001752848969772458,0.007181155029684305
0.013077241368591785,0.006686302833259106,-0.009523563086986542,0.00019728828920051455,0.0017680395394563675,0.007444616407155991
0.012986020185053349,0.0066312579438090324,-0.009617290459573269,0.0001912973093567416,0.00203680875711143,0.006310655269771814
0.01345039438456297,0.007030888926237822,-0.009677829220890999,0.00018565976643003523,0.00238663493655622,0.006697637494653463
0.01284676045179367,0.006759150419384241,-0.010366782546043396,0.00018034428649116307,0.0025071422569453716,0.007802464999258518
0.012969864532351494,0.0062710801139473915,-0.009542295709252357,0.00017532552010379732,0.00256607448682189,0.007772131823003292
0.01247252244502306,0.006462655030190945,-0.010429943911731243,0.00017057775403372943,0.0022185228299349546,0.006821385584771633
0.013256431557238102,0.006867981981486082,-0.009796750731766224,0.00016608108126092702,0.0018799800891429186,0.006568139884620905
0.013256431557238102,0.006867981981486082,-0.009796750731766224,0.00016608108126092702,0.0018799800891429186,0.006568139884620905
0.013004706241190434,0.006875636056065559,-0.009295555762946606,0.00016181495448108763,0.0018405669834464788,0.007002254016697407
0.012967487797141075,0.006313125602900982,-0.009499955922365189,0.00015776265354361385,0.0018692656885832548,0.0070809717290103436
0.01312091015279293,0.006050754338502884,-0.00996142067015171,0.00010676409146981314,0.0022306954488158226,0.007144085131585598
0.013494567945599556,0.006818763911724091,-0.009705670177936554,5.913146014790982e-05,0.0025413508992642164,0.007504001725465059
0.01322754193097353,0.006995455361902714,-0.009917347691953182,5.445291753858328e-05,0.0026877245400100946,0.00716361915692687
0.013339676894247532,0.007146500051021576,-0.010164874605834484,5.267046799417585e-05,0.0024419312831014395,0.0071664610877633095
0.013556265272200108,0.006444741506129503,-0.009495394304394722,5.116104512126185e-05,0.0023133254144340754,0.0073279389180243015
0.013125689700245857,0.006464244332164526,-0.010586743243038654,4.974619878339581e-05,0.00208487780764699,0.007433015387505293
0.013431733474135399,0.00675126351416111,-0.009934949688613415,4.840830297325738e-05,0.00200650398619473,0.006959676742553711
0.013108460232615471,0.007425966206938028,-0.009297740645706654,4.714041278930381e-05,0.001876309048384428,0.006941579282283783
0.013335280120372772,0.005977659951895475,-0.009811492636799812,2.278519605170004e-05,0.0022178003564476967,0.007383865769952536
0.013681048527359962,0.006590669043362141,-0.009467275813221931,2.1878546249354258e-05,0.002179564442485571,0.007061009295284748
0.01344112679362297,0.006995577830821276,-0.010937999933958054,2.1336763893486932e-05,0.0021611256524920464,0.0073904721066355705
0.013827848248183727,0.007189496420323849,-0.009980427101254463,2.7397441044740845e-06,0.0021709671709686518,0.007288496010005474
0.01358034461736679,0.006413789000362158,-0.009214923717081547,1.7888569914248365e-07,0.0025609408039599657,0.0075262379832565784
0.013600768521428108,0.006554801482707262,-0.009423620998859406,1.1679958333843388e-08,0.00257876212708652,0.0075011299923062325
0.013567790389060974,0.00691949063912034,-0.009731613099575043,7.626178022412944e-10,0.0025111339055001736,0.007645776960998774
0.014000887982547283,0.007455679588019848,-0.01008550263941288,4.9793492246097415e-11,0.0026919918600469828,0.007514442317187786
0.013879775069653988,0.006949159316718578,-0.009801492094993591,3.251159541237114e-12,0.0028538769111037254,0.00748230516910553
0.014510218054056168,0.006516778841614723,-0.009666331112384796,2.122774883390327e-13,0.0028373468667268753,0.007429782766848803
0.01445130817592144,0.00667915353551507,-0.009552225470542908,1.3860203403829457e-14,0.002648593857884407,0.007607703097164631
0.014365611597895622,0.007352326065301895,-0.009353633038699627,9.04972224307981e-16,0.0025253284256905317,0.008062098175287247
0.014140929095447063,0.006868068128824234,-0.009886916726827621,5.908821768962704e-17,0.002318039769306779,0.007884275168180466
0.014229062013328075,0.00667985575273633,-0.009850527159869671,3.858038619347857e-18,0.002195377368479967,0.007713859435170889
0.014638490043580532,0.007169418968260288,-0.009369018487632275,-0.0007397783338092268,0.0020078562665730715,0.007724760565906763
0.01473206840455532,0.007540981285274029,-0.009907652623951435,-0.0008305198862217367,0.002098009455949068,0.00808712188154459
0.01456189900636673,0.007637055590748787,-0.009457082487642765,-0.000872218981385231,0.0021538354922086,0.007792261429131031
0.01456189900636673,0.007637055590748787,-0.009457082487642765,-0.000872218981385231,0.0021538354922086,0.007792261429131031
0.01475935522466898,0.007058777846395969,-0.009421111084520817,-0.001301329000853002,0.0021702125668525696,0.007999392226338387
0.01438081357628107,0.007224160712212324,-0.009917546063661575,-0.0015047503402456641,0.0024735769256949425,0.008182426914572716
0.015025191009044647,0.00763532891869545,-0.010005570016801357,-0.0019187029683962464,0.0026391292922198772,0.0076392642222344875
0.014621181413531303,0.0075681679882109165,-0.00936131738126278,-0.0019953406881541014,0.0026424850802868605,0.0075135016813874245
0.014696961268782616,0.007438828237354755,-0.010826058685779572,-0.002263101050630212,0.0027068934869021177,0.008045896887779236
0.014353271573781967,0.007687570992857218,-0.009949004277586937,-0.0024751974269747734,0.0026183074805885553,0.008144550956785679
0.014990543015301228,0.007690915837883949,-0.009549013338983059,-0.0025448002852499485,0.0024920180439949036,0.0077163283713161945
0.014532818458974361,0.007326741702854633,-0.010470378212630749,-0.002786807483062148,0.002463339362293482,0.0073873307555913925
0.015071850270032883,0.007237356621772051,-0.00978831760585308,-0.0032188883051276207,0.002284498419612646,0.008090685121715069
0.015193933621048927,0.007908700965344906,-0.010241741314530373,-0.003962088841944933,0.002482816344127059,0.007854405790567398
0.0148385064676404,0.00763707747682929,-0.010522360913455486,-0.0041844528168439865,0.00243094633333385,0.008129683323204517
0.015835512429475784,0.007361247204244137,-0.010056937113404274,-0.0040060714818537235,0.00254892953671515,0.008259007707238197
0.015512955375015736,0.0074384924955666065,-0.010406454093754292,-0.0038887569680809975,0.002412032103165984,0.007914208807051182
0.016035016626119614,0.00815681554377079,-0.00966627337038517,-0.003954570274800062,0.0023319206666201353,0.008017346262931824
0.015877194702625275,0.007502564694732428,-0.010529475286602974,-0.0043447595089674,0.0025118126068264246,0.00816546194255352
0.015886735171079636,0.007997686043381691,-0.010192995890974998,-0.004638077225536108,0.0028858957812190056,0.007932073436677456
0.015710363164544106,0.007779981940984726,-0.009971586987376213,-0.004762927070260048,0.0028977475594729185,0.007993184961378574
0.0157617200165987,0.007992886938154697,-0.010502387769520283,-0.004651861730962992,0.0026528744492679834,0.008196706883609295
0.015621732920408249,0.007830359041690826,-0.01048836950212717,-0.004309989511966705,0.002256338484585285,0.008319273591041565
0.015419976785779,0.00786523800343275,-0.01008549053221941,-0.004040974657982588,0.002206035889685154,0.008250182494521141
0.015967004001140594,0.008294773288071156,-0.010267366655170918,-0.004178776405751705,0.002487311838194728,0.007931997999548912
0.01632731780409813,0.008241062983870506,-0.010381246916949749,-0.004519218113273382,0.0025324702728539705,0.008059029467403889
0.0166411641985178,0.0076899039559066296,-0.01023232564330101,-0.004604946821928024,0.0024771697353571653,0.008485056459903717
0.016078131273388863,0.007892057299613953,-0.011069266125559807,-0.004871055018156767,0.0026030205190181732,0.007810766343027353
0.016290901228785515,0.008274740539491177,-0.010523605160415173,-0.004388495348393917,0.0025472058914601803,0.007831730879843235
0.016290901228785515,0.008274740539491177,-0.010523605160415173,-0.004388495348393917,0.0025472058914601803,0.007831730879843235
0.016729246824979782,0.007717471104115248,-0.010276149958372116,-0.003963380120694637,0.0024444605223834515,0.007952157407999039
0.01629919372498989,0.00760425440967083,-0.010449537076056004,-0.004077757243067026,0.002560859778895974,0.008153654634952545
0.016535047441720963,0.008841142058372498,-0.010425249114632607,-0.004629324655979872,0.0026009278371930122,0.008244425058364868
0.016169892624020576,0.008866679854691029,-0.01150126475840807,-0.005300204735249281,0.002638621721416712,0.008271420374512672
0.01684977486729622,0.007828669622540474,-0.010694198310375214,-0.005118007771670818,0.002693627728149295,0.008437217213213444
0.017000306397676468,0.007319142110645771,-0.010314424522221088,-0.005194829311221838,0.00278088659979403,0.008368070237338543
0.017050454393029213,0.007981723174452782,-0.010387229733169079,-0.004852475598454475,0.0027520114090293646,0.0082074711099267
0.016840199008584023,0.008681109175086021,-0.010339956730604172,-0.0044204010628163815,0.002592852571979165,0.008151547983288765
0.016833731904625893,0.008460774086415768,-0.010089727118611336,-0.004143798723816872,0.002316245110705495,0.008069654926657677
0.01742195338010788,0.008078374899923801,-0.010985108092427254,-0.004831870086491108,0.002164923818781972,0.008283233270049095
0.0171158816665411,0.008883747272193432,-0.010672538541257381,-0.005284307990223169,0.00217417418025434,0.00850499514490366
0.017485642805695534,0.008210509084165096,-0.011249752715229988,-0.004524612333625555,0.0023728699889034033,0.00840002205222845
0.017278170213103294,0.008724035695195198,-0.010122421197593212,-0.004839077591896057,0.002631987677887082,0.00830935686826706
0.017568722367286682,0.008862253278493881,-0.010171875357627869,-0.005122922360897064,0.0028018509037792683,0.008267998695373535
0.017440518364310265,0.008761490695178509,-0.0110445162281394,-0.005758466199040413,0.003191732568666339,0.008383390493690968
0.017485294491052628,0.008018605411052704,-0.010829620994627476,-0.005506027489900589,0.0030492302030324936,0.008673544973134995
0.017700284719467163,0.008696901611983776,-0.010962503962218761,-0.004958605393767357,0.0028018055018037558,0.008560515940189362
0.01752041094005108,0.008989428170025349,-0.010700355283915997,-0.004932313691824675,0.0025643848348408937,0.00853880774229765
0.017763925716280937,0.00853352528065443,-0.009772039018571377,-0.004837381187826395,0.0024773762561380863,0.008526258170604706
0.017731385305523872,0.008539767935872078,-0.010539195500314236,-0.004897677805274725,0.0027206684462726116,0.008593988604843616
0.017811989411711693,0.008521745912730694,-0.010753891430795193,-0.005629839841276407,0.0028313000220805407,0.008771987631917
0.01805536076426506,0.008764654397964478,-0.010242271237075329,-0.005749344825744629,0.002880424028262496,0.008740566670894623
0.0176730677485466,0.008881285786628723,-0.011781715787947178,-0.005670516286045313,0.002772198524326086,0.008900169283151627
0.018063880503177643,0.009138217195868492,-0.010165637359023094,-0.00509799225255847,0.0029866937547922134,0.008646860718727112
0.01844082772731781,0.008678385987877846,-0.009791701100766659,-0.004742704331874847,0.0030457638204097748,0.008453795686364174
0.01790791004896164,0.008620110340416431,-0.010538811795413494,-0.005060338880866766,0.0028985650278627872,0.008341055363416672
0.01790791004896164,0.008620110340416431,-0.010538811795413494,-0.005060338880866766,0.0028985650278627872,0.008341055363416672
0.018597310408949852,0.00902695395052433,-0.010150321759283543,-0.00595675827935338,0.002728291554376483,0.008794627152383327
0.01849745213985443,0.009006723761558533,-0.011001817882061005,-0.005671333521604538,0.0028509674593806267,0.008943096734583378
0.01813044212758541,0.008539597503840923,-0.010492956265807152,-0.00524514727294445,0.002905607922002673,0.008784772828221321
0.018529530614614487,0.00897054374217987,-0.010194912552833557,-0.005352329462766647,0.002853825455531478,0.009009351953864098
0.018719865009188652,0.009104442782700062,-0.010402316227555275,-0.00521162711083889,0.002686793217435479,0.008991233073174953
0.018527690321207047,0.008761707693338394,-0.010736361145973206,-0.005689563229680061,0.002896938007324934,0.0091507313773036
0.01928434893488884,0.009449527598917484,-0.010186106897890568,-0.005860223434865475,0.003028753912076354,0.008659951388835907
0.0184197798371315,0.008997161872684956,-0.01076577603816986,-0.005850004497915506,0.0029948726296424866,0.008660183288156986
0.018820583820343018,0.008796396665275097,-0.010359683074057102,-0.005311837885528803,0.002804954769089818,0.008824815973639488
0.01829773746430874,0.009158584289252758,-0.01081464160233736,-0.0056184749118983746,0.00282098981551826,0.009302844293415546
0.0159014780074358,0.009001702070236206,-0.010442301630973816,-0.005703267641365528,0.002931978553533554,0.008830993436276913
0.01962275058031082,0.00882000382989645,-0.01048843003809452,-0.005960406735539436,0.0032876157201826572,0.008578346110880375
0.018976707011461258,0.009570082649588585,-0.010808439925312996,-0.005930931307375431,0.0030705875251442194,0.009057513438165188
0.01860089786350727,0.00884134043008089,-0.010484191589057446,-0.006145910359919071,0.00309988996013999,0.00920798908919096
0.01911674067378044,0.009015594609081745,-0.012127513065934181,-0.006382622290402651,0.0031516882590949535,0.008943980559706688
0.01897040382027626,0.009508905932307243,-0.009742176160216331,-0.006222394295036793,0.003071603598073125,0.008889791555702686
0.019391534850001335,0.008994657546281815,-0.010639015585184097,-0.006390799302607775,0.0026908847503364086,0.008813855238258839
0.019462963566184044,0.009214877150952816,-0.01129449438303709,-0.006313128862529993,0.0027727107517421246,0.009319097734987736
0.01898360066115856,0.009531119838356972,-0.010795336216688156,-0.005541359074413776,0.0032621680293232203,0.008998309262096882
0.019186168909072876,0.00909960363060236,-0.010845205746591091,-0.005442264024168253,0.0035311568062752485,0.009173705242574215
0.01881331019103527,0.00895613431930542,-0.01118820533156395,-0.005438024643808603,0.003304970683529973,0.008821994066238403
0.01870856247842312,0.009299024939537048,-0.010312980972230434,-0.005392118822783232,0.002994406735524535,0.008901074528694153
0.019332703202962875,0.009286480024456978,-0.010694526135921478,-0.005799182690680027,0.003133272286504507,0.009039758704602718
0.0197068490087986,0.009303764440119267,-0.011839523911476135,-0.005614058580249548,0.0036239358596503735,0.00896097905933857
0.018957657739520073,0.009139147587120533,-0.010381879284977913,-0.0063552032224833965,0.0033644684590399265,0.009331675246357918
0.01941547729074955,0.009206362999975681,-0.010918126441538334,-0.006890242453664541,0.0031940012704581022,0.009315546602010727
0.01936018094420433,0.008660438470542431,-0.010419972240924835,-0.006413760595023632,0.0029180776327848434,0.00942275207489729
0.01904463954269886,0.00952167809009552,-0.010110126808285713,-0.005726460367441177,0.002871852368116379,0.009304795414209366
0.019365936517715454,0.009798472747206688,-0.010936914011836052,-0.0063152313232421875,0.002759103663265705,0.009407875128090382
0.01964516006410122,0.009374218061566353,-0.010473289526998997,-0.006947638932615519,0.0029592467471957207,0.009773359633982182
0.01964516006410122,0.009374218061566353,-0.010473289526998997,-0.006947638932615519,0.0029592467471957207,0.009773359633982182
0.01967373676598072,0.009205887094140053,-0.010503679513931274,-0.007441615220159292,0.003008031053468585,0.009605010971426964
0.019683705642819405,0.009723233990371227,-0.010666793212294579,-0.006480302661657333,0.0032807092647999525,0.009402059949934483
0.019684085622429848,0.009546427987515926,-0.010743599385023117,-0.005918306764215231,0.003162047127261758,0.009599416516721249
0.01982644945383072,0.008925451897084713,-0.010273637250065804,-0.00618611928075552,0.003455179277807474,0.009690837934613228
0.019947407767176628,0.010122396051883698,-0.0106489984318614,-0.007151919417083263,0.0037262223195284605,0.009484768845140934
0.02017141878604889,0.009661848656833172,-0.010184275917708874,-0.006946363020688295,0.0034083223436027765,0.009649353101849556
0.019917402416467667,0.009092418476939201,-0.010570635087788105,-0.006204591132700443,0.00330369989387691,0.009842119179666042
0.020150775089859962,0.009738894179463387,-0.010605604387819767,-0.006181316915899515,0.0032753318082541227,0.009801272302865982
0.0203718151897192,0.009738389402627945,-0.010947579517960548,-0.007573330774903297,0.003319384064525366,0.01019170694053173
0.019882360473275185,0.009962465614080429,-0.010390130802989006,-0.00746792322024703,0.0030990750528872013,0.009461373090744019
0.020549137145280838,0.009425054304301739,-0.01038183644413948,-0.007473282516002655,0.003321880241855979,0.009235827252268791
0.020318791270256042,0.008987500332295895,-0.011002769693732262,-0.007832828909158707,0.003155727172270417,0.00981776975095272
0.019798265770077705,0.009789886884391308,-0.010775844566524029,-0.007788344286382198,0.003439203603193164,0.009943936951458454
0.0202341265976429,0.009855317883193493,-0.01016618125140667,-0.007431084755808115,0.0034922969061881304,0.010221821255981922
0.020372994244098663,0.00944802537560463,-0.010243411175906658,-0.006703238468617201,0.0032854110468178988,0.010020358487963676
0.02032739855349064,0.009901123121380806,-0.010256418958306313,-0.00695358170196414,0.0034992301370948553,0.009630056098103523
0.01995221897959709,0.010046315379440784,-0.01087408047169447,-0.008138970471918583,0.003381046000868082,0.00995310116559267
0.020416585728526115,0.009727464988827705,-0.010812700726091862,-0.007857264019548893,0.0035896950867027044,0.009986013174057007
0.020435506477952003,0.01019275188446045,-0.010799510404467583,-0.007352296728640795,0.0037016363348811865,0.009657017886638641
0.02050829865038395,0.010096977464854717,-0.01107829250395298,-0.0069458675570786,0.003298618597909808,0.010032842867076397
0.02053895778954029,0.009959413670003414,-0.010328711941838264,-0.007054183632135391,0.002984624123200774,0.010161621496081352
0.02034139074385166,0.01008760929107666,-0.010359500534832478,-0.008027562871575356,0.00314969290047884,0.010281444527208805
0.020248007029294968,0.009840914979577065,-0.011114303022623062,-0.007601662538945675,0.0033482336439192295,0.010128669440746307
0.020541483536362648,0.009600229561328888,-0.010737239383161068,-0.007551959250122309,0.003561090212315321,0.010217963717877865
0.02098369598388672,0.010646439157426357,-0.010481459088623524,-0.007748663891106844,0.003700236789882183,0.010262135416269302
0.021045859903097153,0.009880040772259235,-0.010831806808710098,-0.007773600053042173,0.003971328027546406,0.009898371994495392
0.021045859903097153,0.009880040772259235,-0.010831806808710098,-0.007773600053042173,0.003971328027546406,0.009898371994495392
0.020877663046121597,0.009576237760484219,-0.010451975278556347,-0.006947214715182781,0.004123259801417589,0.009862413629889488
0.020211484283208847,0.010312415659427643,-0.010961725376546383,-0.007275331299751997,0.003745968919247389,0.00980727281421423
0.021338172256946564,0.009810548275709152,-0.010516948066651821,-0.008205553516745567,0.0031314315274357796,0.010523146949708462
0.021179169416427612,0.009502620436251163,-0.010245840065181255,-0.007771430071443319,0.0027370548341423273,0.010125425644218922
0.020982027053833008,0.01000682171434164,-0.011291282251477242,-0.0072692278772592545,0.0031127959955483675,0.009851980023086071
0.021257460117340088,0.009788279421627522,-0.010792309418320656,-0.007907161489129066,0.0036163527984172106,0.010527314618229866
0.021674638614058495,0.009631309658288956,-0.01034451462328434,-0.008059710264205933,0.004311977420002222,0.010305752046406269
0.021107293665409088,0.010320285335183144,-0.010802684351801872,-0.008423510938882828,0.0038359505124390125,0.010412241332232952
0.02045825868844986,0.010088588111102581,-0.010674224235117435,-0.007827186025679111,0.0035143818240612745,0.009656399488449097
0.021484499797225,0.01023476105183363,-0.011363123543560505,-0.008523618802428246,0.00418082857504487,0.010899234563112259
0.02155417762696743,0.009866719134151936,-0.01091772224754095,-0.00844045914709568,0.004153095185756683,0.010723970830440521
0.020773859694600105,0.010315414518117905,-0.011383777484297752,-0.008460815995931625,0.0034878335427492857,0.009949724189937115
0.021721258759498596,0.010025685653090477,-0.010676768608391285,-0.00899624265730381,0.003434563521295786,0.01030825637280941
0.022024942561984062,0.009534364566206932,-0.010623897425830364,-0.008805781602859497,0.003688052063807845,0.010404395870864391
0.021804941818118095,0.010077676735818386,-0.011343030259013176,-0.009193799458444118,0.003977819811552763,0.010005589574575424
0.021395551040768623,0.010201654396951199,-0.010921093635261059,-0.00912484060972929,0.004053269978612661,0.010546169243752956
0.022063467651605606,0.010317896492779255,-0.011944727972149849,-0.009318344295024872,0.003935843240469694,0.010633516125380993
0.02183689922094345,0.01008704025298357,-0.011177950538694859,-0.008832576684653759,0.003379369620233774,0.009854684583842754
0.021470706909894943,0.010006642900407314,-0.010580512695014477,-0.00886786263436079,0.0033125390764325857,0.010061982087790966
0.02142401412129402,0.010612043552100658,-0.012293346226215363,-0.00924563966691494,0.003342060139402747,0.009452630765736103
0.022213522344827652,0.010436023585498333,-0.011392300948500633,-0.008899442851543427,0.0036226091906428337,0.009517313912510872
0.022140176966786385,0.010437131859362125,-0.011290719732642174,-0.00901375338435173,0.0035782167688012123,0.00998010765761137
0.022022627294063568,0.009775549173355103,-0.01143569964915514,-0.009496930055320263,0.003493380034342408,0.010406560264527798
0.021923983469605446,0.010259226895868778,-0.010903354734182358,-0.009364898316562176,0.004041315987706184,0.010328340344130993
0.02236834168434143,0.010382427833974361,-0.011738208122551441,-0.009835727512836456,0.004161248914897442,0.010768620297312737
0.02236834168434143,0.010382427833974361,-0.011738208122551441,-0.009835727512836456,0.004161248914897442,0.010768620297312737
0.022437358275055885,0.009876363910734653,-0.010928375646471977,-0.009313326328992844,0.004215877968817949,0.01074231043457985
0.021910183131694794,0.010654992423951626,-0.01099307369440794,-0.008836796507239342,0.0036976991686969995,0.010301749221980572
0.022311976179480553,0.010112655349075794,-0.012547696940600872,-0.008688109926879406,0.0032328718807548285,0.010217014700174332
0.022102834656834602,0.00992205087095499,-0.011294865049421787,-0.009126309305429459,0.003392656333744526,0.0104960473254323
0.022819235920906067,0.01037741918116808,-0.011545506305992603,-0.009238580241799355,0.003698274726048112,0.010994146578013897
0.02230805531144142,0.010984337888658047,-0.011153671890497208,-0.008814607746899128,0.004268829710781574,0.011177001520991325
0.022031737491488457,0.010167939588427544,-0.011380147188901901,-0.009235139936208725,0.0042428444139659405,0.010961342602968216
0.022277100011706352,0.010477347299456596,-0.011865651234984398,-0.010055243037641048,0.004116817377507687,0.010914096608757973
0.0223565474152565,0.010330680757761002,-0.010956758633255959,-0.009136163629591465,0.0036098945420235395,0.010955721139907837
0.022371811792254448,0.01050155982375145,-0.012289454229176044,-0.009556342847645283,0.00409206235781312,0.01076800748705864
0.022221291437745094,0.010602203197777271,-0.01137630082666874,-0.009262220934033394,0.003704770002514124,0.010373495519161224
0.02192286215722561,0.010286916978657246,-0.011060670018196106,-0.00964559055864811,0.0035798957105726004,0.010075166821479797
0.022728996351361275,0.010880243964493275,-0.011568121612071991,-0.009434489533305168,0.003652613377198577,0.010416808538138866
0.02328524924814701,0.010255374945700169,-0.011839572340250015,-0.009557031095027924,0.004581376910209656,0.01088564470410347
0.023155126720666885,0.010119152255356312,-0.01151132583618164,-0.009374239481985569,0.004630144685506821,0.01022470835596323
0.02291935682296753,0.010262283496558666,-0.010827260091900826,-0.009793457575142384,0.004199839662760496,0.010389018803834915
0.023443330079317093,0.010243619792163372,-0.011145596392452717,-0.010503566823899746,0.0038701100274920464,0.010684547014534473
0.023477034643292427,0.012149880640208721,-0.01088885311037302,-0.01025533676147461,0.0037899669259786606,0.011110788211226463
0.023787403479218483,0.012469851411879063,-0.012083006091415882,-0.010027323849499226,0.003456709673628211,0.011087752878665924
0.024560369551181793,0.012452766299247742,-0.011268134228885174,-0.009631890803575516,0.004018139094114304,0.011151894927024841
0.023875799030065536,0.011998942121863365,-0.01082870364189148,-0.010539493523538113,0.004458230920135975,0.011278515681624413
0.024363772943615913,0.01173879113048315,-0.011142350733280182,-0.010229500941932201,0.00440359627828002,0.011164569295942783
0.023172425106167793,0.012002685107290745,-0.011025400832295418,-0.0095664756372571,0.004038863815367222,0.01107270922511816
0.02418544702231884,0.011616336181759834,-0.01081734150648117,-0.010096616111695766,0.0038132898043841124,0.010890809819102287
0.024752795696258545,0.012363596819341183,-0.011163005605340004,-0.010562264360487461,0.004090710077434778,0.010910929180681705
0.024802278727293015,0.01193634606897831,-0.010965215042233467,-0.00986232329159975,0.004309067502617836,0.01127191074192524
0.023974815383553505,0.012034067884087563,-0.011386800557374954,-0.010036416351795197,0.004084672778844833,0.011087823659181595
0.02426483854651451,0.012492210604250431,-0.011249404400587082,-0.010239461436867714,0.003518973244354129,0.010907973162829876
0.02504641003906727,0.011791294440627098,-0.010543826967477798,-0.010123509913682938,0.0035827886313199997,0.011460712179541588
0.02504641003906727,0.011791294440627098,-0.010543826967477798,-0.010123509913682938,0.0035827886313199997,0.011460712179541588
0.025227338075637817,0.012365343980491161,-0.01109397318214178,-0.009959036484360695,0.0041136411018669605,0.011288890615105629
0.025346728041768074,0.01216613408178091,-0.011310777626931667,-0.009858109056949615,0.004782054107636213,0.011158713139593601
0.024643149226903915,0.012412314303219318,-0.010718090459704399,-0.009685981087386608,0.004803414922207594,0.011656579561531544
0.025030778720974922,0.012340368703007698,-0.011267396621406078,-0.010467452928423882,0.0038316291756927967,0.011468724347651005
0.025563078001141548,0.012559727765619755,-0.01021924801170826,-0.010129201225936413,0.0031762009020894766,0.01068702433258295
0.0257099736481905,0.012762722559273243,-0.010748058557510376,-0.009822736494243145,0.0031786703038960695,0.011158770881593227
0.025209009647369385,0.01194470189511776,-0.010783655568957329,-0.010554800741374493,0.003914149012416601,0.011791552416980267
0.025317149236798286,0.012890874408185482,-0.010501123033463955,-0.01033114455640316,0.0043400367721915245,0.011983133852481842
0.025682181119918823,0.012105765752494335,-0.011044285260140896,-0.010409098118543625,0.004095868673175573,0.011792652308940887
0.02580437995493412,0.012156620621681213,-0.010396336205303669,-0.010691085830330849,0.0037964042276144028,0.011991863138973713
0.026085931807756424,0.012000140734016895,-0.010225317440927029,-0.009934738278388977,0.003865440608933568,0.011859492398798466
0.02573922835290432,0.01204604096710682,-0.010277023538947105,-0.010579916648566723,0.004397622309625149,0.011473926715552807
0.027068907395005226,0.011814226396381855,-0.010604499839246273,-0.010334164835512638,0.0038000403437763453,0.011219536885619164
0.026642372831702232,0.012385478243231773,-0.010799748823046684,-0.010640597902238369,0.0034908996894955635,0.011528323404490948
0.026302436366677284,0.012087133713066578,-0.00990294013172388,-0.010247752070426941,0.004148099571466446,0.011476773768663406
0.026394056156277657,0.012375217862427235,-0.010287515819072723,-0.010511230677366257,0.004634845536202192,0.011134284548461437
0.02654624730348587,0.01173367165029049,-0.010721620172262192,-0.011042316444218159,0.004729332402348518,0.011526612564921379
0.026485444977879524,0.011744383722543716,-0.009934337809681892,-0.010931787081062794,0.004357764031738043,0.011685032397508621
0.026791220530867577,0.012637944892048836,-0.010977083817124367,-0.011060325428843498,0.00427662068977952,0.011733519844710827
0.02724132128059864,0.011948781087994576,-0.010656201280653477,-0.011060431599617004,0.004315653815865517,0.011606648564338684
0.027038173750042915,0.012552321888506413,-0.009842872619628906,-0.010223733261227608,0.004782781936228275,0.011651105247437954
0.02725842036306858,0.012408566661179066,-0.010331622324883938,-0.010690415278077126,0.004963497631251812,0.011992745101451874
0.027533389627933502,0.012016416527330875,-0.010413548909127712,-0.010828335769474506,0.004429232329130173,0.011345624923706055
0.027708625420928,0.011988391168415546,-0.00987105630338192,-0.01030130684375763,0.004210787359625101,0.011741992086172104
0.027514731511473656,0.012083230540156364,-0.010763539001345634,-0.010702346451580524,0.004169274587184191,0.011820930056273937
0.027765553444623947,0.012628275901079178,-0.010044591501355171,-0.01079994160681963,0.004839151166379452,0.01183965615928173
0.02758035622537136,0.012149683199822903,-0.009979508817195892,-0.010242108255624771,0.00452412897720933,0.011629942804574966
0.02758035622537136,0.012149683199822903,-0.009979508817195892,-0.010242108255624771,0.00452412897720933,0.011629942804574966
0.02809097431600094,0.012389550916850567,-0.010194547474384308,-0.010684010572731495,0.004013161174952984,0.01117242407053709
0.028047259896993637,0.012142686173319817,-0.00990305095911026,-0.010674596764147282,0.004191350191831589,0.011291696690022945
0.02821643278002739,0.011703580617904663,-0.010615570470690727,-0.011058229953050613,0.004246938973665237,0.011589274741709232
0.028109224513173103,0.012082366272807121,-0.010874823667109013,-0.011405257508158684,0.004459606949239969,0.012086856178939342
0.028284190222620964,0.01198774017393589,-0.010358239524066448,-0.011103566735982895,0.004738699644804001,0.012205265462398529
0.028078725561499596,0.01260331366211176,-0.010541042312979698,-0.011080791242420673,0.004529813304543495,0.012033977545797825
0.028430089354515076,0.011842652224004269,-0.010473502799868584,-0.011164757423102856,0.004258928820490837,0.012641958892345428
0.029451247304677963,0.012161743827164173,-0.01004081405699253,-0.011149880476295948,0.004329585935920477,0.012212063185870647
0.029828133061528206,0.01229124516248703,-0.011040403507649899,-0.012027256190776825,0.0044042812660336494,0.012438340112566948
0.027916422113776207,0.01259492989629507,-0.010916871950030327,-0.011827622540295124,0.004582448862493038,0.012138486839830875
0.02935391664505005,0.011860484257340431,-0.011197191663086414,-0.011884656734764576,0.005134156905114651,0.011941851116716862
0.029566055163741112,0.012238339520990849,-0.010516807436943054,-0.011931119486689568,0.004773029126226902,0.011616677045822144
0.028543436899781227,0.012477527372539043,-0.01083320751786232,-0.012139223515987396,0.004929830320179462,0.011990186758339405
0.029294634237885475,0.012307064607739449,-0.01134112011641264,-0.012102450244128704,0.004434570670127869,0.012456727214157581
0.030517421662807465,0.012491964735090733,-0.010850893333554268,-0.01285967044532299,0.004526207223534584,0.012618830427527428
0.02999783493578434,0.01263071596622467,-0.011412235908210278,-0.012339972890913486,0.004577545914798975,0.012676208280026913
0.0281247328966856,0.013421782292425632,-0.011284383945167065,-0.012398213148117065,0.005188555922359228,0.012692363001406193
0.02826693095266819,0.012382167391479015,-0.01114607322961092,-0.012443823739886284,0.005058346316218376,0.01273401454091072
0.029505394399166107,0.012707122601568699,-0.012103513814508915,-0.01235221978276968,0.004715413320809603,0.012320360168814659
0.02905494160950184,0.012556472793221474,-0.010363425128161907,-0.0124132065102458,0.004239312373101711,0.01263288501650095
0.029220640659332275,0.012915552593767643,-0.012010407634079456,-0.011925773695111275,0.004319474101066589,0.01190006174147129
0.029025275260210037,0.013048067688941956,-0.011563017964363098,-0.012495439499616623,0.004438729956746101,0.012549524195492268
0.029209373518824577,0.012835199013352394,-0.011399512179195881,-0.012408542446792126,0.004242914263159037,0.012439687736332417
0.028998322784900665,0.012923628091812134,-0.011266288347542286,-0.012810667045414448,0.0043209926225245,0.012427464127540588
0.029120691120624542,0.012638404965400696,-0.010883781127631664,-0.012727131135761738,0.004339898005127907,0.012912105768918991
0.029251044616103172,0.01379118300974369,-0.01140146516263485,-0.012589015997946262,0.004610771778970957,0.01256786473095417
0.02913019433617592,0.012958278879523277,-0.010639660060405731,-0.013170122168958187,0.004657868295907974,0.012825665064156055
0.029153427109122276,0.013430397026240826,-0.010432000271975994,-0.012736851349473,0.004517073277384043,0.012648820877075195
0.029153427109122276,0.013430397026240826,-0.010432000271975994,-0.012736851349473,0.004517073277384043,0.012648820877075195
0.02935250662267208,0.013269424438476562,-0.011208347976207733,-0.013357171788811684,0.004169055260717869,0.012743040919303894
0.02926895022392273,0.013562656939029694,-0.011165618896484375,-0.012889937497675419,0.004007170908153057,0.012385510839521885
0.028817404061555862,0.013205929659307003,-0.01092604361474514,-0.013184736482799053,0.004349143709987402,0.0128643698990345
0.029269060119986534,0.013674971647560596,-0.01107216440141201,-0.012992840260267258,0.0044963909313082695,0.012982425279915333
0.029198771342635155,0.013356068171560764,-0.010884365066885948,-0.013542069122195244,0.004631197080016136,0.012803391553461552
0.02936195582151413,0.013160205446183681,-0.011369731277227402,-0.012999971397221088,0.004507546313107014,0.013132909312844276
0.029061298817396164,0.013340556994080544,-0.011160500347614288,-0.012780237011611462,0.004428033716976643,0.012940418906509876
0.029919076710939407,0.013232842087745667,-0.010791770182549953,-0.012810450047254562,0.004163586534559727,0.012625311501324177
0.030234336853027344,0.013411778956651688,-0.01160536427050829,-0.013056427240371704,0.004433030728250742,0.012732853181660175
0.02895030938088894,0.013866107910871506,-0.01144369039684534,-0.012464016675949097,0.004130565095692873,0.01282596681267023
0.029309440404176712,0.013450805097818375,-0.010967176407575607,-0.013196631334722042,0.004381285514682531,0.013104707933962345
0.03024870716035366,0.013966322876513004,-0.010670634917914867,-0.012954185716807842,0.004204049706459045,0.013359371572732925
0.029881050810217857,0.013232497498393059,-0.011380759067833424,-0.013198472559452057,0.004791716579347849,0.013029421679675579
0.029796052724123,0.013636081479489803,-0.011325262486934662,-0.013172157108783722,0.0048187305219471455,0.012932821176946163
0.030589839443564415,0.013483153656125069,-0.01138012483716011,-0.013495351187884808,0.004795182961970568,0.013113130815327168
0.030108600854873657,0.014152130112051964,-0.011870096437633038,-0.013274871744215488,0.004490284714847803,0.013314157724380493
0.029759053140878677,0.01366970781236887,-0.011077499948441982,-0.013137321919202805,0.004598668776452541,0.01297852210700512
0.0297187902033329,0.01408855989575386,-0.011924533173441887,-0.013627131469547749,0.005161253735423088,0.013516788370907307
0.029731906950473785,0.013891947455704212,-0.01113118976354599,-0.013567572459578514,0.005276388954371214,0.013133252039551735
0.030046934261918068,0.014265328645706177,-0.01107835303992033,-0.01401105523109436,0.004976595751941204,0.01324942335486412
0.030451996251940727,0.013563496060669422,-0.011707303114235401,-0.013698744587600231,0.004703558515757322,0.01324803289026022
0.030560681596398354,0.013901603408157825,-0.010935425758361816,-0.014048557728528976,0.0048208087682724,0.013296174816787243
0.030560681596398354,0.013901603408157825,-0.010935425758361816,-0.014048557728528976,0.0048208087682724,0.013296174816787243
0.030135013163089752,0.013530842028558254,-0.011513910256326199,-0.013561753556132317,0.005086581222712994,0.013088853098452091
0.030134622007608414,0.013925653882324696,-0.011112991720438004,-0.012918052263557911,0.0049775345250964165,0.01325884647667408
0.03049541264772415,0.014528946951031685,-0.011719689704477787,-0.013301320374011993,0.005089284852147102,0.014136889949440956
0.030786296352744102,0.014327273704111576,-0.011138299480080605,-0.013460000045597553,0.004943560343235731,0.013395145535469055
0.03056691586971283,0.014055149629712105,-0.011569256894290447,-0.013964345678687096,0.004861386492848396,0.012905888259410858
0.03056691586971283,0.014055149629712105,-0.011569256894290447,-0.013964345678687096,0.004861386492848396,0.012905888259410858
0.0305596012622118,0.014214249327778816,-0.011521220207214355,-0.013929659500718117,0.004689845256507397,0.013127442449331284
0.03118233196437359,0.014153525233268738,-0.011848608031868935,-0.01448635570704937,0.004964489955455065,0.012842115014791489
0.03118233196437359,0.014153525233268738,-0.011848608031868935,-0.01448635570704937,0.004964489955455065,0.012842115014791489
0.030211666598916054,0.014283969067037106,-0.011222862638533115,-0.014507858082652092,0.0043755280785262585,0.01384153962135315
0.03089122101664543,0.014369024895131588,-0.011886576190590858,-0.014045342803001404,0.0044169919565320015,0.013993616215884686
0.030880002304911613,0.0144157400354743,-0.011210707947611809,-0.01488554198294878,0.004978728014975786,0.013388445600867271
0.030570410192012787,0.014015594497323036,-0.011498184874653816,-0.01504707895219326,0.00521802669391036,0.013369770720601082
0.030894245952367783,0.01396963745355606,-0.0116844167932868,-0.01463598944246769,0.0050189015455543995,0.013566412962973118
0.031024262309074402,0.013573365285992622,-0.012040962465107441,-0.015197806060314178,0.004879195708781481,0.01352684199810028
0.03066866658627987,0.014367506839334965,-0.011922439560294151,-0.01466579269617796,0.0047035240568220615,0.013387039303779602
0.031158456578850746,0.014188840985298157,-0.011369598098099232,-0.01497434638440609,0.005145984701812267,0.013500853441655636
0.031326018273830414,0.014778288081288338,-0.011909467168152332,-0.014592974446713924,0.005144145339727402,0.01318512111902237
0.03112650476396084,0.014293896965682507,-0.011300161480903625,-0.01486708503216505,0.005132559686899185,0.013289940543472767
0.031106963753700256,0.014804018661379814,-0.01188020408153534,-0.014763875864446163,0.005333550274372101,0.013621347025036812
0.031711965799331665,0.014324497431516647,-0.01168749574571848,-0.015276748687028885,0.005183915141969919,0.013937108218669891
0.031208746135234833,0.014741137623786926,-0.011216975748538971,-0.015032796189188957,0.005044389050453901,0.013721301220357418
0.03080831654369831,0.013919743709266186,-0.011795843951404095,-0.01492291409522295,0.004820444621145725,0.013710997067391872
0.030713478103280067,0.014485230669379234,-0.01097843050956726,-0.014389616437256336,0.0047647710889577866,0.013545149937272072
0.030713478103280067,0.014485230669379234,-0.01097843050956726,-0.014389616437256336,0.0047647710889577866,0.013545149937272072
0.03178778663277626,0.014230378903448582,-0.011474157683551311,-0.015209374018013477,0.004626246634870768,0.01406039111316204
0.032435450702905655,0.015058345161378384,-0.01158300694078207,-0.014996757730841637,0.004778080154210329,0.013950755819678307
0.03192170709371567,0.015360850840806961,-0.011124037206172943,-0.015194864943623543,0.004702697973698378,0.014112347736954689
0.03052237071096897,0.015084011480212212,-0.011806203983724117,-0.015435577370226383,0.004648988135159016,0.013754541054368019
0.03232371807098389,0.014337539672851562,-0.011469098739326,-0.01593337394297123,0.00529254088178277,0.013883550651371479
0.03211895376443863,0.01466421689838171,-0.011275413446128368,-0.015330255962908268,0.005369353573769331,0.013593961484730244
0.03211895376443863,0.01466421689838171,-0.011275413446128368,-0.015330255962908268,0.005369353573769331,0.013593961484730244
0.03297271952033043,0.015363176353275776,-0.010993263684213161,-0.015509966760873795,0.0053652990609407425,0.01381353847682476
0.031915005296468735,0.015058783814311028,-0.011707967147231102,-0.015479476191103458,0.005393541883677244,0.014306740835309029
0.03167486563324928,0.014851395040750504,-0.011457808315753937,-0.015848487615585327,0.00521868048235774,0.014168640598654747
0.03151506930589676,0.015102655626833439,-0.011253707110881805,-0.014995542354881763,0.005329305771738291,0.014191397465765476
0.0325443334877491,0.015044087544083595,-0.011315894313156605,-0.015371312387287617,0.00542102474719286,0.014182083308696747
0.03242655470967293,0.015096430666744709,-0.011768936179578304,-0.016597788780927658,0.00514570577070117,0.014205359853804111
0.033570244908332825,0.015103479847311974,-0.011390808038413525,-0.01628699153661728,0.00521940877661109,0.014564846642315388
0.03326471522450447,0.014965123496949673,-0.011341019533574581,-0.015647394582629204,0.005123748444020748,0.014347863383591175
0.032515037804841995,0.015693286433815956,-0.011578157544136047,-0.015769343823194504,0.005181754007935524,0.014380104839801788
0.03289699926972389,0.015078018419444561,-0.011013135313987732,-0.015995066612958908,0.00502496212720871,0.015224411152303219
0.03383144363760948,0.015323083847761154,-0.01231457944959402,-0.01643168367445469,0.004921208135783672,0.014185061678290367
0.033458903431892395,0.014690707437694073,-0.011413383297622204,-0.016516925767064095,0.005189869552850723,0.013496056199073792
0.033603936433792114,0.015332218259572983,-0.011325014755129814,-0.01677795685827732,0.00544713856652379,0.014933347702026367
0.0335523746907711,0.01511332392692566,-0.011819065548479557,-0.01596834883093834,0.005198941566050053,0.01512976922094822
0.03367720544338226,0.015380294993519783,-0.011688037775456905,-0.015998397022485733,0.005721388850361109,0.014856064692139626
0.0336863249540329,0.015143424272537231,-0.01246444508433342,-0.015535244718194008,0.005414858926087618,0.01470740232616663
0.03395615145564079,0.01508828904479742,-0.011575557291507721,-0.01601356826722622,0.005375656299293041,0.015311261638998985
0.03547292575240135,0.015353533439338207,-0.011762052774429321,-0.016227450221776962,0.005464845336973667,0.014782804064452648
0.03547292575240135,0.015353533439338207,-0.011762052774429321,-0.016227450221776962,0.005464845336973667,0.014782804064452648
0.03527390956878662,0.01537409983575344,-0.012075400911271572,-0.015924539417028427,0.0051717073656618595,0.014659506268799305
0.033105429261922836,0.015455245040357113,-0.012148696929216385,-0.016049625352025032,0.004873793106526136,0.014594447799026966
0.034150004386901855,0.015400564298033714,-0.012387706898152828,-0.015423614531755447,0.004996803123503923,0.014726020395755768
