davideferrari95/blind_handover_controller/data/Test 38 - [2024-02-07 -- 14-49-40]/joint_states_data.csv
shoulder_pan_joint,shoulder_lift_joint,elbow_joint,wrist_1_joint,wrist_2_joint,wrist_3_joint
0.00569553766399622,-0.0008617109851911664,-0.00797833688557148,0.008865300565958023,0.00021712503803428262,0.006402110680937767
0.005685888696461916,-0.0007210446055978537,-0.008321661502122879,0.008399849757552147,0.0002098909899359569,0.0060479468666017056
0.005685888696461916,-0.0007210446055978537,-0.008321661502122879,0.008399849757552147,0.0002098909899359569,0.0060479468666017056
0.00526646850630641,-0.0007301232544705272,-0.00821662787348032,0.00810802448540926,0.00023018232604954392,0.0061241257935762405
0.005871494300663471,-0.0006548546953126788,-0.008141458965837955,0.008382266387343407,0.00022476068988908082,0.006394670810550451
0.0059662931598722935,-0.0006800430128350854,-0.009036185219883919,0.008763703517615795,0.000218068205867894,0.0063468380831182
0.006081375293433666,-0.0006149306427687407,-0.0085805868729949,0.008062172681093216,0.00021176328300498426,0.006415936164557934
0.005907503888010979,-0.0006124010542407632,-0.007700850255787373,0.007340406533330679,0.00020911495084874332,0.006223944015800953
0.005774707533419132,-0.00058759655803442,-0.008144957944750786,0.00807234551757574,0.0002002771507250145,0.006108484230935574
0.005695333704352379,-0.0005435622879303992,-0.009057097136974335,0.008280010893940926,0.0002105258754454553,0.005992962513118982
0.005879131145775318,-0.00035507342545315623,-0.008659499697387218,0.008345287293195724,0.00021943893807474524,0.005665661301463842
0.006124057341367006,-0.00031120149651542306,-0.008018119260668755,0.008023236878216267,0.00021196714078541845,0.005997137166559696
0.005463054403662682,-0.0003465781337581575,-0.008419252932071686,0.008690664544701576,0.00020403119560796767,0.005675570573657751
0.005267730914056301,-0.0003277658252045512,-0.008268889971077442,0.008961294777691364,0.00022084546799305826,0.0057649994269013405
0.00544612854719162,-0.000309034890960902,-0.007509713061153889,0.008151671849191189,0.00022075875313021243,0.006096862256526947
0.006127438507974148,-0.00034033108386211097,-0.007321578916162252,0.00874385517090559,0.0002137675619451329,0.006267462857067585
0.005455237813293934,-0.0003235068579670042,-0.008937288075685501,0.00808777566999197,0.00022126563999336213,0.006211024709045887
0.0055047436617314816,-0.0002933757205028087,-0.007474337704479694,0.00921802967786789,0.00022170173178892583,0.005954528693109751
0.005133212078362703,-0.0002803267852868885,-0.0078860679641366,0.008890679106116295,0.0003326312580611557,0.006219207774847746
0.005895683541893959,-0.00026838399935513735,-0.007701934780925512,0.008732558228075504,0.0003573223948478699,0.006343449465930462
0.006269411649554968,-0.0002574171230662614,-0.007379314862191677,0.008907265961170197,0.00036342153907753527,0.006227519828826189
0.006005560513585806,-0.00024731262237764895,-0.00758233480155468,0.009096762165427208,0.00034234850318171084,0.006145778112113476
0.006140000186860561,-0.0002379697689320892,-0.0075338599272072315,0.008542809635400772,0.0003719988453667611,0.006320701912045479
0.0053431750275194645,-0.00022930791601538658,-0.007439613342285156,0.008351377211511135,0.0003543362836353481,0.006176046095788479
0.005462472792714834,-0.0002212545950897038,-0.007326272316277027,0.008203498087823391,0.000359044672222808,0.006343166343867779
0.005854403600096703,-0.00021374778589233756,-0.007405259180814028,0.008145547471940517,0.0003626155958045274,0.006256576627492905
0.005900666117668152,-0.00020673347171396017,-0.007609023712575436,0.007947221398353577,0.00034657350624911487,0.0056916652247309685
0.00578289944678545,-0.0002253938146168366,-0.008150828070938587,0.00755187775939703,0.00044699758291244507,0.005803223699331284
0.005606011021882296,-0.00022167054703459144,-0.007748093921691179,0.008613400161266327,0.0004226886958349496,0.005651610903441906
0.005353398621082306,-0.00021509136422537267,-0.007632947061210871,0.008107735775411129,0.00044422841165214777,0.0057088397443294525
0.005353398621082306,-0.00021509136422537267,-0.007632947061210871,0.008107735775411129,0.00044422841165214777,0.0057088397443294525
0.005927335936576128,-0.00020885262347292155,-0.00850471667945385,0.007419377099722624,0.00042675709119066596,0.005683283321559429
0.006284629460424185,-0.00020296525326557457,-0.007987277582287788,0.0074245510622859,0.0003965551150031388,0.006006850395351648
0.005705046001821756,-0.00019740048446692526,-0.007472257595509291,0.008478270843625069,0.000426742248237133,0.006002370733767748
0.005845335312187672,-0.00019293627701699734,-0.007725057192146778,0.008599130436778069,0.0004031625285279006,0.0059339203871786594
0.00550304539501667,-0.00017613894306123257,-0.008356073871254921,0.007927747443318367,0.0003791319322772324,0.0061540864408016205
0.005924772471189499,-0.00016938445332925767,-0.008524666540324688,0.008318685926496983,0.00040516944136470556,0.0058987755328416824
0.005858797114342451,-0.00016323779709637165,-0.00846215058118105,0.008464841172099113,0.0003865132457576692,0.005648965947329998
0.006059364415705204,-0.0001575236819917336,-0.0081951804459095,0.008836887776851654,0.0003681632224470377,0.005650515668094158
0.006302875000983477,-0.00018140365136787295,-0.008615792728960514,0.008569146506488323,0.00038466491969302297,0.006024148315191269
0.00582140265032649,-0.00017664344341028482,-0.00873615127056837,0.00881802849471569,0.00040972387068904936,0.006109798327088356
0.006456865929067135,-0.00017106351151596755,-0.00808863714337349,0.008745386265218258,0.0003961432375945151,0.006042188964784145
0.005937281064689159,-0.0001658115506870672,-0.008679126389324665,0.008382804691791534,0.0004000184126198292,0.006366506684571505
0.0059200129471719265,-0.00016087162657640874,-0.008409472182393074,0.008566842414438725,0.000402039906475693,0.006220300681889057
0.006147562991827726,-0.0001562175020808354,-0.0083873076364398,0.00933331623673439,0.00037960810004733503,0.0064409030601382256
0.00596293481066823,-0.00015182529750745744,-0.007920446805655956,0.008584904484450817,0.00040575818275101483,0.006798936519771814
0.00645865174010396,-0.00014374256716109812,-0.007430867291986942,0.00899127870798111,0.0004323789617046714,0.006083197891712189
0.006202618591487408,-0.0001400153705617413,-0.00846267119050026,0.008536012843251228,0.0004516293411143124,0.005968766752630472
0.006087025627493858,-0.00013647698506247252,-0.009420996531844139,0.008300676010549068,0.00041414808947592974,0.0061498587019741535
0.006483298726379871,-0.0001331126841250807,-0.008470012806355953,0.00881526805460453,0.0003794572548940778,0.006253833882510662
0.006399008445441723,-0.00012991041876375675,-0.008177483454346657,0.008674532175064087,0.00038384136860258877,0.006269444711506367
0.006264236755669117,-0.0001471529103582725,-0.008106115274131298,0.008745606988668442,0.0003872504166793078,0.006117249373346567
0.006224927492439747,-0.00014459312660619617,-0.009290464222431183,0.00882081501185894,0.00036321839434094727,0.005926052108407021
0.005939085967838764,-0.0001413597201462835,-0.00866339448839426,0.008870486170053482,0.0003404392919037491,0.006181050091981888
0.006254310719668865,-0.000138257717480883,-0.007703165058046579,0.008446610532701015,0.00036991844535805285,0.006456383503973484
0.006302862893790007,-0.000135288733872585,-0.008329425938427448,0.008508133701980114,0.0003524567873682827,0.005870221182703972
0.006160511169582605,-0.00013244457659311593,-0.008686181157827377,0.008516564033925533,0.0003339767863508314,0.005818046163767576
0.006160511169582605,-0.00013244457659311593,-0.008686181157827377,0.008516564033925533,0.0003339767863508314,0.005818046163767576
0.005963626317679882,-0.00012971751857548952,-0.008552859537303448,0.00871292781084776,0.00031717043020762503,0.005818633828312159
0.006163198035210371,-0.0001271007495233789,-0.008387833833694458,0.008489334024488926,0.00030196525040082633,0.0061364443972706795
0.006775237619876862,-0.0001245872408617288,-0.008462299592792988,0.008368647657334805,0.00028814977849833667,0.006464066915214062
0.0063825794495642185,-0.000122171375551261,-0.008156978525221348,0.008791386149823666,0.00031221983954310417,0.006314723286777735
0.005635223351418972,-0.00011984718003077433,-0.00824667513370514,0.008768444880843163,0.00030153352417983115,0.006153278052806854
0.005680103786289692,-0.0001324467739323154,-0.009038418531417847,0.008748270571231842,0.00028956023743376136,0.0057263742201030254
0.006200302857905626,-0.00013192178448662162,-0.009248335845768452,0.00901816040277481,0.0002783738018479198,0.005801019258797169
0.006103957071900368,-0.00012957323633600026,-0.0081156175583601,0.008667134679853916,0.00026801039348356426,0.00613006018102169
0.006332462187856436,-0.00012728304136544466,-0.008272160775959492,0.008723064325749874,0.00025839070440270007,0.006228303071111441
0.006375595927238464,-0.00012507205246947706,-0.008542148396372795,0.009391700848937035,0.00024943772586993873,0.006146841682493687
0.005854445043951273,-0.0001229365007020533,-0.008724775165319443,0.009054472669959068,0.00024108478100970387,0.00610712543129921
0.005757187958806753,-0.00012087272625649348,-0.008010653778910637,0.008757706731557846,0.00023327252711169422,0.005713638849556446
0.006008826661854982,-0.00011887722212122753,-0.00881690438836813,0.0093645378947258,0.00022595150221604854,0.0063106887973845005
0.006341731641441584,-0.0001169463139376603,-0.008384800516068935,0.009276654571294785,0.00021907548944000155,0.00656761322170496
0.006665671244263649,-0.00011507720773806795,-0.008379561826586723,0.008515710011124611,0.000212606304557994,0.006328881252557039
0.00576991681009531,-0.00011151263606734574,-0.008682521060109138,0.009043380618095398,0.0001664836599957198,0.006807615049183369
0.006469937972724438,-0.00010981204104609787,-0.00893370620906353,0.009102442301809788,0.00016029960534069687,0.005633124150335789
0.006597690749913454,-0.00010816243593581021,-0.00805065967142582,0.008727441541850567,0.0001547689171275124,0.005683235824108124
0.006309593562036753,-0.00010656157246557996,-0.008717645891010761,0.009213132783770561,0.00014962138084229082,0.006161168217658997
0.006094267591834068,-0.00010500758071430027,-0.008466898463666439,0.008867786265909672,0.00014480607933364809,0.006050818134099245
0.006313946098089218,-0.0001034981178236194,-0.008472900837659836,0.0084987822920084,0.00014029121666681021,0.006109886337071657
0.006383066065609455,-0.00010203150304732844,-0.008775279857218266,0.008898929692804813,0.00013604917330667377,0.0059533994644880295
0.00649752002209425,-0.00010060588829219341,-0.008966105058789253,0.008647623471915722,0.00013205654977355152,0.0059741707518696785
0.006029585842043161,-9.921948367264122e-05,-0.008505047298967838,0.008092161267995834,0.00012829125626012683,0.005707887001335621
0.005888774059712887,-9.787081944523379e-05,-0.00838896632194519,0.008288933895528316,0.000124735088320449,0.005970294587314129
0.006333844270557165,-9.655834583099931e-05,-0.00908516626805067,0.00856510829180479,0.00012137045268900692,0.0062652635388076305
0.006581364665180445,-9.528054943075404e-05,-0.009120139293372631,0.008348217234015465,0.00011818275379482657,0.006062015891075134
0.006578372325748205,-9.403617877978832e-05,-0.009106248617172241,0.008159411139786243,0.00011515809455886483,0.0062226299196481705
0.006578372325748205,-9.403617877978832e-05,-0.009106248617172241,0.008159411139786243,0.00011515809455886483,0.0062226299196481705
0.006270114798098803,-9.282388782594353e-05,-0.008986184373497963,0.008477873168885708,0.00011228454968659207,0.006589293479919434
0.006190379615873098,-9.16424542083405e-05,-0.00895629171282053,0.00878499448299408,0.000109550790512003,0.006322090048342943
0.006721046753227711,-9.049071377376094e-05,-0.00856220442801714,0.008415907621383667,0.00010694722004700452,0.0065338811837136745
0.006800550036132336,-8.936756785260513e-05,-0.00905507244169712,0.008541001938283443,0.0001044642849592492,0.006592896301299334
0.006386591121554375,-8.82720050867647e-05,-0.009364629164338112,0.00878403801470995,0.00010209433821728453,0.006502420641481876
0.006282757967710495,-8.074570359895006e-05,-0.008955998346209526,0.008609896525740623,9.982923074858263e-05,0.005853449925780296
0.0063050431199371815,-7.618068048032e-05,-0.008390678092837334,0.008880225010216236,9.766261791810393e-05,0.006318487226963043
0.006226561032235622,-7.487032416975126e-05,-0.008702604100108147,0.009094559587538242,9.558800957165658e-05,0.006660183891654015
0.006108677480369806,-7.364449993474409e-05,-0.008617949672043324,0.00873413123190403,9.3599664978683e-05,0.006776937283575535
0.006302367430180311,-7.245875895023346e-05,-0.008902201429009438,0.00813291221857071,9.169266559183598e-05,0.0063247838988900185
0.006132904905825853,-7.131046004360542e-05,-0.009410258382558823,0.008396903984248638,8.986141619971022e-05,0.006346266251057386
0.006480799522250891,-7.019819167908281e-05,-0.009063156321644783,0.008719355799257755,8.81021551322192e-05,0.006668915972113609
0.006599597632884979,-6.911996024427935e-05,-0.00803194846957922,0.008432992734014988,8.641032036393881e-05,0.0063132718205451965
0.00660404609516263,-6.807429599575698e-05,-0.008718864992260933,0.008509409613907337,8.478226664010435e-05,0.006301862187683582
0.006463639438152313,-6.607524119317532e-05,-0.008647104725241661,0.00854871328920126,9.383053111378103e-05,0.006040776148438454
0.0068523818626999855,-6.51191221550107e-05,-0.008861246518790722,0.008626220747828484,9.602079808246344e-05,0.006717978045344353
0.006698705721646547,-6.419028068194166e-05,-0.009184316731989384,0.008323605172336102,9.459078137297183e-05,0.0069232420064508915
0.006374912802129984,-6.328753806883469e-05,-0.008407351560890675,0.008888965472579002,9.297854558099061e-05,0.00673929788172245
0.006344652269035578,-6.240983202587813e-05,-0.008188190869987011,0.008900877088308334,9.140569454757497e-05,0.006044577807188034
0.0067903813906013966,-6.155610753921792e-05,-0.009095377288758755,0.008292466402053833,8.988443005364388e-05,0.0063858493231236935
0.0072847530245780945,-6.072550604585558e-05,-0.009729698300361633,0.008509840816259384,8.841273665893823e-05,0.0065657091327011585
0.006946352310478687,-5.9916968893958256e-05,-0.008276077918708324,0.008941646665334702,8.698854071553797e-05,0.006427851039916277
0.006394417956471443,-5.91297066421248e-05,-0.008505204692482948,0.008328047581017017,8.560933929402381e-05,0.006207461468875408
0.006543741561472416,-5.8362824347568676e-05,-0.009250909090042114,0.008852512575685978,8.427340071648359e-05,0.006186230573803186
0.007145329844206572,-5.7615598052507266e-05,-0.008649952709674835,0.00912084337323904,8.297838940052316e-05,0.0063939993269741535
0.0069458987563848495,-5.6887238315539435e-05,-0.008229056373238564,0.008324111811816692,8.172261732397601e-05,0.006532774306833744
0.006685446947813034,-5.617716669803485e-05,-0.009176730178296566,0.008356790989637375,8.050428004935384e-05,0.006018917076289654
0.006685446947813034,-5.617716669803485e-05,-0.009176730178296566,0.008356790989637375,8.050428004935384e-05,0.006018917076289654
0.007312222849577665,-5.548446279135533e-05,-0.008263872005045414,0.009093056432902813,7.932175503810868e-05,0.00596880866214633
0.006887917406857014,-5.4808726417832077e-05,-0.008282453753054142,0.009102029725909233,7.817341975169256e-05,0.006253981497138739
0.006851312704384327,-5.41492372576613e-05,-0.009470658376812935,0.008645365945994854,7.705794996581972e-05,0.00688996771350503
0.006609268020838499,-5.3505402320297435e-05,-0.008973813615739346,0.009299904108047485,7.597373041789979e-05,0.0069833919405937195
0.00680118752643466,-5.2876712288707495e-05,-0.008559396490454674,0.009215221740305424,7.491970609407872e-05,0.006262853741645813
0.006989763583987951,-5.2262643293943256e-05,-0.008891736157238483,0.009119659662246704,7.389454549411312e-05,0.006031743250787258
0.0068129259161651134,-5.1662613259395584e-05,-0.008887307718396187,0.009503085166215897,7.289696077350527e-05,0.006484677083790302
0.0064584678038954735,-5.107629840495065e-05,-0.008493351750075817,0.009493694640696049,7.192607154138386e-05,0.006758364848792553
0.006739997770637274,-5.0503065722296014e-05,-0.00874017272144556,0.009045685641467571,7.098061905708164e-05,0.006404448766261339
0.006988960783928633,-4.994256960344501e-05,-0.009319240227341652,0.010091392323374748,7.005969382589683e-05,0.006374072749167681
0.007415941450744867,-4.736291884910315e-06,-0.009268643334507942,0.00925240945070982,6.916239362908527e-05,0.00638712989166379
0.006836290936917067,-6.354339632252959e-08,-0.008104671724140644,0.00867476873099804,6.828778714407235e-05,0.006330328527837992
0.006506804376840591,-8.52515835703116e-10,-0.008331157267093658,0.009020793251693249,6.743503763573244e-05,0.006895804777741432
0.0065260692499578,-2.492168641765602e-05,-0.00977640226483345,0.009186873212456703,6.660330109298229e-05,0.0066937655210494995
0.006922252010554075,-2.4238146579591557e-05,-0.008956157602369785,0.00878969021141529,6.579183536814526e-05,0.006803317926824093
0.0070562115870416164,-3.2518568104933365e-07,-0.008241767063736916,0.009163294918835163,6.499991286545992e-05,0.006742157507687807
0.006935344077646732,-4.362781247380099e-09,-0.0089250598102808,0.009276751428842545,6.422680598916486e-05,0.007382584270089865
0.006608289200812578,-5.853227624808e-11,-0.009086021222174168,0.008953830227255821,6.347194721456617e-05,0.006762838456779718
0.007248927839100361,-7.852852482864714e-13,-0.008937384933233261,0.009143242612481117,6.273452891036868e-05,0.0064111812971532345
0.0068140956573188305,-1.4134857013350217e-16,-0.008497888222336769,0.009029753506183624,6.131001282483339e-05,0.006350676529109478
0.006628473289310932,-1.896371318077073e-18,-0.00821755826473236,0.00889220554381609,6.0621729062404484e-05,0.006785533390939236
0.006827870383858681,-2.544224033514703e-20,-0.008559459820389748,0.00927136279642582,5.994879029458389e-05,0.006838786881417036
0.007484267465770245,-3.4134008844558284e-22,-0.008989384397864342,0.00900167878717184,1.5233824342431035e-05,0.006895588245242834
0.007574568968266249,-4.579513076359385e-24,-0.008512770757079124,0.008601534180343151,9.94659899333783e-07,0.006886910647153854
0.007003115024417639,-6.144001252078261e-26,-0.008595393039286137,0.009211907163262367,6.494418869351648e-08,0.0067922137677669525
0.006788949947804213,-8.24296282860787e-28,-0.009354161098599434,0.009199433960020542,4.240392037502261e-09,0.006631956435739994
0.0070580230094492435,-1.1058986153327012e-29,-0.0083125876262784,0.008963408879935741,2.7686727910314346e-10,0.0067695132456719875
0.00723407045006752,-1.4837040325316178e-31,-0.008515076711773872,0.009236899204552174,1.8077454463916176e-11,0.006681229919195175
0.00713555421680212,-1.9905784602626153e-33,-0.009479437954723835,0.009564832784235477,1.1803286213002417e-12,0.006867274176329374
0.00713555421680212,-1.9905784602626153e-33,-0.009479437954723835,0.009564832784235477,1.1803286213002417e-12,0.006867274176329374
0.006912898272275925,-2.6706152583602516e-35,-0.008869589306414127,0.009300896897912025,7.706702843165297e-14,0.007082486059516668
0.006887123920023441,-3.5829712993297074e-37,-0.008258884772658348,0.009427528828382492,5.031926701622733e-15,0.006923592183738947
0.007474181707948446,-4.807012850721388e-39,-0.008977768011391163,0.009556605480611324,3.285488071771129e-16,0.006482282653450966
0.007098204456269741,-6.449195922362106e-41,-0.009119785390794277,0.008959985338151455,2.145188859335218e-17,0.006623104214668274
0.007360379211604595,-8.646011524884121e-43,-0.008774050511419773,0.008634288795292377,1.4006551084662677e-18,0.006940537132322788
0.0069938525557518005,-1.1210387714598537e-44,-0.008317764848470688,0.00903660710901022,9.14527718687845e-20,0.0069625540636479855
0.006900880020111799,-0.0,-0.008595187216997147,0.009050032123923302,5.971212066351086e-21,0.006661774590611458
0.007455380167812109,0.0,-0.008706961758434772,0.00850624404847622,3.898774756317068e-22,0.0066677662543952465
0.00684985239058733,0.0,-0.008456858806312084,0.009430894628167152,2.545621482306729e-23,0.00692201592028141
0.00675822701305151,0.0,-0.008996589109301567,0.009061525575816631,1.6621088252714572e-24,0.007530753500759602
0.007202738430351019,0.0,-0.009049423038959503,0.008586427196860313,1.0852382892433583e-25,0.0065530030988156796
0.00691645685583353,0.0,-0.008421139791607857,0.00905654113739729,7.085830606838986e-27,0.006014106795191765
0.006972730625420809,0.0,-0.00813729502260685,0.009318339638411999,4.6265411347799325e-28,0.006502597592771053
0.007134340237826109,0.0,-0.008869312703609467,0.009176891297101974,3.0208006547657203e-29,0.006856740918010473
0.007265027146786451,0.0,-0.00895137619227171,0.009329622611403465,1.9723668613012156e-30,0.006939645856618881
0.007139864377677441,0.0,-0.00843211729079485,0.008946461603045464,1.2878145992848833e-31,0.006885260809212923
0.007388891652226448,0.0,-0.008910423144698143,0.008822016417980194,8.408508721419555e-33,0.007281106896698475
0.0075128646567463875,0.0,-0.008530458435416222,0.009158320724964142,3.584679493368107e-35,0.007044136058539152
0.007402157876640558,0.0,-0.008768178522586823,0.009091182611882687,2.3405395440973486e-36,0.007336321286857128
0.007232562638819218,0.0,-0.009739667177200317,0.008970617316663265,1.5282048737207898e-37,0.006837313529103994
0.007221993990242481,0.0,-0.008772354573011398,0.009292053990066051,9.978085845071292e-39,0.0071960026398301125
0.007819333113729954,0.0,-0.00819945614784956,0.009209366515278816,6.5149728722775125e-40,0.007217827253043652
0.007819333113729954,0.0,-0.00819945614784956,0.009209366515278816,6.5149728722775125e-40,0.007217827253043652
0.007597559597343206,0.0,-0.00908429641276598,0.009249182417988777,4.2537816183044147e-41,0.00722387945279479
0.0073630670085549355,0.0,-0.008335372433066368,0.009093121625483036,2.7773735562917874e-42,0.006896149832755327
0.007633985951542854,0.0,-0.009286478161811829,0.008815731853246689,1.1210387714598537e-44,0.007252457085996866
0.007633985951542854,0.0,-0.009286478161811829,0.008815731853246689,1.1210387714598537e-44,0.007252457085996866
0.0076647731475532055,0.0,-0.009111890569329262,0.009857075288891792,1.401298464324817e-45,0.007083232048898935
0.007856734097003937,0.0,-0.008613520301878452,0.009661641903221607,0.0,0.0072506750002503395
0.007331857457756996,0.0,-0.00854082964360714,0.009264573454856873,0.0,0.007074286229908466
0.0075741298496723175,0.0,-0.008888411335647106,0.008894195780158043,0.0,0.007294281851500273
0.00733446329832077,0.0,-0.00952462200075388,0.009658466093242168,0.0,0.007376633118838072
0.007478340994566679,0.0,-0.008572070859372616,0.00938717182725668,0.0,0.007368557620793581
0.007236038334667683,0.0,-0.009264105930924416,0.00907618086785078,0.0,0.007907730527222157
0.008072922006249428,0.0,-0.00850734580308199,0.00893027801066637,0.0,0.007928429171442986
0.007568807806819677,0.0,-0.008177460171282291,0.008782690390944481,0.0,0.007197253871709108
0.007265383843332529,0.0,-0.008443650789558887,0.008737302385270596,0.0,0.0072914715856313705
0.00809639971703291,0.0,-0.008919170126318932,0.009940488263964653,0.0,0.0076198517344892025
0.007990078069269657,0.0,-0.00847658421844244,0.009181598201394081,0.0,0.00691473763436079
0.0077372342348098755,0.0,-0.008846107870340347,0.008919372223317623,0.0,0.006957136560231447
0.007690401282161474,0.0,-0.008791811764240265,0.009178534150123596,0.0,0.006976995151489973
0.00783759169280529,0.0,-0.00874969083815813,0.00990292802453041,0.0,0.007109372410923243
0.0077123758383095264,0.0,-0.008117365650832653,0.009195152670145035,0.0,0.007146537769585848
0.0075167277827858925,0.0,-0.009952998720109463,0.009604601189494133,0.0,0.006912618409842253
0.008155690506100655,0.0,-0.008448000997304916,0.009064191952347755,0.0,0.00735133932903409
0.0077287121675908566,0.0,-0.009191052988171577,0.008602520450949669,0.0,0.007847006432712078
0.0075053684413433075,0.0,-0.00912401732057333,0.009405611082911491,0.0,0.007423031609505415
0.008003508672118187,0.0,-0.009547158144414425,0.009298516437411308,0.0,0.006887469440698624
0.00773627171292901,0.0,-0.009166598320007324,0.008915252052247524,0.0,0.007092352025210857
0.00813025888055563,0.0,-0.00949446763843298,0.00937903393059969,0.0,0.0070752426981925964
0.007682649418711662,0.0,-0.008760245516896248,0.009318318217992783,0.0,0.0071509103290736675
0.007447452284395695,0.0,-0.00947926752269268,0.008978048339486122,0.0,0.007897975854575634
0.007447452284395695,0.0,-0.00947926752269268,0.008978048339486122,0.0,0.007897975854575634
0.008254695683717728,0.0,-0.010098024271428585,0.009523475542664528,0.0,0.007854093797504902
0.008145865984261036,0.0,-0.00954095646739006,0.009747343137860298,0.0,0.007875480689108372
0.008066529408097267,0.0,-0.008536802604794502,0.008751715533435345,0.0,0.007635998073965311
0.008353677578270435,0.0,-0.008925073780119419,0.009192770346999168,0.0,0.007647362072020769
0.008072180673480034,0.0,-0.008468669839203358,0.009166037663817406,0.0,0.007977819070219994
0.008001549169421196,0.0,-0.009544232860207558,0.00913462694734335,0.0,0.008200401440262794
0.007829997688531876,0.0,-0.010051877237856388,0.009405356831848621,0.0,0.007794230245053768
0.008672898635268211,0.0,-0.00917730201035738,0.009584479033946991,0.0,0.007385690696537495
0.008666247129440308,0.0,-0.008146713487803936,0.008973080664873123,0.0,0.00799303874373436
0.008109873160719872,0.0,-0.008625098504126072,0.009446823038160801,0.0,0.007725837174803019
0.008204185403883457,0.0,-0.009270441718399525,0.009735575877130032,0.0,0.007535115350037813
0.008619865402579308,0.0,-0.009210554882884026,0.009479512460529804,0.0,0.0075786905363202095
0.00840988289564848,0.0,-0.008971652947366238,0.009891655296087265,0.0,0.008115925826132298
0.008105309680104256,0.0,-0.010060473345220089,0.009690075181424618,0.0,0.007748598698526621
0.008406960405409336,0.0,-0.008970175869762897,0.009227248840034008,0.0,0.007351426873356104
0.008930118754506111,0.0,-0.00909983180463314,0.010056057944893837,0.0,0.007314356043934822
0.008463905192911625,0.0,-0.010089754126966,0.009441695176064968,0.0,0.008079404942691326
0.008219866082072258,0.0,-0.009295963682234287,0.00943005457520485,0.0,0.008922422304749489
0.008412361145019531,0.0,-0.009234657511115074,0.00954465102404356,0.0,0.007678513415157795
0.008459803648293018,0.0,-0.009150339290499687,0.008898290805518627,0.0,0.007515317294746637
0.009449041448533535,0.0,-0.009473474696278572,0.008468080312013626,0.0,0.00785350427031517
0.00875495932996273,0.0,-0.010205058380961418,0.009237478487193584,0.0,0.007866516709327698
0.00866997241973877,0.0,-0.009907078929245472,0.009987965226173401,0.0,0.007889684289693832
0.008800102397799492,0.0,-0.009422164410352707,0.00926152989268303,0.0,0.008551482111215591
0.009086371399462223,0.0,-0.009860033169388771,0.00981548149138689,0.0,0.007938414812088013
0.009237179532647133,0.0,-0.010609877295792103,0.010289442725479603,0.0,0.007771037518978119
0.008361473679542542,0.0,-0.009812528267502785,0.009572281502187252,0.0,0.007761151529848576
0.009362105280160904,0.0,-0.00967983528971672,0.009786803275346756,0.0,0.008147642016410828
0.009386606514453888,0.0,-0.009563577361404896,0.009609143249690533,0.0,0.00824061594903469
0.009386606514453888,0.0,-0.009563577361404896,0.009609143249690533,0.0,0.00824061594903469
0.009772426448762417,0.0,-0.009336834773421288,0.009125200100243092,0.0,0.008251262828707695
0.009284990839660168,0.0,-0.010370277799665928,0.009905090555548668,0.0,0.008428972214460373
0.00950841885060072,0.0,-0.010336565785109997,0.00998343899846077,0.0,0.008349035866558552
0.008985198102891445,0.0,-0.010618708096444607,0.009295455180108547,0.0,0.008039685897529125
0.009487877599895,0.0,-0.010112282820045948,0.01007151324301958,0.0,0.008375751785933971
0.009465411305427551,0.0,-0.009304380975663662,0.010658157989382744,0.0,0.008846941404044628
0.008988412097096443,0.0,-0.009131794795393944,0.009589141234755516,0.0,0.0085899094119668
0.009128482080996037,0.0,-0.010484251193702221,0.009426146745681763,0.0,0.008110115304589272
0.009356330148875713,0.0,-0.009912495501339436,0.009408560581505299,0.0,0.008658554404973984
0.0092598432675004,0.0,-0.010009207762777805,0.009173430502414703,0.0,0.008357783779501915
0.009056801907718182,0.0,-0.009812756441533566,0.010136048309504986,0.0,0.0083579421043396
0.010098517872393131,0.0,-0.009200969710946083,0.009865505620837212,0.0,0.008395889773964882
0.00916360318660736,0.0,-0.009321600198745728,0.009196516126394272,0.0,0.008871304802596569
0.009431550279259682,0.0,-0.01011953130364418,0.009646098129451275,0.0,0.0085375364869833
0.009593633934855461,0.0,-0.009669506922364235,0.009895041584968567,0.0,0.008177602663636208
0.009035272523760796,0.0,-0.009199441410601139,0.010788662359118462,0.0,0.008764082565903664
0.0094766179099679,0.0,-0.009403785690665245,0.010289539583027363,0.0,0.00867557805031538
0.009886848740279675,0.0,-0.009548555128276348,0.009656178764998913,0.0,0.008893533609807491
0.009031238034367561,0.0,-0.009963392280042171,0.01018806453794241,0.0,0.008674472570419312
0.009591517969965935,0.0,-0.009351257234811783,0.0105931730940938,0.0,0.008684506639838219
0.0096525764092803,0.0,-0.008772454224526882,0.009463416412472725,0.0,0.008970891125500202
0.009352151304483414,0.0,-0.009580133482813835,0.009857620112597942,0.0,0.008811179548501968
0.01008378155529499,0.0,-0.009698661975562572,0.010460787452757359,0.0,0.008710883557796478
0.009763507172465324,0.0,-0.009817412123084068,0.009760478511452675,0.0,0.00848265178501606
0.00926138274371624,0.0,-0.009458672255277634,0.009897133335471153,0.0,0.008868164382874966
0.009758120402693748,0.0,-0.009351938962936401,0.009534179233014584,0.0,0.009102445095777512
0.010293504223227501,0.0,-0.009301976300776005,0.00906666275113821,0.0,0.008443903177976608
0.00953145232051611,0.0,-0.009953932836651802,0.009885766543447971,0.0,0.008731374517083168
0.00953145232051611,0.0,-0.009953932836651802,0.009885766543447971,0.0,0.008731374517083168
0.010458143427968025,0.0,-0.00971909798681736,0.009916343726217747,0.0,0.00904293917119503
0.00995665043592453,0.0,-0.009214713238179684,0.009548685513436794,0.0,0.00878775492310524
0.009322401136159897,0.0,-0.009221750311553478,0.009992998093366623,0.0,0.008708223700523376
0.010722099803388119,0.0,-0.009141212329268456,0.010297100059688091,0.0,0.009175635874271393
0.010219450108706951,0.0,-0.009197906590998173,0.00955811608582735,0.0,0.00926235131919384
0.009476948529481888,0.0,-0.01050681620836258,0.009368385188281536,0.0,0.008828967809677124
0.010053063742816448,0.0,-0.009954310953617096,0.009456070140004158,0.0,0.009115842171013355
0.010070465505123138,2.1727952116634697e-05,-0.009068291634321213,0.0093007180839777,0.0,0.00920395739376545
0.010268866084516048,9.311864414485171e-05,-0.009305007755756378,0.009928984567523003,0.0,0.008846280165016651
0.009872234426438808,9.21753526199609e-05,-0.009557507932186127,0.009781601838767529,0.0,0.008829779922962189
0.010041158646345139,9.03378677321598e-05,-0.009379089809954166,0.009372800588607788,0.0,0.009003792889416218
0.01096358709037304,8.856022031977773e-05,-0.009315583854913712,0.010101341642439365,6.0388483689166605e-06,0.009191608987748623
0.010357564315199852,8.685110515216365e-05,-0.009709969162940979,0.009836156852543354,3.9429366438525904e-07,0.009131824597716331
0.010121721774339676,8.520664414390922e-05,-0.009346193633973598,0.009276207536458969,2.574455848503021e-08,0.009430713951587677
0.010335477069020271,9.829281771089882e-05,-0.009436236694455147,0.009991379454731941,1.0975308856187027e-10,0.009030639193952084
0.010305674746632576,9.674913599155843e-05,-0.009308434091508389,0.009142614901065826,7.166092372279387e-12,0.008970269002020359
0.011188852600753307,9.504910121904686e-05,-0.00886701513081789,0.009391670115292072,4.678946574805665e-13,0.00886597391217947
0.011231089942157269,9.340517863165587e-05,-0.009391807951033115,0.009495112113654613,3.055017447784608e-14,0.008913936093449593
0.010130728594958782,9.181690984405577e-05,-0.009187432937324047,0.009022439830005169,1.9947079571587794e-15,0.009311630390584469
0.01102819386869669,0.00010472815483808517,-0.008690841495990753,0.009139984846115112,1.3024018301651525e-16,0.009329581633210182
0.010715890675783157,0.0001035888708429411,-0.009529600851237774,0.009488837793469429,8.503753359554434e-18,0.010310923680663109
0.010097135789692402,0.0001019209303194657,-0.009306278079748154,0.00895417295396328,5.552343362258332e-19,0.00948904175311327
0.010201435536146164,0.00010029841359937564,-0.008935346268117428,0.00946485809981823,3.625283178166447e-20,0.009043153375387192
0.010201435536146164,0.00010029841359937564,-0.008935346268117428,0.00946485809981823,3.625283178166447e-20,0.009043153375387192
0.01029570959508419,0.00011226806236663833,-0.009334547445178032,0.009480340406298637,2.3670510339834725e-21,0.009045710787177086
0.010682953521609306,0.00010940163338091224,-0.008451202884316444,0.009743624366819859,1.0091110277308993e-23,0.009814221411943436
0.010682953521609306,0.00010940163338091224,-0.008451202884316444,0.009743624366819859,1.0091110277308993e-23,0.009814221411943436
0.010553067550063133,0.00010776436101878062,-0.009073670953512192,0.009830526076257229,6.588773849431577e-25,0.009637154638767242
0.010179460979998112,0.0001063798408722505,-0.00961316842585802,0.010089265182614326,-0.00019804206385742873,0.010162982158362865
0.010606691241264343,0.00020431306620594114,-0.009885371662676334,0.009935393929481506,-0.00024603470228612423,0.009790115989744663
0.010084576904773712,0.00019676005467772484,-0.008861927315592766,0.01012542936950922,-0.0002810981823131442,0.009252716787159443
0.010453375987708569,0.0001885341916931793,-0.009889529086649418,0.009954134002327919,-0.00030918169068172574,0.009873875416815281
0.010823292657732964,0.00021567262592725456,-0.008130704052746296,0.009953935630619526,-0.00030000502010807395,0.010354162193834782
0.010023893788456917,0.0002087291213683784,-0.008621247485280037,0.010678687132894993,-0.0003248711582273245,0.009866592474281788
0.01079875323921442,0.0002009793242905289,-0.010342125780880451,0.00997248012572527,-0.0003132469137199223,0.009970372542738914
0.010475942865014076,0.0002222528273705393,-0.009257063269615173,0.009958509355783463,-0.0005677802837453783,0.010431051254272461
0.010214756242930889,0.000218180037336424,-0.008440252393484116,0.010340744629502296,-0.0005906746373511851,0.00990558136254549
0.010637546889483929,0.0002109243650920689,-0.009443345479667187,0.009803901426494122,-0.0005764330271631479,0.009869400411844254
0.010883878916501999,0.00020409165881574154,-0.009540999308228493,0.010165797546505928,-0.0006046859780326486,0.010007249191403389
0.010424897074699402,0.00022553712187800556,-0.009135245345532894,0.010447127744555473,-0.0006252791499719024,0.009757310152053833
0.01065558847039938,0.00021904942695982754,-0.009504641406238079,0.009944806806743145,-0.0005871225730516016,0.009860112331807613
0.010695533826947212,0.00021258674678392708,-0.009198012761771679,0.0104769766330719,-0.0006657053017988801,0.009846851229667664
0.010683814994990826,0.0002985314931720495,-0.009333356283605099,0.00947532244026661,-0.0006248158751986921,0.010148713365197182
0.010410784743726254,0.0003338259120937437,-0.009660068899393082,0.01029790285974741,-0.0006474294350482523,0.01008954830467701
0.010562153533101082,0.00031641320674680173,-0.009424104355275631,0.00946369580924511,-0.0005922239506617188,0.009923264384269714
0.010729759931564331,0.0003428084310144186,-0.009834005497395992,0.009382042102515697,-0.0005983387236483395,0.010556645691394806
0.010671146214008331,0.00033037023968063295,-0.0099711325019598,0.009592253714799881,-0.0005686272634193301,0.010217349044978619
0.011062643490731716,0.00031397875864058733,-0.009456966072320938,0.009916627779603004,-0.0005306269740685821,0.010057326406240463
0.010589856654405594,0.0003411958459764719,-0.00982452929019928,0.0098513038828969,-0.0005053827771916986,0.010297788307070732
0.010874350555241108,0.000326297536958009,-0.010282387025654316,0.01003437489271164,-0.00045632998808287084,0.010054603219032288
0.011124803684651852,0.000312635995214805,-0.009489606134593487,0.010216999799013138,-0.0004857745370827615,0.009704182855784893
0.011124803684651852,0.000312635995214805,-0.009489606134593487,0.010216999799013138,-0.0004857745370827615,0.009704182855784893
0.011625478975474834,0.0003903809410985559,-0.010974952951073647,0.010207265615463257,-0.0004802047333214432,0.009668841026723385
0.011206208728253841,0.0004280643770471215,-0.010432954877614975,0.010039121843874454,-0.0004538612556643784,0.009861993603408337
0.011206208728253841,0.0004280643770471215,-0.010432954877614975,0.010039121843874454,-0.0004538612556643784,0.009861993603408337
0.010632590390741825,0.0003991612757090479,-0.010753710754215717,0.009832990355789661,-0.0004238485998939723,0.010256017558276653
0.011148086749017239,0.0004262355505488813,-0.010584430769085884,0.010681264102458954,-0.00039715113234706223,0.010022706352174282
0.011131510138511658,0.0004056340258102864,-0.01063744630664587,0.009946110658347607,-0.0003735889622475952,0.009998630732297897
0.011170873418450356,0.0004333844408392906,-0.010871216654777527,0.01033204048871994,-0.00035266735358163714,0.010732549242675304
0.011973872780799866,0.0004107473650947213,-0.01045181043446064,0.010045016184449196,-0.0003752556222025305,0.01026956643909216
0.011513391509652138,0.0004989848821423948,-0.011116202920675278,0.009291260503232479,-0.0003620339557528496,0.009916447103023529
0.01160082034766674,0.0005126618198119104,-0.01103300228714943,0.009419349953532219,-0.00034505032817833126,0.00998022872954607
0.011267732828855515,0.0004941231454722583,-0.01079375110566616,0.010639814659953117,-0.00032928932341746986,0.01061482448130846
0.011077692732214928,0.0005022831028327346,-0.011129667982459068,0.010477644391357899,-0.0003148862160742283,0.010276652872562408
0.011300445534288883,0.00048727283137850463,-0.010968956165015697,0.009931757114827633,-0.000285432324744761,0.010666459798812866
0.010867658071219921,0.0005145419272594154,-0.010565992444753647,0.010311169549822807,-0.0002668245870154351,0.010276521556079388
0.011420099064707756,0.0005923551507294178,-0.010893031023442745,0.009679274633526802,-0.00025177933275699615,0.010582717135548592
0.011704038828611374,0.0005717267049476504,-0.010839492082595825,0.009676260873675346,-0.00023842710652388632,0.010283068753778934
0.01118545699864626,0.0006079410668462515,-0.011043926700949669,0.010159268043935299,-0.0002656299329828471,0.010453158989548683
0.01119373831897974,0.0005476207006722689,-0.010834293439984322,0.009704643860459328,-0.00025829323567450047,0.010873216204345226
0.011682722717523575,0.0005310897249728441,-0.011168556287884712,0.011310204863548279,-0.00023606386093888432,0.009730256162583828
0.011287531815469265,0.0004898251499980688,-0.010667793452739716,0.010204517282545567,-0.0002261766348965466,0.009858518838882446
0.011137665249407291,0.0004968955763615668,-0.01090448908507824,0.01025872491300106,-0.00021708174608647823,0.010651655495166779
0.011352836154401302,0.0004841489717364311,-0.011120068840682507,0.010641450062394142,-0.00020869143190793693,0.01077326200902462
0.011578929610550404,0.00045844676787965,-0.011152347549796104,0.010395362041890621,-0.00020092460908927023,0.010759115219116211
0.012917742133140564,0.00043846407788805664,-0.010443166829645634,0.010329975746572018,-0.0002217160363215953,0.011179305613040924
0.01333499513566494,0.00047861269558779895,-0.0106887212023139,0.0104107316583395,-0.00021789436868857592,0.011343599297106266
0.012661285698413849,0.0005109690246172249,-0.010150817222893238,0.009770791977643967,-0.00021085224580019712,0.011072411201894283
0.012973224744200706,0.0005349572747945786,-0.010832482017576694,0.010216791182756424,-0.00020403903909027576,0.011505752801895142
0.012438342906534672,0.0007427759119309485,-0.010734841227531433,0.010019080713391304,-0.00019763859745580703,0.011845583096146584
0.013116470538079739,0.0008764175581745803,-0.01007864996790886,0.009564540348947048,-0.00019162632816005498,0.011294834315776825
0.01262963842600584,0.0008811724837869406,-0.010915553197264671,0.010757500305771828,-0.00018596951849758625,0.01142642181366682
0.01262963842600584,0.0008811724837869406,-0.010915553197264671,0.010757500305771828,-0.00018596951849758625,0.01142642181366682
0.01310522947460413,0.0008834873442538083,-0.010638156905770302,0.010569549165666103,-0.00019975185568910092,0.011520101688802242
0.012798747979104519,0.0009473537211306393,-0.010809443891048431,0.010241654701530933,-0.0002002502151299268,0.011179022490978241
0.01291506364941597,0.0009571021655574441,-0.010362403467297554,0.010853887535631657,-0.00019521638751029968,0.01077764667570591
0.013274496421217918,0.0009484696784056723,-0.010253990069031715,0.010549633763730526,-0.00019008795788977295,0.010809955187141895
0.01301478873938322,0.000941942329518497,-0.010401834733784199,0.010672198608517647,-0.0001851998531492427,0.0111107612028718
0.013289297930896282,0.000875387922860682,-0.010547381825745106,0.010823648422956467,-0.0001805554493330419,0.011063532903790474
0.012800278142094612,0.0009728435543365777,-0.010235477238893509,0.009987780824303627,-0.00017613825912121683,0.01110277883708477
0.013425161130726337,0.0009957561269402504,-0.010618227533996105,0.009913261979818344,-0.0001702647568890825,0.01191419456154108
0.013262678869068623,0.000993026071228087,-0.01059957779943943,0.010305921547114849,-0.00016288267215713859,0.012069848366081715
0.013261030428111553,0.0010896509047597647,-0.009895517490804195,0.01023743487894535,-0.00015711520973127335,0.011758256703615189
0.013268125243484974,0.001194741576910019,-0.01069784164428711,0.010133734904229641,-0.0001518091157777235,0.011422699317336082
0.013544545508921146,0.001147658796980977,-0.010261265560984612,0.010133665055036545,-0.0001468538393964991,0.011326761916279793
0.01343904435634613,0.0010411514667794108,-0.009955016896128654,0.009459836408495903,-0.00014221241872292012,0.01202266663312912
0.013220028951764107,0.001153822522610426,-0.010661322623491287,0.010455622337758541,-0.00015138050366658717,0.01148805022239685
0.013009932823479176,0.001123476424254477,-0.010275023989379406,0.010219624266028404,-0.00015959148004185408,0.010961015708744526
0.013513380661606789,0.0013206612784415483,-0.011349414475262165,0.010214945301413536,-0.00015149767568800598,0.011144621297717094
0.01320419181138277,0.0012548279482871294,-0.01021517999470234,0.00995340570807457,-0.00014736645971424878,0.01151988748461008
0.013237104751169682,0.001229295739904046,-0.009943313896656036,0.00975895021110773,-0.00014345176168717444,0.01122854370623827
0.013031713664531708,0.0013405195204541087,-0.010655626654624939,0.011511814780533314,-0.00013973930617794394,0.011582399718463421
0.013858688995242119,0.0013755903346464038,-0.01023293286561966,0.010589582845568657,-0.0001559275551699102,0.011989884078502655
0.013379215262830257,0.0015984181081876159,-0.010659394785761833,0.009875837713479996,-0.00015481121954508126,0.011853205971419811
0.013878474943339825,0.0015131615800783038,-0.010453213937580585,0.010438069701194763,-0.0001512715534772724,0.011758687905967236
0.013322222046554089,0.0014080782420933247,-0.009992110542953014,0.01006366591900587,-0.00016742922889534384,0.01220409944653511
0.013746222481131554,0.0014503714628517628,-0.010793156921863556,0.010148616507649422,-0.0001648805773584172,0.012026418931782246
0.013360739685595036,0.0013977400958538055,-0.010796241462230682,0.010498585179448128,-0.00016135210171341896,0.012167220935225487
0.013347068801522255,0.00150470866356045,-0.010475615039467812,0.009885847568511963,-0.00022985701798461378,0.012173812836408615
0.013347068801522255,0.00150470866356045,-0.010475615039467812,0.009885847568511963,-0.00022985701798461378,0.012173812836408615
0.013346283696591854,0.0016469598049297929,-0.011137445457279682,0.0099804000928998,-0.00022345948673319072,0.012097358703613281
0.013604830019176006,0.001787114655598998,-0.010782964527606964,0.010489042848348618,-0.0002529202029109001,0.011988913640379906
0.013655883260071278,0.0018881509313359857,-0.010488849133253098,0.010110142640769482,-0.0002440965618006885,0.013206031173467636
0.013240284286439419,0.001855845213867724,-0.01141908299177885,0.010760968551039696,-0.00026745250215753913,0.012310552410781384
0.01362784206867218,0.0018314361805096269,-0.010891363024711609,0.010798832401633263,-0.0002610116498544812,0.011103004217147827
0.013512484729290009,0.0017126374877989292,-0.011266556568443775,0.010491423308849335,-0.00028432797989808023,0.011913537047803402
0.013386841863393784,0.0018476222176104784,-0.009300378151237965,0.010406123474240303,-0.00027564004994928837,0.012139680795371532
0.013047413900494576,0.001721899607218802,-0.01085609383881092,0.010471627116203308,-0.0002656140422914177,0.012445825152099133
0.013695633970201015,0.00198544654995203,-0.012353653088212013,0.010327695868909359,-0.0004300928849261254,0.012737729586660862
0.013203912414610386,0.0020740439649671316,-0.01055105123668909,0.010692392475903034,-0.0004156357317697257,0.012754843570291996
0.01405112911015749,0.0020986886229366064,-0.010721772909164429,0.01081302110105753,-0.0003819833800662309,0.012594223022460938
0.013470509089529514,0.0019951246213167906,-0.011851759627461433,0.011231483891606331,-0.00038628195761702955,0.012235984206199646
0.013424547389149666,0.00218366552144289,-0.010493062436580658,0.011327051557600498,-0.00038954446790739894,0.012224092148244381
0.013744642026722431,0.002155305352061987,-0.011049523949623108,0.010336539708077908,-0.00036522693699225783,0.011895026080310345
0.014209775254130363,0.0020697256550192833,-0.01188718806952238,0.011072846129536629,-0.00034220333327539265,0.012414361350238323
0.01329221110790968,0.0017820763168856502,-0.011651283130049706,0.010001393966376781,-0.00035339497844688594,0.012046976014971733
0.01371533889323473,0.0020307577215135098,-0.01138470321893692,0.010647976770997047,-0.00037072450504638255,0.012363200075924397
0.014073207043111324,0.0020426749251782894,-0.011684348806738853,0.010595406405627728,-0.0003631532599683851,0.012838179245591164
0.013755349442362785,0.0022372622042894363,-0.011526328511536121,0.010416185483336449,-0.00034640455851331353,0.013355921022593975
0.013923394493758678,0.002202964387834072,-0.010478011332452297,0.010848785750567913,-0.0003305452410131693,0.012671872042119503
0.012407897971570492,0.0022703278809785843,-0.011816193349659443,0.010199022479355335,-0.0003262999525759369,0.012695190496742725
0.01422097161412239,0.00213884050026536,-0.011312474496662617,0.010532093234360218,-0.00030624138889834285,0.012566578574478626
0.014451257884502411,0.002281245542690158,-0.01146657858043909,0.010976451449096203,-0.0003364392032381147,0.013221783563494682
0.014451257884502411,0.002281245542690158,-0.01146657858043909,0.010976451449096203,-0.0003364392032381147,0.013221783563494682
0.013927176594734192,0.0024073049426078796,-0.011239218525588512,0.010173505172133446,-0.00032308654044754803,0.012992504984140396
0.014144133776426315,0.00234628701582551,-0.010833395645022392,0.010573895648121834,-0.0003427608753554523,0.013047504238784313
0.014018567278981209,0.0024500072468072176,-0.011354032903909683,0.010729501955211163,-0.00033623326453380287,0.01307657640427351
0.01422050129622221,0.0024629554245620966,-0.011641422286629677,0.010182875208556652,-0.00035949560697190464,0.012973819859325886
0.014216167852282524,0.0023396473843604326,-0.011000013910233974,0.010566331446170807,-0.0003476056444924325,0.013082374818623066
0.01421371940523386,0.0022058335598558187,-0.011093773879110813,0.010845419950783253,-0.00048801989760249853,0.012820464558899403
0.014108874835073948,0.002109031192958355,-0.011049412190914154,0.010456129908561707,-0.0004614173376467079,0.012655973434448242
0.014506330713629723,0.0022210448514670134,-0.011402038857340813,0.011559883132576942,-0.0004198587266728282,0.01270241104066372
0.014365056529641151,0.002477932022884488,-0.011784106492996216,0.01140330359339714,-0.00038408447289839387,0.013008065521717072
0.014454392716288567,0.0023515005595982075,-0.01109565794467926,0.010607104748487473,-0.0003538586606737226,0.012821691110730171
0.014430098235607147,0.00254793930798769,-0.011780212633311749,0.010785598307847977,-0.0003890294174198061,0.01292593963444233
0.014779378660023212,0.0024543371982872486,-0.011951703578233719,0.010935446247458458,-0.000366587279131636,0.012756487354636192
0.014853551983833313,0.002636191202327609,-0.011749090626835823,0.011861770413815975,-0.0003435127146076411,0.012900327332317829
0.01479391660541296,0.002674748422577977,-0.011489341035485268,0.011346504092216492,-0.0003229746944271028,0.01326968427747488
0.014335671439766884,0.0027176160365343094,-0.011082113720476627,0.011045366525650024,-0.00032948493026196957,0.013107389211654663
0.014630409888923168,0.002532894955947995,-0.011696916073560715,0.011314073577523232,-0.0003348310710862279,0.012894216924905777
0.014515435323119164,0.002539694542065263,-0.011880322359502316,0.011020566336810589,-0.0003416185500100255,0.01290450245141983
0.014563296921551228,0.0025715981610119343,-0.012050924822688103,0.011518735438585281,-0.0003313718771096319,0.013286278583109379
0.014660455286502838,0.0026280274614691734,-0.011257442645728588,0.011114534921944141,-0.00031200109515339136,0.012916352599859238
0.014404157176613808,0.002721174620091915,-0.012245116755366325,0.01133322436362505,-0.0002889074676204473,0.013538873754441738
0.01485847495496273,0.002589313080534339,-0.0120366420596838,0.011197594925761223,-0.00027128172223456204,0.013824558816850185
0.014840788207948208,0.002748944563791156,-0.012423638254404068,0.011367139406502247,-0.00029354699654504657,0.013658184558153152
0.015269246883690357,0.00283290958032012,-0.012029595673084259,0.01160401850938797,-0.0002896043297369033,0.013266143389046192
0.015346470288932323,0.0029528578743338585,-0.01194554753601551,0.011156853288412094,-0.00027559316367842257,0.01378611009567976
0.015261265449225903,0.002831080462783575,-0.012596960179507732,0.011855937540531158,-0.00026225493638776243,0.013649174943566322
0.015676191076636314,0.002862238325178623,-0.012071623466908932,0.011503351852297783,-0.00027047129697166383,0.014189892448484898
0.015369181521236897,0.0030665870290249586,-0.01240235473960638,0.011240491643548012,-0.0002774808381218463,0.014091117307543755
0.01563248224556446,0.00308738905005157,-0.012073366902768612,0.011993183754384518,-0.00026695829001255333,0.01374412514269352
0.01563248224556446,0.00308738905005157,-0.012073366902768612,0.011993183754384518,-0.00026695829001255333,0.01374412514269352
0.015405310317873955,0.0030319371726363897,-0.012655739672482014,0.011534694582223892,-0.0002832335012499243,0.013654999434947968
0.015109251253306866,0.0029723625630140305,-0.011864745058119297,0.011738557368516922,-0.00027116358978673816,0.013540957123041153
0.015109251253306866,0.0029723625630140305,-0.011864745058119297,0.011738557368516922,-0.00027116358978673816,0.013540957123041153
0.015468809753656387,0.002990691689774394,-0.01234770193696022,0.011395919136703014,-0.00033813455956988037,0.013431919738650322
0.015229327604174614,0.003397624474018812,-0.012256171554327011,0.011628164909780025,-0.00031981669599190354,0.013424472883343697
0.015762001276016235,0.0037563389632850885,-0.012953827157616615,0.011143084615468979,-0.00034292295458726585,0.014053573831915855
0.01551214698702097,0.0034092285204678774,-0.012408072128891945,0.01118533220142126,-0.0003353608772158623,0.014077376574277878
0.015826720744371414,0.0031171285081654787,-0.012626505456864834,0.011448469944298267,-0.00031659071100875735,0.014511245302855968
0.015830012038350105,0.0030671083368360996,-0.012624582275748253,0.01101626455783844,-0.0002991063520312309,0.014319372363388538
0.015594997443258762,0.002192435786128044,-0.012669014744460583,0.011283045634627342,-0.0002834068436641246,0.014508330263197422
0.015631457790732384,0.00147829984780401,-0.012786061502993107,0.010809209197759628,-0.00029117282247170806,0.014337452128529549
0.015767905861139297,0.0011113077634945512,-0.012484783306717873,0.01087650004774332,-0.0002977230469696224,0.014279251918196678
0.01594603806734085,0.0010658062528818846,-0.012559383176267147,0.011457487940788269,-0.00028555429889820516,0.014016283676028252
0.01577330194413662,0.0010338277788832784,-0.012532420456409454,0.01072861161082983,-0.0002732529828790575,0.01427039410918951
0.01627974770963192,0.001014722278341651,-0.012791181914508343,0.011307671666145325,-0.0002618964354041964,0.014348523691296577
0.01644326187670231,0.0007963781245052814,-0.01217605173587799,0.01168257649987936,-0.000275721336947754,0.014658748172223568
0.016770824790000916,0.001348718418739736,-0.012393338605761528,0.01130594126880169,-0.00026607714244164526,0.014583384618163109
0.016252286732196808,0.0016809959197416902,-0.012140330858528614,0.010364276356995106,-0.0002694978902582079,0.014487066306173801
0.015936560928821564,0.0015195510350167751,-0.012514797039330006,0.010823952965438366,-0.00026650316431187093,0.014541576616466045
0.015992069616913795,0.0012713174801319838,-0.012258865870535374,0.010904775932431221,-0.0002769997518043965,0.01453277189284563
0.01691201701760292,0.0010959088103845716,-0.012215632945299149,0.009930606931447983,-0.00028515970916487277,0.014612124301493168
0.01691201701760292,0.0010959088103845716,-0.012215632945299149,0.009930606931447983,-0.00028515970916487277,0.014612124301493168
0.01706082560122013,0.0008565184543840587,-0.0126850176602602,0.010308893397450447,-0.00030098872957751155,0.014514039270579815
0.01706082560122013,0.0008565184543840587,-0.0126850176602602,0.010308893397450447,-0.00030098872957751155,0.014514039270579815
0.016848048195242882,0.0008658895385451615,-0.01205225009471178,0.010320290923118591,-0.00028855010168626904,0.014419237151741982
0.016368355602025986,0.0008815063047222793,-0.012803628109395504,0.011011449620127678,-0.00031272973865270615,0.016134267672896385
0.016827747225761414,0.0010523747187107801,-0.013635963201522827,0.01031460240483284,-0.00030201117624528706,0.014321379363536835
0.016832485795021057,0.0010415582219138741,-0.01250552386045456,0.010898222215473652,-0.00029000136419199407,0.014226982370018959
0.017547564581036568,0.0010251539060845971,-0.012559276074171066,0.01115918904542923,-0.0002789938007481396,0.014799927361309528
0.01713617332279682,0.0012461846927180886,-0.012616231106221676,0.011061722412705421,-0.00039413428748957813,0.015209483914077282
0.017393281683325768,0.0012290914310142398,-0.013043791987001896,0.010989369824528694,-0.00037080037873238325,0.014883119612932205
0.017310691997408867,0.0011873346520587802,-0.013129048980772495,0.010741492733359337,-0.0003935034910682589,0.015174588188529015
0.01673583872616291,0.0013470272533595562,-0.012513251975178719,0.010860178619623184,-0.00038139495882205665,0.014751505106687546
0.017169643193483353,0.0013061934150755405,-0.013097938150167465,0.011685449630022049,-0.00035718095023185015,0.014969304203987122
0.017130780965089798,0.0012755409115925431,-0.012830574065446854,0.01155239436775446,-0.0003870322252623737,0.014695641584694386
0.01756611280143261,0.0016066161915659904,-0.013254991732537746,0.011603791266679764,-0.00036781912785954773,0.014842796139419079
0.017870211973786354,0.001535492716357112,-0.01282284501940012,0.011872678995132446,-0.00034773151855915785,0.014617273584008217
0.01717401295900345,0.0017709528328850865,-0.013281330466270447,0.011197540909051895,-0.00032955047208815813,0.01504262164235115
0.017633682116866112,0.0017605215543881059,-0.013026065193116665,0.012274932116270065,-0.0003548271779436618,0.014885677956044674
0.017894867807626724,0.0017390975262969732,-0.01307363249361515,0.011549168266355991,-0.0003407472977414727,0.014818144030869007
0.017688661813735962,0.0016058937180787325,-0.012948772870004177,0.011680659838020802,-0.0003731213218998164,0.014687271788716316
0.01774970069527626,0.001516106422059238,-0.012776494957506657,0.01188893336802721,-0.0003517228178679943,0.01514312531799078
0.017781049013137817,0.0015927556669339538,-0.013151198625564575,0.011519186198711395,-0.0003266800777055323,0.015289698727428913
0.018175093457102776,0.0019805999472737312,-0.013167174533009529,0.011682404205203056,-0.0003840410499833524,0.0150240957736969
0.017841313034296036,0.002359042875468731,-0.01253596879541874,0.011770179495215416,-0.0003745579451788217,0.015148825943470001
0.01821306347846985,0.0022259277757257223,-0.013388832099735737,0.011851182207465172,-0.0003790237824432552,0.015142003074288368
0.018283147364854813,0.0018347023287788033,-0.013063003309071064,0.011933425441384315,-0.0003817706601694226,0.01544961053878069
0.01803402602672577,0.001812875852920115,-0.013588851317763329,0.011427539400756359,-0.00036542213638313115,0.01534256525337696
0.018399618566036224,0.001781698316335678,-0.01333518698811531,0.011170982383191586,-0.00046036866842769086,0.015147452242672443
0.018178973346948624,0.0018376935040578246,-0.013138169422745705,0.011693720705807209,-0.00042550257057882845,0.015428499318659306
0.01815761812031269,0.00223643914796412,-0.0129170510917902,0.011692749336361885,-0.0004563301336020231,0.015423170290887356
0.018369916826486588,0.0021464969031512737,-0.012993424199521542,0.0113668916746974,-0.0004292007943149656,0.015726769343018532
0.01845681108534336,0.002197632798925042,-0.013607831671833992,0.012047773227095604,-0.00045541999861598015,0.01562563329935074
0.018609847873449326,0.0020904196426272392,-0.013220778666436672,0.011383410543203354,-0.00043202468077652156,0.016090665012598038
0.018751615658402443,0.001992261502891779,-0.013351105153560638,0.011344749480485916,-0.0004585590504575521,0.01597786508500576
0.01846839115023613,0.0019431250402703881,-0.012985707260668278,0.011353127658367157,-0.0004344237386249006,0.015821397304534912
0.01846839115023613,0.0019431250402703881,-0.012985707260668278,0.011353127658367157,-0.0004344237386249006,0.015821397304534912
0.01866152696311474,0.0019191314931958914,-0.013693191111087799,0.011058714240789413,-0.0004903244553133845,0.015581747516989708
0.018655046820640564,0.0019487157696858048,-0.013440300710499287,0.0117129972204566,-0.0004976740456186235,0.01563597097992897
0.018381601199507713,0.002193599008023739,-0.013523194007575512,0.011607751250267029,-0.0004925748216919601,0.01588444598019123
0.01871010847389698,0.0023967560846358538,-0.013088004663586617,0.011453636921942234,-0.0005240649334155023,0.01590065285563469
0.01875489391386509,0.0022960493806749582,-0.013862565159797668,0.011667988263070583,-0.0005484059802256525,0.016238506883382797
0.018611783161759377,0.0025220292154699564,-0.01339638326317072,0.011047103442251682,-0.0006432439549826086,0.01545433234423399
0.019267147406935692,0.0022540464997291565,-0.013551168143749237,0.011611943133175373,-0.0006671561277471483,0.01592435874044895
0.018680423498153687,0.002292083576321602,-0.013208332471549511,0.011566211469471455,-0.0006885639159008861,0.015967605635523796
0.01884537562727928,0.0023984145373106003,-0.013895872980356216,0.011456881649792194,-0.0006989343091845512,0.01604345440864563
0.019186267629265785,0.0023263052571564913,-0.013977983966469765,0.012077877297997475,-0.0006956306169740856,0.015963416546583176
0.01846255362033844,0.002560724737122655,-0.013470659032464027,0.011527678929269314,-0.0006725499406456947,0.016049105674028397
0.01878361403942108,0.002728142309933901,-0.013858887366950512,0.011999121867120266,-0.000694399990607053,0.016155537217855453
0.019363461062312126,0.002462167991325259,-0.01402941532433033,0.012104316614568233,-0.000659060082398355,0.016398398205637932
0.01952461525797844,0.0023802209179848433,-0.01407502219080925,0.011961526237428188,-0.0006751050823368132,0.016094019636511803
0.019622478634119034,0.0022755421232432127,-0.014374821446835995,0.011412751860916615,-0.0006629957351833582,0.01582883670926094
0.0192897766828537,0.002440434880554676,-0.013670255430042744,0.01190885715186596,-0.0006430715438909829,0.015719952061772346
0.017794476822018623,0.002712053479626775,-0.013761785812675953,0.011987023055553436,-0.000680705183185637,0.01641722023487091
0.01974671147763729,0.002827017568051815,-0.013388201594352722,0.012144454754889011,-0.0006793166394345462,0.016366183757781982
0.01974671147763729,0.002827017568051815,-0.013388201594352722,0.012144454754889011,-0.0006793166394345462,0.016366183757781982
0.019652586430311203,0.0027710003778338432,-0.01379167940467596,0.011909205466508865,-0.0005847407737746835,0.016594428569078445
0.019652586430311203,0.0027710003778338432,-0.01379167940467596,0.011909205466508865,-0.0005847407737746835,0.016594428569078445
0.019453169777989388,0.002460276009514928,-0.014353424310684204,0.01145373284816742,-0.0005600351141765714,0.016526373103260994
0.019453169777989388,0.002460276009514928,-0.014353424310684204,0.01145373284816742,-0.0005600351141765714,0.016526373103260994
0.019629180431365967,0.0026665464974939823,-0.014893236570060253,0.011885383166372776,-0.0005832236493006349,0.016443708911538124
0.01995919458568096,0.002731457119807601,-0.014518296346068382,0.012125497683882713,-0.0005375432083383203,0.01700834184885025
0.01995919458568096,0.002731457119807601,-0.014518296346068382,0.012125497683882713,-0.0005375432083383203,0.01700834184885025
0.019268162548542023,0.002799703273922205,-0.013978904113173485,0.01249208115041256,-0.0005523914587683976,0.01712571084499359
0.01960509829223156,0.002786220284178853,-0.014566637575626373,0.011820413172245026,-0.0005208143265917897,0.016720861196517944
0.019458508118987083,0.002838222309947014,-0.013980504125356674,0.01194290816783905,-0.0004762633179780096,0.016064854338765144
0.01914953626692295,0.0027549685910344124,-0.01449461467564106,0.011635346338152885,-0.0005054779467172921,0.01636984944343567
0.019758937880396843,0.0029044870752841234,-0.013905685395002365,0.012046579271554947,-0.0004720113647636026,0.016533054411411285
0.020412100479006767,0.0029023466631770134,-0.013772820122539997,0.012203655205667019,-0.00048550861538387835,0.016685068607330322
0.019874852150678635,0.0029833964072167873,-0.014607644639909267,0.011767184361815453,-0.0004683063889387995,0.01700662076473236
0.019940366968512535,0.002847069874405861,-0.015134788118302822,0.012188226915895939,-0.00044058027560822666,0.01701459474861622
0.020101459696888924,0.0029130317270755768,-0.013835079967975616,0.011730075813829899,-0.00041607877938076854,0.01734226569533348
0.01997806318104267,0.003090588841587305,-0.014106718823313713,0.01169240940362215,-0.00040301200351677835,0.016693279147148132
0.01987244188785553,0.003026828868314624,-0.014164716936647892,0.012043096125125885,-0.00042580312583595514,0.017009194940328598
0.020017428323626518,0.0029451914597302675,-0.01418753806501627,0.012198098935186863,-0.00038244391907937825,0.01682284288108349
0.01985645294189453,0.0029934453777968884,-0.014233572408556938,0.011447264812886715,-0.0004010009579360485,0.017885658890008926
0.020251404494047165,0.003121445421129465,-0.01434817910194397,0.0116600776091218,-0.00038984237471595407,0.016956400126218796
0.020309915766119957,0.003041827352717519,-0.01509939320385456,0.01168859377503395,-0.0004134318442083895,0.016666818410158157
0.020521126687526703,0.0030479959677904844,-0.013883057981729507,0.011290197260677814,-0.00039691050187684596,0.016895513981580734
0.020521126687526703,0.0030479959677904844,-0.013883057981729507,0.011290197260677814,-0.00039691050187684596,0.016895513981580734
0.020507099106907845,0.00327221117913723,-0.014434287324547768,0.012191618792712688,-0.00037655566120520234,0.01711941324174404
0.020790105685591698,0.0030422431882470846,-0.014100216329097748,0.01164319459348917,-0.00040509895188733935,0.01731663942337036
0.02046177163720131,0.0030463668517768383,-0.01471549179404974,0.011782055720686913,-0.000412983848946169,0.01682906039059162
0.020180214196443558,0.002481670118868351,-0.014682129956781864,0.012625432573258877,-0.00038095665513537824,0.017146846279501915
0.020966704934835434,0.0023238130379468203,-0.01462522428482771,0.012170600704848766,-0.0004120105877518654,0.017248623073101044
0.020818235352635384,0.0024775483179837465,-0.01394760049879551,0.012555902823805809,-0.0003904750046785921,0.017415957525372505
0.020989036187529564,0.0031016897410154343,-0.014455758966505527,0.011846077628433704,-0.00040933748823590577,0.017502469941973686
0.020937103778123856,0.0031356923282146454,-0.014474627561867237,0.011894318275153637,-0.0003974734281655401,0.017611362040042877
0.021107684820890427,0.0028297449462115765,-0.014568368904292583,0.011968678794801235,-0.0004007974930573255,0.01774165965616703
0.020760007202625275,0.002726616570726037,-0.014173702336847782,0.011422025971114635,-0.00040248711593449116,0.01759643666446209
0.020789770409464836,0.00263945572078228,-0.01464391965419054,0.01228911243379116,-0.00038266470073722303,0.01749889925122261
0.021291090175509453,0.0025149108842015266,-0.014345848932862282,0.011550717055797577,-0.0004283279413357377,0.01749447174370289
0.02117004804313183,0.0027570086531341076,-0.014530817046761513,0.01197128463536501,-0.0004593720368575305,0.017426572740077972
0.021010955795645714,0.0029201265424489975,-0.014326238073408604,0.012112543918192387,-0.00044071776210330427,0.017644653096795082
0.020971013233065605,0.0026261084713041782,-0.014515404589474201,0.012086069211363792,-0.0004085866385139525,0.01749156415462494
0.02133885957300663,0.002647210843861103,-0.01429753564298153,0.012219084426760674,-0.00041063077514991164,0.017458874732255936
0.021351013332605362,0.002686256542801857,-0.014643553644418716,0.011559555307030678,-0.0004119459190405905,0.017755329608917236
0.021258002147078514,0.0024494873359799385,-0.014130641706287861,0.012346012517809868,-0.00038838604814372957,0.018337875604629517
0.021581167355179787,0.0025251018814742565,-0.01426524668931961,0.012198521755635738,-0.000411152868764475,0.018713269382715225
0.021549290046095848,0.002675312105566263,-0.01413742732256651,0.012383876368403435,-0.0004506652185227722,0.018451441079378128
0.021622328087687492,0.0025063634384423494,-0.014242822304368019,0.012376555241644382,-0.000460231356555596,0.017624257132411003
0.020925965160131454,0.0027010731864720583,-0.014464121311903,0.012197933159768581,-0.0004513842286542058,0.01774808019399643
0.022369926795363426,0.002776253968477249,-0.013884428888559341,0.01191666815429926,-0.0004248908953741193,0.01808372512459755
0.02227643132209778,0.0026576188392937183,-0.014187231659889221,0.012754612602293491,-0.0003944236959796399,0.018251430243253708
0.022350259125232697,0.002870207419618964,-0.013423359952867031,0.012373009696602821,-0.000412653578678146,0.018742170184850693
0.02159932069480419,0.002928089117631316,-0.014251960441470146,0.012381810694932938,-0.0004004579968750477,0.01824421063065529
0.02159932069480419,0.002928089117631316,-0.014251960441470146,0.012381810694932938,-0.0004004579968750477,0.01824421063065529
0.021983889862895012,0.0029860602226108313,-0.013819342479109764,0.012411972507834435,-0.00040362169966101646,0.017997678369283676
0.021640220656991005,0.0028513451106846333,-0.014572471380233765,0.012658588588237762,-0.00040516420267522335,0.01802278310060501
0.02116808108985424,0.0029831063002347946,-0.0141376331448555,0.012731327675282955,-0.00043032251414842904,0.018553148955106735
0.02155359834432602,0.002868309151381254,-0.015027930960059166,0.012306508608162403,-0.00040787560283206403,0.01874709501862526
0.022114818915724754,0.002855317434296012,-0.014022920280694962,0.012923453003168106,-0.00037494677235372365,0.018098047003149986
0.02176147885620594,0.002691807458177209,-0.014565826393663883,0.012871645390987396,-0.00041048237471841276,0.01779569685459137
0.02174318954348564,0.0029619229026138783,-0.014137890189886093,0.012943875975906849,-0.0003853753732983023,0.017634984105825424
0.022132504731416702,0.003000000026077032,-0.014613163657486439,0.012947413139045238,-0.00040407918277196586,0.01875411905348301
0.022754235193133354,0.0029193765949457884,-0.013923455029726028,0.01242788229137659,-0.0003926666104234755,0.01810193620622158
0.022193165495991707,0.0027770409360527992,-0.014852776192128658,0.012612359598279,-0.00037046862416900694,0.017659416422247887
0.022136081010103226,0.002859831554815173,-0.014358466491103172,0.012364765629172325,-0.0003867919440381229,0.018270092085003853
0.02213934436440468,0.00288208294659853,-0.015116351656615734,0.01308329775929451,-0.0003780247934628278,0.018596787005662918
0.021953623741865158,0.0028847591020166874,-0.014417832717299461,0.012803642079234123,-0.00036097943666391075,0.018699219450354576
0.021935351192951202,0.00327807548455894,-0.01466594822704792,0.013117538765072823,-0.0003925641649402678,0.018654286861419678
0.022359706461429596,0.002949086483567953,-0.01400852482765913,0.012697974219918251,-0.00040019984589889646,0.018690481781959534
0.022363554686307907,0.0030724541284143925,-0.014935079962015152,0.012831410393118858,-0.00040281328256241977,0.01887705735862255
0.02196015790104866,0.0030362331308424473,-0.015086034312844276,0.012792565859854221,-0.0004352371033746749,0.019062884151935577
0.022563351318240166,0.0029808087274432182,-0.015820788219571114,0.01245447713881731,-0.00041079457150772214,0.019191600382328033
0.022714907303452492,0.0029836350586265326,-0.014926496893167496,0.012494215741753578,-0.00058510503731668,0.019287923350930214
0.022344229742884636,0.0029235470574349165,-0.015331647358834743,0.01251219492405653,-0.0005685060168616474,0.019145598635077477
0.022711878642439842,0.0029971455223858356,-0.015103650279343128,0.012053066864609718,-0.0005953188519924879,0.019157540053129196
0.022103743627667427,0.002855087863281369,-0.01517222449183464,0.0121697336435318,-0.0005470122559927404,0.019130749627947807
0.022801155224442482,0.0027930198702961206,-0.015100748278200626,0.012193018570542336,-0.0005580555880442262,0.019131356850266457
0.02253282628953457,0.002749386942014098,-0.015240803360939026,0.012199186719954014,-0.0005298731266520917,0.0191942248493433
0.02253282628953457,0.002749386942014098,-0.015240803360939026,0.012199186719954014,-0.0005298731266520917,0.0191942248493433
0.02283148281276226,0.002745016012340784,-0.01431844849139452,0.012559274211525917,-0.00051064882427454,0.019378425553441048
0.022753771394491196,0.002995159476995468,-0.01526570599526167,0.012940932996571064,-0.00048395697376690805,0.01962641254067421
0.022753771394491196,0.002995159476995468,-0.01526570599526167,0.012940932996571064,-0.00048395697376690805,0.01962641254067421
0.022724909707903862,0.002926931716501713,-0.015969807282090187,0.012957404367625713,-0.00045393258915282786,0.019717948511242867
0.02308139204978943,0.0026628694031387568,-0.014867624267935753,0.01297270692884922,-0.0004360613238532096,0.019242459908127785
0.022707954049110413,0.002452865708619356,-0.015267448499798775,0.012758790515363216,-0.00039996011764742434,0.019251953810453415
0.02301759459078312,0.0024776493664830923,-0.014615490101277828,0.01314837671816349,-0.0004308230127207935,0.019834136590361595
0.024132922291755676,0.0032160007394850254,-0.015328642912209034,0.012703903019428253,-0.00040697402437217534,0.019499944522976875
0.023459909483790398,0.0032442687079310417,-0.015016318298876286,0.012607143260538578,-0.0004376916622277349,0.0195073913782835
0.023134900256991386,0.0029792925342917442,-0.015296190045773983,0.012798040173947811,-0.00041286367923021317,0.01985306851565838
0.022887876257300377,0.002949940739199519,-0.015092709101736546,0.012294292449951172,-0.00043558108154684305,0.019940463826060295
0.023521432653069496,0.0026386885438114405,-0.015397302806377411,0.012728707864880562,-0.0004169123712927103,0.019963091239333153
0.02303970605134964,0.0025225074496120214,-0.014975677244365215,0.012417170219123363,-0.0004527002165559679,0.02010578289628029
0.023301463574171066,0.002708758693188429,-0.0151367811486125,0.01291075348854065,-0.0004620759282261133,0.01970737986266613
0.024563772603869438,0.0031883076298981905,-0.015497428365051746,0.012946880422532558,-0.00042234163265675306,0.019482949748635292
0.023685449734330177,0.0032259796280413866,-0.01525634340941906,0.012793056666851044,-0.0004580282839015126,0.019987989217042923
0.02367393858730793,0.0030556486453861,-0.015332669019699097,0.012895520776510239,-0.00042652315460145473,0.020338870584964752
0.02304541878402233,0.0027925632894039154,-0.01497907005250454,0.012827745638787746,-0.0004275368992239237,0.020173216238617897
0.02367912419140339,0.0028982677031308413,-0.015515861101448536,0.013339320197701454,-0.0004277772968634963,0.020439300686120987
0.023912347853183746,0.002984536811709404,-0.015076231211423874,0.013216984458267689,-0.000430318497819826,0.020561520010232925
0.02347630262374878,0.0028212128672748804,-0.015152860432863235,0.0131542282178998,-0.00044526212150231004,0.020214946940541267
0.023642022162675858,0.0028498792089521885,-0.015652628615498543,0.013639525510370731,-0.00043975302833132446,0.020559178665280342
0.024427764117717743,0.0031264869030565023,-0.01522713340818882,0.013075635768473148,-0.00044176276423968375,0.020466644316911697
0.02474004402756691,0.0031718213576823473,-0.015767673030495644,0.013375872746109962,-0.00044112055911682546,0.0206551905721426
0.02483491227030754,0.003471603151410818,-0.01531620230525732,0.01293652132153511,-0.0004430587578099221,0.020474769175052643
0.024079160764813423,0.003215970704331994,-0.015821397304534912,0.01380211766809225,-0.00044235793757252395,0.020513935014605522
0.024079160764813423,0.003215970704331994,-0.015821397304534912,0.01380211766809225,-0.00044235793757252395,0.020513935014605522
0.024282382801175117,0.002859954722225666,-0.015412695705890656,0.012870264239609241,-0.00041518479702062905,0.019825058057904243
0.024323616176843643,0.002997417002916336,-0.01585165038704872,0.012649483978748322,-0.00044141305261291564,0.020016787573695183
0.024725452065467834,0.0034432015381753445,-0.01565995067358017,0.013198099099099636,-0.0003987029194831848,0.021331239491701126
0.024725452065467834,0.0034432015381753445,-0.01565995067358017,0.013198099099099636,-0.0003987029194831848,0.021331239491701126
0.024800747632980347,0.0032365666702389717,-0.016013842076063156,0.013025503605604172,-0.00044145973515696824,0.020708376541733742
0.025240199640393257,0.003072216873988509,-0.015795478597283363,0.01256799977272749,-0.0004068918351549655,0.019995512440800667
0.024965249001979828,0.0030409039463847876,-0.01648285984992981,0.013078218325972557,-0.0004428188258316368,0.019964635372161865
0.024873171001672745,0.003136273706331849,-0.01563115604221821,0.012814518995583057,-0.00041344278724864125,0.020586790516972542
0.024956688284873962,0.0030946950428187847,-0.015631234273314476,0.013268912211060524,-0.0004313755489420146,0.021392816677689552
0.0237874798476696,0.0033756368793547153,-0.015653926879167557,0.013366819359362125,-0.0004174535861238837,0.020962916314601898
0.025516076013445854,0.0032412714790552855,-0.01603982225060463,0.012873705476522446,-0.0003924017073586583,0.02070597931742668
0.026112565770745277,0.0036139304284006357,-0.01615004800260067,0.0132610984146595,-0.00040832438389770687,0.02089547924697399
0.025742098689079285,0.003217878984287381,-0.015739796683192253,0.01342728827148676,-0.0003979194152634591,0.022365612909197807
0.025837522000074387,0.003174077719449997,-0.0162956640124321,0.013396007008850574,-0.0003778276441153139,0.022072989493608475
0.02583250403404236,0.003356160130351782,-0.016017859801650047,0.012816251255571842,-0.00038213699008338153,0.021304821595549583
0.025816535577178,0.0031930620316416025,-0.016408665105700493,0.013502344489097595,-0.00037430640077218413,0.020810425281524658
0.02573513053357601,0.003077724250033498,-0.016090448945760727,0.013321727514266968,-0.00039796618511900306,0.0207899771630764
0.02567424438893795,0.003365084296092391,-0.016713596880435944,0.013847589492797852,-0.000385475781513378,0.021528679877519608
0.025921272113919258,0.0031577982008457184,-0.016591910272836685,0.013250374235212803,-0.00036075341631658375,0.02202751114964485
0.026195785030722618,0.0032115080393850803,-0.016228200867772102,0.01399710588157177,-0.00038694273098371923,0.021982906386256218
0.026260869577527046,0.0034637239295989275,-0.01620790734887123,0.014039228670299053,-0.00035061241942457855,0.021960018202662468
0.026329899206757545,0.0035584792494773865,-0.01668248325586319,0.013751520775258541,-0.00036714455927722156,0.02195623144507408
0.026437386870384216,0.0037509696558117867,-0.01583574153482914,0.01406213827431202,-0.0003597702307160944,0.021937204524874687
0.026746908202767372,0.0034131580032408237,-0.016649359837174416,0.013776999898254871,-0.0003433277306612581,0.02164565771818161
0.026575643569231033,0.003541654208675027,-0.017151789739727974,0.013950329273939133,-0.00039535597898066044,0.021479398012161255
0.026575643569231033,0.003541654208675027,-0.017151789739727974,0.013950329273939133,-0.00039535597898066044,0.021479398012161255
0.026908403262495995,0.0037411432713270187,-0.01708209700882435,0.013747040182352066,-0.00037312149652279913,0.02195463515818119
0.02692299708724022,0.0038383803330361843,-0.017428124323487282,0.013979130424559116,-0.0003786236047744751,0.021766770631074905
0.02686021290719509,0.003934275824576616,-0.016464274376630783,0.014397884719073772,-0.00038240369758568704,0.02166110649704933
0.02734820917248726,0.003906864207237959,-0.017477000132203102,0.014282288029789925,-0.0003589761327020824,0.021873489022254944
0.027340201660990715,0.0038749563973397017,-0.01760125160217285,0.014047833159565926,-0.000388923566788435,0.022305071353912354
0.026605913415551186,0.0034281103871762753,-0.01724298484623432,0.01381617970764637,-0.0003695169580169022,0.022305838763713837
0.027367213740944862,0.003917486872524023,-0.01738518290221691,0.013996773399412632,-0.00039241727790795267,0.02220047637820244
0.027893537655472755,0.004837247543036938,-0.01723356358706951,0.014195602387189865,-0.0003777451056521386,0.02233116701245308
0.028563374653458595,0.0037769728805869818,-0.018117351457476616,0.014058117754757404,-0.00044838516623713076,0.022438721731305122
0.0281943641602993,0.0034384438768029213,-0.018471606075763702,0.014080934226512909,-0.0004929029964841902,0.02248196303844452
0.02545480988919735,0.0037182539235800505,-0.017317213118076324,0.014102104119956493,-0.0004987599095329642,0.022253233939409256
0.02799624763429165,0.004005844704806805,-0.01803739182651043,0.01399365533143282,-0.0004941748920828104,0.022343192249536514
0.028536763042211533,0.003953997045755386,-0.017429301515221596,0.013875022530555725,-0.0005214610719121993,0.022388901561498642
0.027772031724452972,0.003796973964199424,-0.01731913723051548,0.013367264531552792,-0.0006972500705160201,0.0226314477622509
0.02803543023765087,0.003793228417634964,-0.017844432964920998,0.013724703341722488,-0.0007786242058500648,0.02212618663907051
0.029082564637064934,0.0038282442837953568,-0.017652716487646103,0.01349629182368517,-0.0007826071232557297,0.022173527628183365
0.029472289606928825,0.003837638534605503,-0.018357636407017708,0.013592490926384926,-0.0007201472180895507,0.02287750504910946
0.02902239002287388,0.0037849675863981247,-0.018008124083280563,0.01327053178101778,-0.0007153911865316331,0.023698920384049416
0.027730818837881088,0.0037669397424906492,-0.01742204651236534,0.014033199287950993,-0.0006696938653476536,0.023527445271611214
0.02822701260447502,0.0037939506582915783,-0.017351776361465454,0.013966251164674759,-0.000673537899274379,0.022578801959753036
0.029077744111418724,0.0037536760792136192,-0.019216304644942284,0.013627192005515099,-0.0006145053775981069,0.0215864609926939
0.028553633019328117,0.0037808450870215893,-0.018441077321767807,0.014166985638439655,-0.0005731896380893886,0.02252529188990593
0.028414558619260788,0.003772654104977846,-0.01741056516766548,0.013769572600722313,-0.0005195452249608934,0.02349564991891384
0.028448358178138733,0.0033992286771535873,-0.018640505149960518,0.013976458460092545,-0.0005473331548273563,0.023197807371616364
0.02870004065334797,0.003285809885710478,-0.018303250893950462,0.013681947253644466,-0.0005705945077352226,0.023515474051237106
0.028857626020908356,0.003434419631958008,-0.017857208847999573,0.01378700789064169,-0.0005744174704886973,0.023928780108690262
0.028748121112585068,0.0038142830599099398,-0.018733631819486618,0.013503499329090118,-0.0005424534901976585,0.02392684854567051
0.028748121112585068,0.0038142830599099398,-0.018733631819486618,0.013503499329090118,-0.0005424534901976585,0.02392684854567051
0.028734320774674416,0.004350167699158192,-0.018810158595442772,0.013685068115592003,-0.0005763671360909939,0.023639922961592674
0.02888103760778904,0.004158750642091036,-0.018406761810183525,0.013901127502322197,-0.0006017337436787784,0.022955290973186493
0.028899934142827988,0.003545535961166024,-0.01897386834025383,0.014521768316626549,-0.0006175316520966589,0.02264334447681904
0.028774701058864594,0.0035068835131824017,-0.018580306321382523,0.014640135690569878,-0.0007098109344951808,0.023029036819934845
0.02874651551246643,0.004223865456879139,-0.018918318673968315,0.01434097159653902,-0.0007832256960682571,0.02378964237868786
0.029256008565425873,0.00410716375336051,-0.019041882827878,0.014277119189500809,-0.0007430504774674773,0.024035638198256493
0.029007358476519585,0.003963727969676256,-0.01846187748014927,0.014388849027454853,-0.0007093538297340274,0.024282541126012802
0.029040971770882607,0.0035249765496701,-0.018544811755418777,0.014907898381352425,-0.0006797355599701405,0.024099498987197876
0.028929155319929123,0.0035024576354771852,-0.019043583422899246,0.015052804723381996,-0.0006162563804537058,0.024089256301522255
0.02972359023988247,0.004171358421444893,-0.01849069632589817,0.014894157648086548,-0.0006001933943480253,0.024118663743138313
0.03023558482527733,0.004064715001732111,-0.01876223273575306,0.015454553999006748,-0.0005864228005520999,0.02403152734041214
0.02977430261671543,0.0038669046480208635,-0.018979545682668686,0.01493262778967619,-0.0005438330117613077,0.023974886164069176
0.028473472222685814,0.004327651113271713,-0.018301276490092278,0.014974103309214115,-0.0005355494795367122,0.02392004057765007
0.029045000672340393,0.004116126336157322,-0.018338367342948914,0.01427486352622509,-0.0005257637822069228,0.024142451584339142
0.030087945982813835,0.003948955796658993,-0.018580397590994835,0.014038381166756153,-0.0005404349649325013,0.024168042466044426
0.02936156466603279,0.004328997805714607,-0.01847987063229084,0.013573197647929192,-0.0005146225448697805,0.024357758462429047
0.030455097556114197,0.004036833066493273,-0.0187644325196743,0.014207280240952969,-0.0005043871351517737,0.024609023705124855
0.03010336309671402,0.003922953270375729,-0.018246077001094818,0.01481866929680109,-0.0005871175671927631,0.02542288415133953
0.0296719241887331,0.003855899441987276,-0.01854311116039753,0.014615249820053577,-0.0006503468612208962,0.02411171980202198
0.029606403782963753,0.0038921337109059095,-0.01855083741247654,0.015026354230940342,-0.0006419069832190871,0.023887446150183678
0.029951952397823334,0.004310802556574345,-0.01881631277501583,0.014566672034561634,-0.000665236497297883,0.024438291788101196
0.030394233763217926,0.004576137289404869,-0.019258541986346245,0.01543284673243761,-0.0006471113883890212,0.024695036932826042
0.030611595138907433,0.004088982939720154,-0.019028859212994576,0.01537709217518568,-0.0007092401501722634,0.024939866736531258
0.030416548252105713,0.004300132393836975,-0.018836410716176033,0.01624826341867447,-0.0007055799942463636,0.025087762624025345
0.030416548252105713,0.004300132393836975,-0.018836410716176033,0.01624826341867447,-0.0007055799942463636,0.025087762624025345
0.030297165736556053,0.004012803081423044,-0.018815021961927414,0.015633370727300644,-0.0007287387852557003,0.024874087423086166
0.030297165736556053,0.004012803081423044,-0.018815021961927414,0.015633370727300644,-0.0007287387852557003,0.024874087423086166
0.030654260888695717,0.004193599335849285,-0.018943004310131073,0.015520485118031502,-0.0006751779583282769,0.024684768170118332
0.03103737160563469,0.004621144384145737,-0.01920371875166893,0.015831543132662773,-0.0006863648886792362,0.024703292176127434
0.031135771423578262,0.004821831826120615,-0.01857130415737629,0.015151548199355602,-0.0006359914550557733,0.02483944222331047
0.03095380775630474,0.0042272605933249,-0.019367799162864685,0.015725931152701378,-0.0006110414396971464,0.025020688772201538
0.031134814023971558,0.0043176691979169846,-0.0194858331233263,0.014649692922830582,-0.000549321819562465,0.025091582909226418
0.03140765801072121,0.004191314335912466,-0.01884017139673233,0.015375380404293537,-0.0005373112508095801,0.02521762251853943
0.03136933967471123,0.004018811509013176,-0.01976124197244644,0.016676750034093857,-0.0005271305562928319,0.025196632370352745
0.031118961051106453,0.0039000133983790874,-0.020136835053563118,0.015794092789292336,-0.0005216014687903225,0.025234345346689224
0.03142427280545235,0.004142810124903917,-0.019224202260375023,0.015499995090067387,-0.0005144174792803824,0.025183234363794327
0.03140965849161148,0.004638411570340395,-0.019368665292859077,0.015252344310283661,-0.0005278402823023498,0.025271162390708923
0.03143860399723053,0.004783674143254757,-0.020349372178316116,0.015771731734275818,-0.0005064246361143887,0.025744913145899773
0.03146547079086304,0.004245633725076914,-0.0196462981402874,0.01526170875877142,-0.0005056223599240184,0.025524595752358437
0.0317867286503315,0.004272534511983395,-0.019033942371606827,0.015518632717430592,-0.0005292425048537552,0.024487674236297607
0.03195580840110779,0.004253054969012737,-0.019750529900193214,0.015020682476460934,-0.0005219713784754276,0.024429330602288246
0.031762175261974335,0.0043267784640192986,-0.02044358290731907,0.015192716382443905,-0.0005473089404404163,0.02485169842839241
0.032154738903045654,0.004220281261950731,-0.019843116402626038,0.015079439617693424,-0.0005755143356509507,0.025634940713644028
0.03202744200825691,0.004837394692003727,-0.020395908504724503,0.015540460124611855,-0.0006868107593618333,0.025328701362013817
0.03246885538101196,0.004029254894703627,-0.019438328221440315,0.01577582024037838,-0.0007457712781615555,0.027074841782450676
0.032429326325654984,0.003819899633526802,-0.019909894093871117,0.015796827152371407,-0.0007608761079609394,0.026331348344683647
0.0324791856110096,0.004255864769220352,-0.02040882594883442,0.015079781413078308,-0.0007564387051388621,0.025813130661845207
0.03252193331718445,0.004085319582372904,-0.020204836502671242,0.015149073675274849,-0.0007064472301863134,0.025114256888628006
0.03265608102083206,0.004033561795949936,-0.020160699263215065,0.015100846998393536,-0.0007317578420042992,0.026146175339818
0.033725839108228683,0.004008349031209946,-0.020334109663963318,0.015697414055466652,-0.0007550927111878991,0.02658328227698803
0.03369900584220886,0.004027708433568478,-0.019926883280277252,0.015394385904073715,-0.0007230158662423491,0.026560423895716667
0.03180382400751114,0.0042637973092496395,-0.019589317962527275,0.015769941732287407,-0.0006916381535120308,0.025979872792959213
0.03277912363409996,0.003992140293121338,-0.020028619095683098,0.01520151924341917,-0.0007029559346847236,0.025778867304325104
0.03370116651058197,0.0038441496435552835,-0.020279591903090477,0.015698228031396866,-0.0006500805611722171,0.025934377685189247
0.03370681032538414,0.004304234404116869,-0.019967159256339073,0.015865549445152283,-0.0006413494702428579,0.026002001017332077
0.03429841622710228,0.004180746152997017,-0.020202845335006714,0.016122916713356972,-0.0005770910647697747,0.026109356433153152
0.03429841622710228,0.004180746152997017,-0.020202845335006714,0.016122916713356972,-0.0005770910647697747,0.026109356433153152
0.03339981287717819,0.003969664219766855,-0.020061474293470383,0.01595575548708439,-0.0006004585884511471,0.02611725591123104
0.03296002373099327,0.004365440458059311,-0.02012011967599392,0.015880592167377472,-0.0005953609943389893,0.02640935778617859
0.03283954784274101,0.004092402756214142,-0.02043168433010578,0.016588814556598663,-0.0005810658913105726,0.02664092555642128
0.03411545231938362,0.004085138440132141,-0.02036934159696102,0.016127534210681915,-0.0006002369336783886,0.026574796065688133
0.03448381647467613,0.00401452137157321,-0.01999839022755623,0.01629173941910267,-0.0006226844852790236,0.02669588476419449
0.03321341425180435,0.004012574441730976,-0.019802048802375793,0.015899067744612694,-0.0006009287899360061,0.026656344532966614
0.03459569066762924,0.00428948737680912,-0.020306434482336044,0.01586262695491314,-0.0006324716960079968,0.026555581018328667
0.034353651106357574,0.004541827831417322,-0.020415764302015305,0.01579234004020691,-0.0006605676026083529,0.027026327326893806
0.033844590187072754,0.004636961501091719,-0.019770164042711258,0.015605411492288113,-0.0006777109811082482,0.026931513100862503
0.03449046611785889,0.004167497623711824,-0.020008614286780357,0.015470062382519245,-0.0009247548296116292,0.02639816142618656
0.03447762876749039,0.004147038795053959,-0.020509667694568634,0.015311701223254204,-0.000951835885643959,0.0267497505992651
0.03378872200846672,0.00453255046159029,-0.019836347550153732,0.01599499210715294,-0.0009466823539696634,0.02703312411904335
0.034501392394304276,0.004283536691218615,-0.019809776917099953,0.015948748216032982,-0.0008877705549821258,0.026836751028895378
0.034677766263484955,0.004343428649008274,-0.02025049552321434,0.01643851399421692,-0.0009578234748914838,0.026706544682383537
0.034782957285642624,0.004282535519450903,-0.02021057717502117,0.016151608899235725,-0.0008145836181938648,0.02663135528564453
0.034467604011297226,0.004421967547386885,-0.01967514678835869,0.01661941409111023,-0.0008185684564523399,0.026939840987324715
0.03450410068035126,0.004396174103021622,-0.020012618973851204,0.01660868152976036,-0.000775071035604924,0.02802209183573723
0.03569025918841362,0.00407182052731514,-0.019922731444239616,0.016490474343299866,-0.0007356048445217311,0.027653289958834648
0.03413739427924156,0.004084940068423748,-0.02028750441968441,0.01656554825603962,-0.0006827323231846094,0.026453157886862755
0.035095054656267166,0.003943733870983124,-0.02039065957069397,0.016813775524497032,-0.00060267437947914,0.02669260837137699
0.03452230617403984,0.004332906100898981,-0.019684359431266785,0.016016719862818718,-0.0005195833509787917,0.027686813846230507
0.03534547984600067,0.00452784588560462,-0.02032754383981228,0.016132384538650513,-0.000532830017618835,0.026911664754152298
0.03611788526177406,0.0047020274214446545,-0.020587600767612457,0.01617405377328396,-0.0005445182323455811,0.0274216216057539
0.03597017377614975,0.004427584819495678,-0.02043592743575573,0.01683064177632332,-0.000536278064828366,0.02824508585035801
0.033737920224666595,0.00443248962983489,-0.020004678517580032,0.01761803776025772,-0.0005624116747640073,0.027324412018060684
0.033737920224666595,0.00443248962983489,-0.020004678517580032,0.01761803776025772,-0.0005624116747640073,0.027324412018060684
0.0357222743332386,0.004612371325492859,-0.019908597692847252,0.01710537075996399,-0.0007338970899581909,0.02698196843266487
0.0357222743332386,0.004612371325492859,-0.019908597692847252,0.01710537075996399,-0.0007338970899581909,0.02698196843266487
0.03516286611557007,0.004858449567109346,-0.020847223699092865,0.01619013398885727,-0.000674137962050736,0.02711930312216282
0.03517390415072441,0.0046892049722373486,-0.02068175934255123,0.01619977317750454,-0.0006741535617038608,0.028181182220578194
0.03494824841618538,0.004912564530968666,-0.021221132948994637,0.016287587583065033,-0.000629281799774617,0.02845720201730728
0.0350855253636837,0.00484809372574091,-0.020877987146377563,0.016309404745697975,-0.0006334121571853757,0.027795106172561646
0.035231638699769974,0.004780188202857971,-0.020587770268321037,0.016823962330818176,-0.0005992802907712758,0.027900589630007744
0.03536045923829079,0.004476703237742186,-0.021154332906007767,0.017876597121357918,-0.0005837398348376155,0.027902090921998024
0.03529369831085205,0.004555113147944212,-0.02133609540760517,0.01623922772705555,-0.0005431690369732678,0.027671126648783684
0.035230424255132675,0.00502955773845315,-0.020758865401148796,0.015291718766093254,-0.0005765166133642197,0.02824389562010765
0.035295452922582626,0.004985297564417124,-0.020857052877545357,0.016804449260234833,-0.0005685764481313527,0.02862442098557949
0.036078598350286484,0.0046580396592617035,-0.020892515778541565,0.017098192125558853,-0.0005568676278926432,0.028586575761437416
0.035740405321121216,0.004423679318279028,-0.021026749163866043,0.01736212521791458,-0.0005772729055024683,0.0286695659160614
0.03548399731516838,0.004371862392872572,-0.020236821845173836,0.017295464873313904,-0.0006251373561099172,0.028615182265639305
0.03563893213868141,0.004551558755338192,-0.02136092446744442,0.016516387462615967,-0.0006199413328431547,0.028539765626192093
0.03483232110738754,0.0047529605217278,-0.02130778878927231,0.017301902174949646,-0.0006512491963803768,0.02844390831887722
0.036570899188518524,0.005217974539846182,-0.02067520096898079,0.016806213185191154,-0.0006715163472108543,0.028963688760995865
0.0367022380232811,0.004415394738316536,-0.020335037261247635,0.01670587807893753,-0.0006820910493843257,0.028846150264143944
0.036095768213272095,0.004493532236665487,-0.02087407559156418,0.016660640016198158,-0.0006480334559455514,0.02869519218802452
0.03636918216943741,0.0047370619140565395,-0.021232757717370987,0.01645309291779995,-0.0007222463027574122,0.02911371737718582
0.03669843077659607,0.005075038876384497,-0.02131987176835537,0.017392627894878387,-0.0007407303783111274,0.029214506968855858
0.03674381226301193,0.004904111381620169,-0.021550631150603294,0.017053691670298576,-0.0007625194266438484,0.029539771378040314
0.036590706557035446,0.004709307570010424,-0.021461330354213715,0.01731753535568714,-0.000710240681655705,0.0293778907507658
0.03619275614619255,0.004751957952976227,-0.020625464618206024,0.017185617238283157,-0.0007356249843724072,0.029450751841068268
0.03623780980706215,0.0047420309856534,-0.02148185856640339,0.017185622826218605,-0.0007575275376439095,0.029008809477090836
0.03671818599104881,0.00474247382953763,-0.021859854459762573,0.016910456120967865,-0.0007323838071897626,0.0300042275339365
0.03785467520356178,0.00473717600107193,-0.02121216058731079,0.01680845580995083,-0.0007000947371125221,0.02941252291202545
0.03785467520356178,0.00473717600107193,-0.02121216058731079,0.01680845580995083,-0.0007000947371125221,0.02941252291202545
0.03733649477362633,0.00508133927360177,-0.021242214366793633,0.01670815981924534,-0.0007167899748310447,0.029707351699471474
0.0359346941113472,0.004924957174807787,-0.02168925665318966,0.016634643077850342,-0.0007580706151202321,0.0304667130112648
0.03654498979449272,0.004631867632269859,-0.02189658209681511,0.01704862155020237,-0.0008079862454906106,0.02973523922264576
0.03634633496403694,0.004763920325785875,-0.021475475281476974,0.016568517312407494,-0.0008786212420091033,0.028778547421097755
0.037084758281707764,0.00522052776068449,-0.021290594711899757,0.01697695441544056,-0.0008361888467334211,0.028855158016085625
0.038659486919641495,0.004948186222463846,-0.02187894657254219,0.016579020768404007,-0.0010028642136603594,0.03021794930100441
0.03767477720975876,0.005517446901649237,-0.022243216633796692,0.016738930717110634,-0.0009818432154133916,0.02985738217830658
0.03615802899003029,0.005110979080200195,-0.021938806399703026,0.016781335696578026,-0.0008478868985548615,0.030064698308706284
0.03753006458282471,0.00475901085883379,-0.021400239318609238,0.0171587523072958,-0.0008467358420602977,0.03078758902847767
0.03840519115328789,0.0050220489501953125,-0.021706076338887215,0.01811312884092331,-0.0008312069112434983,0.030499335378408432
0.03780931234359741,0.004847927950322628,-0.022384200245141983,0.017928743734955788,-0.000766984187066555,0.029513387009501457
0.03800741210579872,0.004730135668069124,-0.022277357056736946,0.01789495348930359,-0.0006665916298516095,0.028922591358423233
0.03801453113555908,0.005156044848263264,-0.02156974747776985,0.01826469786465168,-0.0006646550609730184,0.0299221258610487
0.03757980465888977,0.004858831409364939,-0.021565448492765427,0.018078653141856194,-0.0006638619815930724,0.03082696907222271
0.038477808237075806,0.0046089584939181805,-0.022658612579107285,0.01817801408469677,-0.0007093259482644498,0.03114003874361515
0.03800586611032486,0.004436724819242954,-0.0234027449041605,0.018004341050982475,-0.000808060634881258,0.03051949106156826
0.037817176431417465,0.004727176856249571,-0.022391710430383682,0.01782362349331379,-0.0009374184883199632,0.030429083853960037
0.037684619426727295,0.005150636658072472,-0.021989312022924423,0.017859376966953278,-0.000948731554672122,0.02992977201938629
0.038428500294685364,0.005045407451689243,-0.022251201793551445,0.017419949173927307,-0.0009432729566469789,0.030608968809247017
0.03897815942764282,0.004848031792789698,-0.022722182795405388,0.01726350001990795,-0.001000428688712418,0.030670292675495148
0.03717511147260666,0.004675569012761116,-0.022782394662499428,0.01691153459250927,-0.0008705412037670612,0.03041987121105194
0.03830292075872421,0.004802714567631483,-0.022375645115971565,0.017241381108760834,-0.0008697410812601447,0.03072943165898323
0.037894248962402344,0.005129000172019005,-0.02316477708518505,0.01729629747569561,-0.000865550187882036,0.03097004070878029
0.03905953839421272,0.005372049752622843,-0.023675229400396347,0.017956722527742386,-0.0007932643638923764,0.030974289402365685
0.03919896110892296,0.005590020213276148,-0.02408868633210659,0.018980978056788445,-0.0006991669069975615,0.030433593317866325
0.037374187260866165,0.005040251184254885,-0.023589352145791054,0.018531136214733124,-0.000710486841853708,0.032006826251745224
0.037288494408130646,0.004491103813052177,-0.022719673812389374,0.018265921622514725,-0.0007180965621955693,0.03193501755595207
0.037288494408130646,0.004491103813052177,-0.022719673812389374,0.018265921622514725,-0.0007180965621955693,0.03193501755595207
0.038807157427072525,0.004983182996511459,-0.02350929193198681,0.017182664945721626,-0.0006844362942501903,0.03166939318180084
0.038807157427072525,0.004983182996511459,-0.02350929193198681,0.017182664945721626,-0.0006844362942501903,0.03166939318180084
0.03885674849152565,0.0053146155551075935,-0.02413088083267212,0.01710081659257412,-0.0006833861116319895,0.031656816601753235
0.03863491490483284,0.005578272044658661,-0.024290122091770172,0.016955696046352386,-0.0006436957628466189,0.031652044504880905
0.038440920412540436,0.004624813329428434,-0.02342863380908966,0.01792636327445507,-0.0006635088939219713,0.030811648815870285
0.03930739313364029,0.004544493742287159,-0.02351679466664791,0.018530283123254776,-0.0006510032690130174,0.03200845792889595
0.039303794503211975,0.004638150334358215,-0.023897800594568253,0.01797156035900116,-0.0006299890228547156,0.03287722170352936
0.03909361734986305,0.00531136617064476,-0.024250399321317673,0.018564527854323387,-0.0006516068242490292,0.0321911945939064
0.03900352865457535,0.005276995245367289,-0.02430042438209057,0.01872626133263111,-0.0007038679905235767,0.030730681493878365
0.03928472474217415,0.00508852768689394,-0.024143412709236145,0.0187542624771595,-0.000734763394575566,0.0313679575920105
0.039916809648275375,0.00512992637231946,-0.023923320695757866,0.01885071024298668,-0.0006737767835147679,0.032296303659677505
0.03938554972410202,0.004977453965693712,-0.02382410690188408,0.01810058020055294,-0.0006935006240382791,0.03242611140012741
