davideferrari95/blind_handover_controller/data/Test 95 - [2024-02-07 -- 16-13-36]/joint_states_data.csv
shoulder_pan_joint,shoulder_lift_joint,elbow_joint,wrist_1_joint,wrist_2_joint,wrist_3_joint
0.004163407254964113,0.005871299654245377,-0.008237610571086407,0.0020264857448637486,0.000287115341052413,0.0030193335842341185
0.004163407254964113,0.005871299654245377,-0.008237610571086407,0.0020264857448637486,0.000287115341052413,0.0030193335842341185
0.004163407254964113,0.005871299654245377,-0.008237610571086407,0.0020264857448637486,0.000287115341052413,0.0030193335842341185
0.004219412337988615,0.005658604204654694,-0.007656597997993231,0.0017689536325633526,0.00027821859112009406,0.003391728037968278
0.003981645219027996,0.00630335183814168,-0.00723695382475853,0.0016352044185623527,0.0002680047182366252,0.0032501178793609142
0.003946487791836262,0.006136518437415361,-0.007610120344907045,0.0016201132675632834,0.00025839530280791223,0.0031681645195931196
0.004010991659015417,0.0059610288590192795,-0.007564231753349304,0.0018300559604540467,0.00024944162578321993,0.003129841759800911
0.004068660084158182,0.005909262225031853,-0.007166384253650904,0.00202256441116333,0.000267672905465588,0.0031721126288175583
0.004019471816718578,0.0060197836719453335,-0.006931879557669163,0.001958041451871395,0.00026132268249057233,0.003221152350306511
0.004005785565823317,0.005729268305003643,-0.007518508471548557,0.001735342782922089,0.00023466946731787175,0.003212331561371684
0.0035247185733169317,0.005773703567683697,-0.007085181772708893,0.0015984347555786371,0.0002230376994702965,0.003073211759328842
0.003575433511286974,0.005662399344146252,-0.006960164289921522,0.0016284785233438015,0.00025209030718542635,0.0030356040224432945
0.003729010932147503,0.006033400539308786,-0.007094614673405886,0.0015629730187356472,0.00024331007443834096,0.003090732730925083
0.0033986575435847044,0.0058138687163591385,-0.007637650705873966,0.0016803762409836054,0.00023297974257729948,0.0031210649758577347
0.0033724792301654816,0.006001665256917477,-0.007007488515228033,0.0015554499113932252,0.00022335199173539877,0.0033762420061975718
0.003420841647312045,0.0056374953128397465,-0.00736503629013896,0.0015758827794343233,0.00021447964536491781,0.003406941657885909
0.003411088837310672,0.005715427920222282,-0.0067426166497170925,0.0016254307702183723,0.00023170954955276102,0.00306509155780077
0.003488728078082204,0.005590461194515228,-0.007208684924989939,0.0017268123337998986,0.00023122434504330158,0.0029760238248854876
0.003237591590732336,0.005596131552010775,-0.00668643182143569,0.0016429811948910356,0.00022354302927851677,0.0030620263423770666
0.003435021499171853,0.005773577373474836,-0.0067127905786037445,0.0015182074857875705,0.0002159151335945353,0.003098896937444806
0.003231726586818695,0.0057390592992305756,-0.007076294161379337,0.0014633304672315717,0.00020876181952189654,0.0035642199218273163
0.0034963178914040327,0.006077065132558346,-0.007752625737339258,0.0014651749515905976,0.0002020653337240219,0.0033922442235052586
0.0032197090331465006,0.005541305523365736,-0.007104010321199894,0.0014153341762721539,0.00019578519277274609,0.0031246300786733627
0.0033805896528065205,0.005849354434758425,-0.007164069451391697,0.0013778035063296556,0.00018988361989613622,0.0030209871474653482
0.0033805896528065205,0.005849354434758425,-0.007164069451391697,0.0013778035063296556,0.00018988361989613622,0.0030209871474653482
0.003477987600490451,0.005939998663961887,-0.006419168785214424,0.0014314946020022035,0.00020383110677357763,0.003122747642919421
0.003446967341005802,0.005982539616525173,-0.006377835758030415,0.0015135770663619041,0.00020422539091669023,0.003137856489047408
0.0034163768868893385,0.0055578723549842834,-0.006961936596781015,0.0015066888881847262,0.00019898412574548274,0.003472714452072978
0.0032061368692666292,0.005679640918970108,-0.006715242750942707,0.001578239956870675,0.00019365861953701824,0.0036868650931864977
0.003452262608334422,0.005437004845589399,-0.006391259841620922,0.0015358255477622151,0.00018881239520851523,0.0034663714468479156
0.0037617571651935577,0.005756027065217495,-0.0062796976417303085,0.0015100400196388364,0.00019156327471137047,0.003036471316590905
0.003400244051590562,0.005753625649958849,-0.007054786663502455,0.0013984603574499488,0.00018441681459080428,0.002919354708865285
0.0035671968944370747,0.005790386348962784,-0.0069487071596086025,0.001465566921979189,0.00017720003961585462,0.002813081257045269
0.0037368405610322952,0.005726553499698639,-0.006117114797234535,0.0014354938175529242,0.00017048802692443132,0.003098582848906517
0.0033407346345484257,0.005819525569677353,-0.006072185002267361,0.0016928238328546286,0.00016426399815827608,0.0033444720320403576
0.0032534452620893717,0.006264806259423494,-0.0068298871628940105,0.0016552982851862907,0.0001859687763499096,0.0033732166048139334
0.003569121705368161,0.005609887186437845,-0.005775996949523687,0.0017716140719130635,0.00017764097719918936,0.0030113577377051115
0.003481371561065316,0.005189868621528149,-0.005854492075741291,0.001773458905518055,0.0001719983556540683,0.0029224210884422064
0.003533332608640194,0.005800149403512478,-0.005766259040683508,0.001779327867552638,0.00016668940952513367,0.002895697019994259
0.0037638721987605095,0.005520186852663755,-0.006709393113851547,0.0017173984088003635,0.00016169794253073633,0.003299958072602749
0.0034553739242255688,0.005929448641836643,-0.006578057538717985,0.0016037214081734419,0.0001569964224472642,0.003157088067382574
0.003610227257013321,0.005370050203055143,-0.006069046910852194,0.001610325532965362,0.0001525603438494727,0.003188659669831395
0.0037021590396761894,0.005263604689389467,-0.0054819099605083466,0.0017216830747202039,0.00014836863556411117,0.002888413844630122
0.0038761531468480825,0.005523509345948696,-0.005774952005594969,0.0018275529146194458,0.00014440080849453807,0.002848958596587181
0.003470002906396985,0.00563681498169899,-0.006091180257499218,0.002137158066034317,0.00014063976414036006,0.00282334815710783
0.0035266864579170942,0.005813117139041424,-0.006135798990726471,0.0021569279488176107,0.0001370696845697239,0.003056486137211323
0.0036410538014024496,0.005492593161761761,-0.0059277368709445,0.00196669390425086,0.0001530234148958698,0.003245485480874777
0.0033606148790568113,0.005603048950433731,-0.005989416502416134,0.0017979956464841962,0.00015199676272459328,0.0034556477330625057
0.0033318172208964825,0.005580362863838673,-0.006086819805204868,0.0017975916853174567,0.00014858576469123363,0.003290673019364476
0.0034989402629435062,0.0055449120700359344,-0.006261581089347601,0.001806396758183837,0.00014517312229145318,0.0032338155433535576
0.0036651473492383957,0.0054261162877082825,-0.005593194160610437,0.0018245256505906582,0.0001419039472239092,0.003244397696107626
0.003639398142695427,0.005873499903827906,-0.005840999074280262,0.0017308053793385625,0.00013877807941753417,0.0029720086604356766
0.003586180042475462,0.005582304205745459,-0.006406160071492195,0.0018349627498537302,0.00013578675861936063,0.003006866667419672
0.003516971366479993,0.00568723538890481,-0.0065138619393110275,0.0017483422998338938,0.00013292166113387793,0.003028738545253873
0.003516971366479993,0.00568723538890481,-0.0065138619393110275,0.0017483422998338938,0.00013292166113387793,0.003028738545253873
0.0034406371414661407,0.005253278184682131,-0.006542917340993881,0.0019487329991534352,0.00014396989718079567,0.0033270674757659435
0.003503069980069995,0.005750282667577267,-0.006270657759159803,0.002025573281571269,0.00014544591249432415,0.003268521511927247
0.003796471282839775,0.005794959608465433,-0.005491504445672035,0.0022477416787296534,0.00014284685312304646,0.003389899618923664
0.003907651640474796,0.0055402047000825405,-0.005929635372012854,0.0022638163063675165,0.00014008628204464912,0.0031493601854890585
0.003550642402842641,0.004940208047628403,-0.005957943852990866,0.0022615708876401186,0.00013741370639763772,0.0032150130718946457
0.003489750437438488,0.004982993938028812,-0.006527004763484001,0.0020914787892252207,0.00013484036026056856,0.0032677568960934877
0.003341609612107277,0.005421395413577557,-0.006801755167543888,0.0019491639686748385,0.000132361616124399,0.0031453093979507685
0.0035441010259091854,0.005624742247164249,-0.005926609504967928,0.0018381928093731403,0.00012997204612474889,0.003014452289789915
0.0036601596511900425,0.004990127868950367,-0.006475723814219236,0.0020733277779072523,0.0001254431699635461,0.002732097404077649
0.003657703986391425,0.004695545881986618,-0.0064552598632872105,0.002036141697317362,0.0001232950307894498,0.0030365479178726673
0.0036702898796647787,0.0053172060288488865,-0.006265975069254637,0.0019919483456760645,0.00012121924373786896,0.0030668070539832115
0.004213172476738691,0.005627630278468132,-0.006228772923350334,0.0019589075818657875,0.00011921229452127591,0.002822521375492215
0.003604513593018055,0.005616053473204374,-0.005783736240118742,0.002061022212728858,0.00011727053060894832,0.002721329452469945
0.0035918434150516987,0.005096347536891699,-0.005688580684363842,0.0018981884932145476,0.00011350814020261168,0.0029968619346618652
0.004156878218054771,0.004753410816192627,-0.005987535696476698,0.0018821697449311614,0.00011023900151485577,0.003200988285243511
0.004168188199400902,0.005235958378762007,-0.006053851917386055,0.0018275639740750194,0.00010757183190435171,0.003417882602661848
0.0035450963769108057,0.0050773038528859615,-0.006142537575215101,0.0019689721520990133,0.00010505811223993078,0.0032534711062908173
0.0035970837343484163,0.005544271785765886,-0.005931761581450701,0.001878303475677967,0.00010266120807500556,0.0030227976385504007
0.004240025766193867,0.005306038539856672,-0.00619723042473197,0.0020778991747647524,0.00010037121683126315,0.0028517316095530987
0.004109409172087908,0.004864811431616545,-0.006512160878628492,0.0019358067074790597,9.818127728067338e-05,0.003196192905306816
0.0037696026265621185,0.004640507977455854,-0.006084803957492113,0.0020241192542016506,0.00010553532774792984,0.0031650494784116745
0.0036402202676981688,0.004728351719677448,-0.0058821733109653,0.002053743926808238,0.00011225361959077418,0.002991253277286887
0.003893328132107854,0.004776390269398689,-0.005617714952677488,0.002084592590108514,0.00011053795606130734,0.0029843084048479795
0.0038902044761925936,0.005275039467960596,-0.006694451905786991,0.0018860572017729282,0.00010835780267370865,0.0028368334751576185
0.003696075174957514,0.005556677933782339,-0.007401240989565849,0.0016972272424027324,0.00010622858826536685,0.0028180910740047693
0.003696075174957514,0.005556677933782339,-0.007401240989565849,0.0016972272424027324,0.00010622858826536685,0.0028180910740047693
0.00365299335680902,0.005212170071899891,-0.006559903733432293,0.0016552660381421447,0.00010417916200822219,0.0027252582367509604
0.0038275765255093575,0.004804401192814112,-0.006325671449303627,0.0016402751207351685,0.00010220739932265133,0.0029312747064977884
0.003987177740782499,0.0046827285550534725,-0.005932975560426712,0.0017428189748898149,0.00010030871635535732,0.002936471253633499
0.004284989554435015,0.004747506231069565,-0.006696047727018595,0.002016466809436679,9.847950423136353e-05,0.002847786992788315
0.004034896846860647,0.005746558308601379,-0.006466724909842014,0.0019347099587321281,0.00010464990191394463,0.0027805313002318144
0.003971324302256107,0.00545579893514514,-0.006271424703299999,0.0016982987290248275,0.00011031504982383922,0.0028559158090502024
0.003989509306848049,0.004964816849678755,-0.00621752580627799,0.001694376696832478,0.00010889807163039222,0.0027860566042363644
0.0040634977631270885,0.004609410185366869,-0.006519745569676161,0.0017150070052593946,0.00010707905312301591,0.0025434258859604597
0.004426905885338783,0.004595442675054073,-0.006707219872623682,0.00181100913323462,0.0001052915831678547,0.0026773791760206223
0.004435541108250618,0.004675743635743856,-0.006128259934484959,0.0018244251841679215,0.00010356085113016888,0.003001727629452944
0.003997555002570152,0.004750709980726242,-0.006374326068907976,0.0019024582579731941,0.00010188596934312955,0.003229220863431692
0.004324303939938545,0.00512911519035697,-0.0064466726034879684,0.002119586803019047,0.00010026458039646968,0.003033636137843132
0.004093097988516092,0.004977143835276365,-0.007236008066684008,0.001958992797881365,9.869373025139794e-05,0.002777703106403351
0.003856813535094261,0.004601185210049152,-0.0067117721773684025,0.0018222504295408726,9.717151988297701e-05,0.0026748485397547483
0.004600842483341694,0.004845691379159689,-0.006492221727967262,0.0016693307552486658,0.00010597065556794405,0.002887903479859233
0.004729283973574638,0.004839311353862286,-0.006858898792415857,0.0018063877942040563,0.00010602696420392022,0.002963384846225381
0.004307536408305168,0.0047757611609995365,-0.007555277086794376,0.0016814806731417775,0.00010459235636517406,0.003018087474629283
0.004404905252158642,0.004945311229676008,-0.0068352422676980495,0.001714145764708519,0.00010310146899428219,0.0029986766166985035
0.004340674728155136,0.005226610694080591,-0.0062365164048969746,0.0016269197221845388,0.00010164637205889449,0.002746491227298975
0.004394338466227055,0.004621534142643213,-0.006440524943172932,0.001584648503921926,0.0001002314529614523,0.0025588315911591053
0.0046166651882231236,0.004467808175832033,-0.00683484086766839,0.0016742452280595899,9.885526378639042e-05,0.0025779397692531347
0.004711204208433628,0.004582162946462631,-0.00745421601459384,0.001770351780578494,9.751644392963499e-05,0.002605888992547989
0.0050125629641115665,0.005139587912708521,-0.006701365578919649,0.0019165613921359181,9.621328354114667e-05,0.0026479230728000402
0.0044134738855063915,0.005062954034656286,-0.006555795203894377,0.0017477321671321988,9.494460391579196e-05,0.0029279543086886406
0.004388932604342699,0.004729681182652712,-0.006882129702717066,0.0018528823275119066,9.370886255055666e-05,0.0031585197430104017
0.004528759978711605,0.004677432589232922,-0.007049730978906155,0.0019720769487321377,0.00011056980292778462,0.0028421583119779825
0.004521273076534271,0.004840598441660404,-0.006711101625114679,0.002225103322416544,0.00011366671969881281,0.00258087576366961
0.0048270332626998425,0.0045820195227861404,-0.0066253794357180595,0.0022487251553684473,0.00011124146840302274,0.0023573902435600758
0.004703644663095474,0.005010209046304226,-0.005941788665950298,0.002158650429919362,0.00010858232417376712,0.002138762269169092
0.004703644663095474,0.005010209046304226,-0.005941788665950298,0.002158650429919362,0.00010858232417376712,0.002138762269169092
0.004814066458493471,0.005001785699278116,-0.00772511214017868,0.0020118430256843567,0.00010602551628835499,0.0021441811695694923
0.004766292404383421,0.004883699584752321,-0.0072585162706673145,0.001953102182596922,0.00010358490544604138,0.002240866655483842
0.004885457456111908,0.005038991570472717,-0.006325684022158384,0.0019202760886400938,0.00010125407425221056,0.0022875238209962845
0.004417885094881058,0.00481306342408061,-0.006284699775278568,0.0019095841562375426,9.902579768095165e-05,0.0024958637077361345
0.004392645321786404,0.004721547942608595,-0.007278145756572485,0.0019730597268790007,9.689362195786089e-05,0.0023455379996448755
0.005084152799099684,0.004451690707355738,-0.007509716786444187,0.001961981877684593,9.485122427577153e-05,0.0022099725902080536
0.005211411044001579,0.005075717344880104,-0.006474887952208519,0.0018996186554431915,9.28929730434902e-05,0.0021934625692665577
0.00454776780679822,0.005398112814873457,-0.0063912938348948956,0.0019471014384180307,9.101429168367758e-05,0.002172943204641342
0.0049587273970246315,0.004528563003987074,-0.007498579565435648,0.0020127336028963327,8.747575338929892e-05,0.0026416070759296417
0.004764719400554895,0.004455518908798695,-0.0063433339819312096,0.0019749964121729136,0.00010072036820929497,0.002687216503545642
0.0046075512655079365,0.004085575230419636,-0.006433198228478432,0.0019423747435212135,0.00010089565330417827,0.0029454915784299374
0.005150326527655125,0.004437549971044064,-0.006765729282051325,0.0019772949162870646,9.917693387251347e-05,0.002937043085694313
0.005043288227170706,0.004701399710029364,-0.007550990208983421,0.0020071971230208874,9.739697998156771e-05,0.002883890178054571
0.005341059062629938,0.0045990110374987125,-0.007706781383603811,0.002258271910250187,9.567190863890573e-05,0.0026778224855661392
0.005517070647329092,0.0044310614466667175,-0.006763933692127466,0.002458578674122691,9.400643466506153e-05,0.0026202078443020582
0.004690673667937517,0.0044725206680595875,-0.00660244096070528,0.0024009060580283403,9.239791688742116e-05,0.0023364825174212456
0.004591518547385931,0.004806907847523689,-0.007607299368828535,0.0024035507813096046,9.084340854315087e-05,0.0022662142291665077
0.0051360842771828175,0.00462819030508399,-0.007623256649821997,0.0021932136733084917,8.934059587772936e-05,0.0022750201169401407
0.005016986280679703,0.00495555717498064,-0.007379970978945494,0.002160195726901293,8.788645936874673e-05,0.002203639829531312
0.005075361579656601,0.00494355708360672,-0.006910156458616257,0.00201595900580287,8.647899812785909e-05,0.0022729593329131603
0.00543066393584013,0.004779537208378315,-0.007284034974873066,0.002232781145721674,8.511587657267228e-05,0.0021665848325937986
0.0051404498517513275,0.004678264260292053,-0.007318017538636923,0.0022941927891224623,8.37950938148424e-05,0.002223973860964179
0.005197713151574135,0.004666767083108425,-0.007198880426585674,0.0022990673314779997,8.251463441411033e-05,0.002065408043563366
0.005492640193551779,0.004662893712520599,-0.0067097218707203865,0.002366783330217004,8.127271576086059e-05,0.0021627338137477636
0.005618084687739611,0.00478845089673996,-0.007099087815731764,0.0022237279918044806,8.006769348867238e-05,0.0022351054940372705
0.00508006801828742,0.005127399694174528,-0.008135369047522545,0.002325192792341113,7.889789412729442e-05,0.002194585744291544
0.004816281143575907,0.004862209782004356,-0.007805389817804098,0.002419831929728389,7.776171696605161e-05,0.002116735093295574
0.005652257706969976,0.004337733145803213,-0.006761449389159679,0.002321354579180479,7.665779412491247e-05,0.0020507536828517914
0.005652257706969976,0.004337733145803213,-0.006761449389159679,0.002321354579180479,7.665779412491247e-05,0.0020507536828517914
0.005665487144142389,0.004506723489612341,-0.006839441135525703,0.0024440553970634937,7.558482320746407e-05,0.001989341340959072
0.005677183624356985,0.004515947308391333,-0.007528366986662149,0.0025202243123203516,7.454150181729347e-05,0.002018923405557871
0.005468448624014854,0.005183807574212551,-0.007068111561238766,0.002424428006634116,7.352653483394533e-05,0.002046993700787425
0.0056522381491959095,0.00530470535159111,-0.0072633796371519566,0.00241196621209383,7.253884541569278e-05,0.0019995621405541897
0.005356339737772942,0.004842367488890886,-0.007962142117321491,0.0022159735672175884,7.157733489293605e-05,0.00196096976287663
0.005739883985370398,0.004783302079886198,-0.00821724534034729,0.0022446538787335157,7.064101373543963e-05,0.0018660030327737331
0.005812198389321566,0.004810428712517023,-0.007109096739441156,0.0025038872845470905,6.972887058509514e-05,0.001633581006899476
0.00575542077422142,0.004913431126624346,-0.006771172396838665,0.0026799901388585567,6.883995229145512e-05,0.0016410810640081763
0.0055457428097724915,0.004896453116089106,-0.007391053251922131,0.0027723510283976793,6.797340756747872e-05,0.0016768646892160177
0.00552584370598197,0.005213929805904627,-0.0077125318348407745,0.0026818965561687946,6.712844333378598e-05,0.0017345828237012029
0.005963570438325405,0.004987738560885191,-0.007843400351703167,0.002493819920346141,6.549998215632513e-05,0.001874072477221489
0.006247126962989569,0.004944207612425089,-0.00837534386664629,0.0026780227199196815,6.471503002103418e-05,0.0017626716289669275
0.0056318845599889755,0.004857031628489494,-0.008046967908740044,0.0025118356570601463,7.186702714534476e-05,0.00170966109726578
0.005865799728780985,0.00511790718883276,-0.0070854732766747475,0.0025637648068368435,7.35547291697003e-05,0.0016616035718470812
0.005869189742952585,0.005426603835076094,-0.0074271936900913715,0.0024131257086992264,7.286893378477544e-05,0.0015363239217549562
0.0065187024883925915,0.004931483417749405,-0.008414397947490215,0.002253869315609336,7.204637950053439e-05,0.0016219427343457937
0.006396929733455181,0.004912295378744602,-0.00797280389815569,0.002329724607989192,7.123254181351513e-05,0.002011942444369197
0.0060296389274299145,0.0049910470843315125,-0.007430063560605049,0.002520965412259102,7.043617370072752e-05,0.0019157422939315438
0.006098397076129913,0.004826399497687817,-0.007620413787662983,0.0025693329516798258,6.965742068132386e-05,0.0018016310641542077
0.006557331420481205,0.0047809043899178505,-0.007740574423223734,0.002573732752352953,4.548131983028725e-06,0.0017671578098088503
0.006419685669243336,0.00570468045771122,-0.007327123079448938,0.002610128140076995,2.9696047931793146e-07,0.0016302702715620399
0.006346671376377344,0.00516857486218214,-0.007301495876163244,0.002681159181520343,1.9389398531188817e-08,0.0015440357383340597
0.006295932922512293,0.004899185616523027,-0.007394734770059586,0.0028951275162398815,1.2659890913369054e-09,0.0014958333922550082
0.005696954671293497,0.00484347203746438,-0.008014975115656853,0.0031540622003376484,8.266003853618642e-11,0.0015671488363295794
0.00703985383734107,0.004884590860456228,-0.007624419406056404,0.0029803274665027857,5.397109408694645e-12,0.0017245769267901778
0.006464935373514891,0.005672907456755638,-0.007310663349926472,0.002936185570433736,3.523926755868295e-13,0.0019703665748238564
0.0058429911732673645,0.005418887361884117,-0.007237655110657215,0.00280374544672668,2.3008723358118773e-14,0.0018966308562085032
0.006130415014922619,0.004983535036444664,-0.007660071365535259,0.0029573547653853893,1.5023052585467524e-15,0.0019585301633924246
0.006432306487113237,0.005147485062479973,-0.008101696148514748,0.0029769029933959246,9.80897968063921e-17,0.0015394521178677678
0.006578272674232721,0.005118261091411114,-0.007872015237808228,0.0025707362219691277,6.404562525158187e-18,0.0013788584619760513
0.006578272674232721,0.005118261091411114,-0.007872015237808228,0.0025707362219691277,6.404562525158187e-18,0.0013788584619760513
0.0066382684744894505,0.0049568354152143,-0.007954878732562065,0.002479972317814827,4.1817216308702163e-19,0.0012857358669862151
0.006783169694244862,0.005188439041376114,-0.007867220789194107,0.0025047052185982466,2.7303651976158497e-20,0.0010298932902514935
0.006744591519236565,0.005065372679382563,-0.007531582843512297,0.0027164884377270937,1.7827335573328548e-21,0.0008957957033999264
0.006357809063047171,0.005277308635413647,-0.00690668448805809,0.0027657293248921633,1.1639975871382395e-22,0.0011184938484802842
0.006600531749427319,0.005060708615928888,-0.006910724099725485,0.0030342594254761934,7.60007213207286e-24,0.0020065850112587214
0.006808814592659473,0.004848770797252655,-0.00765108922496438,0.002905207686126232,4.962303886313355e-25,0.0019461412448436022
0.006769611034542322,0.004767940379679203,-0.00801859050989151,0.0025617771316319704,3.2400295395951613e-26,0.0016511949943378568
0.006280767265707254,0.0051447125151753426,-0.007645617239177227,0.0025374593678861856,2.1155078954980212e-27,0.0014454313786700368
0.006235230248421431,0.005471640266478062,-0.006753601599484682,0.0025916583836078644,1.3812756320376888e-28,0.0013272118521854281
0.007332497276365757,0.004937839228659868,-0.008054806850850582,0.0026491438038647175,5.888593811461178e-31,0.0011529240291565657
0.0069167171604931355,0.004487171769142151,-0.007975591346621513,0.0026088415179401636,3.8448313141773175e-32,0.00125535496044904
0.0066389176063239574,0.004488818347454071,-0.007153999526053667,0.002586177783086896,2.51040024562447e-33,0.0016874328721314669
0.006848268676549196,0.00497796107083559,-0.008037576451897621,0.0024844775907695293,1.639111848262742e-34,0.0017645324114710093
0.006755288224667311,0.004974298644810915,-0.007644316181540489,0.002894227858632803,1.0702229628439753e-35,0.0017676525749266148
0.006901121232658625,0.004561488516628742,-0.007609683554619551,0.0030598838347941637,6.987792049669609e-37,0.0015684081008657813
0.007033194415271282,0.004607234615832567,-0.006957645993679762,0.002994219306856394,4.56252858791033e-38,0.0013382071629166603
0.007037464529275894,0.004963361192494631,-0.007221460808068514,0.002842661691829562,2.979004991025021e-39,0.00125546520575881
0.007271847687661648,0.004964265041053295,-0.00808244850486517,0.0028992360457777977,1.9450723334060623e-40,0.0010732728987932205
0.0075505138374865055,0.004718124400824308,-0.007070416118949652,0.002852341393008828,1.2699967982175817e-41,0.0010756782721728086
0.0066868639551103115,0.0047952644526958466,-0.006894546095281839,0.00287757464684546,8.295686908802917e-43,0.001069021294824779
0.00691917072981596,0.004762435797601938,-0.007434970233589411,0.003017052076756954,5.465064010866787e-44,0.0012615455780178308
0.00680564995855093,0.004840165842324495,-0.007219512946903706,0.0030688755214214325,4.203895392974451e-45,0.0012195950839668512
0.007139233872294426,0.005083656404167414,-0.006942955777049065,0.0031230535823851824,0.0,0.0012051205849274993
0.007106726057827473,0.005250690039247274,-0.0067847794853150845,0.003060754854232073,0.0,0.0011923684505745769
0.006895334459841251,0.004647206049412489,-0.007485297508537769,0.0029970884788781404,0.0,0.0011568611953407526
0.007458921521902084,0.004645862150937319,-0.007648699451237917,0.0028245053254067898,0.0,0.001112068071961403
0.007458921521902084,0.004645862150937319,-0.007648699451237917,0.0028245053254067898,0.0,0.001112068071961403
0.006769409403204918,0.004957819823175669,-0.007290920242667198,0.0029378945473581553,0.0,0.001027281628921628
0.006854152772575617,0.00498585868626833,-0.006946739740669727,0.0030204348731786013,0.0,0.000950010260567069
0.006730697117745876,0.004851040430366993,-0.007745289709419012,0.0032643992453813553,0.0,0.000840858556330204
0.006971436087042093,0.004714068025350571,-0.00759867625311017,0.0031470146495848894,0.0,0.0008351040887646377
0.007304471451789141,0.0046660415828228,-0.007163693197071552,0.003047486301511526,0.0,0.0008429725421592593
0.007502471562474966,0.004786411765962839,-0.006907087285071611,0.0029867906123399734,0.0,0.0008497593807987869
0.007656363770365715,0.004962028935551643,-0.007784847170114517,0.0029270248487591743,0.0,0.0009222417138516903
0.007656363770365715,0.004962028935551643,-0.007784847170114517,0.0029270248487591743,0.0,0.0009222417138516903
0.006797374691814184,0.004826533142477274,-0.006880121771246195,0.003061931813135743,0.0,0.0008879618253558874
0.006970236077904701,0.004738005809485912,-0.006825561635196209,0.0029244408942759037,0.0,0.0008875963976606727
0.006744613870978355,0.005170535761862993,-0.007592726498842239,0.003205565270036459,0.0,0.0008486909209750593
0.00718730641528964,0.005002172663807869,-0.007336731068789959,0.0032976907677948475,0.0,0.0009766133734956384
0.00710960291326046,0.004597916267812252,-0.007176100742071867,0.003149182302877307,0.0,0.0008674761047586799
0.007431007921695709,0.0049883658066391945,-0.007322446908801794,0.0029435777105391026,0.0,0.0007674959488213062
0.00700007937848568,0.0051236930303275585,-0.007356167305260897,0.002924887929111719,0.0,0.0007750780205242336
0.007181625347584486,0.004888779949396849,-0.007426694966852665,0.0030734273605048656,0.0,0.0007050397107377648
0.007271833252161741,0.004830134101212025,-0.007537598721683025,0.003481110790744424,0.0,0.0006413625087589025
0.007226684130728245,0.004792476538568735,-0.007806097157299519,0.0038331919349730015,0.0,0.0005660515162162483
0.00794050469994545,0.004695000592619181,-0.0075346436351537704,0.003673034254461527,0.0,0.0005030074971728027
0.007848384790122509,0.004375630524009466,-0.007264997810125351,0.0034707519225776196,0.0,0.000536288891453296
0.007626080885529518,0.004288073629140854,-0.0073091937229037285,0.0036078286357223988,0.0,0.0004927826812490821
0.006966111250221729,0.004930513445287943,-0.007642929442226887,0.0036200827453285456,0.0,0.0005167947965674102
0.007925191894173622,0.005032153334468603,-0.007573579903692007,0.003471331438049674,0.0,0.00048578111454844475
0.007963395677506924,0.004508753772825003,-0.007401997689157724,0.003226156812161207,0.0,0.0005114914965815842
0.007588653359562159,0.004445561673492193,-0.007341162301599979,0.0031870058737695217,2.0147181203356013e-05,0.0004812386760022491
0.007553325034677982,0.004435657057911158,-0.007556390017271042,0.0032536291982978582,1.3154668749848497e-06,0.0004893457517027855
0.007195577025413513,0.004538692533969879,-0.00749207241460681,0.003478449070826173,8.589059774521957e-08,0.00044768067891709507
0.00773015758022666,0.004703146871179342,-0.006992161273956299,0.0036711462307721376,5.608042474847252e-09,0.0004469031991902739
0.007469451054930687,0.004763833247125149,-0.006798642687499523,0.0037088317330926657,3.6616507048670144e-10,0.0004456879396457225
0.007173918653279543,0.0049348920583724976,-0.008058974519371986,0.003352176398038864,2.3907964150082783e-11,0.0004733958630822599
0.007642488460987806,0.004824819974601269,-0.007732214406132698,0.0031403072644025087,1.5610192175344317e-12,0.0004479831550270319
0.007642488460987806,0.004824819974601269,-0.007732214406132698,0.0031403072644025087,1.5610192175344317e-12,0.0004479831550270319
0.007897088304162025,0.0043952283449471,-0.007023520767688751,0.003333102446049452,1.0192338645168345e-13,0.0004704234597738832
0.007624665275216103,0.004337791353464127,-0.007257150951772928,0.003608645172789693,6.654868510099811e-15,0.0004482182557694614
0.007105635013431311,0.004710037726908922,-0.007835946045815945,0.004099345300346613,4.3451532879614527e-16,0.0004223784198984504
0.007436229381710291,0.004863198380917311,-0.007738541811704636,0.004305765964090824,2.837074652846215e-17,0.000429178006015718
0.00758845079690218,0.004778544418513775,-0.007775312755256891,0.0040702517144382,1.8524070821101858e-18,0.00041858572512865067
0.00804627314209938,0.004727378487586975,-0.0069037131033837795,0.003910877741873264,1.2094895330022002e-19,0.00038469763239845634
0.007658194284886122,0.004509752616286278,-0.007278566714376211,0.0033888062462210655,7.897102193772992e-21,0.0004065309767611325
0.00764878885820508,0.0045022740960121155,-0.008164855651557446,0.0034202237147837877,5.156243273046369e-22,0.0003930816310457885
0.007912838831543922,0.00441920617595315,-0.006762019358575344,0.004311773460358381,2.1981873392386743e-24,0.00034403163590468466
0.007622790057212114,0.004664784763008356,-0.007042414974421263,0.004658113233745098,1.4352593241563816e-25,0.00032342239865101874
0.007842626422643661,0.004931452684104443,-0.007595600560307503,0.004543938674032688,9.371218427162589e-27,0.0003051369858440012
0.008119179867208004,0.004892901983112097,-0.007306407205760479,0.004267918411642313,6.1187352852866355e-28,0.00028881238540634513
0.007691295817494392,0.004685916006565094,-0.00599166052415967,0.0038322079926729202,3.9950973172696266e-29,0.0003078551671933383
0.007338758558034897,0.0046065314672887325,-0.007801472675055265,0.0034100667107850313,2.608513370915376e-30,0.00030359611264429986
0.00825293455272913,0.004546614363789558,-0.008283274248242378,0.003545628860592842,1.7031728245109317e-31,0.00029029534198343754
0.00862294901162386,0.00486742053180933,-0.0076464698649942875,0.0035020101349800825,1.1120501289093254e-32,0.0002775487955659628
0.007919416762888432,0.004975806921720505,-0.007851062342524529,0.003768522059544921,7.260893147672437e-34,0.00026583785074763
0.007678310386836529,0.005219368729740381,-0.00854628998786211,0.004167990293353796,4.7408447681365414e-35,0.00025507246027700603
0.00807740818709135,0.00482067558914423,-0.008370408788323402,0.0040646200068295,3.095433062234546e-36,0.000245145580265671
0.00797555036842823,0.004452829249203205,-0.008108142763376236,0.0038694727700203657,2.0210965866275066e-37,0.00023596365645062178
0.007572626229375601,0.004663756117224693,-0.008232636377215385,0.0037745379377156496,1.3196316306030453e-38,0.00022744391753803939
0.008833170868456364,0.004810193553566933,-0.008438961580395699,0.0037986249662935734,8.616247945501862e-40,0.00021951763483230025
0.00839927513152361,0.005009207408875227,-0.008156267926096916,0.003999452572315931,5.625792944724843e-41,0.00021212473802734166
0.008276769891381264,0.004991487134248018,-0.00792859960347414,0.003922071773558855,3.6728032749953455e-42,0.00020521398982964456
0.00771953072398901,0.00512328464537859,-0.009116251952946186,0.0038262149319052696,2.396220373995437e-43,0.0001987410505535081
0.008076677098870277,0.004935763776302338,-0.008508960716426373,0.0038042240776121616,1.5414283107572988e-44,0.0001926613476825878
0.008296756073832512,0.004693937953561544,-0.008363109081983566,0.003787364112213254,1.401298464324817e-45,0.0001869450934464112
0.008060638792812824,0.004764937330037355,-0.008491684682667255,0.003840432036668062,0.0,0.0001815560826798901
0.008060638792812824,0.004764937330037355,-0.008491684682667255,0.003840432036668062,0.0,0.0001815560826798901
0.0081550981849432,0.005253312643617392,-0.008834557607769966,0.003924700431525707,0.0,0.00017647133790887892
0.00859659630805254,0.005243312567472458,-0.008629178628325462,0.00427396921440959,0.0,0.0001716626138659194
0.007963075302541256,0.005061234347522259,-0.009052624925971031,0.003531120717525482,0.0,0.00016279038391076028
0.007963075302541256,0.005061234347522259,-0.009052624925971031,0.003531120717525482,0.0,0.00016279038391076028
0.00856303796172142,0.004400945734232664,-0.008853975683450699,0.004071657080203295,0.0,0.00015869000344537199
0.009161530062556267,0.004403840750455856,-0.008408276364207268,0.00467531057074666,0.0,0.00015479062858503312
0.008137663826346397,0.0049360343255102634,-0.008912784978747368,0.004740055650472641,0.0,0.00015107850776985288
0.00829229038208723,0.005093899555504322,-0.009161897003650665,0.004646769724786282,0.0,0.00014754031144548208
0.009505643509328365,0.005313121248036623,-0.008483849465847015,0.00423195818439126,0.0,0.00014416416524909437
0.008411954157054424,0.004334122408181429,-0.009331285022199154,0.003562536556273699,0.0,9.460595902055502e-05
0.008711832575500011,0.004489933140575886,-0.009588334709405899,0.00364402262493968,0.0,5.130593490321189e-05
0.008776027709245682,0.0045087626203894615,-0.008616173639893532,0.0038625728338956833,0.0,4.729986176243983e-05
0.008587184362113476,0.004796634893864393,-0.009182420559227467,0.004371405113488436,0.0,4.591953256749548e-05
0.008722447790205479,0.004814544226974249,-0.008883817121386528,0.004179281182587147,0.0,4.476604954106733e-05
0.009133539162576199,0.004692537244409323,-0.008790114894509315,0.004404246341437101,0.0,4.3678999645635486e-05
0.008859686553478241,0.004222564399242401,-0.009317772462964058,0.004138024523854256,0.0,4.26440492447e-05
0.008933055214583874,0.0042704008519649506,-0.009283259510993958,0.0038779282476752996,0.0,4.1657145629869774e-05
0.009457212872803211,0.004607739392668009,-0.008649509400129318,0.0037794404197484255,0.0,4.071483272127807e-05
0.009271688759326935,0.004223603289574385,-0.008960406295955181,0.004245306830853224,0.0,2.505074917280581e-05
0.009312944486737251,0.004508486483246088,-0.00928127858787775,0.004713050089776516,0.0,1.9812154278042726e-05
0.00956717785447836,0.004704098682850599,-0.009216239675879478,0.005073291715234518,0.0,1.908572085085325e-05
0.00931575708091259,0.004510170314460993,-0.008620092645287514,0.004894001875072718,0.0,1.866975799202919e-05
0.009099043905735016,0.003973037004470825,-0.009371943771839142,0.004361013416200876,0.0,1.2190016605018172e-06
0.009524825029075146,0.0037276912480592728,-0.009215046651661396,0.004065277520567179,0.0,7.959210535091188e-08
0.010037478990852833,0.004312040749937296,-0.008780444972217083,0.004109658766537905,-0.00020640184811782092,5.196795882511651e-09
0.009659653529524803,0.0041491249576210976,-0.009158200584352016,0.004793544765561819,-0.00032742306939326227,3.3931363274675164e-10
0.009499109350144863,0.003985334653407335,-0.009237930178642273,0.00489406893029809,-0.00031351466896012425,2.2154755460745967e-11
0.009499109350144863,0.003985334653407335,-0.009237930178642273,0.00489406893029809,-0.00031351466896012425,2.2154755460745967e-11
0.009636538103222847,0.004484713077545166,-0.008968661539256573,0.0047385538928210735,-0.0003221799270249903,1.4465472005995017e-12
0.00939964409917593,0.004684939049184322,-0.009511024691164494,0.004719010554254055,-0.00032883507083170116,9.444919483016581e-14
0.009986973367631435,0.004230697639286518,-0.008978473953902721,0.004298697225749493,-0.0003115750150755048,6.166857253802824e-15
0.010564315132796764,0.004204950295388699,-0.008480909280478954,0.004833794664591551,-0.00029467864078469574,4.026517227956718e-16
0.009255913086235523,0.004072343464940786,-0.009729350917041302,0.005091098137199879,-0.00027943207533098757,-0.0004446991079021245
0.009687861427664757,0.004354225005954504,-0.009589452296495438,0.005182809196412563,-0.00026567987515591085,-0.0006359805120155215
0.010650532320141792,0.004504838492721319,-0.009191697463393211,0.004504204262048006,-0.0002738331677392125,-0.0006552208797074854
0.009383466094732285,0.004757884424179792,-0.008495564572513103,0.004450226202607155,-0.0002807756536640227,-0.0006078834412619472
0.01032653171569109,0.004047399386763573,-0.008838070556521416,0.004761757329106331,-0.0002589742362033576,-0.0005743862711824477
0.009927626699209213,0.0040445998311042786,-0.008717858232557774,0.005147185176610947,-0.00024875186500139534,-0.000596405181568116
0.010081862099468708,0.004014142788946629,-0.008974109776318073,0.005009735934436321,-0.0002689426764845848,-0.0006870528450235724
0.010036959312856197,0.0038657484110444784,-0.008608455769717693,0.004908282775431871,-0.000263181806076318,-0.0007504908135160804
0.010002212598919868,0.00378423067741096,-0.008630959317088127,0.005104290321469307,-0.0002541565627325326,-0.0007825462380424142
0.011089700274169445,0.00434537697583437,-0.008920326828956604,0.005007757339626551,-0.00024550617672502995,-0.001254410482943058
0.010264303535223007,0.0045705921947956085,-0.009332082234323025,0.0049898661673069,-0.00024273875169456005,-0.001289533800445497
0.010307290591299534,0.004833434708416462,-0.008596591651439667,0.005142383277416229,-0.00023606617469340563,-0.0012278560316190124
0.010536790825426579,0.004337408114224672,-0.008622770197689533,0.004965111613273621,-0.00022467364033218473,-0.0011389593128114939
0.010278976522386074,0.003917098045349121,-0.009428859688341618,0.00493156723678112,-0.000245609728153795,-0.0010994805488735437
0.010317805223166943,0.003958306275308132,-0.008799419738352299,0.0047136289067566395,-0.0002444218553137034,-0.0010650117183104157
0.010571567341685295,0.004017752129584551,-0.009500444866716862,0.004816286265850067,-0.00023445715487468988,-0.0010787680512294173
0.011030947789549828,0.004513835068792105,-0.009199170395731926,0.004713309928774834,-0.0002596448175609112,-0.0012461818987503648
0.010591357946395874,0.004192502237856388,-0.009482772089540958,0.004707008134573698,-0.0002515542437322438,-0.0013304897584021091
0.010721484199166298,0.004405544139444828,-0.008405180647969246,0.004968362394720316,-0.00026760698528960347,-0.0016954508610069752
0.010232108645141125,0.004117938689887524,-0.008989125490188599,0.0049769082106649876,-0.00026580120902508497,-0.0015837001847103238
0.010524622164666653,0.0043657454662024975,-0.00916235614567995,0.005070699378848076,-0.0002568461641203612,-0.0015559429302811623
0.010236158967018127,0.00421400461345911,-0.008609983138740063,0.004881920758634806,-0.0003850195207633078,-0.0014682830078527331
0.010257390327751637,0.004147219471633434,-0.009138117544353008,0.004864298272877932,-0.0004280843131709844,-0.0015037894481793046
0.010257390327751637,0.004147219471633434,-0.009138117544353008,0.004864298272877932,-0.0004280843131709844,-0.0015037894481793046
0.010747161693871021,0.004116701427847147,-0.009195385500788689,0.004910645540803671,-0.0004136226780246943,-0.0016481120837852359
0.010895589366555214,0.00398502079769969,-0.009077459573745728,0.00556375365704298,-0.0004407595261000097,-0.0017055515199899673
0.010405823588371277,0.004309868905693293,-0.008367261849343777,0.005371800623834133,-0.00041907044942490757,-0.0019200094975531101
0.010774289257824421,0.004470649175345898,-0.00904175080358982,0.005422280635684729,-0.00043476844439283013,-0.001922490308061242
0.010203718207776546,0.004304510075598955,-0.008627531118690968,0.005070805083960295,-0.000422220240579918,-0.002078413497656584
0.010855894535779953,0.00447886111214757,-0.008274572901427746,0.005231381859630346,-0.0003996251034550369,-0.001957130618393421
0.010913270525634289,0.004236627835780382,-0.009624972008168697,0.00566479004919529,-0.00048327253898605704,-0.0018788024317473173
0.010798939503729343,0.004318570718169212,-0.007958667352795601,0.005601962562650442,-0.00042611302342265844,-0.0018174429424107075
0.01020736526697874,0.004444336052983999,-0.008846181444823742,0.005336889065802097,-0.0004564693372230977,-0.0019899895414710045
0.010578056797385216,0.0044965362176299095,-0.008680764585733414,0.005010913126170635,-0.00042929366463795304,-0.0020835581235587597
0.011133210733532906,0.0042999545112252235,-0.00820796750485897,0.005095248110592365,-0.0003982112102676183,-0.0019177912035956979
0.01027633249759674,0.004455931019037962,-0.008819951675832272,0.005540675483644009,-0.00037088236422277987,-0.0019508538534864783
0.010553674772381783,0.004152691923081875,-0.009205624461174011,0.005433453246951103,-0.0003470360825303942,-0.00200811680406332
0.011140107177197933,0.004263886250555515,-0.009014122188091278,0.0054873996414244175,-0.00035251997178420424,-0.003118617692962289
0.01041379850357771,0.004576242063194513,-0.00845361314713955,0.005509315058588982,-0.0003569211985450238,-0.00422686617821455
0.010875285603106022,0.004209005739539862,-0.009048089385032654,0.005513045471161604,-0.00033928867196664214,-0.003644313896074891
0.011348566971719265,0.004513488616794348,-0.009215205907821655,0.00575349573045969,-0.0003220434591639787,-0.00290067121386528
0.010438754223287106,0.004702070727944374,-0.008675036951899529,0.006087703164666891,-0.0003063840267714113,-0.0025835607666522264
0.010756338015198708,0.004314296878874302,-0.009877493605017662,0.005583543796092272,-0.0002921714913100004,-0.00230318121612072
0.01076325960457325,0.0043473257683217525,-0.009295199066400528,0.0053759245201945305,-0.0003137767780572176,-0.0024285861290991306
0.010694562457501888,0.0046395715326070786,-0.00940036866813898,0.005650091450661421,-0.00030521396547555923,-0.0026769167743623257
0.011006076820194721,0.00471077486872673,-0.009415640495717525,0.0060602654702961445,-0.0002930969058070332,-0.002945466199889779
0.01081501878798008,0.004551500082015991,-0.009505338966846466,0.00610911101102829,-0.0002816493797581643,-0.0030648827087134123
0.010927310213446617,0.004368827678263187,-0.00903122965246439,0.005821625702083111,-0.0002710461849346757,-0.0031809858046472073
0.010927310213446617,0.004368827678263187,-0.00903122965246439,0.005821625702083111,-0.0002710461849346757,-0.0031809858046472073
0.011117525398731232,0.004556736908853054,-0.009127683937549591,0.005475503858178854,-0.00023504850105382502,-0.0030869257170706987
0.010834273882210255,0.0050182887353003025,-0.009567155502736568,0.005531588569283485,-0.00022025345242582262,-0.0028874182607978582
0.01144503615796566,0.00449147867038846,-0.00917882937937975,0.005289932247251272,-0.00020976914674974978,-0.002680086763575673
0.010980268940329552,0.004528074990957975,-0.009725800715386868,0.005728784017264843,-0.00023001609952189028,-0.0027674101293087006
0.012238799594342709,0.004478474613279104,-0.010827447287738323,0.005471287295222282,-0.0002295503654750064,-0.0029478941578418016
0.01311114989221096,0.004562713671475649,-0.00933879241347313,0.005844797007739544,-0.00022077401808928698,-0.0034100355114787817
0.012961061671376228,0.004703986924141645,-0.009719058871269226,0.005810799077153206,-0.00021213818399701267,-0.0034260759130120277
0.012807929888367653,0.0043480284512043,-0.009978417307138443,0.005723288748413324,-0.0002041210827883333,-0.003373140934854746
0.012437289580702782,0.004551858175545931,-0.008837745524942875,0.005668880883604288,-0.00022125539544504136,-0.003099524648860097
0.012549242936074734,0.004662371706217527,-0.009407272562384605,0.0058145406655967236,-0.00021387414017226547,-0.003361776936799288
0.012971540912985802,0.004552651662379503,-0.009574562311172485,0.006184933241456747,-0.00022134810569696128,-0.0036728400737047195
0.012937949039041996,0.004355673212558031,-0.009305023588240147,0.005796896293759346,-0.0002279110485687852,-0.0038786015938967466
0.013806750066578388,0.0045629339292645454,-0.009910105727612972,0.005987084936350584,-0.00022177686332724988,-0.003744949121028185
0.013566211797297001,0.004721006378531456,-0.009811198338866234,0.006155960261821747,-0.00028153820312581956,-0.00351584586314857
0.012988713569939137,0.005073299631476402,-0.009045812301337719,0.006127809640020132,-0.00028547769761644304,-0.0031652923207730055
0.013283046893775463,0.0050555383786559105,-0.010093078017234802,0.006469388958066702,-0.00026978508685715497,-0.0029128941241651773
0.013002884574234486,0.0051391394808888435,-0.009674223139882088,0.006342487875372171,-0.00029866088880226016,-0.00332287373021245
0.013461743481457233,0.004862837493419647,-0.009157437831163406,0.005859335884451866,-0.0002887212613131851,-0.004261814057826996
0.012727586552500725,0.004845389164984226,-0.009630803018808365,0.006294047925621271,-0.00029675933183170855,-0.004128068219870329
0.013184331357479095,0.004768056329339743,-0.009468097239732742,0.006132575683295727,-0.00030318746576085687,-0.004302672576159239
0.01286974735558033,0.004964003339409828,-0.009938666597008705,0.0059388368390500546,-0.00032121711410582066,-0.00413127476349473
0.013281558640301228,0.00533898314461112,-0.010302099399268627,0.00609135627746582,-0.0003168101829942316,-0.004022957757115364
0.013466103002429008,0.004886592738330364,-0.00964290089905262,0.006220916751772165,-0.00042853219201788306,-0.0039468370378017426
0.013238739222288132,0.004851893056184053,-0.009582644328474998,0.00643360847607255,-0.00042895411024801433,-0.003900159616023302
0.012779923155903816,0.004776220303028822,-0.01000065729022026,0.006350464187562466,-0.00046728196321055293,-0.003879370167851448
0.012779923155903816,0.004776220303028822,-0.01000065729022026,0.006350464187562466,-0.00046728196321055293,-0.003879370167851448
0.013611510396003723,0.004482346121221781,-0.009781966917216778,0.006138987839221954,-0.0005182267050258815,-0.004222949501127005
0.013027620501816273,0.004999857861548662,-0.011090703308582306,0.006212999112904072,-0.0004982453538104892,-0.004282101057469845
0.013791355304419994,0.004878138657659292,-0.011092327535152435,0.006366717163473368,-0.0006429516361095011,-0.0042624580673873425
0.013386817649006844,0.004670989699661732,-0.010141479782760143,0.0062044765800237656,-0.0006148555548861623,-0.004276263993233442
0.013386817649006844,0.004670989699661732,-0.010141479782760143,0.0062044765800237656,-0.0006148555548861623,-0.004276263993233442
0.013751334510743618,0.0044301836751401424,-0.010634842328727245,0.006496981251984835,-0.0006451272638514638,-0.004007772542536259
0.013572940602898598,0.004547223448753357,-0.010129055008292198,0.007040402851998806,-0.000582312757615,-0.003777468577027321
0.013955054804682732,0.0050309328362345695,-0.010213342495262623,0.007310469634830952,-0.0005681946058757603,-0.0041329325176775455
0.012844057753682137,0.004980537109076977,-0.010443203151226044,0.006814895197749138,-0.0005561626167036593,-0.004122978542000055
0.013389268890023232,0.004819744266569614,-0.010518351569771767,0.006334383971989155,-0.0005133146769367158,-0.004004897549748421
0.01368644554167986,0.004580416716635227,-0.010516544803977013,0.0069647980853915215,-0.0005033742054365575,-0.004350660834461451
0.01349851954728365,0.004617783240973949,-0.010519759729504585,0.006912740878760815,-0.0004802626499440521,-0.004568698816001415
0.013965660706162453,0.004692236427217722,-0.011090106330811977,0.0064588855020701885,-0.00043694573105312884,-0.004334412515163422
0.01393014844506979,0.005196522921323776,-0.010841521434485912,0.00635523023083806,-0.0004568118310999125,-0.004465085454285145
0.013461829163134098,0.005024268291890621,-0.010233116336166859,0.0068086739629507065,-0.00043781546992249787,-0.0044815693981945515
0.014029799960553646,0.004546490032225847,-0.011531388387084007,0.006950998213142157,-0.00045577294076792896,-0.004111418500542641
0.013462099246680737,0.004465915262699127,-0.011227410286664963,0.006446386221796274,-0.00043949068640358746,-0.0044319829903542995
0.013784533366560936,0.00453085545450449,-0.010765776969492435,0.0062524741515517235,-0.0004117667267564684,-0.004514923319220543
0.013252098113298416,0.005044071935117245,-0.011014210991561413,0.006510363891720772,-0.00042721806676127017,-0.004374771844595671
0.01387532614171505,0.004672967363148928,-0.010857907123863697,0.006427696440368891,-0.00041528171277604997,-0.004285531584173441
0.01350889541208744,0.005082957446575165,-0.012124123051762581,0.006517220288515091,-0.00039341271622106433,-0.004228657111525536
0.014161842875182629,0.004929943475872278,-0.011402157135307789,0.00677489535883069,-0.0003730747557710856,-0.004506624769419432
0.013737300410866737,0.004760144278407097,-0.010215668007731438,0.006821173243224621,-0.00035469335853122175,-0.004642841871827841
0.01396328303962946,0.0045290784910321236,-0.011230617761611938,0.0064931088127195835,-0.00033803703263401985,-0.0047339932061731815
0.013780336827039719,0.004652585368603468,-0.010746363550424576,0.007030416280031204,-0.0003228742571081966,-0.00472827535122633
0.013834823854267597,0.004801936913281679,-0.010884467512369156,0.006984316278249025,-0.0003090132959187031,-0.004561633802950382
0.013796542771160603,0.004832698497921228,-0.011073947884142399,0.0070974938571453094,-0.0002973774971906096,-0.0045416103675961494
0.014331352896988392,0.005211436655372381,-0.010978139005601406,0.0070064375177025795,-0.00027331203455105424,-0.004815375432372093
0.013887818902730942,0.004915428347885609,-0.011948153376579285,0.00724054966121912,-0.0002572852827142924,-0.005175294820219278
0.013871140778064728,0.004851938225328922,-0.011202304624021053,0.007740276865661144,-0.00024334093905054033,-0.004911901894956827
0.01374857034534216,0.004820700269192457,-0.011107043363153934,0.007677801884710789,-0.00023085113207343966,-0.004898910876363516
0.01374857034534216,0.004820700269192457,-0.011107043363153934,0.007677801884710789,-0.00023085113207343966,-0.004898910876363516
0.014147656969726086,0.005149293690919876,-0.011236591264605522,0.007330675609409809,-0.00021958262368571013,-0.004646999295800924
0.014024658128619194,0.005004169885069132,-0.010754660703241825,0.007113069761544466,-0.00022981991060078144,-0.004387947730720043
0.014102546498179436,0.004815772641450167,-0.010955334641039371,0.007309692911803722,-0.00023866622359491885,-0.004813945386558771
0.014338571578264236,0.0049447063356637955,-0.011100350879132748,0.00729813426733017,-0.00022975291358307004,-0.005026231519877911
0.014147942885756493,0.004872892051935196,-0.010850222781300545,0.007250082213431597,-0.00022045277000870556,-0.00491305673494935
0.013979307375848293,0.004940161481499672,-0.011114558205008507,0.0073984721675515175,-0.00021181015472393483,-0.005117029417306185
0.014021323062479496,0.004648165311664343,-0.010552559979259968,0.00781664066016674,-0.00020381392096169293,-0.005034393630921841
0.014110411517322063,0.004864715039730072,-0.010648890398442745,0.007652247324585915,-0.00022478670871350914,-0.0049179792404174805
0.013914797455072403,0.00540854362770915,-0.011104961857199669,0.0069882553070783615,-0.0002208077348768711,-0.005198710132390261
0.014091774821281433,0.004723241087049246,-0.010640867054462433,0.00719587504863739,-0.0002135757968062535,-0.005053388420492411
0.014390385709702969,0.004564859438687563,-0.011099076829850674,0.007758798077702522,-0.00022118505148682743,-0.005519957281649113
0.014126242138445377,0.004669259302318096,-0.01072003785520792,0.00720510259270668,-0.00022108480334281921,-0.005193412769585848
0.014258833602070808,0.004835620988160372,-0.011208326555788517,0.007460244931280613,-0.00021492186351679265,-0.005107443314045668
0.014013892039656639,0.005311544518917799,-0.0107257766649127,0.007424700539559126,-0.00022258359240368009,-0.005356741603463888
0.014436844736337662,0.005086852237582207,-0.010364710353314877,0.007264826446771622,-0.00022491137497127056,-0.005508205853402615
0.014326571486890316,0.004827914759516716,-0.011258617043495178,0.007067481055855751,-0.0002150420332327485,-0.005316630005836487
0.01452248077839613,0.004325241316109896,-0.011174590326845646,0.00737348385155201,-0.00023560748377349228,-0.005355807952582836
0.014366336166858673,0.004515561740845442,-0.01154351606965065,0.008017267100512981,-0.00023489707382395864,-0.005554397590458393
0.0147682661190629,0.004933372139930725,-0.01132954191416502,0.007712957449257374,-0.00022570087458007038,-0.005530911032110453
0.014506449922919273,0.005342324264347553,-0.01048219669610262,0.00697458628565073,-0.00021668376575689763,-0.00574682978913188
0.014761632308363914,0.004995095077902079,-0.011610021814703941,0.0077592297457158566,-0.00023842722293920815,-0.005345245357602835
0.014428757131099701,0.004674560856074095,-0.011164904572069645,0.008329352363944054,-0.00023371534189209342,-0.005688353441655636
0.014735398814082146,0.004681256599724293,-0.010943254455924034,0.00796704925596714,-0.00024140599998645484,-0.005570240318775177
0.014408104121685028,0.005092192441225052,-0.010624025017023087,0.006922099273651838,-0.00024787578149698675,-0.00580212939530611
0.014751323498785496,0.004937672521919012,-0.011516375467181206,0.007963607087731361,-0.00024055912217590958,-0.005932151805609465
0.015285663306713104,0.004677933175116777,-0.012172512710094452,0.007954839617013931,-0.0003495720447972417,-0.00595256220549345
0.015092380344867706,0.003685810137540102,-0.011244980618357658,0.008193699643015862,-0.0003401662106625736,-0.006020484026521444
0.015092380344867706,0.003685810137540102,-0.011244980618357658,0.008193699643015862,-0.0003401662106625736,-0.006020484026521444
0.015072936192154884,0.0036036507226526737,-0.010847899131476879,0.007791314274072647,-0.00031728396425023675,-0.005913943517953157
0.015004119835793972,0.0037927627563476562,-0.011609034612774849,0.008141865953803062,-0.0003515880380291492,-0.005894927773624659
0.015317312441766262,0.0039504775777459145,-0.011946682818233967,0.007772890850901604,-0.00033346927375532687,-0.005986719857901335
0.014737505465745926,0.004430651199072599,-0.011552529409527779,0.0072239236906170845,-0.00031428757938556373,-0.005940301809459925
0.014719136990606785,0.004282980691641569,-0.011022407561540604,0.007281421218067408,-0.00033350332523696125,-0.006045935675501823
0.01463258359581232,0.00397793622687459,-0.011432194150984287,0.00800454244017601,-0.00032759198802523315,-0.005679868161678314
0.014916306361556053,0.004065391607582569,-0.01216709055006504,0.007467691320925951,-0.0003121060144621879,-0.005891044158488512
0.01487477496266365,0.003950157202780247,-0.011521133594214916,0.007173068355768919,-0.00029741658363491297,-0.006020210683345795
0.015098508447408676,0.003688130062073469,-0.012080845423042774,0.007978842593729496,-0.00031397308339364827,-0.006143474485725164
0.014832502231001854,0.003626606659963727,-0.011539679020643234,0.008401338011026382,-0.0003098847810178995,-0.006058158352971077
0.014878158457577229,0.0037102673668414354,-0.011669027619063854,0.007997502572834492,-0.0002976855030283332,-0.005904868710786104
0.015188814140856266,0.0038516756612807512,-0.012078138999640942,0.008163394406437874,-0.0002978044212795794,-0.006037690676748753
0.014596717432141304,0.0038575218059122562,-0.012004714459180832,0.008743863552808762,-0.000286915892502293,-0.006392518989741802
0.015429310500621796,0.004245564341545105,-0.012089799158275127,0.008451860398054123,-0.00027021009009331465,-0.006851642392575741
0.014787551015615463,0.003977930638939142,-0.011804231442511082,0.007917264476418495,-0.00029903941322118044,-0.006117922253906727
0.015283128246665001,0.0034690452739596367,-0.01198811549693346,0.008123401552438736,-0.0002890635223593563,-0.005951459985226393
0.015262974426150322,0.003317550290375948,-0.01137095782905817,0.008223295211791992,-0.0002970924833789468,-0.006624601315706968
0.015773512423038483,0.0035440190695226192,-0.012029534205794334,0.007979437708854675,-0.0003035118861589581,-0.006251625716686249
0.015007195994257927,0.004332482349127531,-0.011987962760031223,0.008645348250865936,-0.0002908520109485835,-0.006136646959930658
0.01583198457956314,0.004214216489344835,-0.012118237093091011,0.008645668625831604,-0.0002780996437650174,-0.006430023815482855
0.01654120534658432,0.003986955154687166,-0.011853660456836224,0.008402940817177296,-0.00030180002795532346,-0.0064902398735284805
0.016237780451774597,0.004255857318639755,-0.011284294538199902,0.008242356590926647,-0.0002918768732342869,-0.0063029066659510136
0.016522441059350967,0.004247142467647791,-0.012004002928733826,0.008508391678333282,-0.0003766331064980477,-0.006353199947625399
0.01596294343471527,0.003989861812442541,-0.01200865488499403,0.008235156536102295,-0.00041399631300009787,-0.006728044711053371
0.01710062474012375,0.003940476570278406,-0.011692200787365437,0.008431019261479378,-0.0004006890521850437,-0.0063423034735023975
0.016609003767371178,0.004010438919067383,-0.011738328263163567,0.008245260454714298,-0.00043204022222198546,-0.006486955098807812
0.016609003767371178,0.004010438919067383,-0.011738328263163567,0.008245260454714298,-0.00043204022222198546,-0.006486955098807812
0.016557279974222183,0.00427608098834753,-0.012128313072025776,0.00902450643479824,-0.00042366134584881365,-0.006557719316333532
0.016557279974222183,0.00427608098834753,-0.012128313072025776,0.00902450643479824,-0.00042366134584881365,-0.006557719316333532
0.01659342646598816,0.0043363324366509914,-0.011601235717535019,0.008951413445174694,-0.00041203052387572825,-0.006590846925973892
0.017045844346284866,0.004070626106113195,-0.011913653463125229,0.00904436782002449,-0.00039050242048688233,-0.006702492944896221
0.016974331811070442,0.004067535046488047,-0.011854834854602814,0.00868179090321064,-0.0004818373126909137,-0.00646979222074151
0.017519736662507057,0.003836368676275015,-0.011519568040966988,0.008532917127013206,-0.0004692972870543599,-0.0065328036434948444
0.017484182491898537,0.0036724659148603678,-0.012168407440185547,0.008853876031935215,-0.00042717860196717083,-0.007089485414326191
0.01727980561554432,0.0037780203856527805,-0.011886483058333397,0.008769498206675053,-0.00046272281906567514,-0.006830868311226368
0.01757446490228176,0.003872141009196639,-0.012095633894205093,0.008713514544069767,-0.0004305434413254261,-0.006734897382557392
0.017374204471707344,0.004425369203090668,-0.012326648458838463,0.008875816129148006,-0.0004478745977394283,-0.0062546031549572945
0.017241045832633972,0.004723922349512577,-0.012278502807021141,0.008758077397942543,-0.0004323378670960665,-0.005827906541526318
0.017247049137949944,0.004336685873568058,-0.012382007203996181,0.008280139416456223,-0.0004054934252053499,-0.005813762545585632
0.01712786592543125,0.00393739715218544,-0.011885815300047398,0.008304163813591003,-0.0004280886787455529,-0.005441475659608841
0.017525702714920044,0.00412884633988142,-0.011937947943806648,0.008576586842536926,-0.00038842030335217714,-0.0061932578682899475
0.01761503703892231,0.004233099985867739,-0.012931745499372482,0.008168588392436504,-0.00036855769576504827,-0.006158167030662298
0.01781131513416767,0.00462729437276721,-0.012751960195600986,0.008642400614917278,-0.0003525585343595594,-0.005723964422941208
0.01746547408401966,0.004795075859874487,-0.012483468279242516,0.008592004887759686,-0.0003374129591975361,-0.00555927911773324
0.017950862646102905,0.004422030411660671,-0.01247761957347393,0.00854453258216381,-0.00031455408316105604,-0.005968385376036167
0.017973901703953743,0.004507578443735838,-0.012058509513735771,0.008641621097922325,-0.00029403576627373695,-0.006388244219124317
0.01791677437722683,0.004183648154139519,-0.012911254540085793,0.008928502909839153,-0.0003237210039515048,-0.006469907239079475
0.01820736564695835,0.0039972299709916115,-0.012614181265234947,0.009115209802985191,-0.0003115591825917363,-0.00642483402043581
0.017940882593393326,0.003937363158911467,-0.0131374541670084,0.008631228469312191,-0.0002949611225631088,-0.006186973303556442
0.018202975392341614,0.004262699279934168,-0.012677445076406002,0.009351743385195732,-0.00032005924731492996,-0.006008585914969444
0.01832415536046028,0.005078847054392099,-0.01303415559232235,0.009161734022200108,-0.0003098408051300794,-0.006254182197153568
0.018175551667809486,0.004546562675386667,-0.012854780070483685,0.008896928280591965,-0.0002956586831714958,-0.006832411512732506
0.018175551667809486,0.004546562675386667,-0.012854780070483685,0.008896928280591965,-0.0002956586831714958,-0.006832411512732506
0.018180079758167267,0.0042218780145049095,-0.01310818176716566,0.009513226337730885,-0.00030628577223978937,-0.006532379426062107
0.0181486364454031,0.004306142684072256,-0.012551959604024887,0.008761701174080372,-0.00029603735310956836,-0.006715353112667799
0.0186507236212492,0.004735331051051617,-0.013336500152945518,0.00893730204552412,-0.0002856581995729357,-0.006913043558597565
0.01846121996641159,0.0048534199595451355,-0.013418116606771946,0.009228061884641647,-0.0003181371430400759,-0.007200344931334257
0.018503980711102486,0.004854201339185238,-0.013813238590955734,0.008828290738165379,-0.0003445713664405048,-0.006967805791646242
0.018503980711102486,0.004854201339185238,-0.013813238590955734,0.008828290738165379,-0.0003445713664405048,-0.006967805791646242
0.018723057582974434,0.004680880811065435,-0.012896530330181122,0.00949399545788765,-0.00033707282273098826,-0.007137448526918888
0.018526338040828705,0.0049928780645132065,-0.013347728177905083,0.009074730798602104,-0.0003639916831161827,-0.007416791282594204
0.018882257863879204,0.004536483436822891,-0.013233082368969917,0.00899428315460682,-0.00035008840495720506,-0.007535099983215332
0.019253889098763466,0.004044299945235252,-0.013710197992622852,0.00877582561224699,-0.000332045485265553,-0.007030952721834183
0.01937285251915455,0.003976040054112673,-0.013537253253161907,0.009411939419806004,-0.0003544562205206603,-0.0065971724689006805
0.019398236647248268,0.005687458906322718,-0.01343580987304449,0.009476272389292717,-0.0003429160569794476,-0.00673420587554574
0.01950179412961006,0.004168991930782795,-0.013336269184947014,0.009727001190185547,-0.0004531263839453459,-0.007137918379157782
0.019228685647249222,0.003878758056089282,-0.01353729609400034,0.00983654148876667,-0.00044930813601240516,-0.007236197590827942
0.01912737265229225,0.004543857183307409,-0.012411559000611305,0.00962214544415474,-0.00041096119093708694,-0.007314236834645271
0.019400019198656082,0.0047453357838094234,-0.013971982523798943,0.010148727335035801,-0.00044667653855867684,-0.0076277670450508595
0.019144795835018158,0.004658914171159267,-0.013554886914789677,0.009919695556163788,-0.00041675686952658,-0.007742483634501696
0.01974392496049404,0.0050927503034472466,-0.01353380549699068,0.009294422343373299,-0.0003612582804635167,-0.007251362781971693
0.01922418363392353,0.004909946583211422,-0.013166161254048347,0.009756217710673809,-0.0003385947202332318,-0.006836920045316219
0.02019914984703064,0.0047520725056529045,-0.014215419068932533,0.009762207977473736,-0.0003577251045498997,-0.007302707526832819
0.02051720768213272,0.004647451918572187,-0.013241398148238659,0.00942759495228529,-0.0003500783641356975,-0.007534834556281567
0.020037662237882614,0.004556655418127775,-0.013656385242938995,0.009572574868798256,-0.00033240250195376575,-0.007581274025142193
0.01988653652369976,0.005088163074105978,-0.013477330096065998,0.010078218765556812,-0.0003157868341077119,-0.0076726144179701805
0.020537227392196655,0.005034575238823891,-0.01412185188382864,0.009265236556529999,-0.0003216916520614177,-0.007656814530491829
0.019894910976290703,0.0048502651043236256,-0.012984337285161018,0.009713475592434406,-0.0003265759442001581,-0.007539939600974321
0.019427813589572906,0.005108084995299578,-0.013490977697074413,0.01050097681581974,-0.0003147814131807536,-0.008117874152958393
0.020217295736074448,0.005075891502201557,-0.013384649530053139,0.00996527262032032,-0.0002915153163485229,-0.007957197725772858
0.021133847534656525,0.004796857945621014,-0.01372550893574953,0.009970558807253838,-0.0002735939924605191,-0.008137975819408894
0.02050207555294037,0.005275021772831678,-0.01374389510601759,0.010191542096436024,-0.0003025112673640251,-0.007921196520328522
0.02043861523270607,0.005103846080601215,-0.014010160230100155,0.00988436583429575,-0.0002922374114859849,-0.008314589038491249
0.02085738070309162,0.005223514046519995,-0.013627340085804462,0.010796752758324146,-0.0003176633326802403,-0.007990262471139431
0.02048974484205246,0.005168934818357229,-0.012960264459252357,0.010431138798594475,-0.0003076593275181949,-0.0080909738317132
0.020464014261960983,0.004970093257725239,-0.013746660202741623,0.0103906886652112,-0.00031417032005265355,-0.008514332585036755
0.020464014261960983,0.004970093257725239,-0.013746660202741623,0.0103906886652112,-0.00031417032005265355,-0.008514332585036755
0.020747601985931396,0.004712364170700312,-0.013555466197431087,0.01050166878849268,-0.000319300132105127,-0.008084571920335293
0.02094705030322075,0.004636216908693314,-0.013950912281870842,0.010244580917060375,-0.00030693243024870753,-0.008095034398138523
0.020977886393666267,0.0044025396928191185,-0.013020221143960953,0.010728375986218452,-0.0002944593143183738,-0.008239594288170338
0.02082754671573639,0.004512797575443983,-0.01383092813193798,0.010424269363284111,-0.0003932101826649159,-0.008335074409842491
0.021325496956706047,0.004227258265018463,-0.013549729250371456,0.010430247522890568,-0.00037666302523575723,-0.008370133116841316
0.02135547250509262,0.004382008221000433,-0.014018752612173557,0.010392788797616959,-0.00034854214754886925,-0.008185071870684624
0.02131008170545101,0.00449645658954978,-0.01354178786277771,0.010602297261357307,-0.00035493061295710504,-0.008194491267204285
0.021167607977986336,0.0045997328124940395,-0.013852621428668499,0.010459007695317268,-0.000360013305908069,-0.008380666375160217
0.021559542044997215,0.00469145318493247,-0.013638392090797424,0.010561461560428143,-0.00033926934702321887,-0.008531393483281136
0.021484367549419403,0.004423580132424831,-0.014315692707896233,0.010598033666610718,-0.0003653479216154665,-0.008216732181608677
0.02131388895213604,0.00447484478354454,-0.013711126521229744,0.010614858940243721,-0.0003512725525069982,-0.008425584994256496
0.021649327129125595,0.004467940889298916,-0.01408263761550188,0.010814291425049305,-0.00037429563235491514,-0.008487786166369915
0.02167913317680359,0.004577769432216883,-0.0136314881965518,0.010827991180121899,-0.00036334904143586755,-0.008575312793254852
0.02153124287724495,0.004678297787904739,-0.013459581881761551,0.011023017577826977,-0.0004539337824098766,-0.008522650226950645
0.021545059978961945,0.0046612778678536415,-0.014042275957763195,0.010128234513103962,-0.0004901331849396229,-0.00862155295908451
0.021899718791246414,0.0046065994538366795,-0.013735457323491573,0.010225917212665081,-0.0005070882034488022,-0.00793234072625637
0.022227797657251358,0.004365104716271162,-0.013593283481895924,0.010289721190929413,-0.0006747040897607803,-0.008209140039980412
0.021855944767594337,0.004051029682159424,-0.013954736292362213,0.010168724693357944,-0.0008105250308290124,-0.008689235895872116
0.021913103759288788,0.003927004523575306,-0.01356352400034666,0.010641271248459816,-0.0007687177276238799,-0.00861127395182848
0.02234511822462082,0.0043800571002066135,-0.013862642459571362,0.010677620768547058,-0.0007309791981242597,-0.008689911104738712
0.02175249718129635,0.004178866744041443,-0.01400098204612732,0.011076554656028748,-0.0006981779006309807,-0.009147902950644493
0.0221193116158247,0.004327752627432346,-0.014354061335325241,0.011326820589601994,-0.000631299801170826,-0.008670642040669918
0.022231541574001312,0.004473357927054167,-0.014463556930422783,0.010553872212767601,-0.000633962161373347,-0.008623751811683178
0.022533176466822624,0.0041546327993273735,-0.014369205571711063,0.01060844399034977,-0.0005996729014441371,-0.008782191202044487
0.022456269711256027,0.004363126587122679,-0.014059317298233509,0.011024347506463528,-0.0005546592874452472,-0.008794479072093964
0.02208683080971241,0.004371069371700287,-0.014466054737567902,0.011482040397822857,-0.0005150302313268185,-0.008737284690141678
0.02208683080971241,0.004371069371700287,-0.014466054737567902,0.011482040397822857,-0.0005150302313268185,-0.008737284690141678
0.019967112690210342,0.0045848386362195015,-0.014312182553112507,0.011521309614181519,-0.00045754070742987096,-0.008576949127018452
0.023262908682227135,0.004251548554748297,-0.014069405384361744,0.011210663244128227,-0.0004495752218645066,-0.008898471482098103
0.023457782343029976,0.0043108039535582066,-0.013419074937701225,0.011066713370382786,-0.00044772299588657916,-0.009186282753944397
0.022561728954315186,0.004638888873159885,-0.014184215106070042,0.01115124486386776,-0.0004753611283376813,-0.008941459469497204
0.022715063765645027,0.004360659513622522,-0.014979751780629158,0.010698167607188225,-0.0006329996977001429,-0.009371564723551273
0.022715063765645027,0.004360659513622522,-0.014979751780629158,0.010698167607188225,-0.0006329996977001429,-0.009371564723551273
0.023300442844629288,0.004517429042607546,-0.01461668312549591,0.011597828939557076,-0.0007836735458113253,-0.00933784805238247
0.023156331852078438,0.00450143963098526,-0.014739357866346836,0.01129799522459507,-0.0008066903101280332,-0.008974839001893997
0.022844480350613594,0.0048502362333238125,-0.014877907931804657,0.011618385091423988,-0.0007409267709590495,-0.009467372670769691
0.022126896306872368,0.004351980052888393,-0.015490279532968998,0.01181762758642435,-0.0007525914115831256,-0.008847068063914776
0.022268937900662422,0.004437847528606653,-0.015252333134412766,0.011595982126891613,-0.0006866115727461874,-0.009695366956293583
0.023006288334727287,0.004211584106087685,-0.015722937881946564,0.012015003710985184,-0.0006271256715990603,-0.009372697211802006
0.02383926883339882,0.003991489298641682,-0.015397858805954456,0.011280475184321404,-0.0006205750978551805,-0.00943631213158369
0.023181907832622528,0.004414989147335291,-0.015535724349319935,0.010996797122061253,-0.0005654212436638772,-0.009836763143539429
0.02313321642577648,0.004282193724066019,-0.015122170560061932,0.010680560022592545,-0.0005318110925145447,-0.00990482047200203
0.02319563739001751,0.004827397409826517,-0.015593030489981174,0.010945223271846771,-0.0004854088765569031,-0.009856400080025196
0.02369418740272522,0.0043826354667544365,-0.014970462769269943,0.010366195812821388,-0.0005143751623108983,-0.010021630674600601
0.02409241907298565,0.003989802207797766,-0.01580745540559292,0.010895995423197746,-0.0004796891880687326,-0.009775802493095398
0.024016059935092926,0.004153228830546141,-0.015582393854856491,0.01195482723414898,-0.00050102558452636,-0.010445816442370415
0.02369118481874466,0.004304395988583565,-0.01405851449817419,0.01248477678745985,-0.00047544913832098246,-0.009807365015149117
0.023733852431178093,0.00433890288695693,-0.01529244240373373,0.012784978374838829,-0.0004673396178986877,-0.009375713765621185
0.023940997198224068,0.004143658094108105,-0.015958258882164955,0.0125067587941885,-0.0004274466773495078,-0.009669780731201172
0.024382667616009712,0.004479776136577129,-0.015615299344062805,0.012889517471194267,-0.00044785396312363446,-0.010137165896594524
0.024650461971759796,0.004166335333138704,-0.01578427478671074,0.01307574100792408,-0.0004299121501389891,-0.010141122154891491
0.02422618679702282,0.004339609760791063,-0.01577109843492508,0.012685244902968407,-0.0003992642159573734,-0.010394002310931683
0.023884877562522888,0.00433292705565691,-0.015519057400524616,0.012435976415872574,-0.00042945757741108537,-0.010790031403303146
0.024192582815885544,0.004611121024936438,-0.01575612463057041,0.011996745131909847,-0.00040556074236519635,-0.010881798341870308
0.024192582815885544,0.004611121024936438,-0.01575612463057041,0.011996745131909847,-0.00040556074236519635,-0.010881798341870308
0.02463459223508835,0.004126380197703838,-0.016164517030119896,0.012201677076518536,-0.0004106133128516376,-0.010456508956849575
0.02454361878335476,0.00422682473435998,-0.015154357068240643,0.01202469039708376,-0.00038865709211677313,-0.01011628657579422
0.02454361878335476,0.00422682473435998,-0.015154357068240643,0.01202469039708376,-0.00038865709211677313,-0.01011628657579422
0.024977615103125572,0.004423406906425953,-0.015928732231259346,0.012112237513065338,-0.00036997601273469627,-0.010347092524170876
0.02467917650938034,0.003467472968623042,-0.016026459634304047,0.012124601751565933,-0.0004068010312039405,-0.01053780596703291
0.02467917650938034,0.003467472968623042,-0.016026459634304047,0.012124601751565933,-0.0004068010312039405,-0.01053780596703291
0.02502354048192501,0.004314091056585312,-0.015835588797926903,0.011884842999279499,-0.000393500056816265,-0.01121937669813633
0.025275900959968567,0.004616722464561462,-0.01590479537844658,0.011362134478986263,-0.0004128438013140112,-0.010680160485208035
0.024931062012910843,0.004286299925297499,-0.01615064963698387,0.01290163304656744,-0.0004006961244158447,-0.010675016790628433
0.025349602103233337,0.004012207966297865,-0.01592145301401615,0.013270847499370575,-0.00041733431862667203,-0.010853474959731102
0.02529420703649521,0.003939637448638678,-0.01600480079650879,0.01281578466296196,-0.0004062631633132696,-0.009729700163006783
0.02513272687792778,0.004353486932814121,-0.01567360758781433,0.01233924925327301,-0.0005429116426967084,-0.009574445895850658
0.02524975687265396,0.004206568468362093,-0.016391975805163383,0.012731481343507767,-0.000579936255235225,-0.010308421216905117
0.02575337141752243,0.0039027428720146418,-0.016063665971159935,0.012581577524542809,-0.0005368763231672347,-0.009913013316690922
0.02592780813574791,0.00393924443051219,-0.015491410158574581,0.012005064636468887,-0.0005281368503347039,-0.010643098503351212
0.02588666044175625,0.003960217349231243,-0.01608721725642681,0.0123628294095397,-0.0005498117534443736,-0.010778534226119518
0.02615007944405079,0.004259707406163216,-0.01646771840751171,0.012397782877087593,-0.0005873574991710484,-0.010972904972732067
0.025458939373493195,0.004444085992872715,-0.016129299998283386,0.012563474476337433,-0.000635193136986345,-0.010505326092243195
0.025095071643590927,0.0040211146697402,-0.016146326437592506,0.0123864421620965,-0.0006166257662698627,-0.011168836615979671
0.025783756747841835,0.0034802155569195747,-0.015843840315937996,0.012481028214097023,-0.0006243460229597986,-0.010074102319777012
0.026036961004137993,0.0033699464984238148,-0.016308989375829697,0.012820248492062092,-0.0005871814792044461,-0.010148824192583561
0.0252228956669569,0.004257332533597946,-0.015849556773900986,0.012576833367347717,-0.0006097642472013831,-0.01075686328113079
0.02557121403515339,0.004621656611561775,-0.01652556285262108,0.012378732673823833,-0.0006426321342587471,-0.011078698560595512
0.026919923722743988,0.004377111326903105,-0.01626114547252655,0.012964697554707527,-0.0007180028478614986,-0.01112239621579647
0.026341240853071213,0.004391169641166925,-0.016151614487171173,0.012609116733074188,-0.0007431440753862262,-0.011286360211670399
0.02625155635178089,0.004268909338861704,-0.016717078164219856,0.013008545152842999,-0.0007733863312751055,-0.010651694610714912
0.025882886722683907,0.004079097416251898,-0.01628486067056656,0.012479869648814201,-0.0009550752583891153,-0.009996052831411362
0.02527329884469509,0.003479561535641551,-0.01651591621339321,0.01306426152586937,-0.0010068709962069988,-0.010417362675070763
0.026368530467152596,0.004047563765197992,-0.015827199444174767,0.012683743610978127,-0.0008697719313204288,-0.010867021977901459
0.02690708450973034,0.0041533238254487514,-0.016390783712267876,0.013568585738539696,-0.0008572417427785695,-0.0107867531478405
0.02657982148230076,0.0043075233697891235,-0.016326839104294777,0.013498969376087189,-0.0007671763887628913,-0.011021852493286133
0.02625986561179161,0.0045995269902050495,-0.01661565527319908,0.014043508097529411,-0.0007315815309993923,-0.010997139848768711
0.02625986561179161,0.0045995269902050495,-0.01661565527319908,0.014043508097529411,-0.0007315815309993923,-0.010997139848768711
0.02628839761018753,0.004633160308003426,-0.01660473272204399,0.013386871665716171,-0.0007023524376563728,-0.010596629232168198
0.026301495730876923,0.004383287392556667,-0.01648188754916191,0.013653530739247799,-0.000618692603893578,-0.01049052644520998
0.026299482211470604,0.004097442142665386,-0.016931816935539246,0.013480686582624912,-0.0005923372227698565,-0.010733887553215027
0.02632460743188858,0.004454013891518116,-0.016041047871112823,0.013226799666881561,-0.0005750880227424204,-0.010952741838991642
0.02639440819621086,0.0042956434190273285,-0.01675342209637165,0.013327539898455143,-0.0006032142555341125,-0.011457813903689384
0.02626766823232174,0.0043800040148198605,-0.016497178003191948,0.013486592099070549,-0.0006136347074061632,-0.010976685211062431
0.026827372610569,0.004608048126101494,-0.016746358945965767,0.014108655042946339,-0.0005823193932883441,-0.011017067357897758
0.026423746719956398,0.004685561638325453,-0.016936169937253,0.014223644509911537,-0.0006753476918675005,-0.011323919519782066
0.02716716006398201,0.0042958385311067104,-0.017186367884278297,0.013604622334241867,-0.00063542794669047,-0.011002007871866226
0.025640372186899185,0.004024485591799021,-0.017060140147805214,0.013518676161766052,-0.0005743390647694468,-0.011359392665326595
0.02696598321199417,0.004230755381286144,-0.016766507178544998,0.01358806248754263,-0.0005939686088822782,-0.011303977109491825
0.027324585244059563,0.0045907748863101006,-0.016951125115156174,0.014103819616138935,-0.0005520195700228214,-0.01158932689577341
0.026851672679185867,0.004808352794498205,-0.01703222468495369,0.013222319073975086,-0.0005707340897060931,-0.011483827605843544
0.026659522205591202,0.004721285775303841,-0.01771390624344349,0.014626220799982548,-0.0005643689655698836,-0.011453376151621342
0.02677307464182377,0.0044614034704864025,-0.01737881451845169,0.013942494057118893,-0.0005791204166598618,-0.011380134150385857
0.026669247075915337,0.0043169353157281876,-0.017187967896461487,0.014144569635391235,-0.0006114279385656118,-0.0116286501288414
0.027694381773471832,0.004431609064340591,-0.017612136900424957,0.013581650331616402,-0.0006603562505915761,-0.012042549438774586
0.02778051793575287,0.004499704111367464,-0.01742054708302021,0.014879092574119568,-0.0006303064292296767,-0.011519962921738625
0.028014957904815674,0.004867099691182375,-0.01788085326552391,0.013910571113228798,-0.000855740625411272,-0.011795061640441418
0.026580113917589188,0.0047254376113414764,-0.017056278884410858,0.013904668390750885,-0.0008642923785373569,-0.011517510749399662
0.027192020788788795,0.004448746796697378,-0.017507096752524376,0.01317265722900629,-0.0007607152801938355,-0.01169636007398367
0.027192020788788795,0.004448746796697378,-0.017507096752524376,0.01317265722900629,-0.0007607152801938355,-0.01169636007398367
0.028005221858620644,0.004349392373114824,-0.017783189192414284,0.014070621691644192,-0.0007706372998654842,-0.012085024267435074
0.02740952931344509,0.004549848847091198,-0.017280779778957367,0.013706047087907791,-0.0006925949128344655,-0.01152010913938284
0.027648385614156723,0.0045912559144198895,-0.01801370643079281,0.014286763966083527,-0.0006895053666085005,-0.011405608616769314
0.02842482551932335,0.004464642144739628,-0.017595740035176277,0.014051588252186775,-0.0006475463160313666,-0.011443810537457466
0.0285593681037426,0.004817263223230839,-0.017994722351431847,0.01397705078125,-0.0005732580902986228,-0.011563973501324654
0.028494669124484062,0.004871803801506758,-0.01801098883152008,0.013772645965218544,-0.0005782858352176845,-0.01209563110023737
0.027713119983673096,0.00478232279419899,-0.017069881781935692,0.014374851249158382,-0.0005424126866273582,-0.01166494283825159
0.027861203998327255,0.004611054435372353,-0.01803005300462246,0.014072705991566181,-0.0005339353228919208,-0.011723044328391552
0.028751591220498085,0.004598709288984537,-0.019077008590102196,0.01431913673877716,-0.0005254746647551656,-0.011427242308855057
0.02897438034415245,0.004655018914490938,-0.01826055347919464,0.01412464864552021,-0.0004871785640716553,-0.01193112414330244
0.028775423765182495,0.0048538860864937305,-0.01812073588371277,0.014477554708719254,-0.0004998198128305376,-0.011998612433671951
0.028723184019327164,0.005142476875334978,-0.01759098470211029,0.014480737037956715,-0.0004811898688785732,-0.011897294782102108
0.02878917008638382,0.00493831979110837,-0.017959866672754288,0.01470155268907547,-0.000518599059432745,-0.01203848421573639
0.028786081820726395,0.004782369360327721,-0.018222693353891373,0.01375040877610445,-0.0005211412790231407,-0.0121843246743083
0.028661945834755898,0.004697800148278475,-0.01787179708480835,0.013783937320113182,-0.0005134683451615274,-0.011778770014643669
0.028332920745015144,0.005080174654722214,-0.018554000183939934,0.013850115239620209,-0.0005390882724896073,-0.012084249407052994
0.02954331412911415,0.0048848604783415794,-0.01745300181210041,0.014611310325562954,-0.0005304325604811311,-0.011957507580518723
0.029571428894996643,0.004732281435281038,-0.01827140524983406,0.014516204595565796,-0.0005017801304347813,-0.011882069520652294
0.029099011793732643,0.004784820135682821,-0.018782492727041245,0.014721264131367207,-0.0006697652861475945,-0.011897686868906021
0.029496368020772934,0.0048087299801409245,-0.01833057962357998,0.014312736690044403,-0.0007044327794574201,-0.011918554082512856
0.029618961736559868,0.0045913285575807095,-0.018355606123805046,0.014143617823719978,-0.0006567317759618163,-0.012028438970446587
0.03003675676882267,0.004073468502610922,-0.018158823251724243,0.014270741492509842,-0.0006695477059110999,-0.012289304286241531
0.03007585182785988,0.004361241590231657,-0.01818171516060829,0.014728400856256485,-0.0006217475747689605,-0.012020392343401909
0.02925851009786129,0.004534844774752855,-0.018407953903079033,0.014872860163450241,-0.0006542409537360072,-0.012003707699477673
0.02957574836909771,0.004752703011035919,-0.017754703760147095,0.014628293924033642,-0.0007014559814706445,-0.011758903041481972
0.029968824237585068,0.004478284623473883,-0.018136145547032356,0.014505456201732159,-0.0006733119371347129,-0.01172171626240015
0.03004920296370983,0.004446165636181831,-0.018972450867295265,0.014791576191782951,-0.000695046444889158,-0.011871647089719772
0.030294116586446762,0.004673642572015524,-0.01854782924056053,0.015122621320188046,-0.0006976154400035739,-0.011818001978099346
0.030179457738995552,0.0047054472379386425,-0.018658775836229324,0.014939489774405956,-0.0006548414239659905,-0.012230890803039074
0.03029617667198181,0.004976259544491768,-0.018570758402347565,0.015034987591207027,-0.0006602165522053838,-0.01181398518383503
0.03018343262374401,0.004592330195009708,-0.018348075449466705,0.01461748592555523,-0.0006252817111089826,-0.011837135069072247
0.03018343262374401,0.004592330195009708,-0.018348075449466705,0.01461748592555523,-0.0006252817111089826,-0.011837135069072247
0.030466895550489426,0.004288725554943085,-0.018758321180939674,0.015051926486194134,-0.0006544208154082298,-0.012552901171147823
0.030542511492967606,0.004512186627835035,-0.018334217369556427,0.014783370308578014,-0.0006615628954023123,-0.012019877322018147
0.030499637126922607,0.004637731239199638,-0.018537336960434914,0.015080796554684639,-0.0006189759587869048,-0.01233655121177435
0.030755827203392982,0.004322935361415148,-0.01905682310461998,0.01452950481325388,-0.000634427706245333,-0.012791815213859081
0.031463731080293655,0.00455450639128685,-0.01837097853422165,0.015132212080061436,-0.0005954885273240507,-0.012830492109060287
0.032281044870615005,0.004322815220803022,-0.018352746963500977,0.014781907200813293,-0.0006750206230208278,-0.013553697615861893
0.031111277639865875,0.004327257163822651,-0.01888573355972767,0.015386704355478287,-0.0007323478348553181,-0.012875945307314396
0.03077327087521553,0.004495975095778704,-0.018966391682624817,0.014931544661521912,-0.0007526014233008027,-0.012223758734762669
0.03234531730413437,0.004232396371662617,-0.018839657306671143,0.015128038823604584,-0.0007089519058354199,-0.012354021891951561
0.03138913959264755,0.004507838282734156,-0.019306223839521408,0.015115614980459213,-0.0008941067499108613,-0.013045884668827057
0.031544651836156845,0.004628338385373354,-0.018656522035598755,0.015258153900504112,-0.0008359943167306483,-0.01272846944630146
0.03212527185678482,0.004729580599814653,-0.019193096086382866,0.014763857237994671,-0.0007675316883251071,-0.012810676358640194
0.031460702419281006,0.004276588559150696,-0.018624497577548027,0.014907093718647957,-0.0007068635895848274,-0.012987613677978516
0.031220240518450737,0.004394950345158577,-0.01940908469259739,0.015787042677402496,-0.0007152592879720032,-0.01256047934293747
0.03275678679347038,0.004281927365809679,-0.019276196137070656,0.01589333824813366,-0.0006661760853603482,-0.012900340370833874
0.03250742331147194,0.004492498934268951,-0.018313204869627953,0.015523813664913177,-0.000569659867323935,-0.013111713342368603
0.03274459019303322,0.004374177660793066,-0.01972081884741783,0.015702109783887863,-0.0005532529903575778,-0.013048245571553707
0.03282741457223892,0.0043625072576105595,-0.020124727860093117,0.01554872002452612,-0.0005410980083979666,-0.013449491932988167
0.03243037313222885,0.0044143772684037685,-0.01936943270266056,0.015682600438594818,-0.0005708600510843098,-0.013328349217772484
0.032218821346759796,0.004035739693790674,-0.01925577223300934,0.015087621286511421,-0.000600720988586545,-0.013168497942388058
0.0325235053896904,0.0038597453385591507,-0.019613895565271378,0.01618204638361931,-0.0008113097865134478,-0.01307499036192894
0.0327560231089592,0.004238706547766924,-0.01901845633983612,0.015365145169198513,-0.000867442402523011,-0.013489761389791965
0.032610103487968445,0.00462881987914443,-0.01949070394039154,0.014842290431261063,-0.0008462085970677435,-0.013658934272825718
0.03308027610182762,0.004449720960110426,-0.020534759387373924,0.014687632210552692,-0.0008022610563784838,-0.013676594011485577
0.03313525766134262,0.0040734452195465565,-0.020861905068159103,0.01554278377443552,-0.0008928253664635122,-0.013164201751351357
0.03281840682029724,0.004160463344305754,-0.019767211750149727,0.015437123365700245,-0.000902131199836731,-0.01352354884147644
0.03277553245425224,0.004115117248147726,-0.019958114251494408,0.0161933284252882,-0.0007895967573858798,-0.013029810041189194
0.03277553245425224,0.004115117248147726,-0.019958114251494408,0.0161933284252882,-0.0007895967573858798,-0.013029810041189194
0.0328805074095726,0.004316507838666439,-0.020130988210439682,0.01665300503373146,-0.0007961232913658023,-0.013210288248956203
0.033772554248571396,0.0045899152755737305,-0.019983192905783653,0.015426820144057274,-0.0007304912433028221,-0.012505199760198593
0.033772554248571396,0.0045899152755737305,-0.019983192905783653,0.015426820144057274,-0.0007304912433028221,-0.012505199760198593
0.035011664032936096,0.004371821414679289,-0.020192435011267662,0.015139251947402954,-0.000684041646309197,-0.013108782470226288
0.03449023514986038,0.004473818000406027,-0.019679414108395576,0.01482438575476408,-0.0007097982452251017,-0.013195294886827469
0.03237016126513481,0.004542659502476454,-0.019942089915275574,0.014150976203382015,-0.0006846446194685996,-0.013891746290028095
0.03295336291193962,0.004104947205632925,-0.020186027511954308,0.014952490106225014,-0.0006587381358258426,-0.013894879259169102
0.03447769209742546,0.0039098127745091915,-0.01998736336827278,0.01530655287206173,-0.0006616723258048296,-0.01372499018907547
0.034864455461502075,0.004626859910786152,-0.020411329343914986,0.01569370925426483,-0.0006600714405067265,-0.01367433462291956
0.03440067917108536,0.004247242119163275,-0.0202566459774971,0.015108516439795494,-0.0006826453609392047,-0.01368867326527834
0.03395291045308113,0.004240091424435377,-0.02015533484518528,0.015067827887833118,-0.000667898275423795,-0.013782784342765808
0.03337451070547104,0.004164836369454861,-0.02082856558263302,0.015506323426961899,-0.0006446890765801072,-0.013726617209613323
0.03360770642757416,0.004313224460929632,-0.02046492137014866,0.015765324234962463,-0.0006653864402323961,-0.013734911568462849
0.03418505936861038,0.004454680718481541,-0.02037515491247177,0.016713565215468407,-0.0007155051571317017,-0.01369188167154789
0.03395794332027435,0.004333504941314459,-0.020502397790551186,0.016772544011473656,-0.000650828005746007,-0.013716422952711582
0.033893439918756485,0.004548280965536833,-0.02059384435415268,0.01647997461259365,-0.00057066953741014,-0.013761105015873909
0.033940210938453674,0.0042228177189826965,-0.020267043262720108,0.017419040203094482,-0.0006003110320307314,-0.014215377159416676
0.03415461629629135,0.004440965596586466,-0.020285099744796753,0.01617765985429287,-0.0006122367340140045,-0.014147180132567883
0.034370243549346924,0.004516838118433952,-0.02102731540799141,0.016061827540397644,-0.0006168802501633763,-0.013912063091993332
0.033994656056165695,0.004591040313243866,-0.02075028233230114,0.015380991622805595,-0.000606719171628356,-0.014075292274355888
0.03406112641096115,0.004753150045871735,-0.020115286111831665,0.015675775706768036,-0.000614664691966027,-0.013880021870136261
0.0343305803835392,0.004563170950859785,-0.020415641367435455,0.016346555203199387,-0.0006471267552115023,-0.013996492139995098
0.03478608280420303,0.004343893378973007,-0.020778251811861992,0.016250690445303917,-0.0006743432022631168,-0.014023971743881702
0.03478608280420303,0.004343893378973007,-0.020778251811861992,0.016250690445303917,-0.0006743432022631168,-0.014023971743881702
0.03289097920060158,0.004476123955100775,-0.020634900778532028,0.017237618565559387,-0.0006963585037738085,-0.014153603464365005
0.034983452409505844,0.004567726515233517,-0.02039208821952343,0.017124297097325325,-0.0008319783955812454,-0.01380112860351801
0.03496568277478218,0.004809256177395582,-0.020603133365511894,0.017336184158921242,-0.0008892561309039593,-0.013893231749534607
0.03465157747268677,0.004348404239863157,-0.020843585953116417,0.01715618371963501,-0.0008767893887124956,-0.013769525103271008
0.0345168262720108,0.004276050254702568,-0.019977156072854996,0.01660997048020363,-0.0008788598934188485,-0.014784214086830616
0.03536916896700859,0.004213254898786545,-0.020589932799339294,0.016886236146092415,-0.0008074389188550413,-0.01385156437754631
0.035155683755874634,0.004347285721451044,-0.020777281373739243,0.016335895285010338,-0.0008106905152089894,-0.014177837409079075
0.03485989198088646,0.004594604484736919,-0.020461250096559525,0.016742458567023277,-0.0008030610042624176,-0.01416930090636015
0.03511706739664078,0.0047334409318864346,-0.020034905523061752,0.01672186329960823,-0.0007266005268320441,-0.014369241893291473
0.035428039729595184,0.004403294995427132,-0.02112744376063347,0.017181148752570152,-0.0007412206614390016,-0.014111347496509552
0.035685889422893524,0.004477409645915031,-0.020557330921292305,0.017108218744397163,-0.0006852946826256812,-0.014410657808184624
0.03534304350614548,0.004746495746076107,-0.021039938554167747,0.017318319529294968,-0.000633616407867521,-0.014507141895592213
0.03527950495481491,0.004433175548911095,-0.021372253075242043,0.017054785043001175,-0.0005918893148191273,-0.014209579676389694
0.03599924221634865,0.004516270011663437,-0.02087884396314621,0.017450137063860893,-0.0006019922439008951,-0.014523690566420555
0.03665848821401596,0.004448034334927797,-0.019808536395430565,0.017674317583441734,-0.0006080445018596947,-0.014567894861102104
0.036497101187705994,0.004816725384443998,-0.02167034149169922,0.017288630828261375,-0.0006340957479551435,-0.014806191436946392
0.034463439136743546,0.004799708724021912,-0.021978288888931274,0.017542701214551926,-0.000753904168959707,-0.014801117591559887
0.035969026386737823,0.004877106752246618,-0.022148584946990013,0.017375599592924118,-0.0008906148141250014,-0.014881537295877934
0.03606368973851204,0.0046178922057151794,-0.021634701639413834,0.017583079636096954,-0.0009085028432309628,-0.014750097878277302
0.036580901592969894,0.004911147523671389,-0.021691754460334778,0.017908992245793343,-0.000908412504941225,-0.015037313103675842
0.037460893392562866,0.004953764379024506,-0.021388521417975426,0.01742088794708252,-0.0009456154657527804,-0.014597560279071331
0.03677844628691673,0.004731024615466595,-0.021252784878015518,0.017762932926416397,-0.000886873051058501,-0.014702461659908295
0.03572186455130577,0.00457199290394783,-0.021467577666044235,0.017685627564787865,-0.0008750497363507748,-0.014836372807621956
0.035773277282714844,0.004551284480839968,-0.0219984520226717,0.01738009601831436,-0.0007679552654735744,-0.015233594924211502
0.03709391877055168,0.004614715930074453,-0.02157466672360897,0.017963875085115433,-0.0007769707590341568,-0.014840069226920605
0.036143895238637924,0.0046607572585344315,-0.021929504349827766,0.01797407492995262,-0.0006976539734750986,-0.015128019265830517
0.03702857345342636,0.00453941198065877,-0.021296394988894463,0.018440769985318184,-0.0007116755587048829,-0.014621464535593987
0.03702857345342636,0.00453941198065877,-0.021296394988894463,0.018440769985318184,-0.0007116755587048829,-0.014621464535593987
0.036771662533283234,0.004430856555700302,-0.022259896621108055,0.01840389147400856,-0.0006564254872500896,-0.014625690877437592
0.03605116158723831,0.004439737182110548,-0.022109903395175934,0.018026310950517654,-0.0005523444269783795,-0.014868216589093208
0.03690960258245468,0.0045927767641842365,-0.02191772125661373,0.018496651202440262,-0.0005813477328047156,-0.014984008856117725
0.036697063595056534,0.004687078297138214,-0.02063940092921257,0.018109077587723732,-0.0005947005702182651,-0.0148741090670228
0.03643987700343132,0.00427309749647975,-0.021350588649511337,0.01727415807545185,-0.0005619177245534956,-0.015016199089586735
0.03727389872074127,0.004333063494414091,-0.021960409358143806,0.01762782782316208,-0.0005857157520949841,-0.015421655029058456
0.03697237744927406,0.004988991189748049,-0.022308286279439926,0.01725783944129944,-0.0006990733090788126,-0.01509303878992796
0.03671368584036827,0.004486438352614641,-0.02185574173927307,0.018122181296348572,-0.0007464948575943708,-0.014754724688827991
0.03698083013296127,0.004524588584899902,-0.02175227552652359,0.018488943576812744,-0.0007673396612517536,-0.014940163120627403
0.038346096873283386,0.004500426817685366,-0.022144164890050888,0.018323777243494987,-0.0007824688800610602,-0.015114831738173962
0.03771297633647919,0.0047146836295723915,-0.02194029651582241,0.0180247463285923,-0.0009351915796287358,-0.014872459694743156
0.036135826259851456,0.004807830788195133,-0.022072896361351013,0.017510395497083664,-0.000980151817202568,-0.01528308168053627
0.037781182676553726,0.004807648714631796,-0.022031987085938454,0.017840851098299026,-0.0009523037006147206,-0.015474806539714336
0.03793783113360405,0.0045806062407791615,-0.022006237879395485,0.01796397753059864,-0.000833241268992424,-0.015596498735249043
0.03902122750878334,0.004553165286779404,-0.02184336818754673,0.018089840188622475,-0.0007683392614126205,-0.015688296407461166
0.038327109068632126,0.004651856143027544,-0.021930208429694176,0.018255285918712616,-0.0006979210302233696,-0.015603221021592617
0.036560188978910446,0.004580438137054443,-0.022421786561608315,0.01752285659313202,-0.0006106820655986667,-0.0148733826354146
0.03879847750067711,0.004897192120552063,-0.022520137950778008,0.017941007390618324,-0.0006375928060151637,-0.014981566928327084
0.03908386453986168,0.005300913937389851,-0.022070670500397682,0.017970941960811615,-0.0006586175877600908,-0.015576213598251343
0.037854842841625214,0.0046104928478598595,-0.021756568923592567,0.0181569904088974,-0.0006702637183479965,-0.015610853210091591
0.03879696503281593,0.0044391280971467495,-0.02203797735273838,0.019138598814606667,-0.0006326480652205646,-0.01583242416381836
0.038704901933670044,0.004631055518984795,-0.022626128047704697,0.01892770640552044,-0.0007902057259343565,-0.01581023819744587
0.038544896990060806,0.0046455212868750095,-0.022593719884753227,0.01899424009025097,-0.0008449889137409627,-0.015609472058713436
0.03927813097834587,0.004622287582606077,-0.02205987647175789,0.01917591691017151,-0.000874629186000675,-0.015653545036911964
0.038718413561582565,0.004584424663335085,-0.022265171632170677,0.019183872267603874,-0.001323755132034421,-0.015797335654497147
0.038701381534338,0.0045955972746014595,-0.02214624360203743,0.019353564828634262,-0.001265157014131546,-0.016172809526324272
0.03916119411587715,0.004170942585915327,-0.02289884351193905,0.0197449903935194,-0.0010909643024206161,-0.015980765223503113
0.03909817337989807,0.004399295896291733,-0.023490844294428825,0.01938817836344242,-0.0010549483122304082,-0.016205744817852974
0.03909817337989807,0.004399295896291733,-0.023490844294428825,0.01938817836344242,-0.0010549483122304082,-0.016205744817852974
0.039513785392045975,0.004151613917201757,-0.022481417283415794,0.01912165805697441,-0.0009225124958902597,-0.0161924809217453
0.039665475487709045,0.004410152789205313,-0.022699853405356407,0.019704392179846764,-0.0008824675460346043,-0.01604640670120716
0.038024529814720154,0.004507605917751789,-0.0225137397646904,0.019799986854195595,-0.0008826517150737345,-0.015916157513856888
0.04009196162223816,0.004716761875897646,-0.022352756932377815,0.019254131242632866,-0.0008997152326628566,-0.015654804185032845
0.0403616838157177,0.0046542370691895485,-0.022321097552776337,0.018728161230683327,-0.0010066591203212738,-0.016243726015090942
0.03958519548177719,0.004505602642893791,-0.023064550012350082,0.018339071422815323,-0.0010084669338539243,-0.01663873717188835
0.039959777146577835,0.004315147642046213,-0.023143019527196884,0.018478555604815483,-0.0008856067433953285,-0.016729027032852173
0.04002590849995613,0.004420990590006113,-0.02354361303150654,0.019009845331311226,-0.0008803674136288464,-0.016420964151620865
0.040132828056812286,0.004659808706492186,-0.023882942274212837,0.0192952211946249,-0.000790802703704685,-0.016834145411849022
0.03999146446585655,0.004900716710835695,-0.02416240982711315,0.019461266696453094,-0.0007017389289103448,-0.016601206734776497
0.040311455726623535,0.004328432958573103,-0.023208120837807655,0.0191018208861351,-0.0006662808009423316,-0.016897225752472878
0.039966993033885956,0.004156117793172598,-0.02332574501633644,0.01911005936563015,-0.0006902038003318012,-0.016797056421637535
0.041551362723112106,0.004011594690382481,-0.023812247440218925,0.01945982500910759,-0.000712387845851481,-0.01668578013777733
0.041433487087488174,0.003951312508434057,-0.024324223399162292,0.01905275136232376,-0.0006961530307307839,-0.016833363100886345
