davideferrari95/blind_handover_controller/data/Test 294 - [2024-02-08 -- 14-01-10]/joint_states_data.csv
shoulder_pan_joint,shoulder_lift_joint,elbow_joint,wrist_1_joint,wrist_2_joint,wrist_3_joint
0.00659894710406661,0.008800674229860306,-0.009923762641847134,0.0025760626886039972,-7.979833026183769e-05,0.006886446848511696
0.00659894710406661,0.008800674229860306,-0.009923762641847134,0.0025760626886039972,-7.979833026183769e-05,0.006886446848511696
0.006220472976565361,0.00888186227530241,-0.010193550027906895,0.0027822148986160755,-1.0278736226609908e-05,0.006951151415705681
0.0061995405703783035,0.008350707590579987,-0.010186419822275639,0.0029057080391794443,-6.711280775562045e-07,0.006588476710021496
0.006763228215277195,0.008827402256429195,-0.010256597772240639,0.0030276160687208176,-4.38198703989201e-08,0.00653034495189786
0.00644393265247345,0.008969783782958984,-0.010273345746099949,0.002837608102709055,-2.8611242264275916e-09,0.006595083978027105
0.006276594940572977,0.008585313335061073,-0.010238020680844784,0.002757403766736388,-1.8681098334916157e-10,0.0068446435034275055
0.006005881819874048,0.00890839472413063,-0.009974713437259197,0.0027078150305896997,-1.2197423626680859e-11,0.006946937646716833
0.006242732051759958,0.009387180209159851,-0.00994598027318716,0.0025291042402386665,-7.964046089270482e-13,0.006706922315061092
0.006290475372225046,0.009142404422163963,-0.009905928745865822,0.0025456601288169622,-5.1999535591058105e-14,0.006837932392954826
0.0063160741701722145,0.008258665911853313,-0.009977182373404503,0.002567682880908251,-3.3951981613796704e-15,0.0069037131033837795
0.006419530138373375,0.008593909442424774,-0.010326976887881756,0.002346423687413335,-2.2168219393761468e-16,0.006523318123072386
0.005760550498962402,0.009049460291862488,-0.009713745675981045,0.0024883539881557226,-1.447426278444277e-17,0.006483272649347782
0.006319442763924599,0.008428256958723068,-0.009654225781559944,0.0024737808853387833,-9.450658439607161e-19,0.0065640234388411045
0.006319442763924599,0.008428256958723068,-0.009654225781559944,0.0024737808853387833,-9.450658439607161e-19,0.0065640234388411045
0.0059491409920156,0.009135288186371326,-0.009676982648670673,0.002722028410062194,-4.028963715301734e-21,0.007158657070249319
0.005952475592494011,0.008281205780804157,-0.010506320744752884,0.002760309958830476,-2.6306256940197984e-22,0.006831583566963673
0.005852291360497475,0.008337480947375298,-0.01003094483166933,0.0024315714836120605,-1.7176106725370467e-23,0.0065376851707696915
0.005852291360497475,0.008337480947375298,-0.01003094483166933,0.0024315714836120605,-1.7176106725370467e-23,0.0065376851707696915
0.006207858677953482,0.008626863360404968,-0.009661918506026268,0.0022111493162810802,-1.1214770061593044e-24,0.0065133944153785706
0.006473097950220108,0.008418801240622997,-0.009999309666454792,0.002029693452641368,-7.322443580532998e-26,0.006699038203805685
0.006195929832756519,0.008143622428178787,-0.010048546828329563,0.0020635214168578386,-4.781032494163871e-27,0.0070573254488408566
0.006102234590798616,0.007900184951722622,-0.010195571929216385,0.0020217071287333965,-3.12167268005046e-28,0.006543056573718786
0.006450518500059843,0.008694483898580074,-0.010376856662333012,0.0022158906795084476,-2.0382289634218558e-29,0.0065458244644105434
0.00646371953189373,0.008467410691082478,-0.009814782068133354,0.0022666403092443943,-1.3308179677297722e-30,0.006829696707427502
0.006352647673338652,0.008233848959207535,-0.009607885964214802,0.002280130051076412,-8.689290681603225e-32,0.007217660546302795
0.006546334363520145,0.008319024927914143,-0.010449220426380634,0.0024055757094174623,-5.673486015361338e-33,0.006865506060421467
0.006133125629276037,0.008155287243425846,-0.009311429224908352,0.0022480373736470938,-2.418696143102607e-35,0.006144567392766476
0.006739943288266659,0.008382150903344154,-0.009866065345704556,0.002081452403217554,-1.5792356572156384e-36,0.006514142267405987
0.006878267973661423,0.008618478663265705,-0.00981083232909441,0.0020100916735827923,-1.031128098872459e-37,0.006564709357917309
0.0060596405528485775,0.00847164448350668,-0.009484914131462574,0.0020970990881323814,-6.732530064057798e-39,0.006957084406167269
0.006007017567753792,0.008066589944064617,-0.010426773689687252,0.0021551684476435184,-5.082789357402362e-05,0.0065580434165894985
0.006250909063965082,0.008577840402722359,-0.00969745870679617,0.0025422165635973215,-6.674235919490457e-05,0.006419000681489706
0.0070884376764297485,0.008618585765361786,-0.009279643185436726,0.0024105675984174013,-6.683971878373995e-05,0.006775218527764082
0.0066200061701238155,0.008522352203726768,-0.00976638589054346,0.002247113734483719,-6.593114812858403e-05,0.0066977194510400295
0.006285659968852997,0.00816448125988245,-0.009753129445016384,0.002135497983545065,-6.498405855381861e-05,0.006301818415522575
0.00606901478022337,0.008648027665913105,-0.009614735841751099,0.0020558976102620363,-6.405927706509829e-05,0.00644793501123786
0.006262628361582756,0.008931344375014305,-0.010355992242693901,0.0022439390886574984,-6.31611910648644e-05,0.006869550794363022
0.006241615395992994,0.008086631074547768,-0.009641772136092186,0.002214106498286128,-6.22860316070728e-05,0.006791799329221249
0.006045347545295954,0.008061142638325691,-0.009328695945441723,0.0023616759572178125,-6.143532664282247e-05,0.006625660695135593
0.005887173116207123,0.008266446180641651,-0.00986273679882288,0.002345334505662322,-6.060907253413461e-05,0.0063449605368077755
0.006092802155762911,0.008424864150583744,-0.009913640096783638,0.0022043813951313496,-5.980398418614641e-05,0.006792435422539711
0.006092802155762911,0.008424864150583744,-0.009913640096783638,0.0022043813951313496,-5.980398418614641e-05,0.006792435422539711
0.006329853553324938,0.007877779193222523,-0.009513681754469872,0.0020129424519836903,-5.901936674490571e-05,0.006988652981817722
0.006005303468555212,0.00833347998559475,-0.009920481592416763,0.001961710397154093,-5.8255609474144876e-05,0.0072781117632985115
0.006187116261571646,0.008119032718241215,-0.010055814869701862,0.0021132922265678644,-5.751082790084183e-05,0.006939075421541929
0.006231188774108887,0.007961618714034557,-0.009983823634684086,0.0021484827157109976,-5.678511661244556e-05,0.006495043635368347
0.006037897430360317,0.008235312066972256,-0.009949853643774986,0.002346121473237872,-5.607743878499605e-05,0.0066485027782619
0.006460484117269516,0.009064516052603722,-0.009448368102312088,0.002338506979867816,-5.538725235965103e-05,0.00676450040191412
0.006801355630159378,0.007955648005008698,-0.010027824901044369,0.002235924592241645,-6.423039303626865e-05,0.006465894170105457
0.006184064317494631,0.007624514400959015,-0.010946495458483696,0.002300325082615018,-6.477392162196338e-05,0.0061918580904603004
0.00586753198876977,0.007994649931788445,-0.010746493935585022,0.0020512754563242197,-6.409212801372632e-05,0.006335711106657982
0.006258112378418446,0.008272885344922543,-0.00978817418217659,0.0018473131349310279,-6.334591307677329e-05,0.006746555212885141
0.006650963798165321,0.007608015555888414,-0.009901127777993679,0.0018252641893923283,-6.261180533329025e-05,0.006936157122254372
0.006200536619871855,0.008007964119315147,-0.009742571972310543,0.0020320764742791653,-6.189423584146425e-05,0.006939680315554142
0.0058941007591784,0.007750892546027899,-0.010582133196294308,0.0021804594434797764,-6.05071872996632e-05,0.007066385354846716
0.006239969749003649,0.0073129539377987385,-0.009906009770929813,0.002044688444584608,-5.983671508147381e-05,0.006906385999172926
0.006546939257532358,0.007352348417043686,-0.009750770404934883,0.0020162344444543123,-7.707665645284578e-06,0.006913496647030115
0.006355963181704283,0.007689762394875288,-0.01010108832269907,0.0019130778964608908,-5.032554781791987e-07,0.006543612573295832
0.006255468353629112,0.007863111793994904,-0.00978119857609272,0.002088177716359496,-3.2858984866379615e-08,0.0070768315345048904
0.006246807519346476,0.007760518696159124,-0.010087485425174236,0.002243626629933715,-2.1454569232304266e-09,0.007482910994440317
0.005853014532476664,0.008312137797474861,-0.009418880566954613,0.0022062030620872974,-1.4008301463253048e-10,0.006567036733031273
0.006379073020070791,0.008611633442342281,-0.010504321195185184,0.0023040934465825558,-9.146419732708466e-12,0.0056691295467317104
0.006659036036580801,0.007754128891974688,-0.010287025943398476,0.002210048260167241,-5.971959038397756e-13,0.005777067504823208
0.006109820678830147,0.007419523783028126,-0.009667260572314262,0.0023239562287926674,-3.899262640202905e-14,0.0065420642495155334
0.005748892668634653,0.008029124699532986,-0.009722264483571053,0.002340126084163785,-2.545939846814696e-15,0.006784149445593357
0.006293738726526499,0.008128711953759193,-0.009878274984657764,0.0022043506614863873,-1.6623169820631414e-16,0.006412218324840069
0.006560404784977436,0.007540168706327677,-0.009912816807627678,0.002192155225202441,-1.0853740392593083e-17,0.006413768976926804
0.006610803306102753,0.007461894769221544,-0.009699499234557152,0.001977594569325447,-7.086716869634742e-19,0.006839063949882984
0.006758309900760651,0.008962757885456085,-0.009822817519307137,0.0018716242630034685,-4.627119745885779e-20,0.006878315936774015
0.0062312837690114975,0.008099084720015526,-0.009955145418643951,0.0018534125993028283,-3.0211784345863744e-21,0.006643999367952347
0.0066234939731657505,0.007496615871787071,-0.00970535445958376,0.0018449685303494334,-1.9726137151276476e-22,0.0063640703447163105
0.0066234939731657505,0.007496615871787071,-0.00970535445958376,0.0018449685303494334,-1.9726137151276476e-22,0.0063640703447163105
0.006596765946596861,0.007756997365504503,-0.010727982968091965,0.0018458223203197122,-1.2879757243092427e-23,0.006539512425661087
0.006775467656552792,0.00820446852594614,-0.009932085871696472,0.002106095664203167,-8.409561947180627e-25,0.00669949222356081
0.006213826593011618,0.007773284334689379,-0.009253367781639099,0.002018009778112173,-5.490842911482729e-26,0.006458454765379429
0.006529680453240871,0.007329629734158516,-0.00954375322908163,0.0021600450854748487,-3.5851278359405726e-27,0.006405637599527836
0.006575862877070904,0.008187259547412395,-0.009973257780075073,0.001993144629523158,-2.340832310082849e-28,0.006653144955635071
0.006938730366528034,0.008549812249839306,-0.009345201775431633,0.00195893133059144,-1.528396337153836e-29,0.006793816573917866
0.00679230410605669,0.007994571700692177,-0.009516103193163872,0.002028206130489707,-9.979335781418793e-31,0.006521174684166908
0.007418876048177481,0.007742475718259811,-0.009912549518048763,0.00226196669973433,-6.515792810725184e-32,0.006490309722721577
0.007055009715259075,0.0076933312229812145,-0.009492754004895687,0.002327333204448223,-4.2543473177861e-33,0.006716225296258926
0.0066650062799453735,0.00807156041264534,-0.009565177373588085,0.002555274171754718,-1.8136947998789297e-35,0.006841924972832203
0.006538595072925091,0.007431295700371265,-0.009649202227592468,0.0024106623604893684,-1.184213252288092e-36,0.006855033803731203
0.007209258619695902,0.008319665677845478,-0.00962638296186924,0.0023434683680534363,-7.732065608792361e-38,0.007031765300780535
0.007456525228917599,0.008465384133160114,-0.009829791262745857,0.0021166654769331217,-5.048486003392305e-39,0.006812457926571369
0.00704179797321558,0.00794901605695486,-0.00956800114363432,0.0020285167265683413,-5.5177031754283234e-05,0.006900185253471136
0.007453430909663439,0.0076491995714604855,-0.009309513494372368,0.002114346018061042,-7.847496453905478e-05,0.0071545811370015144
0.006834633182734251,0.007664309814572334,-0.009857549332082272,0.001998546998947859,-7.868681859690696e-05,0.0068863146007061005
0.007111174054443836,0.007859640754759312,-0.009566346183419228,0.0021230068523436785,-7.743620517430827e-05,0.007243936415761709
0.007062640972435474,0.007493354845792055,-0.009514052420854568,0.001970503246411681,-7.613281923113391e-05,0.007535991258919239
0.006374068558216095,0.007766542490571737,-0.010120020247995853,0.00197839317843318,-7.486668619094416e-05,0.006983026396483183
0.007158302236348391,0.007857910357415676,-0.009018603712320328,0.0018671347061172128,-7.364150224020705e-05,0.0068628741428256035
0.007019639015197754,0.008095309138298035,-0.00912619661539793,0.0019539662171155214,-7.24557539797388e-05,0.006696088705211878
0.006622307002544403,0.00789649784564972,-0.009315434843301773,0.0020065326243638992,-7.130767335183918e-05,0.006817453075200319
0.006614707410335541,0.007750734221190214,-0.009839560836553574,0.002048468217253685,-7.019529584795237e-05,0.007724887225776911
0.006595373619347811,0.00821975339204073,-0.008692771196365356,0.001935854204930365,-6.911713717272505e-05,0.00747282849624753
0.006977266166359186,0.007595880422741175,-0.00925722811371088,0.0019466648809611797,-6.807160389143974e-05,0.0070647201500833035
0.006977266166359186,0.007595880422741175,-0.00925722811371088,0.0019466648809611797,-6.807160389143974e-05,0.0070647201500833035
0.006620863918215036,0.007359144277870655,-0.009271188639104366,0.0019043610664084554,-6.705729174427688e-05,0.00685134157538414
0.0064084772020578384,0.0079417135566473,-0.009722555056214333,0.002087337663397193,-6.607262912439182e-05,0.006536816246807575
0.00679425336420536,0.007946931757032871,-0.009838211350142956,0.0021832112688571215,-7.64392243581824e-05,0.006625012494623661
0.007246024440973997,0.00750538008287549,-0.009165539406239986,0.002198257250711322,-7.691422797506675e-05,0.006502692122012377
0.006856574676930904,0.007035581395030022,-0.009150241501629353,0.0021356940269470215,-7.593482587253675e-05,0.006495968904346228
0.006784754805266857,0.007671476807445288,-0.009466735646128654,0.002125356113538146,-7.488844858016819e-05,0.0065624830313026905
0.0070337518118321896,0.007940652780234814,-0.009630318731069565,0.0022705697920173407,-7.386445213342085e-05,0.006715003866702318
0.00690844701603055,0.007975861430168152,-0.009085609577596188,0.00213833712041378,-7.286780601134524e-05,0.006667665205895901
0.007392889354377985,0.008355623111128807,-0.00929382536560297,0.0019337594276294112,-7.095297041814774e-05,0.007001593708992004
0.006789664272218943,0.007925018668174744,-0.008767500519752502,0.0019231633050367236,-7.003278005868196e-05,0.006903394591063261
0.006870351731777191,0.007631341926753521,-0.008862759917974472,0.002105209743604064,-6.913615652592853e-05,0.0073420037515461445
0.007257146295160055,0.0075520300306379795,-0.009955990128219128,0.00222552171908319,-7.386977813439444e-05,0.0068032387644052505
0.007206238340586424,0.008031731471419334,-0.009288818575441837,0.002279831562191248,-7.826838555047289e-05,0.006671055685728788
0.006801600567996502,0.007678960915654898,-0.008648140355944633,0.0022568372078239918,-7.765084592392668e-05,0.006922289729118347
0.007018342614173889,0.007387308869510889,-0.009057207964360714,0.002275049453601241,-7.672783976886421e-05,0.007178806234151125
0.00745548726990819,0.007504831533879042,-0.00915867742151022,0.0023396408651024103,-7.580609963042662e-05,0.006968624424189329
0.00723265903070569,0.007597292773425579,-0.00852956622838974,0.0022616684436798096,-7.490490679629147e-05,0.0068194749765098095
0.007054776418954134,0.007337955757975578,-0.009360622614622116,0.0022406072821468115,-7.402477058349177e-05,0.006609867326915264
0.0072736055590212345,0.006920458748936653,-0.009360256604850292,0.002133001806214452,-7.316508708754554e-05,0.006905096583068371
0.007626519538462162,0.0070695532485842705,-0.009220091626048088,0.0020213439129292965,-7.232512871269137e-05,0.007041142787784338
0.007474804297089577,0.00755221676081419,-0.009247810579836369,0.001989025855436921,-7.150429155444726e-05,0.006785282865166664
0.007405496668070555,0.0072906725108623505,-0.009805148467421532,0.002247793134301901,-7.94863881310448e-05,0.006873507983982563
0.0076146055944263935,0.007150852587074041,-0.008839920163154602,0.0026013825554400682,-7.981947419466451e-05,0.00723413797095418
0.007565219886600971,0.007354282308369875,-0.009978244081139565,0.002467397367581725,-2.0299519746913575e-05,0.007274352479726076
0.007360399235039949,0.007789082825183868,-0.009336164221167564,0.0023700264282524586,-1.325413336417114e-06,0.007362098433077335
0.007352310698479414,0.007051603402942419,-0.009498946368694305,0.002159798750653863,-8.654002670027694e-08,0.006874817423522472
0.007364235352724791,0.006927397567778826,-0.00990257877856493,0.0021367487497627735,-5.650444556692946e-09,0.006590306758880615
0.007364235352724791,0.006927397567778826,-0.00990257877856493,0.0021367487497627735,-5.650444556692946e-09,0.006590306758880615
0.007584315724670887,0.006867552641779184,-0.010039431042969227,0.0022238038945943117,-3.689336891543604e-10,0.007056067697703838
0.008166693150997162,0.007480689324438572,-0.009569820947945118,0.002195291221141815,-2.4088736214067374e-11,0.007164482958614826
0.007754606660455465,0.007850533351302147,-0.009565338492393494,0.0022177661303430796,-1.572822276064978e-12,0.006781454663723707
0.007802821695804596,0.0072776139713823795,-0.009980215691030025,0.0021506440825760365,-1.0269405768467688e-13,0.00709581607952714
0.007802160456776619,0.007186547387391329,-0.009561414830386639,0.0023250821977853775,-3.5891993320547044e-05,0.007093410473316908
0.0076734451577067375,0.007647530175745487,-0.009592893533408642,0.0022056817542761564,-9.538239828543738e-05,0.006860286928713322
0.007468074094504118,0.007044381462037563,-0.009705853648483753,0.0021684332750737667,-9.725319978315383e-05,0.0071445005014538765
0.008096964098513126,0.006810056045651436,-0.009777368046343327,0.002281583845615387,-9.544711792841554e-05,0.006728631444275379
0.00786304846405983,0.0070208655670285225,-0.009271967224776745,0.00226237322203815,-9.348123421659693e-05,0.00782397948205471
0.007860464043915272,0.007508270442485809,-0.009900718927383423,0.002441096818074584,-9.157973545370623e-05,0.007542608771473169
0.007472544442862272,0.007519019767642021,-0.010203501209616661,0.002613840391859412,-8.975332457339391e-05,0.0067225173115730286
0.008162183687090874,0.00726943789049983,-0.009965118020772934,0.002585068577900529,-8.63101813592948e-05,0.007123718038201332
0.008159051649272442,0.007829458452761173,-0.009946844540536404,0.002399503020569682,-8.468601299682632e-05,0.007065152283757925
0.007610142230987549,0.007738986052572727,-0.009757709689438343,0.0024448144249618053,-8.312166755786166e-05,0.007373037748038769
0.0081989960744977,0.0077970088459551334,-0.0096547557041049,0.0023290468379855156,-8.161417645169422e-05,0.007644530385732651
0.008062451146543026,0.006931943353265524,-0.00937799084931612,0.0021968039218336344,-8.016017818590626e-05,0.007111456245183945
0.008211220614612103,0.007156752049922943,-0.010254235938191414,0.0022157211787998676,-7.875731535023078e-05,0.007131737191230059
0.008460004813969135,0.007258765399456024,-0.01020335778594017,0.002088752808049321,-7.740264118183404e-05,0.007272892631590366
0.008316174149513245,0.006880730856209993,-0.009977209381759167,0.0023636266123503447,-7.609375461470336e-05,0.007451842539012432
0.008359381929039955,0.007004009559750557,-0.010568172670900822,0.0027341623790562153,-7.482842192985117e-05,0.00797313079237938
0.007828245870769024,0.007394622545689344,-0.011160928755998611,0.002832709578797221,-7.360450399573892e-05,0.007621742784976959
0.008782951161265373,0.0071533010341227055,-0.01000446267426014,0.0026831012219190598,-7.241994171636179e-05,0.007620423100888729
0.008568071760237217,0.0070438869297504425,-0.010192472487688065,0.002613726304844022,-7.127294520614669e-05,0.00696949427947402
0.008218442089855671,0.007019191514700651,-0.010057678446173668,0.0026070664171129465,-7.016166637185961e-05,0.007893690839409828
0.008399243466556072,0.007315982133150101,-0.010466884821653366,0.002504220698028803,-6.90845336066559e-05,0.007906758226454258
0.00876624509692192,0.007114776410162449,-0.010253993794322014,0.002590313320979476,-6.804006989113986e-05,0.007477250415831804
0.008547808043658733,0.007369812577962875,-0.010004246607422829,0.002668066183105111,-6.702655809931457e-05,0.007484886795282364
0.008252423256635666,0.007549296133220196,-0.009493086487054825,0.0026392482686787844,-6.604292138945311e-05,0.007696604356169701
0.008252423256635666,0.007549296133220196,-0.009493086487054825,0.0026392482686787844,-6.604292138945311e-05,0.007696604356169701
0.008566277101635933,0.007760874927043915,-0.010885260999202728,0.00283871334977448,-6.508764636237174e-05,0.007556392811238766
0.00839752983301878,0.007103125564754009,-0.009948433376848698,0.0026647327467799187,-6.415964890038595e-05,0.00797328632324934
0.008023983798921108,0.006696110125631094,-0.009231342002749443,0.0026375886518508196,-6.325777940219268e-05,0.00796732772141695
0.007739786058664322,0.006839892826974392,-0.010777662508189678,0.0027663663495332003,-6.238085916265845e-05,0.00783979520201683
0.008675344288349152,0.007049010135233402,-0.01004829816520214,0.002756481757387519,-6.152794958325103e-05,0.0076565127819776535
0.008394056931138039,0.007449132390320301,-0.009636941365897655,0.0027245329692959785,-6.069798837415874e-05,0.007570125162601471
0.008130195550620556,0.0072451746091246605,-0.009512385353446007,0.0028444728814065456,-5.989021883578971e-05,0.0075392653234303
0.008433676324784756,0.007106231991201639,-0.010527567937970161,0.0030289189890027046,-6.492914690170437e-05,0.007582762278616428
0.008766737766563892,0.00700688362121582,-0.011058996431529522,0.003391347825527191,-6.961345934541896e-05,0.007719631306827068
0.00843255314975977,0.007412014063447714,-0.010298659093677998,0.0034742706920951605,-6.908341310918331e-05,0.007488525938242674
0.008509819395840168,0.007319110911339521,-0.009486879222095013,0.0032445581164211035,-6.8234046921134e-05,0.007374749518930912
0.008616916835308075,0.007275949697941542,-0.009844416752457619,0.003028016770258546,-6.738414231222123e-05,0.007652162108570337
0.008162561804056168,0.007726623676717281,-0.009983397088944912,0.0027854638174176216,-6.574348662979901e-05,0.007197700906544924
0.009137733839452267,0.007091725245118141,-0.009892775677144527,0.0027333858888596296,-6.495274283224717e-05,0.007198076229542494
0.008759853430092335,0.0065864878706634045,-0.01036880910396576,0.0027796749491244555,-6.418075645342469e-05,0.008026150986552238
0.008370236493647099,0.0068265097215771675,-0.009862028993666172,0.0027901807334274054,-6.342690176097676e-05,0.008265127427875996
0.008321400731801987,0.007357921916991472,-0.009665410965681076,0.002939780242741108,-6.269060395425186e-05,0.008111909963190556
0.008623040281236172,0.0068902685306966305,-0.010010567493736744,0.0032096535433083773,-6.197114271344617e-05,0.007851608097553253
0.008733630180358887,0.006761104799807072,-0.009588364511728287,0.0033852513879537582,-6.126809603301808e-05,0.007628260646015406
0.008521665818989277,0.007032783702015877,-0.010726743377745152,0.003131433390080929,-6.058071812731214e-05,0.008037654682993889
0.008720705285668373,0.007496471982449293,-0.009963667951524258,0.0031100381165742874,-5.990862337057479e-05,0.0078018358908593655
0.009087065234780312,0.007490957155823708,-0.009173871949315071,0.0028599209617823362,-1.5223682567011565e-05,0.007588413543999195
0.008862302638590336,0.007268873043358326,-0.011016090400516987,0.0030261047650128603,-9.939976735040545e-07,0.008033809252083302
0.008475154638290405,0.007508448325097561,-0.010296410880982876,0.0030187026131898165,-6.490094506261812e-08,0.00802810862660408
0.009689288213849068,0.007124473340809345,-0.009261502884328365,0.0029808860272169113,-4.237568074216824e-09,0.007819324731826782
0.00897054374217987,0.007285133935511112,-0.010600090958178043,0.002896462334319949,-2.7668289881432884e-10,0.008115219883620739
0.009218009188771248,0.007149475626647472,-0.010228346101939678,0.0030544402543455362,-1.8065415482992897e-11,0.008426912128925323
0.009000229649245739,0.006768491119146347,-0.009573142044246197,0.003272504545748234,-1.1795425747251898e-12,0.008360419422388077
0.008987299166619778,0.006831157952547073,-0.01018570177257061,0.0034096287563443184,-7.701570501131294e-14,0.008051527664065361
0.008987299166619778,0.006831157952547073,-0.01018570177257061,0.0034096287563443184,-7.701570501131294e-14,0.008051527664065361
0.008977518416941166,0.007426477503031492,-0.009883669205009937,0.0029799279291182756,-5.028575415766921e-15,0.008136434480547905
0.009469344280660152,0.00686623016372323,-0.009502413682639599,0.00274937367066741,-3.283300344487049e-16,0.008232863619923592
0.009287913329899311,0.006835363805294037,-0.010331286117434502,0.0028146361000835896,-2.143760318417339e-17,0.007782074622809887
0.008999497629702091,0.006930050905793905,-0.010347574017941952,0.0031414928380399942,-1.3997220487353079e-18,0.007966017350554466
0.009127646684646606,0.007333674002438784,-0.009542775340378284,0.003512903582304716,-9.139184484679114e-20,0.007643601857125759
0.009797169826924801,0.007524548564106226,-0.010295921936631203,0.0038244912866503,-5.967234490827442e-21,0.00795244425535202
0.009362705983221531,0.007041667588055134,-0.010203897021710873,0.003924674820154905,-3.896177447563846e-22,0.00825544260442257
0.009313926100730896,0.006685199216008186,-0.009853048250079155,0.0034864002373069525,-2.5439252735883227e-23,0.008483633399009705
0.009241371415555477,0.007595031056553125,-0.010324868373572826,0.0028896585572510958,-1.0845152489199167e-25,0.007749793119728565
0.009686404839158058,0.006579926703125238,-0.009710652753710747,0.0028753692749887705,-7.081108996987327e-27,0.007705972995609045
0.010029766708612442,0.006411049515008926,-0.010137245059013367,0.00293940887786448,-4.623458202421455e-28,0.00816156342625618
0.00919259525835514,0.006850674748420715,-0.010013969615101814,0.003041572403162718,-3.0187880579738357e-29,0.008151194080710411
0.009536792524158955,0.0073059857822954655,-0.009685109369456768,0.0031916596926748753,-1.9710529407356405e-30,0.0087686562910676
0.00981066096574068,0.007246632594615221,-0.010480702854692936,0.0030288840644061565,-1.2869568410570883e-31,0.008648580871522427
0.009615190327167511,0.007293667644262314,-0.00993848592042923,0.0032593088690191507,-8.402909694889794e-33,0.008342798799276352
0.00978169310837984,0.007401155307888985,-0.010689647868275642,0.0033318735659122467,-5.48649957796306e-34,0.008218878880143166
0.009565602988004684,0.007538411766290665,-0.010587393306195736,0.0034736364614218473,-3.582292057453925e-35,0.008422770537436008
0.009159417822957039,0.006938397418707609,-0.009936708956956863,0.003621430601924658,-2.3389806724233074e-36,0.00878013577312231
0.00983472540974617,0.006578085478395224,-0.010385125875473022,0.0034799440763890743,-9.971440887753464e-39,0.008567828685045242
0.00983472540974617,0.006578085478395224,-0.010385125875473022,0.0034799440763890743,-9.971440887753464e-39,0.008567828685045242
0.009777332656085491,0.007109242025762796,-0.010424546897411346,0.003660114947706461,-4.42186719737947e-05,0.008138124831020832
0.009578343480825424,0.006844380870461464,-0.010034631937742233,0.0032951117027550936,-5.753034201916307e-05,0.008617449551820755
0.00992292445152998,0.006747106555849314,-0.010642753913998604,0.0031003274489194155,-5.7698707678355277e-05,0.008868464268743992
0.01041264459490776,0.0065634711645543575,-0.010071433149278164,0.0032054586336016655,-5.702672206098214e-05,0.00833249930292368
0.009457536973059177,0.007218850776553154,-0.010392000898718834,0.0034809524659067392,-5.6316890550078824e-05,0.008808666840195656
0.00952024944126606,0.0068331630900502205,-0.010559008456766605,0.0036910371854901314,-5.562105434364639e-05,0.009007804095745087
0.00952024944126606,0.0068331630900502205,-0.010559008456766605,0.0036910371854901314,-5.562105434364639e-05,0.009007804095745087
0.009672961197793484,0.006600199267268181,-0.010243517346680164,0.003521955804899335,-6.372013012878597e-05,0.009043785743415356
0.009672961197793484,0.006600199267268181,-0.010243517346680164,0.003521955804899335,-6.372013012878597e-05,0.009043785743415356
0.010075145401060581,0.0067411926575005054,-0.010350204072892666,0.0036195581778883934,-6.426645995816216e-05,0.008765996433794498
0.010390263050794601,0.007260856218636036,-0.009909135289490223,0.003999275621026754,-6.359486724250019e-05,0.008746301755309105
0.009982515126466751,0.0068922750651836395,-0.010223005898296833,0.003993735648691654,-6.286003917921335e-05,0.008769604377448559
0.010048804804682732,0.006845863536000252,-0.010543222539126873,0.0038399004843086004,-6.213714368641376e-05,0.009043135680258274
0.009931710548698902,0.006666917819529772,-0.009895327500998974,0.003773496253415942,-6.143033533589914e-05,0.009126491844654083
0.01074153371155262,0.007045741192996502,-0.010834275744855404,0.003774328390136361,-6.073935583117418e-05,0.008834702894091606
0.01016818918287754,0.006982442922890186,-0.010454203933477402,0.003753980156034231,-6.87704305164516e-05,0.009119893424212933
0.009813161566853523,0.007036004215478897,-0.010250070132315159,0.003625486046075821,-1.7721578842611052e-05,0.009056979790329933
0.010704167187213898,0.006810036487877369,-0.010236785747110844,0.003496370743960142,-1.1570924698389717e-06,0.008483009412884712
0.009528973139822483,0.00682921102270484,-0.010078640654683113,0.00376784591935575,-4.932867003759611e-09,0.009249639697372913
0.010134338401257992,0.006827409844845533,-0.010703450068831444,0.003829107154160738,-3.220809730031249e-10,0.00895506702363491
0.010406351648271084,0.006773324683308601,-0.009965063072741032,0.0035095284692943096,-2.102958432392832e-11,0.00880835298448801
0.010048836469650269,0.007197558414191008,-0.010394200682640076,0.003581412136554718,-1.373081661391884e-12,0.008998201228678226
0.010048165917396545,0.007207309827208519,-0.010462980717420578,0.003602817188948393,-8.965242692107397e-14,0.009129402227699757
0.010010406374931335,0.007022020872682333,-0.010750413872301579,0.00405945535749197,-5.8536630099072836e-15,0.008936960250139236
0.01004810817539692,0.006843485403805971,-0.010596664622426033,0.004149014130234718,-3.8220233574570326e-16,0.009203072637319565
0.010189073160290718,0.006815156899392605,-0.010372277349233627,0.0035928329452872276,-2.4955082859936734e-17,0.009232504293322563
0.010743583552539349,0.006917933002114296,-0.009684230200946331,0.003596894210204482,-1.6293886424130794e-18,0.008502534590661526
0.010265774093568325,0.006918418686836958,-0.010540539398789406,0.0037993155419826508,-3.455678597674705e-05,0.008917303755879402
0.0107561144977808,0.006843503098934889,-0.010409129783511162,0.003891924163326621,-0.0001512444141553715,0.00915931910276413
0.010519086383283138,0.00699883745983243,-0.009841972030699253,0.004306138958781958,-0.0001537658245069906,0.009420025162398815
0.009905987419188023,0.007083767559379339,-0.010728105902671814,0.004136304371058941,-0.00014917115913704038,0.009074966423213482
0.010519478470087051,0.0072798822075128555,-0.01046536210924387,0.004045012407004833,-0.00014441600069403648,0.008801456540822983
0.009940682910382748,0.006945029832422733,-0.01002628542482853,0.004044431261718273,-0.00016602632240392268,0.008935810066759586
0.010893679223954678,0.007166553754359484,-0.01054184976965189,0.004089732654392719,-0.00016272510401904583,0.009217862971127033
0.010448137298226357,0.008124051615595818,-0.010149986483156681,0.004029856063425541,-0.00015807295858394355,0.009194505400955677
0.010448137298226357,0.008124051615595818,-0.010149986483156681,0.004029856063425541,-0.00015807295858394355,0.009194505400955677
0.01016591303050518,0.007175694685429335,-0.010679407976567745,0.003983336500823498,-0.00015358373639173806,0.009044045582413673
0.010056527331471443,0.0074540902860462666,-0.010923424735665321,0.004314183723181486,-0.00014933674538042396,0.008978638797998428
0.010026277042925358,0.006708248984068632,-0.010091608390212059,0.004569185897707939,-0.00014531771012116224,0.009194053709506989
0.009867134504020214,0.006771288812160492,-0.011046634055674076,0.004187182057648897,-0.00016351272643078119,0.009140083566308022
0.010219715535640717,0.00698529276996851,-0.011000828817486763,0.0038774036802351475,-0.0001607749582035467,0.009142315946519375
0.010138335637748241,0.006970320828258991,-0.010696119628846645,0.0038717708084732294,-0.00015686523693148047,0.009284183382987976
0.009735380299389362,0.007117896806448698,-0.011313062161207199,0.0042372229509055614,-0.00015305996930692345,0.009508272632956505
0.01070562656968832,0.006992329377681017,-0.0109394621104002,0.004313036799430847,-0.00014942983398213983,0.00947631150484085
0.010329943150281906,0.007169906049966812,-0.010881583206355572,0.004347522743046284,-0.00014596768596675247,0.009876837953925133
0.009792717173695564,0.006739150732755661,-0.011051329784095287,0.004400200676172972,-0.00014266211655922234,0.01037555281072855
0.010182399302721024,0.00664394348859787,-0.010900001972913742,0.004332534968852997,-0.00013950293941888958,0.00945869367569685
0.009922871366143227,0.006578946951776743,-0.011847719550132751,0.004043020773679018,-0.0001546765270177275,0.0095240268856287
0.010881738737225533,0.007135318126529455,-0.011312480084598064,0.0038059991784393787,-0.00015258551866281778,0.01067789550870657
0.009757986292243004,0.006852507591247559,-0.01132477167993784,0.003960094414651394,-0.00014645881310570985,0.00990966148674488
0.009871677495539188,0.006476725451648235,-0.010956247337162495,0.004422625061124563,-0.00014353924780152738,0.009551692754030228
0.01090076845139265,0.0069620320573449135,-0.011457798071205616,0.0047346604987978935,-0.00014073359488975257,0.009486755356192589
0.01018010824918747,0.00726222712546587,-0.011294836178421974,0.004750735126435757,-0.0001380356407025829,0.010485264472663403
0.009879199787974358,0.006757082883268595,-0.011046514846384525,0.0043507833033800125,-0.00013543898239731789,0.01028943806886673
0.010459715500473976,0.006872808560729027,-0.01198895275592804,0.00404910184442997,-0.00013293817755766213,0.009892281144857407
0.009994834661483765,0.007383663672953844,-0.011886967346072197,0.003954659681767225,-0.00013052817666903138,0.009984414093196392
0.0102571165189147,0.0071116480976343155,-0.011778685264289379,0.004305592272430658,-0.00012820381380151957,0.010522757656872272
0.010431733913719654,0.006420024670660496,-0.011306394822895527,0.0045846751891076565,-0.0001472005242248997,0.010309921577572823
0.0095684714615345,0.006401722319424152,-0.0111008919775486,0.004863430745899677,-0.0001455538149457425,0.010033898055553436
0.01027164701372385,0.006699291057884693,-0.011562628671526909,0.0047903782688081264,-0.0001411900739185512,0.010188677348196507
0.010155134834349155,0.006870812736451626,-0.011261718347668648,0.004613638389855623,-0.00013690709602087736,0.01020822860300541
0.00983135960996151,0.00722318422049284,-0.010942362248897552,0.004666789434850216,-0.00013286554894875735,0.010563324205577374
0.0102383466437459,0.006499673239886761,-0.011608261615037918,0.004747323226183653,-0.00012905494077131152,0.010667270049452782
0.010134217329323292,0.006441074889153242,-0.010836782865226269,0.004647665657103062,-0.00012545667414087802,0.010297687724232674
0.010794185101985931,0.007032219786196947,-0.010779360309243202,0.004982708487659693,-0.0001220535923494026,0.009994524531066418
0.01029704324901104,0.007613117340952158,-0.01046693790704012,0.005037370137870312,-0.00011883054685313255,0.010288044810295105
0.010201537050306797,0.006970987655222416,-0.009958276525139809,0.0044743516482412815,-0.00011577311670407653,0.01042543351650238
0.00997969415038824,0.006466786377131939,-0.010706552304327488,0.004419769160449505,-0.0001296012633247301,0.010509557090699673
0.00997969415038824,0.006466786377131939,-0.010706552304327488,0.004419769160449505,-0.0001296012633247301,0.010509557090699673
0.010237892158329487,0.006209114566445351,-0.011692482978105545,0.004470827057957649,-0.00013174724881537259,0.010930542834103107
0.010671684518456459,0.006913040764629841,-0.011134007014334202,0.004581724759191275,-0.00012894794053863734,0.011262288317084312
0.00993999745696783,0.006788056809455156,-0.01131382118910551,0.004658369813114405,-0.00012596245505847037,0.010349100455641747
0.010671001859009266,0.006605790462344885,-0.011211403645575047,0.005124778486788273,-0.00012309274461586028,0.009780868887901306
0.010394874960184097,0.007238571997731924,-0.011497746221721172,0.005083638709038496,-0.00012034929386572912,0.01006542332470417
0.010501215234398842,0.00687728775665164,-0.011674045585095882,0.004792016465216875,-0.00011772549623856321,0.010656453669071198
0.010750030167400837,0.006460109725594521,-0.01052695419639349,0.004676487296819687,-0.000115213479148224,0.010388891212642193
0.010628202930092812,0.0064805191941559315,-0.011192669160664082,0.004685514140874147,-0.0001241601858055219,0.01021749060600996
0.010747958905994892,0.006275003310292959,-0.011293946765363216,0.005026598926633596,-0.00012601907656062394,0.010120945051312447
0.01082625612616539,0.006423048675060272,-0.01128963753581047,0.005201902240514755,-0.0001238258701050654,0.010657178238034248
0.011180393397808075,0.0065423413179814816,-0.010890061035752296,0.004848184995353222,-0.00012145716027589515,0.010560963302850723
0.011431137099862099,0.0065499707125127316,-0.011531855911016464,0.004676895681768656,-0.00011916123185073957,0.0106419762596488
0.010507870465517044,0.006336194463074207,-0.011281254701316357,0.0046838270500302315,-0.00011694915156112984,0.010730573907494545
0.010890761390328407,0.006785975769162178,-0.011232116259634495,0.004801774397492409,-0.00011481768160592765,0.010342545807361603
0.010983091779053211,0.006866966374218464,-0.01185043714940548,0.005515818949788809,-0.0001278005656786263,0.010681393556296825
0.011010615155100822,0.006809071637690067,-0.011610675603151321,0.00530234444886446,-0.00012653542216867208,0.010493068024516106
0.011842281557619572,0.006794142071157694,-0.011729764752089977,0.004779498558491468,-0.0001244129816768691,0.010384750552475452
0.010524015873670578,0.006591717712581158,-0.01141466572880745,0.004404813516885042,-0.00012230388529133052,0.010390536859631538
0.011180461384356022,0.006791195832192898,-0.01124175451695919,0.0045911166816949844,-0.00014331786951515824,0.010465268045663834
0.012292208150029182,0.00652178842574358,-0.011808258481323719,0.005543956533074379,-0.00014215588453225791,0.010612014681100845
0.013067694380879402,0.006298006046563387,-0.01133018359541893,0.0054113371297717094,-0.00013801585009787232,0.010998478159308434
0.012749279849231243,0.006462785415351391,-0.0120424535125494,0.004986646585166454,-0.0001470651914132759,0.010691776871681213
0.012392433360219002,0.006756829097867012,-0.01125519908964634,0.004669807851314545,-0.00015517220890615135,0.010927324183285236
0.012830314226448536,0.006644521839916706,-0.011278726160526276,0.004681081045418978,-0.00015162139607127756,0.010966754518449306
0.012395950965583324,0.006600680761039257,-0.011886289343237877,0.0047941566444933414,-0.00016574976325500757,0.011023235507309437
0.012328406795859337,0.006770419422537088,-0.011379722505807877,0.005474132485687733,-0.00016713031800463796,0.012158269062638283
0.012686762027442455,0.00743026053532958,-0.012501271441578865,0.005461276043206453,-0.00016317833797074854,0.011182233691215515
0.01262992899864912,0.00693317549303174,-0.011230149306356907,0.005351363215595484,-0.0001590823958395049,0.010165425017476082
0.01262992899864912,0.00693317549303174,-0.011230149306356907,0.005351363215595484,-0.0001590823958395049,0.010165425017476082
0.01316102221608162,0.006785988342016935,-0.01105497870594263,0.005475190468132496,-0.00016605676501058042,0.010316194966435432
0.012759770266711712,0.0066497488878667355,-0.01161290518939495,0.005556060932576656,-0.0001723330351524055,0.010724976658821106
0.01305681187659502,0.006954954005777836,-0.011117713525891304,0.005769298877567053,-0.00016895880980882794,0.011096765287220478
0.01273750327527523,0.007003967650234699,-0.011630602180957794,0.005879106931388378,-0.00016512743604835123,0.011339844204485416
0.012853934429585934,0.007207600399851799,-0.012366507202386856,0.005512151401489973,-0.00016142812091857195,0.011441275477409363
0.012576529756188393,0.006738455966114998,-0.011597663164138794,0.005328681319952011,-0.0002211626706412062,0.011767998337745667
0.013102141208946705,0.006423287559300661,-0.012084771879017353,0.005133919417858124,-0.0002677533484529704,0.011422303505241871
0.013158909045159817,0.006765682715922594,-0.011675050482153893,0.005316195078194141,-0.00025640506646595895,0.011426050215959549
0.013049139641225338,0.006893928162753582,-0.011658809147775173,0.005756906233727932,-0.00024281980586238205,0.011507821269333363
0.012914355844259262,0.006398458499461412,-0.01140138041228056,0.00518611166626215,-0.0002191760140703991,0.011452176608145237
0.013006597757339478,0.0065282536670565605,-0.011885130777955055,0.0051174471154809,-0.00022941270435694605,0.011347326450049877
0.013106221333146095,0.006957859732210636,-0.01172968652099371,0.005472282413393259,-0.0002382632956141606,0.011081568896770477
0.013540399260818958,0.006783085875213146,-0.012162274681031704,0.0053941356018185616,-0.0002293810248374939,0.011651911772787571
0.012678920291364193,0.006362923886626959,-0.011652854271233082,0.005945260636508465,-0.00022011128021404147,0.011357308365404606
0.013115131296217442,0.006190990563482046,-0.011507582850754261,0.00584670202806592,-0.00024205184308812022,0.011458192951977253
0.012789486907422543,0.006586101371794939,-0.012045523151755333,0.005682521965354681,-0.00023713560949545354,0.011371532455086708
0.013158674351871014,0.007266543805599213,-0.011075827293097973,0.0053085447289049625,-0.00022879696916788816,0.010881219990551472
0.013068219646811485,0.00704375933855772,-0.012102453038096428,0.005210720002651215,-0.00022079514747019857,0.010984019376337528
0.01323060505092144,0.006307081785053015,-0.011345983482897282,0.005531777627766132,-0.00021331911557354033,0.01123630441725254
0.0116988904774189,0.006333169527351856,-0.01131252571940422,0.005553241819143295,-0.00023190429783426225,0.011456390842795372
0.01360307727009058,0.006665178574621677,-0.01201828382909298,0.00530238589271903,-0.00022807416098657995,0.012088905088603497
0.013882729224860668,0.0065483208745718,-0.011795018799602985,0.005013708025217056,-0.00022129356511868536,0.011646905913949013
0.013283554464578629,0.006320060696452856,-0.012102223001420498,0.0053855194710195065,-0.00021470876527018845,0.011948160827159882
0.013722005300223827,0.006678921170532703,-0.011526721529662609,0.005354621447622776,-0.00022164382971823215,0.012014825828373432
0.013357979245483875,0.006781716365367174,-0.011597833596169949,0.006013716571033001,-0.0002237966691609472,0.012101233936846256
0.013417231850326061,0.0072454772889614105,-0.012009377591311932,0.00618057930842042,-0.00021401321282610297,0.011867069639265537
0.013357197865843773,0.006496009882539511,-0.011507447808980942,0.005849040579050779,-0.00020434806356206536,0.011767222546041012
0.013357197865843773,0.006496009882539511,-0.011507447808980942,0.005849040579050779,-0.00020434806356206536,0.011767222546041012
0.013755610212683678,0.0063448562286794186,-0.012237546034157276,0.0054853493347764015,-0.00022435560822486877,0.011772644706070423
0.013591029681265354,0.006795841734856367,-0.012237610295414925,0.005663006566464901,-0.0002241347829112783,0.011873221956193447
0.013822161592543125,0.006980988197028637,-0.012386634014546871,0.006510876584798098,-0.000215771040529944,0.012021763250231743
0.013593764975667,0.006444654893130064,-0.01249697431921959,0.006622252520173788,-0.00020751751435454935,0.012004842981696129
0.014017043635249138,0.006238244939595461,-0.012189733795821667,0.0061408220790326595,-0.00019983877427875996,0.012410730123519897
0.01385531760752201,0.006205528508871794,-0.012594548985362053,0.00592954782769084,-0.00022264919243752956,0.012205076403915882
0.014317533001303673,0.0062067038379609585,-0.011904893442988396,0.0059371525421738625,-0.000216934597119689,0.012338824570178986
0.014019832946360111,0.006673038471490145,-0.012178677134215832,0.006607815623283386,-0.00023584163864143193,0.012278136797249317
0.013959596864879131,0.006340179592370987,-0.013119736686348915,0.006412451155483723,-0.00022482566419057548,0.012260873802006245
0.01414618268609047,0.006060735322535038,-0.013011978007853031,0.005674710497260094,-0.00029212221852503717,0.012292479164898396
0.013983024284243584,0.006031412165611982,-0.012510213069617748,0.006236156448721886,-0.00029727155924774706,0.012358126230537891
0.014148976653814316,0.0054549723863601685,-0.013093885034322739,0.006693724542856216,-0.00032164546428248286,0.013716286979615688
0.014278393238782883,0.0053010378032922745,-0.012227735482156277,0.00721401022747159,-0.00031583107193000615,0.012451273389160633
0.014418628066778183,0.00552057521417737,-0.012411670759320259,0.00616935919970274,-0.00033594403066672385,0.01246519386768341
0.014481128193438053,0.006114691961556673,-0.01230858825147152,0.005776852834969759,-0.00032991901389323175,0.01256644818931818
0.014147726818919182,0.00557433906942606,-0.012585706077516079,0.0060794176533818245,-0.00035308656515553594,0.012873725034296513
0.013945315964519978,0.005906695034354925,-0.01298129465430975,0.00628375168889761,-0.0003417003608774394,0.012516504153609276
0.014212507754564285,0.005747314542531967,-0.012174342758953571,0.006050462834537029,-0.0005114961531944573,0.012397690676152706
0.014316598884761333,0.005703276954591274,-0.012630750425159931,0.006042672321200371,-0.0005741430213674903,0.013027265667915344
0.014661041088402271,0.006113582290709019,-0.011968920938670635,0.006147879175841808,-0.0006072812830097973,0.012843113392591476
0.014564131386578083,0.005480663385242224,-0.012865507043898106,0.006649946328252554,-0.0005591537337750196,0.013238159939646721
0.014530748128890991,0.005444696638733149,-0.012635556049644947,0.0068699452094733715,-0.0005771919386461377,0.013057895004749298
0.014306602068245411,0.005605331156402826,-0.012852784246206284,0.006246716715395451,-0.0005423335242085159,0.012916279025375843
0.014631903730332851,0.005526806227862835,-0.012933669611811638,0.006249870173633099,-0.0006543544586747885,0.012767535634338856
0.014941329136490822,0.005765402689576149,-0.01307874545454979,0.0063526262529194355,-0.0005922403652220964,0.013045813888311386
0.014709895476698875,0.005264996085315943,-0.013372484594583511,0.006455603055655956,-0.0006218329654075205,0.013504911214113235
0.014709895476698875,0.005264996085315943,-0.013372484594583511,0.006455603055655956,-0.0006218329654075205,0.013504911214113235
0.014595385640859604,0.005220216233283281,-0.012901371344923973,0.006572348531335592,-0.0006085121422074735,0.012932892888784409
0.014892091043293476,0.005516667850315571,-0.013160783797502518,0.006510032340884209,-0.0005923246499150991,0.012868208810687065
0.015072362497448921,0.0054957871325314045,-0.012783169746398926,0.00627038674429059,-0.000610824441537261,0.012925841845571995
0.015102669596672058,0.005457023158669472,-0.013270578347146511,0.006260876543819904,-0.0005715900333598256,0.013243555091321468
0.01492710318416357,0.005593951791524887,-0.012865954078733921,0.00660638976842165,-0.0005742757930420339,0.013370956294238567
0.014853600412607193,0.005496923346072435,-0.013218867592513561,0.00653801579028368,-0.000606135290581733,0.013687415048480034
0.014632158912718296,0.005689884070307016,-0.013222280889749527,0.005939854308962822,-0.0006423710146918893,0.013285149820148945
0.015356546267867088,0.005552174989134073,-0.013476262800395489,0.006031932309269905,-0.0006612141150981188,0.013438427820801735
0.015304393135011196,0.005659136455506086,-0.013264772482216358,0.006898282095789909,-0.0008716569864191115,0.013601452112197876
0.014981052838265896,0.006256333086639643,-0.013275275938212872,0.006985483691096306,-0.0009549290989525616,0.013352975249290466
0.014981052838265896,0.006256333086639643,-0.013275275938212872,0.006985483691096306,-0.0009549290989525616,0.013352975249290466
0.01542127225548029,0.0054575251415371895,-0.013069876469671726,0.007113801781088114,-0.0011271308176219463,0.013703126460313797
0.015868334099650383,0.005361780058592558,-0.01221499964594841,0.0074179102666676044,-0.0011320185149088502,0.0135819585993886
0.015862589702010155,0.005698396358639002,-0.013105398043990135,0.0073256115429103374,-0.0013316504191607237,0.013701117597520351
0.0159472469240427,0.00599513528868556,-0.012633981183171272,0.006567970383912325,-0.001408969983458519,0.013592531904578209
0.01621438004076481,0.005893508903682232,-0.013418628834187984,0.006723047699779272,-0.0014636473497375846,0.013880488462746143
0.015880031511187553,0.006004509516060352,-0.01299796812236309,0.007118681911379099,-0.0015070720110088587,0.013779344037175179
0.015517089515924454,0.005536512937396765,-0.013164139352738857,0.007236103527247906,-0.0015963292680680752,0.013751331716775894
0.015397596172988415,0.006000302731990814,-0.013195401057600975,0.007090718485414982,-0.0018850949127227068,0.01354134175926447
0.016182085499167442,0.006288665812462568,-0.012616506777703762,0.006943135987967253,-0.0020301949698477983,0.013670272193849087
0.015829382464289665,0.0061472561210393906,-0.01324382983148098,0.00729707907885313,-0.0020698239095509052,0.013358848169445992
0.016422515735030174,0.006351751275360584,-0.012942644767463207,0.007317744195461273,-0.002018942032009363,0.013814803212881088
0.016255760565400124,0.005567828193306923,-0.013513374142348766,0.007203481625765562,-0.001992510398849845,0.013799242675304413
0.016255760565400124,0.005567828193306923,-0.013513374142348766,0.007203481625765562,-0.001992510398849845,0.013799242675304413
0.01669035665690899,0.005924561992287636,-0.013442623429000378,0.007650277577340603,-0.0016920191701501608,0.013445037417113781
0.016393810510635376,0.006086769513785839,-0.012772348709404469,0.007511625066399574,-0.0012765880674123764,0.013381058350205421
0.016393810510635376,0.006086769513785839,-0.012772348709404469,0.007511625066399574,-0.0012765880674123764,0.013381058350205421
0.016768421977758408,0.006526605691760778,-0.013379732146859169,0.007635200396180153,-0.0009956026915460825,0.01348161417990923
0.01649647392332554,0.005739505868405104,-0.013073155656456947,0.007206298876553774,-0.0008143688319250941,0.013917123898863792
0.017208265140652657,0.005917846690863371,-0.01321252342313528,0.007293394301086664,-0.0006890588556416333,0.014077636413276196
0.0166050735861063,0.00598040409386158,-0.013498790562152863,0.007845798507332802,-0.0005972851649858057,0.014499254524707794
0.016672540456056595,0.006443272344768047,-0.012913685292005539,0.007868590764701366,-0.0005271476693451405,0.014554275199770927
0.016506239771842957,0.0063464748673141,-0.013299936428666115,0.00769015122205019,-0.00047177571104839444,0.014542044140398502
0.01651814579963684,0.005800201091915369,-0.012717466801404953,0.008377785794436932,-0.00042694591684266925,0.01435974519699812
0.017052048817276955,0.0057790628634393215,-0.01322720292955637,0.008611565455794334,-0.00038990777102299035,0.014460929669439793
0.017440231516957283,0.0061194454319775105,-0.012844705022871494,0.008097481913864613,-0.00035878928611055017,0.014320912770926952
0.017180301249027252,0.006246067117899656,-0.013491212390363216,0.007747214753180742,-0.00033227543462999165,0.014452408067882061
0.017027035355567932,0.006091888062655926,-0.01312264148145914,0.007695784792304039,-0.00030941222212277353,0.014625377021729946
0.01756681501865387,0.005760980769991875,-0.013394688256084919,0.007467570714652538,-0.0002719882468227297,0.014170857146382332
0.01756681501865387,0.005760980769991875,-0.013394688256084919,0.007467570714652538,-0.0002719882468227297,0.014170857146382332
0.017304882407188416,0.006787857040762901,-0.012952730059623718,0.008190165273845196,-0.00024264409148599952,0.014733522199094296
0.017300378531217575,0.006287073716521263,-0.012744303792715073,0.008285650983452797,-0.0002302255161339417,0.014737507328391075
0.01718197390437126,0.006268024444580078,-0.012916140258312225,0.007985890842974186,-0.00021901687432546169,0.014582771807909012
0.017703689634799957,0.006076247431337833,-0.01276636403053999,0.008170212619006634,-0.00020884917466901243,0.014794746413826942
0.01755187287926674,0.006121255923062563,-0.013104044832289219,0.008226582780480385,-0.0001995833299588412,0.01493755541741848
0.01745331846177578,0.0065480186603963375,-0.012690084055066109,0.008361274376511574,-0.00019110619905404747,0.014986732043325901
0.017605837434530258,0.006476114969700575,-0.01338585652410984,0.008568224497139454,-0.0001833192363847047,0.014750701375305653
0.017448917031288147,0.0056711104698479176,-0.013282354921102524,0.008310976438224316,-0.00017614253738429397,0.014774421229958534
0.017963558435440063,0.005924607161432505,-0.013452553190290928,0.00842421967536211,-0.00016950597637332976,0.01471035461872816
0.017872624099254608,0.005992768332362175,-0.01298347394913435,0.008852255530655384,-0.0001633520587347448,0.015338164754211903
0.017786746844649315,0.00656600296497345,-0.013395154848694801,0.008726568892598152,-0.0001576295035192743,0.014976206235587597
0.017966626212000847,0.006579698994755745,-0.013684066943824291,0.008378911763429642,-0.0001522940001450479,0.015068604610860348
0.017854148522019386,0.006028106901794672,-0.013167817145586014,0.008920001797378063,-0.0001473078882554546,0.01507183350622654
0.01820170134305954,0.005984546151012182,-0.013707508333027363,0.008915363810956478,-0.00014263807679526508,0.01551037933677435
0.018009403720498085,0.006663904991000891,-0.013324187137186527,0.008811217732727528,-0.00013825533096678555,0.015222040005028248
0.018009403720498085,0.006663904991000891,-0.013324187137186527,0.008811217732727528,-0.00013825533096678555,0.015222040005028248
0.017923062667250633,0.006701915059238672,-0.01401796005666256,0.008514142595231533,-0.00013413406850304455,0.015274912118911743
0.018080461770296097,0.006172513589262962,-0.013981952331960201,0.008607753552496433,-0.00012658690684475005,0.01545784156769514
0.018080461770296097,0.006172513589262962,-0.013981952331960201,0.008607753552496433,-0.00012658690684475005,0.01545784156769514
0.0183394905179739,0.006532949861139059,-0.013191943988204002,0.008626722730696201,-0.00012312324543017894,0.015432734042406082
0.018554236739873886,0.006666850298643112,-0.013839253224432468,0.008130011148750782,-0.00011984392767772079,0.015665460377931595
0.018111396580934525,0.00634825648739934,-0.012153085321187973,0.008714904077351093,-0.00011673483095364645,0.016120875254273415
0.018171614035964012,0.006045719608664513,-0.014755567535758018,0.008966609835624695,-0.00011378296039765701,0.014755631797015667
0.018635094165802002,0.006053516175597906,-0.014004156924784184,0.00817397516220808,-0.00011097689275629818,0.014937211759388447
0.018401550129055977,0.0063768294639885426,-0.014045609161257744,0.008377470076084137,-0.00010830580868059769,0.015532207675278187
0.01859346404671669,0.006600618362426758,-0.01378569658845663,0.008889829739928246,-0.0001057601984939538,0.015605740249156952
0.01858588680624962,0.006416326854377985,-0.014695066027343273,0.008606692776083946,-0.00010333161480957642,0.015337501652538776
0.01854446344077587,0.005712308920919895,-0.014317091554403305,0.008836319670081139,-9.879426215775311e-05,0.015878885984420776
0.01880066469311714,0.006351313553750515,-0.013814253732562065,0.008563347160816193,-9.667183621786535e-05,0.016094202175736427
0.01855522394180298,0.0067168790847063065,-0.014032429084181786,0.008275811560451984,-9.463870082981884e-05,0.015775758773088455
0.019317883998155594,0.006354854442179203,-0.01391598954796791,0.008450687862932682,-9.268931898986921e-05,0.015959471464157104
0.01854819990694523,0.006229419726878405,-0.01422012411057949,0.008888280019164085,-9.081865573534742e-05,0.015558438375592232
0.01882869005203247,0.006141906138509512,-0.013835331425070763,0.008859808556735516,-8.902198896976188e-05,0.015329306945204735
0.018466835841536522,0.0062410589307546616,-0.014606109820306301,0.00815157126635313,-8.72949676704593e-05,0.01601119339466095
0.016850315034389496,0.005996456369757652,-0.01400936208665371,0.008483318611979485,-8.563376468373463e-05,0.016041437163949013
0.01975274458527565,0.0054267230443656445,-0.01439686305820942,0.008800538256764412,-8.403469109907746e-05,0.016380587592720985
0.01948135532438755,0.0057150558568537235,-0.014144300483167171,0.00868308637291193,-8.249405800597742e-05,0.0162754338234663
0.018554434180259705,0.005699307192116976,-0.014899138361215591,0.00914541445672512,-8.100905688479543e-05,0.015943333506584167
0.018341094255447388,0.00586409866809845,-0.01374229695647955,0.00920728500932455,-7.957643538247794e-05,0.015754325315356255
0.019261622801423073,0.006108243949711323,-0.014198895543813705,0.008533931337296963,-7.819374877726659e-05,0.01634489744901657
0.01921209506690502,0.005519523285329342,-0.014324556104838848,0.008678706362843513,-7.68581812735647e-05,0.016504229977726936
0.01950363628566265,0.005759482271969318,-0.014633859507739544,0.00924401730298996,-7.556747732451186e-05,0.01657569222152233
0.019156139343976974,0.005790833383798599,-0.01409611850976944,0.008923723362386227,-7.431953417835757e-05,0.01647084392607212
0.018940730020403862,0.0060208989307284355,-0.014611145481467247,0.008963349275290966,-7.311193621717393e-05,0.016243308782577515
0.018940730020403862,0.0060208989307284355,-0.014611145481467247,0.008963349275290966,-7.311193621717393e-05,0.016243308782577515
0.019085383042693138,0.005535745527595282,-0.013945394195616245,0.008968204259872437,-7.194310455815867e-05,0.016350531950592995
0.018958479166030884,0.005258337128907442,-0.01413978636264801,0.009390922263264656,-7.08110528648831e-05,0.01601027511060238
0.019033610820770264,0.0050618089735507965,-0.014360026456415653,0.008839817717671394,-5.9361707826610655e-05,0.01643873192369938
0.019585968926548958,0.005646741017699242,-0.014589355327188969,0.009178170934319496,-5.5154814617708325e-05,0.016572145745158195
0.020008407533168793,0.005262292921543121,-0.014378167688846588,0.00911079440265894,-5.4110474593471736e-05,0.016491904854774475
0.019604744389653206,0.00545476283878088,-0.01468506921082735,0.009667018428444862,-5.329535997589119e-05,0.017266688868403435
0.019616663455963135,0.005573454312980175,-0.014339708723127842,0.010111875832080841,-5.2516988944262266e-05,0.01702231727540493
0.019530843943357468,0.005094790831208229,-0.014619152061641216,0.00969102792441845,-5.176177364774048e-05,0.01703169383108616
0.01944616809487343,0.005548096727579832,-0.014241929166018963,0.00949951820075512,-5.102812428958714e-05,0.016742156818509102
0.019925929605960846,0.005117274820804596,-0.014370135962963104,0.009277806617319584,-4.9621354264672846e-05,0.01692955382168293
0.019872037693858147,0.005631001200526953,-0.014422718435525894,0.009266315028071404,-4.89467493025586e-05,0.01670811139047146
0.019691376015543938,0.0051883067935705185,-0.01446564868092537,0.00930812954902649,-4.829014142160304e-05,0.018137356266379356
0.02005084976553917,0.005414955783635378,-0.014980160631239414,0.00981228519231081,-4.765099220094271e-05,0.016368718817830086
0.020068619400262833,0.005220881197601557,-0.01467446144670248,0.009023808874189854,-4.702854494098574e-05,0.016749199479818344
0.020006313920021057,0.005057990550994873,-0.014604276046156883,0.009600852616131306,-4.64220684079919e-05,0.017317377030849457
0.020205514505505562,0.005592672154307365,-0.014540302567183971,0.010443480685353279,-4.583109330269508e-05,0.01706327311694622
0.020413583144545555,0.005502363666892052,-0.014514979906380177,0.00951695628464222,-4.5254946599015966e-05,0.017158091068267822
0.020410697907209396,0.005141688510775566,-0.014497941359877586,0.009707476943731308,-4.4693129893857986e-05,0.0169452503323555
0.020239371806383133,0.00487151462584734,-0.014722882770001888,0.010402699932456017,-4.4145086576463655e-05,0.017320886254310608
0.020446982234716415,0.0048592546954751015,-0.01443960890173912,0.00939740240573883,-4.361033279565163e-05,0.01738889329135418
0.020223349332809448,0.005598485469818115,-0.014590219594538212,0.008990652859210968,-4.308837742428295e-05,0.01755489408969879
0.02033315785229206,0.005328107625246048,-0.014288856647908688,0.009424933232367039,-4.257875116309151e-05,0.017322300001978874
0.02074277214705944,0.0048044524155557156,-0.014755449257791042,0.009717640466988087,-4.2081035644514486e-05,0.01710483431816101
0.020651401951909065,0.004612302873283625,-0.014320135116577148,0.009730051271617413,-4.1594848880777135e-05,0.017232434824109077
0.020630015060305595,0.00474562169983983,-0.015084734186530113,0.009522463195025921,-4.111972521059215e-05,0.01730610430240631
0.02075611799955368,0.005090396385639906,-0.014368065632879734,0.009269949980080128,-4.0655391785549e-05,0.017173796892166138
0.021099520847201347,0.005256148986518383,-0.014881822280585766,0.009579233825206757,-4.020139022031799e-05,0.017597705125808716
0.020723093301057816,0.0049605523236095905,-0.014403224922716618,0.010200911201536655,-3.975743311457336e-05,0.017338918522000313
0.020567461848258972,0.004968649707734585,-0.01497074868530035,0.009525435045361519,-2.5958761398214847e-06,0.01739666238427162
0.02119676023721695,0.005200560670346022,-0.014339989982545376,0.009158589877188206,-1.6949215364547854e-07,0.017333853989839554
0.021523931995034218,0.004886008333414793,-0.015068101696670055,0.009576061740517616,-1.1066626726119466e-08,0.017310669645667076
0.021523931995034218,0.004886008333414793,-0.015068101696670055,0.009576061740517616,-1.1066626726119466e-08,0.017310669645667076
0.021038701757788658,0.004922070074826479,-0.014572983607649803,0.010103643871843815,-7.225717246761576e-10,0.017784519121050835
0.021096881479024887,0.004804839380085468,-0.015362259931862354,0.009854826144874096,-4.717877130633319e-11,0.01831738092005253
0.02193562313914299,0.005088258534669876,-0.014591335318982601,0.009888522326946259,-3.080436947189291e-12,0.01844688132405281
0.02161751687526703,0.00552456034347415,-0.01503414660692215,0.010148813016712666,-2.011305076481118e-13,0.01818264089524746
0.021309569478034973,0.005131151527166367,-0.014664260670542717,0.010010790079832077,-1.3132383567637622e-14,0.017833275720477104
0.020387345924973488,0.005147899501025677,-0.014918461441993713,0.009929940104484558,-5.598541027238143e-17,0.017614232376217842
0.022227399051189423,0.005027854815125465,-0.015449590049684048,0.009756844490766525,-3.6554476116729005e-18,0.017983144149184227
0.022283488884568214,0.0053982604295015335,-0.015244481153786182,0.009954561479389668,-2.3867459054847404e-19,0.01864558830857277
0.02204265631735325,0.005656103603541851,-0.015812311321496964,0.009998180903494358,-2.2317326511256397e-06,0.018886620178818703
0.02222396433353424,0.0050414749421179295,-0.015167130157351494,0.010371587239205837,-1.457161999951495e-07,0.018278583884239197
0.022371187806129456,0.0052503678016364574,-0.015352636575698853,0.01026218757033348,-9.514226739781861e-09,0.018203727900981903
0.021685531362891197,0.005191900301724672,-0.015702445060014725,0.010420802980661392,-6.212110270631399e-10,0.018035441637039185
0.020867958664894104,0.004928920418024063,-0.01574244536459446,0.011061637662351131,-4.056064512036883e-11,0.018698252737522125
0.02210613712668419,0.005327696446329355,-0.015869010239839554,0.011112241074442863,-2.648320581929986e-12,0.018961304798722267
0.02264264039695263,0.00517673883587122,-0.015502126887440681,0.010878152213990688,-1.7291639582868445e-13,0.01805082894861698
0.02230444736778736,0.0052072941325604916,-0.016048738732933998,0.011657195165753365,-1.1290205491972134e-14,0.017933914437890053
0.021467112004756927,0.005464412271976471,-0.015665635466575623,0.011308078654110432,-7.371696505614246e-16,0.017955178394913673
0.0226222462952137,0.005070095416158438,-0.01666945032775402,0.011132549494504929,-4.813190938261922e-17,0.019600434228777885
0.02390403486788273,0.005255455616861582,-0.01616080477833748,0.01100967638194561,-3.142669664554847e-18,0.018168291077017784
0.022831225767731667,0.005545368883758783,-0.016445418819785118,0.010969212278723717,-2.0519387364402204e-19,0.01782502606511116
0.02226358838379383,0.005603430327028036,-0.016391582787036896,0.011338618583977222,-1.3397694131917937e-20,0.018653128296136856
0.022104183211922646,0.005134578328579664,-0.016477467492222786,0.011023181490600109,-8.747736890593914e-22,0.019021393731236458
0.022274404764175415,0.005227990448474884,-0.01678929477930069,0.010370174422860146,-5.711647041145592e-23,0.018708104267716408
0.02235625497996807,0.00552551681175828,-0.015528894029557705,0.010643728077411652,-3.7292973309434514e-24,0.01896393485367298
0.02283184416592121,0.005557294934988022,-0.01630951091647148,0.009898792020976543,-2.434964876713086e-25,0.01927829347550869
0.023095784708857536,0.0055986312218010426,-0.015858978033065796,0.009706396609544754,-1.589857942430783e-26,0.01892763003706932
0.023095784708857536,0.0055986312218010426,-0.015858978033065796,0.009706396609544754,-1.589857942430783e-26,0.01892763003706932
0.02272208221256733,0.0050668311305344105,-0.016405455768108368,0.0103364372625947,-1.0380636251835844e-27,0.01865624636411667
0.02315695956349373,0.005266623105853796,-0.016699839383363724,0.010390618816018105,-6.777813308603982e-29,0.018818438053131104
0.02326398342847824,0.005473795346915722,-0.016679303720593452,0.010810925625264645,-4.425428157286449e-30,0.0190080888569355
0.02323656715452671,0.005689771845936775,-0.016867268830537796,0.010961546562612057,-2.8894880710302787e-31,0.019230160862207413
0.02301464043557644,0.005739280488342047,-0.016296181827783585,0.010864883661270142,-1.8866293478826066e-32,0.01949418894946575
0.023083945736289024,0.005608801264315844,-0.01722407527267933,0.011277701705694199,-1.2318341420182689e-33,0.019146401435136795
0.02296810783445835,0.005460865329951048,-0.016649767756462097,0.011301490478217602,-8.042996949349396e-35,0.019147995859384537
0.023225901648402214,0.005194662604480982,-0.0173204243183136,0.010961572639644146,-3.428855821600001e-37,0.01962478831410408
0.022884925827383995,0.006062370724976063,-0.016790714114904404,0.010602355934679508,-2.238797803863955e-38,0.019555939361453056
0.022934990003705025,0.005967861507087946,-0.01733127050101757,0.011155182495713234,-1.4617757034481475e-39,0.019453296437859535
0.023211602121591568,0.005650047212839127,-0.016997385770082474,0.011274995282292366,-9.544383970362762e-41,0.019432710483670235
0.023563532158732414,0.0052612884901463985,-0.01718633808195591,0.010821144096553326,-6.231574270852462e-42,0.019546767696738243
0.023876657709479332,0.00570461992174387,-0.017352722585201263,0.011613123118877411,-4.0637655465419695e-43,0.019321471452713013
0.021753543987870216,0.005547355394810438,-0.016788175329566002,0.011806192807853222,-2.6624670822171524e-44,0.01905863918364048
0.023496415466070175,0.005896504502743483,-0.017490623518824577,0.011563632637262344,-1.401298464324817e-45,0.01947697065770626
0.02412961982190609,0.005263228435069323,-0.017187880352139473,0.011386782862246037,-0.0,0.019506895914673805
0.02371118776500225,0.005866968538612127,-0.01746814325451851,0.011214605532586575,-0.0,0.019818242639303207
0.02340836077928543,0.005482952110469341,-0.017808016389608383,0.011450069025158882,-0.0,0.02003542333841324
0.023550141602754593,0.005430791527032852,-0.016782646998763084,0.011482869274914265,-9.219280036631972e-05,0.020049290731549263
0.023637989535927773,0.005693431012332439,-0.01671658456325531,0.011195954866707325,-0.00011503540008561686,0.020031433552503586
0.02342919632792473,0.005991731770336628,-0.016419997438788414,0.011650990694761276,-0.00013355165719985962,0.020093433558940887
0.02406509593129158,0.0053310454823076725,-0.01706189662218094,0.011386397294700146,-0.00013309202040545642,0.019822517409920692
0.02406509593129158,0.0053310454823076725,-0.01706189662218094,0.011386397294700146,-0.00013309202040545642,0.019822517409920692
0.024468058720231056,0.005594161339104176,-0.01686340570449829,0.011749793775379658,-0.00016648620658088475,0.02007395401597023
0.023861903697252274,0.006072488147765398,-0.016947804018855095,0.011597104370594025,-0.00041932816384360194,0.020361103117465973
0.023861903697252274,0.006072488147765398,-0.016947804018855095,0.011597104370594025,-0.00041932816384360194,0.020361103117465973
0.022972015663981438,0.005931790918111801,-0.016461148858070374,0.012321495451033115,-0.0005926705780439079,0.020567549392580986
0.023902909830212593,0.005358005408197641,-0.017020244151353836,0.011931667104363441,-0.0006366166053339839,0.020595058798789978
0.0244144219905138,0.005360262002795935,-0.016690600663423538,0.011982445605099201,-0.0005761173088103533,0.02056991495192051
0.024135079234838486,0.005594674963504076,-0.017027070745825768,0.012231005355715752,-0.0005956921959295869,0.02041240781545639
0.02408328838646412,0.005348192062228918,-0.017070768401026726,0.01209250744432211,-0.0005534872761927545,0.02061411365866661
0.02470536343753338,0.005882417783141136,-0.016814103350043297,0.01242139097303152,-0.0005769688286818564,0.020565269514918327
0.02505073882639408,0.005401503760367632,-0.01737423986196518,0.012164447456598282,-0.0005841524107381701,0.020531410351395607
0.024356234818696976,0.005852944683283567,-0.01706101931631565,0.012632573023438454,-0.0005577129195444286,0.020496288314461708
0.024250466376543045,0.005421080626547337,-0.01713358238339424,0.012417678721249104,-0.0005845665000379086,0.02171466313302517
0.024380994960665703,0.005753587931394577,-0.016943294554948807,0.01263241283595562,-0.0005685918149538338,0.019938383251428604
0.025032643228769302,0.005883314181119204,-0.017176765948534012,0.012437300756573677,-0.0005934197106398642,0.020672310143709183
0.025017252191901207,0.005331532564014196,-0.016842523589730263,0.012408195994794369,-0.0005545273306779563,0.021331414580345154
0.024971159175038338,0.00589047372341156,-0.01726571097970009,0.011967417784035206,-0.0006179024931043386,0.02147151529788971
0.02495047077536583,0.005845891777426004,-0.01762167178094387,0.0122798727825284,-0.0006041201995685697,0.020769473165273666
0.024876948446035385,0.006273022387176752,-0.016810663044452667,0.011624734848737717,-0.0005861376994289458,0.019687501713633537
0.025043366476893425,0.00558566115796566,-0.017295170575380325,0.011869493871927261,-0.0005963107687421143,0.020181721076369286
0.02530897781252861,0.005214667413383722,-0.016539163887500763,0.012117062695324421,-0.0005631340900436044,0.02113085426390171
0.025010602548718452,0.0053505185060203075,-0.01751301810145378,0.011744914576411247,-0.0005724006914533675,0.021724766120314598
0.024401947855949402,0.005585433915257454,-0.017483223229646683,0.012481163255870342,-0.0005458914092741907,0.021106861531734467
0.02582644484937191,0.005744679365307093,-0.01693805307149887,0.012180041521787643,-0.0005110708880238235,0.021169546991586685
0.025777513161301613,0.006020772736519575,-0.017329256981611252,0.012476211413741112,-0.0005058054812252522,0.021937865763902664
0.02560408227145672,0.005487373098731041,-0.016796322539448738,0.012395859695971012,-0.0004577278159558773,0.022473452612757683
0.02532382681965828,0.005302755627781153,-0.017334582284092903,0.011888387612998486,-0.0004927663248963654,0.02156899683177471
0.025346949696540833,0.005326961167156696,-0.017459901049733162,0.01224002055823803,-0.000492946186568588,0.020753931254148483
0.02582501247525215,0.00558688398450613,-0.017310958355665207,0.012540701776742935,-0.0005224689957685769,0.02066589519381523
0.026040464639663696,0.005594474263489246,-0.01806137152016163,0.012805997394025326,-0.0006274845218285918,0.021000314503908157
0.026040464639663696,0.005594474263489246,-0.01806137152016163,0.012805997394025326,-0.0006274845218285918,0.021000314503908157
0.02598709799349308,0.005404187366366386,-0.016937214881181717,0.012583169154822826,-0.0007077574846334755,0.02190897800028324
0.02623024955391884,0.004569400101900101,-0.017817478626966476,0.01262626051902771,-0.0007350235246121883,0.022383369505405426
0.025982610881328583,0.004583882633596659,-0.0181963499635458,0.012849755585193634,-0.0007538870559073985,0.022238999605178833
0.026014696806669235,0.00511239655315876,-0.01720084436237812,0.012707131914794445,-0.0008939087274484336,0.021947737783193588
0.026464927941560745,0.00560219120234251,-0.017582103610038757,0.012923143804073334,-0.0010140633676201105,0.021474961191415787
0.026156431064009666,0.005249716341495514,-0.01769205369055271,0.012551073916256428,-0.0008951155468821526,0.021384868770837784
0.026370320469141006,0.005087520927190781,-0.01834440417587757,0.012918193824589252,-0.0008801278891041875,0.021709417924284935
0.02655557356774807,0.004985975567251444,-0.018032342195510864,0.012977536767721176,-0.0007852189592085779,0.021803932264447212
0.026416590437293053,0.004884227644652128,-0.017135275527834892,0.013387123122811317,-0.0006989220855757594,0.02191164903342724
0.027025949209928513,0.005222155246883631,-0.01804265007376671,0.01279063057154417,-0.0006531724939122796,0.0219906996935606
0.02725065127015114,0.005816198885440826,-0.018120305612683296,0.0128413001075387,-0.0005991230718791485,0.02182677760720253
0.027266111224889755,0.005304140038788319,-0.01837758906185627,0.01275678165256977,-0.0005115879466757178,0.021828047931194305
0.026963502168655396,0.00468557421118021,-0.017947569489479065,0.012806514278054237,-0.00045042691635899246,0.021921401843428612
0.02714792639017105,0.004858509171754122,-0.018163051456212997,0.012760370038449764,-0.00044825245277024806,0.021692993119359016
0.02737470157444477,0.004961256403476,-0.018101830035448074,0.012820723466575146,-0.00044685270404443145,0.021894341334700584
0.027912437915802002,0.005265878047794104,-0.016970593482255936,0.012286953628063202,-0.00047912198351696134,0.02181314490735531
0.02863757498562336,0.005067027639597654,-0.017966853454709053,0.0127042131498456,-0.0005047455779276788,0.02200804278254509
0.027615049853920937,0.004631623160094023,-0.018549863249063492,0.012338312342762947,-0.0006469806539826095,0.02201157994568348
0.02623084932565689,0.004611432086676359,-0.018187282606959343,0.012973984703421593,-0.0007221249979920685,0.022411473095417023
0.028092510998249054,0.00461217388510704,-0.01826750487089157,0.013199140317738056,-0.000746383797377348,0.0223266389220953
0.028298698365688324,0.005115478299558163,-0.017917469143867493,0.01332621555775404,-0.0007631807238794863,0.02235126495361328
0.02744436450302601,0.005198352970182896,-0.01801193319261074,0.013278644531965256,-0.0007083166856318712,0.022677022963762283
0.028083084151148796,0.0050320993177592754,-0.01837531477212906,0.013338681310415268,-0.0008197853458113968,0.02228446491062641
0.028847545385360718,0.005131260026246309,-0.01765679195523262,0.013538245111703873,-0.0008373751770704985,0.022444767877459526
0.028270110487937927,0.004931888077408075,-0.018236780539155006,0.013026895932853222,-0.0008377530029974878,0.022782623767852783
0.02777426317334175,0.00479672709479928,-0.018489858135581017,0.013451807200908661,-0.0008038191008381546,0.022924678400158882
0.02754213847219944,0.004882484208792448,-0.0179787278175354,0.013067280873656273,-0.0007734919781796634,0.022895732894539833
0.028429407626390457,0.005256807431578636,-0.0186469666659832,0.01345053967088461,-0.0008201226009987295,0.022289153188467026
0.028429407626390457,0.005256807431578636,-0.0186469666659832,0.01345053967088461,-0.0008201226009987295,0.022289153188467026
0.028654547408223152,0.005204265471547842,-0.018176281824707985,0.013434662483632565,-0.0008334984886460006,0.021746952086687088
0.02863055095076561,0.0047020073980093,-0.01766517572104931,0.013835263438522816,-0.0007879813783802092,0.021965062245726585
0.028525538742542267,0.00456899031996727,-0.018272293731570244,0.01343492604792118,-0.0007770384545437992,0.022873949259519577
0.02875639870762825,0.004675011150538921,-0.017966868355870247,0.013967636041343212,-0.0007217862876132131,0.023137366399168968
0.028403060510754585,0.005028278101235628,-0.018297692760825157,0.013520694337785244,-0.000738188624382019,0.02301156334578991
0.028263984248042107,0.005413795355707407,-0.01822834648191929,0.013381481170654297,-0.0007095226901583374,0.023126251995563507
0.028657110407948494,0.005303504411131144,-0.018456576392054558,0.013132725842297077,-0.0006904237670823932,0.02340034954249859
0.02875310182571411,0.0050878990441560745,-0.01788974367082119,0.013506143353879452,-0.0006991142290644348,0.023089418187737465
0.02883092872798443,0.0047393073327839375,-0.01783902384340763,0.013454265892505646,-0.0007209499017335474,0.022528940811753273
0.02886870503425598,0.0049414983950555325,-0.018594298511743546,0.013799655251204967,-0.0007454185397364199,0.022539133206009865
0.028776802122592926,0.0053024571388959885,-0.01798509992659092,0.01364370621740818,-0.0007090598810464144,0.02297048270702362
0.029120169579982758,0.005084944423288107,-0.018032046034932137,0.013837545178830624,-0.0007275370880961418,0.023640718311071396
0.029346531257033348,0.004949320573359728,-0.01824372634291649,0.013089758343994617,-0.0007389580132439733,0.023867657408118248
0.028926393017172813,0.004731413908302784,-0.017884185537695885,0.013825938105583191,-0.0008247080259025097,0.02376379445195198
0.027529388666152954,0.004858938977122307,-0.01845262572169304,0.013489441946148872,-0.0008788235136307776,0.023353826254606247
0.029915669932961464,0.004910681396722794,-0.017724283039569855,0.013592609204351902,-0.0008757252362556756,0.022936971858143806
0.030262796208262444,0.005689049605280161,-0.01797528937458992,0.012937354855239391,-0.0008783246157690883,0.02321392297744751
0.030278725549578667,0.005402503069490194,-0.018702935427427292,0.013546622358262539,-0.000887753558345139,0.023763710632920265
0.029530638828873634,0.005282580386847258,-0.01894744485616684,0.013587751425802708,-0.0009395330562256277,0.023789292201399803
0.028881506994366646,0.0050590671598911285,-0.0184396393597126,0.014252308756113052,-0.0009019904537126422,0.02378545142710209
0.02986523136496544,0.0049948133528232574,-0.01893671415746212,0.013680991716682911,-0.0008997232071124017,0.024054856970906258
0.030613014474511147,0.005100956652313471,-0.018347596749663353,0.013447006233036518,-0.000848628580570221,0.024047188460826874
0.02946554869413376,0.005391701590269804,-0.018443895503878593,0.012938251718878746,-0.0008135618409141898,0.024018440395593643
0.02946554869413376,0.005391701590269804,-0.018443895503878593,0.012938251718878746,-0.0008135618409141898,0.024018440395593643
0.030096575617790222,0.005059410352259874,-0.018377596512436867,0.013243213295936584,-0.0006333901546895504,0.02383951097726822
0.03065592609345913,0.004745882470160723,-0.01908363215625286,0.012895800173282623,-0.0006504904013127089,0.02536662295460701
0.029294287785887718,0.004967627115547657,-0.01906215399503708,0.013703051954507828,-0.0005919638788327575,0.02374017983675003
0.029393229633569717,0.004997541196644306,-0.018168741837143898,0.013412877917289734,-0.0005341648939065635,0.023378463461995125
0.029393229633569717,0.004997541196644306,-0.018168741837143898,0.013412877917289734,-0.0005341648939065635,0.023378463461995125
0.030130093917250633,0.005267390049993992,-0.01932450383901596,0.013919712044298649,-0.0005454074125736952,0.023852279409766197
0.029903162270784378,0.0048537543043494225,-0.01983010023832321,0.013342511840164661,-0.0005187989445403218,0.02399655058979988
0.029725831001996994,0.004795418586581945,-0.018780799582600594,0.014374877326190472,-0.000513671722728759,0.02412366308271885
0.029819531366229057,0.005675124004483223,-0.018595140427350998,0.01328299567103386,-0.0005078857066109776,0.024433013051748276
0.02994362637400627,0.00543353334069252,-0.01909651793539524,0.01309671625494957,-0.00044905010145157576,0.024028494954109192
0.030113037675619125,0.005366654600948095,-0.018683679401874542,0.013875878416001797,-0.0004958985955454409,0.024297554045915604
0.030126241967082024,0.005050619598478079,-0.019004732370376587,0.01391691341996193,-0.00047634594375267625,0.024501455947756767
0.02995338849723339,0.004754628054797649,-0.018728157505393028,0.014255610294640064,-0.0005029108142480254,0.024302953854203224
0.029957275837659836,0.004930165130645037,-0.019305545836687088,0.014341429807245731,-0.0006462166202254593,0.024173391982913017
0.02989932894706726,0.004920152947306633,-0.019175399094820023,0.015546229667961597,-0.0007047283579595387,0.024254435673356056
0.03043689765036106,0.004963813349604607,-0.018961703404784203,0.015153625048696995,-0.0007242842111736536,0.024222232401371002
0.03018987365067005,0.005061776377260685,-0.01911240816116333,0.014993765391409397,-0.0007037939503788948,0.024178382009267807
0.03004026599228382,0.005202253349125385,-0.01901916041970253,0.014509144239127636,-0.0006756586371921003,0.024408113211393356
0.030638661235570908,0.004693425726145506,-0.01880892738699913,0.014939755201339722,-0.0006883455789647996,0.024441368877887726
0.030276553705334663,0.005041559226810932,-0.019176209345459938,0.01449640467762947,-0.0006412190850824118,0.02461385726928711
0.03050285205245018,0.004915487952530384,-0.019154971465468407,0.014930786564946175,-0.0006217219633981586,0.02516079507768154
0.030591918155550957,0.004708365071564913,-0.01853215880692005,0.014441813342273235,-0.0006445753970183432,0.02524527907371521
0.03064250387251377,0.004656496457755566,-0.018918223679065704,0.014628788456320763,-0.000587429734878242,0.02476896159350872
0.031167147681117058,0.0049895732663571835,-0.018580732867121696,0.014070426113903522,-0.0006065858760848641,0.023925306275486946
0.03108413703739643,0.004497592803090811,-0.01879722997546196,0.014712199568748474,-0.00056273682275787,0.024355590343475342
0.03133446350693703,0.004550154786556959,-0.019436385482549667,0.01453198678791523,-0.0005808944115415215,0.024788394570350647
0.031343478709459305,0.004520517773926258,-0.01898842118680477,0.0148922735825181,-0.0005464896676130593,0.025446629151701927
0.03118198551237583,0.004715941846370697,-0.018756691366434097,0.014392944984138012,-0.0005658580339513719,0.024832021445035934
0.031131522729992867,0.004797926638275385,-0.019332891330122948,0.015052341856062412,-0.0005818450008518994,0.02489444613456726
0.03146805986762047,0.00476694805547595,-0.018924888223409653,0.014634967781603336,-0.0005460382089950144,0.02562449313700199
0.03139669448137283,0.004607445560395718,-0.018938399851322174,0.015603757463395596,-0.0005741443019360304,0.025610877200961113
0.031269676983356476,0.004518602043390274,-0.01939314976334572,0.015175276435911655,-0.0005962688010185957,0.02410455048084259
0.031269676983356476,0.004518602043390274,-0.01939314976334572,0.015175276435911655,-0.0005962688010185957,0.02410455048084259
0.03250354528427124,0.004755417350679636,-0.019199173897504807,0.015209278091788292,-0.0006568287499248981,0.025727778673171997
0.03250354528427124,0.004755417350679636,-0.019199173897504807,0.015209278091788292,-0.0006568287499248981,0.025727778673171997
0.03313129395246506,0.004631124436855316,-0.01936810091137886,0.015716806054115295,-0.0006857009720988572,0.026237918063998222
0.031366415321826935,0.005160460248589516,-0.018648844212293625,0.015468904748558998,-0.0007030031410977244,0.026109596714377403
0.03135840594768524,0.004525063559412956,-0.019057078287005424,0.015296042896807194,-0.000643521489109844,0.02557086944580078
0.03178524598479271,0.004515497013926506,-0.018984900787472725,0.015473677776753902,-0.0006105747888796031,0.025402946397662163
0.03262843191623688,0.004668195266276598,-0.0191465076059103,0.01583673246204853,-0.0006245561526156962,0.025335032492876053
0.03296375647187233,0.004651833325624466,-0.019545994699001312,0.015491561964154243,-0.0006619405467063189,0.025470055639743805
0.03218560293316841,0.004774140659719706,-0.01923457905650139,0.015479344874620438,-0.0006884426693432033,0.025180038064718246
0.03209761902689934,0.005204035434871912,-0.019609887152910233,0.015298940241336823,-0.0007094894535839558,0.025326166301965714
0.0317547433078289,0.004407449159771204,-0.01939878612756729,0.01566002145409584,-0.0008593535167165101,0.025642773136496544
0.032570645213127136,0.004460492171347141,-0.01893436163663864,0.015140424482524395,-0.0008580154972150922,0.025661038234829903
0.03247389942407608,0.004585144575685263,-0.019401317462325096,0.01571083441376686,-0.0008001163951121271,0.02558112144470215
0.032009728252887726,0.004451488610357046,-0.020012466236948967,0.015539487823843956,-0.0007855441654101014,0.025901006534695625
0.03321239352226257,0.004410355817526579,-0.019569531083106995,0.016004694625735283,-0.0007215825608000159,0.025707678869366646
0.03306156024336815,0.004641316831111908,-0.019490737468004227,0.016403764486312866,-0.0007165996939875185,0.02642042748630047
0.032276302576065063,0.004790716338902712,-0.01953941211104393,0.016177602112293243,-0.0006707166321575642,0.026230862364172935
0.032276302576065063,0.004790716338902712,-0.01953941211104393,0.016177602112293243,-0.0006707166321575642,0.026230862364172935
0.03327474370598793,0.004384411498904228,-0.019409677013754845,0.015392650850117207,-0.0006442908779717982,0.02611730620265007
0.032734692096710205,0.004145014565438032,-0.019562246277928352,0.015425986610352993,-0.0006649494171142578,0.02657664194703102
0.032939694821834564,0.00401645852252841,-0.019515374675393105,0.014968945644795895,-0.0006120276520960033,0.026500295847654343
0.03345225006341934,0.004333729390054941,-0.019910987466573715,0.015595410019159317,-0.0006325545837171376,0.026650764048099518
0.03316294401884079,0.004572823643684387,-0.02056156098842621,0.015429995022714138,-0.0005859193042851985,0.026316804811358452
0.03316294401884079,0.004572823643684387,-0.02056156098842621,0.015429995022714138,-0.0005859193042851985,0.026316804811358452
0.03341654688119888,0.004598056431859732,-0.020248960703611374,0.016352318227291107,-0.0006314581260085106,0.026409901678562164
0.03377388417720795,0.004406063351780176,-0.019040467217564583,0.016032421961426735,-0.0006386126624420285,0.027492070570588112
0.03460916131734848,0.004146099090576172,-0.019652796909213066,0.015597113408148289,-0.0006173242582008243,0.027615755796432495
0.03398581221699715,0.004401254002004862,-0.02025645598769188,0.015420538373291492,-0.0006368392496369779,0.027238445356488228
0.03259941563010216,0.004594916943460703,-0.019870266318321228,0.015509582124650478,-0.000588358729146421,0.025936486199498177
0.033820949494838715,0.004697734955698252,-0.02064915932714939,0.015767017379403114,-0.0006101890467107296,0.025894591584801674
0.034896887838840485,0.004295811988413334,-0.02054666541516781,0.01615319587290287,-0.0006346898735500872,0.027041085064411163
0.03395164757966995,0.0042022718116641045,-0.020392512902617455,0.016525307670235634,-0.0007039193296805024,0.02695988491177559
0.03512515500187874,0.004086716566234827,-0.020311910659074783,0.016098029911518097,-0.0007027727551758289,0.027105603367090225
0.03399353474378586,0.004669270943850279,-0.021117571741342545,0.015441915020346642,-0.0007013672729954123,0.028178513050079346
0.033846642822027206,0.004399445373564959,-0.019989244639873505,0.015834800899028778,-0.0009266107226721942,0.027488667517900467
0.035504765808582306,0.004462264943867922,-0.02025521919131279,0.015797102823853493,-0.0008662933250889182,0.02736399695277214
0.0352390818297863,0.004372080788016319,-0.021570516750216484,0.015954548493027687,-0.0008585177129134536,0.027115434408187866
0.03410029783844948,0.0043648406863212585,-0.02031024545431137,0.01652458868920803,-0.000821033027023077,0.02823925018310547
0.03518277034163475,0.004175389185547829,-0.020206274464726448,0.016630064696073532,-0.0007798374281264842,0.02896147407591343
0.03527667745947838,0.004426166415214539,-0.02148468606173992,0.017181282863020897,-0.0007327792118303478,0.0286602433770895
0.035433992743492126,0.004609155934303999,-0.020962517708539963,0.01700921542942524,-0.0006554234423674643,0.028334230184555054
0.03506450355052948,0.004379133693873882,-0.020112106576561928,0.017260605469346046,-0.0006797774694859982,0.028226422145962715
0.03519703075289726,0.004553462378680706,-0.020570792257785797,0.017430149018764496,-0.0006587427342310548,0.027696695178747177
0.035511333495378494,0.004487062804400921,-0.021053597331047058,0.01711357943713665,-0.0006363068823702633,0.027690773829817772
0.035186365246772766,0.0042074983939528465,-0.02054256573319435,0.017532479017972946,-0.0006519609014503658,0.02813038043677807
0.035725731402635574,0.004363686311990023,-0.020573167130351067,0.017160406336188316,-0.0006079730810597539,0.028532179072499275
0.03545297309756279,0.004533383063971996,-0.021295791491866112,0.017097480595111847,-0.0006211150903254747,0.028219344094395638
0.03588731214404106,0.004847320262342691,-0.02131078951060772,0.017332201823592186,-0.0006534526473842561,0.0283570047467947
0.03614272177219391,0.004438776057213545,-0.020515618845820427,0.01719597540795803,-0.0007274280651472509,0.02831408567726612
0.03614272177219391,0.004438776057213545,-0.020515618845820427,0.01719597540795803,-0.0007274280651472509,0.02831408567726612
0.03547852113842964,0.004383874591439962,-0.02051948755979538,0.01756986975669861,-0.0007049292325973511,0.028113694861531258
0.03571553900837898,0.004445263184607029,-0.020782893523573875,0.016933245584368706,-0.0008907295996323228,0.028386779129505157
0.03594458848237991,0.004415055271238089,-0.02048087865114212,0.016920071095228195,-0.0010209052124992013,0.02821733057498932
0.03582673519849777,0.004606306087225676,-0.02112843655049801,0.016672564670443535,-0.0009296311181969941,0.028418205678462982
0.03582673519849777,0.004606306087225676,-0.02112843655049801,0.016672564670443535,-0.0009296311181969941,0.028418205678462982
0.035548269748687744,0.004640107974410057,-0.021449575200676918,0.016971688717603683,-0.0009505748748779297,0.028723329305648804
0.03628704324364662,0.004795272834599018,-0.021304206922650337,0.016935955733060837,-0.0007962642703205347,0.02857312560081482
0.03604567050933838,0.004723833408206701,-0.0207443255931139,0.017325086519122124,-0.0008019286906346679,0.028773071244359016
0.036399126052856445,0.004335553385317326,-0.02104249969124794,0.017332613468170166,-0.0007906693499535322,0.0289485901594162
0.03637784719467163,0.004450897686183453,-0.020592547953128815,0.017636001110076904,-0.0007388486992567778,0.028272034600377083
0.03566187620162964,0.00481337308883667,-0.02073131501674652,0.01738644205033779,-0.0006590750999748707,0.0287286639213562
0.036592818796634674,0.004793016705662012,-0.021436983719468117,0.017727214843034744,-0.000629773479886353,0.029198357835412025
0.03761367127299309,0.0048586707562208176,-0.02136080525815487,0.01781710796058178,-0.0006565059302374721,0.029277389869093895
0.03650148957967758,0.0046889567747712135,-0.021345777437090874,0.017387688159942627,-0.0006370597402565181,0.03011041134595871
0.035524286329746246,0.00445963442325592,-0.021188341081142426,0.018007606267929077,-0.0006421164143830538,0.03033684752881527
0.03628581017255783,0.004426442086696625,-0.020873527973890305,0.01777532510459423,-0.0006069269729778171,0.02893085591495037
0.03618256747722626,0.00450761616230011,-0.020969655364751816,0.01814618520438671,-0.0006264956900849938,0.0283651165664196
0.037571124732494354,0.004846927709877491,-0.020976629108190536,0.017944006249308586,-0.0006089587695896626,0.028414644300937653
0.037673886865377426,0.004675582516938448,-0.02152889594435692,0.01727021485567093,-0.0005401680245995522,0.02976148948073387
0.03627123683691025,0.004883177112787962,-0.021822072565555573,0.01791951060295105,-0.0005528745241463184,0.02945072576403618
0.035646479576826096,0.0047350055538117886,-0.02128421887755394,0.017917659133672714,-0.0005211122334003448,0.030274726450443268
0.03689992055296898,0.004316666163504124,-0.020322101190686226,0.017560554668307304,-0.0005502438871189952,0.030703343451023102
0.03689992055296898,0.004316666163504124,-0.020322101190686226,0.017560554668307304,-0.0005502438871189952,0.030703343451023102
0.03680533170700073,0.00448582274839282,-0.02093094401061535,0.017972679808735847,-0.0005640730378217995,0.030384181067347527
0.036459557712078094,0.004588760901242495,-0.021517574787139893,0.017304956912994385,-0.000538766325917095,0.02896532230079174
0.03704735264182091,0.005146103445440531,-0.0215752050280571,0.017499057576060295,-0.0005513417418114841,0.028438057750463486
0.036882705986499786,0.005010595545172691,-0.021036118268966675,0.017534824088215828,-0.0005852932808920741,0.029729705303907394
0.03712542727589607,0.004439300857484341,-0.022640474140644073,0.018246488645672798,-0.0005710360128432512,0.030289800837635994
0.03712542727589607,0.004439300857484341,-0.022640474140644073,0.018246488645672798,-0.0005710360128432512,0.030289800837635994
0.03697287291288376,0.004603908862918615,-0.022403020411729813,0.01792510598897934,-0.0005944517906755209,0.029921498149633408
0.03689969703555107,0.005171727854758501,-0.02118307538330555,0.018011536449193954,-0.0007218117825686932,0.029797034338116646
0.03650254011154175,0.004677021875977516,-0.022043123841285706,0.018208112567663193,-0.0007886023377068341,0.02968556247651577
0.03711465746164322,0.0045628794468939304,-0.02156863361597061,0.01804683730006218,-0.000813896011095494,0.030182629823684692
0.038049280643463135,0.005056820344179869,-0.021479755640029907,0.018165526911616325,-0.0008245079079642892,0.030093874782323837
0.035851217806339264,0.004425182472914457,-0.022358231246471405,0.017829492688179016,-0.000966491352301091,0.029705792665481567
0.036793481558561325,0.004445486236363649,-0.022406209260225296,0.018441129475831985,-0.0009222739026881754,0.029655953869223595
0.03683004528284073,0.004998536314815283,-0.02209637127816677,0.01814790815114975,-0.0009170590783469379,0.030282817780971527
0.037023939192295074,0.005001767072826624,-0.02160842902958393,0.017443494871258736,-0.0009428041521459818,0.030782759189605713
0.038725096732378006,0.0052758874371647835,-0.022032249718904495,0.017686035484075546,-0.0009977032896131277,0.029974505305290222
0.036775536835193634,0.005521473474800587,-0.02197246067225933,0.01720607466995716,-0.000967318715993315,0.0312674306333065
0.035569120198488235,0.004865724127739668,-0.021842295303940773,0.017984220758080482,-0.0009570810943841934,0.030829912051558495
0.03753434494137764,0.004811902996152639,-0.021740859374403954,0.018653512001037598,-0.0008706905646249652,0.030398482456803322
0.03826078400015831,0.004924136213958263,-0.02170424908399582,0.018551615998148918,-0.000861611682921648,0.03096950240433216
0.03783689811825752,0.004932726733386517,-0.02243383601307869,0.01914990320801735,-0.0008450656314380467,0.030863991007208824
0.03737481310963631,0.005185519810765982,-0.022679537534713745,0.019744528457522392,-0.0008197373826988041,0.031013956293463707
0.03783632442355156,0.005239660851657391,-0.021836336702108383,0.019870499148964882,-0.000774357293266803,0.02995302341878414
0.03783632442355156,0.005239660851657391,-0.021836336702108383,0.019870499148964882,-0.000774357293266803,0.02995302341878414
0.03785856068134308,0.00478467158973217,-0.021847832947969437,0.02010801061987877,-0.0007844626088626683,0.030542384833097458
0.03834228590130806,0.004894572775810957,-0.022348059341311455,0.019169002771377563,-0.0007524757529608905,0.031940679997205734
0.03834228590130806,0.004894572775810957,-0.022348059341311455,0.019169002771377563,-0.0007524757529608905,0.031940679997205734
0.03817595914006233,0.0049368394538760185,-0.02189333550632,0.01911359466612339,-0.000799097993876785,0.030331864953041077
0.038093358278274536,0.004921988118439913,-0.021793119609355927,0.019023660570383072,-0.0008264887728728354,0.03024371713399887
0.0386868417263031,0.005077263340353966,-0.022127259522676468,0.018891049548983574,-0.0011035420466214418,0.031268391758203506
0.03884267434477806,0.004439912736415863,-0.022181902080774307,0.019964993000030518,-0.0010219886898994446,0.031233223155140877
0.03926268592476845,0.0047242832370102406,-0.021343575790524483,0.019658135250210762,-0.000958444899879396,0.03267525136470795
0.03926268592476845,0.0047242832370102406,-0.021343575790524483,0.019658135250210762,-0.000958444899879396,0.03267525136470795
0.0391160286962986,0.005117418710142374,-0.02189348079264164,0.019346054643392563,-0.0009103594347834587,0.031615808606147766
0.03881014138460159,0.005028581712394953,-0.021940631791949272,0.019220001995563507,-0.0007951700827106833,0.030429258942604065
0.03957445174455643,0.005174769088625908,-0.021964065730571747,0.018757261335849762,-0.0008031865581870079,0.030585279688239098
0.039639707654714584,0.004906500224024057,-0.021754752844572067,0.019120005890727043,-0.00080722919665277,0.03214705362915993
0.03989644721150398,0.004750020802021027,-0.021634109318256378,0.019217198714613914,-0.000727974227629602,0.03234054893255234
0.039601974189281464,0.005008416716009378,-0.022198375314474106,0.01928877644240856,-0.0006755923386663198,0.03312499821186066
0.04009729251265526,0.005214808043092489,-0.021720420569181442,0.01936175301671028,-0.0006258539506234229,0.033117931336164474
0.04007028788328171,0.0050248377956449986,-0.022190803661942482,0.019135503098368645,-0.0006478338618762791,0.03237905725836754
0.040073271840810776,0.005147646181285381,-0.0223709624260664,0.019451767206192017,-0.0006619237246923149,0.03219769895076752
0.04020272195339203,0.004857967607676983,-0.022133857011795044,0.019583474844694138,-0.0006624205852858722,0.032238222658634186
0.03985552117228508,0.004932742100208998,-0.02209603041410446,0.019252443686127663,-0.0007838698802515864,0.03237199783325195
0.0417332760989666,0.005243273451924324,-0.02249862626194954,0.0193060040473938,-0.0008619276923127472,0.03276681527495384
0.0410701259970665,0.005186280235648155,-0.022939275950193405,0.01942070946097374,-0.0008717176970094442,0.03252150118350983
0.03873820975422859,0.005425057373940945,-0.022744540125131607,0.018854910507798195,-0.0008757931063883007,0.03267660737037659
0.03989993780851364,0.004510854836553335,-0.022627873346209526,0.018920421600341797,-0.0008287813398055732,0.03308654949069023
0.04054224491119385,0.004505723249167204,-0.021582238376140594,0.01900504343211651,-0.000958072894718498,0.032802335917949677
0.04123202711343765,0.004522860515862703,-0.02200479619204998,0.0188532005995512,-0.0008955062949098647,0.03333091363310814
0.04172040894627571,0.004691581707447767,-0.022966502234339714,0.01932331919670105,-0.000883599161170423,0.03290938213467598
0.040252264589071274,0.004895577672868967,-0.02275700308382511,0.019415445625782013,-0.0008420014637522399,0.032564230263233185
0.03945827856659889,0.004763731732964516,-0.022084331139922142,0.019398724660277367,-0.0007978834328241646,0.032698530703783035
0.041179195046424866,0.003846539184451103,-0.022042416036128998,0.019581500440835953,-0.000852562312502414,0.03313099965453148
0.04153147712349892,0.003519562305882573,-0.023068413138389587,0.019756130874156952,-0.0007986286072991788,0.0337066613137722
0.04147312790155411,0.003971738275140524,-0.02277125045657158,0.01971605233848095,-0.0007996538770385087,0.03183119371533394
0.04050735384225845,0.004246733151376247,-0.02251948043704033,0.01954619213938713,-0.0007969734142534435,0.033690862357616425
0.040789131075143814,0.004281854722648859,-0.021387826651334763,0.019599422812461853,-0.0007480130880139768,0.03486354276537895
0.04116399213671684,0.0040377043187618256,-0.021752720698714256,0.019641155377030373,-0.0007727535557933152,0.034968163818120956
0.041124630719423294,0.003934355452656746,-0.022246230393648148,0.019854586571455002,-0.0007914362358860672,0.032421037554740906
0.04079514741897583,0.004353866446763277,-0.02313033677637577,0.020643332973122597,-0.0007974574691615999,0.03255661949515343
0.04079514741897583,0.004353866446763277,-0.02313033677637577,0.020643332973122597,-0.0007974574691615999,0.03255661949515343
0.042170822620391846,0.0041633290238678455,-0.022722603753209114,0.020236138254404068,-0.0008086705347523093,0.033478181809186935
