davideferrari95/blind_handover_controller/data/Test 2 - [2024-02-07 -- 12-42-29]/joint_states_data.csv
shoulder_pan_joint,shoulder_lift_joint,elbow_joint,wrist_1_joint,wrist_2_joint,wrist_3_joint
0.0,0.013779224827885628,-0.012525972910225391,-0.0009058944997377694,-3.839808908768938e-30,-0.001118378364481032
0.0,0.013779224827885628,-0.012525972910225391,-0.0009058944997377694,-3.839808908768938e-30,-0.001118378364481032
0.0,0.013961784541606903,-0.012254073284566402,-0.0009027523337863386,-2.507120682507233e-31,-0.0013922316720709205
0.0,0.013823011890053749,-0.012999359518289566,-0.000861678970977664,-1.6369706577520704e-32,-0.0013080342905595899
0.0,0.014047759585082531,-0.012464731000363827,-0.0009267881396226585,-1.0688248506408883e-33,-0.0012364753056317568
0.0,0.013843434862792492,-0.0125591941177845,-0.0009624513331800699,-6.978662578964145e-35,-0.0010939589701592922
0.0,0.013649477623403072,-0.012968819588422775,-0.0009565678192302585,-4.5565677332923976e-36,-0.0009220694191753864
0.0,0.013534126803278923,-0.013098342344164848,-0.0010467193787917495,-2.975112912566328e-37,-0.0009089779341593385
0.0,0.013661540113389492,-0.012801016680896282,-0.001060616341419518,-1.9425361233154808e-38,-0.0009068601066246629
0.0,0.013376020826399326,-0.012658454477787018,-0.0011561022838577628,-1.2683376608358211e-39,-0.0009058270370587707
0.0,0.013176554813981056,-0.012829020619392395,-0.0012493021786212921,-8.281393664466804e-41,-0.0008899734821170568
0.0,0.01352078840136528,-0.012432263232767582,-0.0013383976183831692,-5.407610773829469e-42,-0.0009873436065390706
0.0,0.013068217784166336,-0.012693902477622032,-0.0013091519940644503,-3.531272130098539e-43,-0.001036051893606782
0.0,0.013586512766778469,-0.012419255450367928,-0.0012907445197924972,-2.2420775429197073e-44,-0.0016586791025474668
0.0,0.012730357237160206,-0.01320465374737978,-0.0012343566631898284,-1.401298464324817e-45,-0.001662491005845368
0.0,0.01311024185270071,-0.012755299918353558,-0.0011725100921466947,-0.0,-0.0020988662727177143
0.0,0.012886092066764832,-0.012786269187927246,-0.001140154548920691,-0.0,-0.0018799437675625086
0.0,0.01345263421535492,-0.012807759456336498,-0.001126960851252079,-0.0,-0.0017335976008325815
0.0,0.013193555176258087,-0.012774365954101086,-0.0011292281560599804,-0.0,-0.0015626224922016263
0.0,0.013193555176258087,-0.012774365954101086,-0.0011292281560599804,-0.0,-0.0015626224922016263
0.0,0.013449487276375294,-0.013183875009417534,-0.0011146394535899162,-0.0,-0.0014483361737802625
0.0,0.012704512104392052,-0.012863224372267723,-0.0012950648088008165,-0.0,-0.0012507428182289004
0.0,0.012704512104392052,-0.012863224372267723,-0.0012950648088008165,-0.0,-0.0012507428182289004
0.0,0.012825951911509037,-0.013228637166321278,-0.0010659012477844954,-0.0,-0.0011401541996747255
0.0,0.013464197516441345,-0.013080551289021969,-0.0009600017219781876,-0.0,-0.00125177635345608
0.0,0.012742810882627964,-0.012844985350966454,-0.0009330643806606531,-0.0,-0.001250535948202014
0.0,0.013335317373275757,-0.012942773289978504,-0.0009269374422729015,-0.0,-0.001658205990679562
0.0,0.012865128926932812,-0.012976431287825108,-0.0009232908487319946,-0.0,-0.0015855791280046105
0.0,0.013181937858462334,-0.0128566212952137,-0.0009066310012713075,-0.0,-0.001609958941116929
0.0,0.013087615370750427,-0.01277089398354292,-0.000916690391022712,-0.0,-0.0015706074191257358
0.0,0.012972983531653881,-0.013648205436766148,-0.0009149232064373791,-0.0,-0.0014625457115471363
0.0,0.012855717912316322,-0.012893112376332283,-0.0009130127145908773,-0.0,-0.0012880839640274644
0.0,0.012541240081191063,-0.013128486461937428,-0.0009658726630732417,-0.0,-0.0011981348507106304
0.0,0.012785647995769978,-0.012316717766225338,-0.0009639671770855784,-0.0,-0.0011424878612160683
0.0,0.012293703854084015,-0.012842121534049511,-0.0009732991456985474,-0.0,-0.001109169446863234
0.0,0.012905362993478775,-0.012345821596682072,-0.0009812378557398915,-0.0,-0.0010265945456922054
0.0,0.012458800338208675,-0.0123588303104043,-0.0011877372162416577,-0.0,-0.0011348739499226213
0.0,0.012362622655928135,-0.01261442806571722,-0.001170947216451168,-0.0,-0.0014329859986901283
0.0,0.0125940116122365,-0.012524236924946308,-0.001139837084338069,-0.0,-0.0017124662408605218
0.0,0.012326699681580067,-0.011972502805292606,-0.0011012610048055649,-0.0,-0.0018143028719350696
0.0,0.012401544488966465,-0.01258833147585392,-0.0010108991991728544,-0.0,-0.0018500841688364744
0.0,0.012001699768006802,-0.013127495534718037,-0.0009161605848930776,-0.0,-0.001673078746534884
0.0,0.012456490658223629,-0.012280839495360851,-0.0008995032985694706,-0.0,-0.0013675627997145057
0.0,0.011928452178835869,-0.01260891743004322,-0.0008836890337988734,-0.0,-0.0013522267108783126
0.0,0.011928452178835869,-0.01260891743004322,-0.0008836890337988734,-0.0,-0.0013522267108783126
0.0,0.012500578537583351,-0.012712294235825539,-0.0008191301603801548,-0.0,-0.0013149094302207232
0.0,0.01238225493580103,-0.012561130337417126,-0.0007816872675903141,-0.0,-0.0014190388610586524
0.0,0.012249356135725975,-0.013139734975993633,-0.0008254726999439299,-0.0,-0.0014479451347142458
0.0,0.01249480340629816,-0.012224228121340275,-0.0008539808331988752,-0.0,-0.0017221856396645308
2.6522506232140586e-05,0.01221975963562727,-0.012286309152841568,-0.0013459165347740054,-0.0,-0.0021894420497119427
2.0586290702340193e-05,0.012371924705803394,-0.01280120573937893,-0.0014568265760317445,-0.0,-0.002056741388514638
2.0278783267713152e-05,0.012132449075579643,-0.01243164949119091,-0.0015082943718880415,-0.0,-0.0021420661360025406
2.0051884348504245e-05,0.012335815466940403,-0.012424671091139317,-0.0013066253159195185,-0.0,-0.001911803032271564
1.9830969904433005e-05,0.01200578361749649,-0.012530703097581863,-0.0012305962154641747,-0.0,-0.0018110182136297226
2.660577536062192e-07,0.011993460357189178,-0.012095549143850803,-0.0010419728932902217,-0.0,-0.0018095896812155843
3.569504469780327e-09,0.011896866373717785,-0.01268781628459692,-0.000973970745690167,-0.0,-0.0018957401625812054
4.788945628941832e-11,0.01185582298785448,-0.012113351374864578,-0.0008560430724173784,-0.0,-0.0018964483169838786
6.424981532048013e-13,0.011808933690190315,-0.012873999774456024,-0.0008548348559997976,-0.0,-0.0021857961546629667
8.619932431687058e-15,0.011524152010679245,-0.012373852543532848,-0.0008523685391992331,-0.0,-0.0020036413334310055
1.1564739352209975e-16,0.012042231857776642,-0.012350418604910374,-0.000773730396758765,-0.0,-0.002053126459941268
1.5515574608191634e-18,0.011581438593566418,-0.01225340086966753,-0.0006898471037857234,-0.0,-0.00210228911601007
0.00036278957850299776,0.012229873798787594,-0.012096998281776905,-0.0005975787644274533,-0.0,-0.002306584268808365
0.00034805922769010067,0.011894645169377327,-0.012510488741099834,-0.0006041913293302059,-0.0,-0.002297858241945505
0.000385183870093897,0.011614213697612286,-0.01203034445643425,-0.0005644592456519604,-0.0,-0.0022741747088730335
0.0003618471964728087,0.012650210410356522,-0.012632723897695541,-0.0005916315130889416,-0.0,-0.0023959355894476175
0.00037612536107189953,0.011473482474684715,-0.012227714993059635,-0.0005833194009028375,-0.0,-0.002458447590470314
0.0003720266686286777,0.011669979430735111,-0.012066435068845749,-0.000571560871321708,-4.321004234952852e-05,-0.002396706258878112
0.0004010142292827368,0.011357281357049942,-0.012282929383218288,-0.0006066581117920578,-5.142957888892852e-05,-0.0023485941346734762
0.0005086703458800912,0.011713173240423203,-0.01181237306445837,-0.0005595044931396842,-5.141092333360575e-05,-0.0021915289107710123
0.0005811632727272809,0.012151685543358326,-0.012624466791749,-0.0004992012400180101,-5.0866940000560135e-05,-0.0023905946873128414
0.0005811632727272809,0.012151685543358326,-0.012624466791749,-0.0004992012400180101,-5.0866940000560135e-05,-0.0023905946873128414
0.0005542233120650053,0.011327527463436127,-0.011864176951348782,-0.00044939276995137334,-5.030079046264291e-05,-0.0026899671647697687
0.0005832980386912823,0.011456100270152092,-0.012269677594304085,-0.00046837839181534946,-4.974492549081333e-05,-0.0028429848607629538
0.0006041935994289815,0.011493540368974209,-0.012292420491576195,-0.00044798164162784815,-3.247988388466183e-06,-0.0028736726380884647
0.0005652097752317786,0.011535616591572762,-0.011932317167520523,-0.00041475973557680845,-2.1207040390436305e-07,-0.0028924529906362295
0.0007185828289948404,0.011831019073724747,-0.011511617340147495,-0.0004324200563132763,-1.3846682911378139e-08,-0.0026146857999265194
0.0008407089626416564,0.011656215414404869,-0.01208131480962038,-0.00039321932126767933,-5.903058597489519e-11,-0.002622134517878294
0.0007903336663730443,0.011231236159801483,-0.012292690575122833,-0.0003959171299356967,-3.854275839459964e-12,-0.002848034957423806
0.0011280517792329192,0.01117199007421732,-0.011618959717452526,-0.0003977963933721185,-2.5165668702566146e-13,-0.003013998968526721
0.0010921837529167533,0.011347677558660507,-0.01223728433251381,-0.0003784351283684373,-1.6431382079615253e-14,-0.00319045246578753
0.001074335421435535,0.011313474737107754,-0.012437700293958187,-0.00035962971742264926,-1.0728518251131784e-15,-0.0030739360954612494
0.0011024947743862867,0.011550264433026314,-0.01251736469566822,-0.000342522602295503,-7.004955194603673e-17,-0.003205240471288562
0.0010787699138745666,0.011736887507140636,-0.01223092619329691,-0.00030251199495978653,-4.573735551253744e-18,-0.003041708841919899
0.0011504875728860497,0.011662164703011513,-0.012120586819946766,-0.00027684945962391794,-2.9863228611089154e-19,-0.003166857408359647
0.0012598332250490785,0.011816364713013172,-0.012074497528374195,-0.0002603609173092991,-1.949855504627999e-20,-0.0035954583436250687
0.0013872559648007154,0.011325090192258358,-0.011853919364511967,-0.0002460879331920296,-1.2731162859146183e-21,-0.003819102654233575
0.0013539751525968313,0.012132870964705944,-0.012818977236747742,-0.0002333218144485727,-3.367831959621981e-05,-0.0038601902779191732
0.0017342648934572935,0.011564197018742561,-0.012305337935686111,-0.00025455671129748225,-0.00019885116489604115,-0.003716925857588649
0.0016057556495070457,0.011375462636351585,-0.012532706372439861,-0.00025291426572948694,-0.0002008520095841959,-0.003649346297606826
0.001633841311559081,0.011936447583138943,-0.011867157183587551,-0.0002422382967779413,-0.00019294931553304195,-0.003341137431561947
0.001673656515777111,0.01163824088871479,-0.011681138537824154,-0.00023187804617919028,-0.00021955180272925645,-0.0034471030812710524
0.0018597235903143883,0.011833569966256618,-0.01240578293800354,-0.00022233196068555117,-0.00021313682373147458,-0.0032162421848624945
0.0019337745616212487,0.011675909161567688,-0.012104647234082222,-0.00021353880583774298,-0.0002051839546766132,-0.0033360710367560387
0.0022752161603420973,0.011607018299400806,-0.01274773757904768,-0.0002350985014345497,-0.00022205190907698125,-0.0036341845989227295
0.002089589601382613,0.011894050985574722,-0.011824676766991615,-0.00023056945065036416,-0.00022192327014636248,-0.004248947836458683
0.002205182332545519,0.011612186208367348,-0.012390844523906708,-0.00022268557222560048,-0.0002148565836250782,-0.004086382687091827
0.002205182332545519,0.011612186208367348,-0.012390844523906708,-0.00022268557222560048,-0.0002148565836250782,-0.004086382687091827
0.0023380094207823277,0.01193266548216343,-0.012361150234937668,-0.0002150989748770371,-0.00022977452317718416,-0.003796288976445794
0.002261738758534193,0.011743074283003807,-0.01210583746433258,-0.00020799835328944027,-0.00022940229973755777,-0.00368753750808537
0.0024052979424595833,0.01153948437422514,-0.012960958294570446,-0.0002154560061171651,-0.00022275865194387734,-0.003330951789394021
0.0021883228328078985,0.011973743326961994,-0.012123994529247284,-0.00022202942636795342,-0.0003156304301228374,-0.0033650428522378206
0.002468504710122943,0.011476551182568073,-0.012555043213069439,-0.00021622469648718834,-0.0003252082096878439,-0.003626065794378519
0.002561492146924138,0.011663164012134075,-0.012364652007818222,-0.00020402835798449814,-0.00034264460555277765,-0.004736105911433697
0.0026216779369860888,0.01207240391522646,-0.013166617602109909,-0.00019840591994579881,-0.0003226434928365052,-0.004737155977636576
0.0024327340070158243,0.01244356855750084,-0.01241916511207819,-0.00019308530318085104,-0.0003517088480293751,-0.004310000222176313
0.002377465832978487,0.011805389076471329,-0.012851228937506676,-0.00018809425819199532,-0.0003360268601682037,-0.003963216673582792
0.0025813898537307978,0.012262438423931599,-0.011856702156364918,-0.0001838714088080451,-0.00035867534461431205,-0.0038324138149619102
0.00317127862945199,0.011909952387213707,-0.012631101533770561,-0.00017687022045720369,-0.0003468151262495667,-0.004117156378924847
0.00319675519131124,0.011935478076338768,-0.012108639813959599,-0.0001701942819636315,-0.0003312114567961544,-0.004102271981537342
0.002985551254823804,0.011996670626103878,-0.012533250264823437,-0.00016399211017414927,-0.0003712022735271603,-0.004676258657127619
0.0026549336034804583,0.010386154055595398,-0.01239150669425726,-0.00015822563727851957,-0.0003906478814315051,-0.004502255469560623
0.0026454017497599125,0.010894306935369968,-0.011923268437385559,-0.00015285046538338065,-0.0003625465033110231,-0.004551212303340435
0.003075373824685812,0.01175095047801733,-0.012535071931779385,-0.00014782855578232557,-0.0003357009554747492,-0.004620628897100687
0.00308627518825233,0.012789137661457062,-0.011963729746639729,-0.00015716595225967467,-0.0003704883565660566,-0.004572999197989702
0.003006700426340103,0.012393228709697723,-0.012205405160784721,-0.00016550450527574867,-0.00035023895907215774,-0.004587749484926462
0.0030821349937468767,0.011568546295166016,-0.012072617188096046,-0.00016141678497660905,-0.0003291294851806015,-0.00466986745595932
0.003169494681060314,0.011843583546578884,-0.012515849433839321,-0.00015678581257816404,-0.00034832931123673916,-0.005302563775330782
0.0031211846508085728,0.011965782381594181,-0.012008106335997581,-0.00015236542094498873,-0.00034137562033720315,-0.00527359452098608
0.003020624164491892,0.012103487737476826,-0.01282661221921444,-0.00014818430645391345,-0.00032456329790875316,-0.004682499449700117
0.0027891916688531637,0.012365282513201237,-0.012964817695319653,-0.00014422641834244132,-0.000308705260977149,-0.0049114408902823925
0.00289162527769804,0.013146101497113705,-0.011946131475269794,-0.00014047426520846784,-0.0002942837600130588,-0.0049887471832334995
0.0029178473632782698,0.012598494067788124,-0.012397716753184795,-0.00013691262574866414,-0.0002811479789670557,-0.0048402100801467896
0.0030590868555009365,0.01255473680794239,-0.012449276633560658,-0.00013352709356695414,-0.00030495953978970647,-0.005192251410335302
0.0029982824344187975,0.01271357387304306,-0.012743107043206692,-0.00013030470290686935,-0.0002948068722616881,-0.005370004568248987
0.0029982824344187975,0.01271357387304306,-0.012743107043206692,-0.00013030470290686935,-0.0002948068722616881,-0.005370004568248987
0.003045838326215744,0.012181113474071026,-0.012613805942237377,-0.00012723446707241237,-0.00028335562092252076,-0.005259228404611349
0.003148903138935566,0.01244217250496149,-0.012194371782243252,-0.00012430564675014466,-0.00027263403171673417,-0.00520834606140852
0.0034199899528175592,0.011881042271852493,-0.012647528201341629,-0.00012150841939728707,-0.0002626864006742835,-0.005042943172156811
0.0032978530507534742,0.012508135288953781,-0.012093480676412582,-0.0001188344758702442,-0.0002497353416401893,-0.005728854797780514
0.003462528809905052,0.012178020551800728,-0.012587825767695904,-0.00011382462253095582,-0.00022254760551732033,-0.005870353896170855
0.003145454917103052,0.012396208010613918,-0.012499576434493065,-0.00011147488839924335,-0.00021204723452683538,-0.00585174560546875
0.0032358290627598763,0.012155869044363499,-0.012620876543223858,-0.00010922022192971781,-0.0002025017311098054,-0.005443237721920013
0.0033348919823765755,0.012337257154285908,-0.012146789580583572,-0.0001070548314601183,-0.00019377934222575277,-0.005046159494668245
0.003173277247697115,0.011728971265256405,-0.012340500950813293,-0.00010497382754692808,-0.00018577772425487638,-0.005187831353396177
0.0035795976873487234,0.012175104580819607,-0.011783907189965248,-0.00010297208791598678,-0.00020934217900503427,-0.005304235499352217
0.0033529282081872225,0.012211170978844166,-0.012834751978516579,-0.00010104522516485304,-0.0002056170633295551,-0.005279981065541506
0.003464284585788846,0.012162482365965843,-0.012558108195662498,-9.918922296492383e-05,-0.00019834130944218487,-0.005360971670597792
0.0036266481038182974,0.012527553364634514,-0.012583873234689236,-9.74002032307908e-05,-0.00019133072055410594,-0.0051810527220368385
0.0038668171036988497,0.011735871434211731,-0.01268473919481039,-9.567439701640978e-05,-0.00018478365382179618,-0.005461997352540493
0.003413375001400709,0.011968865059316158,-0.01213280949741602,-9.400898852618411e-05,-0.00017866911366581917,-0.0057682436890900135
0.0034056033473461866,0.011457341723144054,-0.012533372268080711,-7.901517528807744e-05,-0.00019982611411251128,-0.0055725062265992165
0.0035962797701358795,0.012043586932122707,-0.012212339788675308,-7.583646947750822e-05,-0.00019538166816346347,-0.005681936629116535
0.0043835267424583435,0.012076950632035732,-0.012589962221682072,-7.446090603480116e-05,-0.00018961519526783377,-0.005557547323405743
0.004180215299129486,0.011424812488257885,-0.012901420705020428,-7.32411426724866e-05,-0.00018408150936011225,-0.005669951904565096
0.003950831480324268,0.011796936392784119,-0.01265645120292902,-7.206778536783531e-05,-0.00019139688811264932,-0.005924249067902565
0.0038771210238337517,0.010833067819476128,-0.012573812156915665,-7.09317100699991e-05,-0.00019791358499787748,-0.006078817881643772
0.004292940255254507,0.011016775853931904,-0.011977141723036766,-6.983095227042213e-05,-0.00019336761033628136,-0.006400781217962503
0.004339549690485001,0.01137210801243782,-0.012511596083641052,-6.876389670651406e-05,-0.00018835901573766023,-0.006596739403903484
0.004410209134221077,0.011897141113877296,-0.012171484529972076,-6.772902270313352e-05,-0.00018355973588768393,-0.006608474534004927
0.004410209134221077,0.011897141113877296,-0.012171484529972076,-6.772902270313352e-05,-0.00018355973588768393,-0.006608474534004927
0.004296527244150639,0.011680484749376774,-0.012600875459611416,-6.672472227364779e-05,-0.00019725688616745174,-0.006291794124990702
0.004065802786499262,0.01124841719865799,-0.012218370102345943,-6.574983126483858e-05,-0.0001949051656993106,-0.0063478280790150166
0.00382452760823071,0.010775849223136902,-0.012041476555168629,-6.480300362454727e-05,-0.00018720031948760152,-0.006067291367799044
0.004047438967972994,0.011226088739931583,-0.012235261499881744,-6.388311157934368e-05,-0.0001973399193957448,-0.005829517263919115
0.004264097660779953,0.010811020620167255,-0.01260480098426342,-6.211939762579277e-05,-0.00019966183754149824,-0.006227405741810799
0.004176919348537922,0.011220763437449932,-0.012369434349238873,-5.217165744397789e-05,-0.00021635934535879642,-0.006893280893564224
0.004063093569129705,0.010798833332955837,-0.012504415586590767,-4.856624946114607e-05,-0.00021643051877617836,-0.007247937843203545
0.004471308551728725,0.010974399745464325,-0.01221520360559225,-4.773281398229301e-05,-0.00020971550839021802,-0.006595790386199951
0.004657676909118891,0.011103280819952488,-0.011880972422659397,-4.7096011257963255e-05,-0.00022814987460151315,-0.006305243819952011
0.004273637663573027,0.010624228976666927,-0.012190637178719044,-4.648704998544417e-05,-0.00022449791140388697,-0.006356783211231232
0.004229034297168255,0.011089908890426159,-0.012104635126888752,-4.589442323776893e-05,-0.00036815914791077375,-0.006590322591364384
0.004036694299429655,0.010882618837058544,-0.012625540606677532,-3.6900706618325785e-05,-0.00036041875137016177,-0.006676740013062954
0.004417300224304199,0.010925493203103542,-0.012004193849861622,-3.37552119162865e-05,-0.0003972903941757977,-0.00696543650701642
0.004783894866704941,0.010914293117821217,-0.012219628319144249,-3.316531001473777e-05,-0.00040420424193143845,-0.007416109088808298
0.004805267322808504,0.010782215744256973,-0.012222657911479473,-1.5430700841534417e-06,-0.00040618196362629533,-0.007595018483698368
0.004587305709719658,0.011298955418169498,-0.012116983532905579,2.801894152071327e-05,-0.00038329639937728643,-0.007056092377752066
0.004731348715722561,0.01090566162019968,-0.012205256149172783,2.9486880521290004e-05,-0.0004094738105777651,-0.006619822699576616
0.004777674563229084,0.011399900540709496,-0.011859938502311707,4.274056846043095e-05,-0.0003904055629391223,-0.007059598341584206
0.004875661339610815,0.011986524797976017,-0.012842272408306599,5.001855606678873e-05,-0.0003712804173119366,-0.007250604219734669
0.004473285283893347,0.011230693198740482,-0.011811568401753902,5.598121788352728e-05,-0.00046358988038264215,-0.0069066910073161125
0.004951690323650837,0.011303320527076721,-0.012412229552865028,6.853297963971272e-05,-0.0004280459543224424,-0.007152969483286142
0.004889346193522215,0.011076508089900017,-0.012637725099921227,0.0005467965384013951,-0.0003913443651981652,-0.007186402101069689
0.0047800480388104916,0.010760478675365448,-0.012097318656742573,0.0006481370073743165,-0.00036003821878694,-0.0072235772386193275
0.004699274897575378,0.011288064531981945,-0.012557405047118664,0.0006601102068088949,-0.00033334738691337407,-0.007451384328305721
0.004708583932369947,0.011176630854606628,-0.011725593358278275,0.0006180046475492418,-0.000340478029102087,-0.007581864483654499
0.004708583932369947,0.011176630854606628,-0.011725593358278275,0.0006180046475492418,-0.000340478029102087,-0.007581864483654499
0.0046877493150532246,0.011193733662366867,-0.012628973461687565,0.000638917088508606,-0.00034628508728928864,-0.007705485913902521
0.004848394077271223,0.011335164308547974,-0.012656810693442822,0.0006841291906312108,-0.00032711084350012243,-0.00777831394225359
0.00504696648567915,0.01055138185620308,-0.012794834561645985,0.0006729444139637053,-0.00030853215139359236,-0.00829253438860178
0.004858805797994137,0.011610884219408035,-0.01287029404193163,0.0006998040480539203,-0.00029185746097937226,-0.007997912354767323
0.004861815366894007,0.011042979545891285,-0.011996058747172356,0.0007989120204001665,-0.00031093161669559777,-0.008036807179450989
0.005064378958195448,0.010800815187394619,-0.012294438667595387,0.0010900477645918727,-0.00030648362007923424,-0.00826501939445734
0.005332317668944597,0.011178291402757168,-0.012237547896802425,0.0012018150882795453,-0.0002929289184976369,-0.008251716382801533
0.004996975883841515,0.010803993791341782,-0.013114859350025654,0.0011917420197278261,-0.00027995460550300777,-0.008121693506836891
0.004765339195728302,0.010855468921363354,-0.012905091047286987,0.0013931907014921308,-0.00029349784017540514,-0.008249729871749878
0.00498213991522789,0.01062170322984457,-0.012402132153511047,0.0013195964274927974,-0.00027495119138620794,-0.008055577054619789
0.005610574036836624,0.011228366754949093,-0.012427899986505508,0.0012964506167918444,-0.00025303318398073316,-0.00818538572639227
0.005356269422918558,0.010903902351856232,-0.012956865131855011,0.0013437914894893765,-0.0002391570742474869,-0.009080879390239716
0.005118678789585829,0.010839896276593208,-0.012613053433597088,0.0016141230007633567,-0.000266371964244172,-0.008744534105062485
0.005187623202800751,0.01129856240004301,-0.012856679037213326,0.0015883066225796938,-0.00025897842715494335,-0.008626663126051426
0.005256731994450092,0.010868147015571594,-0.012385385110974312,0.0016452790005132556,-0.0002474588982295245,-0.008872021920979023
0.005563122220337391,0.011117512360215187,-0.013086928986012936,0.0017828478012233973,-0.00027338205836713314,-0.008844113908708096
0.005266038700938225,0.010882076807320118,-0.013051501475274563,0.0016591858584433794,-0.0002922281564678997,-0.009482956491410732
0.005467850249260664,0.010649478062987328,-0.013417252339422703,0.0018547923536971211,-0.0002894311328418553,-0.009254349395632744
0.005752625875174999,0.011274440214037895,-0.013083408586680889,0.0017487359000369906,-0.0004300661676097661,-0.009492004290223122
0.005473372992128134,0.010898427106440067,-0.01340158935636282,0.001739064115099609,-0.0004801703034900129,-0.008995575830340385
0.005610722582787275,0.01060275174677372,-0.013012155890464783,0.0017616510158404708,-0.0005180150037631392,-0.009363696910440922
0.006072560325264931,0.011142236180603504,-0.013018802739679813,0.0018435424426570535,-0.0005137116531841457,-0.009645136073231697
0.005648112390190363,0.011764183640480042,-0.013277476653456688,0.0018512654351070523,-0.0005412731552496552,-0.009822020307183266
0.005929294973611832,0.011817769147455692,-0.012577800080180168,0.0018949933582916856,-0.0008946949383243918,-0.010003259405493736
0.005442242603749037,0.011270924471318722,-0.01273928303271532,0.0019292804645374417,-0.00091510423226282,-0.010170129127800465
0.005779462866485119,0.011182131245732307,-0.01244299951940775,0.0020613037049770355,-0.0008558516856282949,-0.009213079698383808
0.005593918263912201,0.011356789618730545,-0.01340488437563181,0.0018594280118122697,-0.0008572671795263886,-0.009420724585652351
0.005669423844665289,0.011061320081353188,-0.01314939558506012,0.001963807735592127,-0.0009111982071772218,-0.009707295335829258
0.005669423844665289,0.011061320081353188,-0.01314939558506012,0.001963807735592127,-0.0009111982071772218,-0.009707295335829258
0.005749457981437445,0.010980464518070221,-0.012969360686838627,0.0019092453876510262,-0.0008930820040404797,-0.009646833874285221
0.0062515209428966045,0.010809107683598995,-0.012832479551434517,0.0023462267126888037,-0.0008931145421229303,-0.010156732052564621
0.005814450792968273,0.010533187538385391,-0.012681064195930958,0.002472873544320464,-0.0008650621166452765,-0.009934812784194946
0.005916595458984375,0.011231161653995514,-0.012960778549313545,0.002452583983540535,-0.0008253987762145698,-0.009757475927472115
0.005627767648547888,0.01133558340370655,-0.012704301625490189,0.0024300208315253258,-0.0008873774204403162,-0.010140175931155682
0.005780849605798721,0.010511050000786781,-0.01309910137206316,0.002388132270425558,-0.0008269356330856681,-0.010047894902527332
0.0062140123918652534,0.0118020698428154,-0.012963411398231983,0.00230985670350492,-0.0008324213558807969,-0.009862056002020836
0.006406004540622234,0.010436699725687504,-0.012860930524766445,0.0020943551789969206,-0.0008656493155285716,-0.010965878143906593
0.005804542452096939,0.01070887129753828,-0.013396929949522018,0.0023178737610578537,-0.0008912174962460995,-0.01049200352281332
0.006035811733454466,0.010586927644908428,-0.012959280051290989,0.0022026831284165382,-0.0009027575142681599,-0.010412154719233513
0.006667150184512138,0.010708995163440704,-0.012869376689195633,0.002158113056793809,-0.000902979401871562,-0.010639598593115807
0.006240409798920155,0.010710217989981174,-0.013071402907371521,0.001969314180314541,-0.0009494723635725677,-0.010329683311283588
0.005858240183442831,0.010119698941707611,-0.012347961775958538,0.001927586505189538,-0.0009491564123891294,-0.010242735967040062
0.006216064561158419,0.010475981049239635,-0.013177849352359772,0.0018815550720319152,-0.0008405115222558379,-0.011491218581795692
0.006268182769417763,0.010842671617865562,-0.012413750402629375,0.0020941151306033134,-0.0008333690348081291,-0.010387392714619637
0.006430608220398426,0.010018608532845974,-0.01326511800289154,0.0024880822747945786,-0.0007484012166969478,-0.010312589816749096
0.006339574698358774,0.01026424951851368,-0.012616023421287537,0.0027217629831284285,-0.0007518823258578777,-0.010823515243828297
0.005969106685370207,0.010060945525765419,-0.013487466610968113,0.0027183566708117723,-0.0006908600335009396,-0.011142502538859844
0.006348250433802605,0.010220461525022984,-0.013022730126976967,0.002936180215328932,-0.000614733318798244,-0.01131337322294712
0.006427849177271128,0.010111290961503983,-0.01310864556580782,0.002729646163061261,-0.000592885771766305,-0.011356379836797714
0.006271396763622761,0.009647088125348091,-0.013001888059079647,0.002558115404099226,-0.0005758355837315321,-0.010679620318114758
0.006192031316459179,0.009869314730167389,-0.012500634416937828,0.0024766919668763876,-0.000523032620549202,-0.011558230966329575
0.005950441583991051,0.010042296722531319,-0.012772723101079464,0.0024479893036186695,-0.0005507810856215656,-0.01144842617213726
0.0059491368010640144,0.009663503617048264,-0.012437616474926472,0.002393750473856926,-0.0005109090707264841,-0.011318343691527843
0.00640613678842783,0.00962061993777752,-0.01355711929500103,0.002562460955232382,-0.0005055913934484124,-0.011154228821396828
0.006885267328470945,0.010895908810198307,-0.0124043058604002,0.0025756140239536762,-0.0005003944970667362,-0.011208349838852882
0.006836799904704094,0.009524257853627205,-0.013291495852172375,0.002454228699207306,-0.00046969609684310853,-0.011479859240353107
0.005971443373709917,0.009408711455762386,-0.012457301840186119,0.0024910650681704283,-0.00045910137123428285,-0.011641006916761398
0.006645703222602606,0.009834644384682178,-0.012888624332845211,0.0026051916647702456,-0.0004204843717161566,-0.011877036653459072
0.006713814102113247,0.009132442995905876,-0.01341717317700386,0.002611664356663823,-0.00045623822370544076,-0.011892354115843773
0.006713814102113247,0.009132442995905876,-0.01341717317700386,0.002611664356663823,-0.00045623822370544076,-0.011892354115843773
0.0067730434238910675,0.009115006774663925,-0.012879803776741028,0.0028701345436275005,-0.0004593166522681713,-0.011670139618217945
0.00660755205899477,0.009819081984460354,-0.013055700808763504,0.002920437604188919,-0.0004575705388560891,-0.011857126839458942
0.007267253007739782,0.009296923875808716,-0.012323891744017601,0.0029876455664634705,-0.00048140381113626063,-0.011916079558432102
0.006592844612896442,0.008952604606747627,-0.013082613237202168,0.0031346785835921764,-0.0006757343071512878,-0.011381718330085278
0.006561301648616791,0.008679651655256748,-0.013116109184920788,0.003107914235442877,-0.0006298234802670777,-0.011193525977432728
0.006892369594424963,0.008516117930412292,-0.012696164660155773,0.0028923542704433203,-0.000653347815386951,-0.011417553760111332
0.007443918846547604,0.009220095351338387,-0.01285204105079174,0.0028059331234544516,-0.000676420284435153,-0.011524349451065063
0.007506827358156443,0.009228837676346302,-0.013252990320324898,0.0026854262687265873,-0.0008233101689256728,-0.01155540719628334
0.006923165637999773,0.008640593849122524,-0.013043674640357494,0.0029688559006899595,-0.0008583785383962095,-0.011495082639157772
0.007148361299186945,0.008458211086690426,-0.013140412047505379,0.003018653253093362,-0.0008570033824071288,-0.011875005438923836
0.007450703997164965,0.008874417282640934,-0.012428629212081432,0.003009149571880698,-0.0008474880596622825,-0.011432799510657787
0.007694668136537075,0.008614614605903625,-0.01311681792140007,0.0028118572663515806,-0.0008604474714957178,-0.0112898088991642
0.007743722293525934,0.008212285116314888,-0.01296281535178423,0.002911151619628072,-0.0009091943502426147,-0.01188681647181511
0.006070651113986969,0.00824521854519844,-0.013663237914443016,0.0031269723549485207,-0.0008768594125285745,-0.01205558329820633
0.00825283769518137,0.008851096034049988,-0.012881380505859852,0.0031127287074923515,-0.000877922575455159,-0.011966015212237835
0.008631458505988121,0.008538737893104553,-0.013171225786209106,0.0033968586940318346,-0.000949063862208277,-0.012258683331310749
0.007658159825950861,0.00808557029813528,-0.012805979698896408,0.003740940010175109,-0.0010354408295825124,-0.012302023358643055
0.007521055638790131,0.008518704213202,-0.013463268056511879,0.003908612299710512,-0.0011372509179636836,-0.012414396740496159
0.007816752418875694,0.008492153137922287,-0.013426222838461399,0.003917887806892395,-0.0012941354652866721,-0.012422198429703712
0.008489535190165043,0.007946925237774849,-0.013386744074523449,0.0039062583819031715,-0.0013914484297856688,-0.012723894789814949
0.007900790311396122,0.007680399809032679,-0.0130054522305727,0.0034895516000688076,-0.001308126375079155,-0.012743973173201084
0.0074186366982758045,0.008236272260546684,-0.012501928023993969,0.003441830165684223,-0.0011800553184002638,-0.012973031960427761
0.007950037717819214,0.007797408849000931,-0.013736870139837265,0.004462522454559803,-0.0010491461725905538,-0.013153035193681717
0.008166410960257053,0.007480259984731674,-0.013260615058243275,0.0041662282310426235,-0.0010155526688322425,-0.012978678569197655
0.007972141727805138,0.00808642152696848,-0.013395838439464569,0.003766831010580063,-0.0009963847696781158,-0.013148616068065166
0.007890036329627037,0.008222535252571106,-0.01263634767383337,0.0036636218428611755,-0.0009743846603669226,-0.012995058670639992
0.00793776847422123,0.007475994061678648,-0.012992056086659431,0.0038165596779435873,-0.0009070723317563534,-0.013212490826845169
0.008531223051249981,0.008232947438955307,-0.013238703832030296,0.003976793494075537,-0.0008464849670417607,-0.01309480145573616
0.008407160639762878,0.008764872327446938,-0.013660167343914509,0.004340306855738163,-0.0007877233438193798,-0.01314742024987936
0.008562823757529259,0.008165976963937283,-0.013528582639992237,0.004499971400946379,-0.0007897224277257919,-0.014312748797237873
0.008730359375476837,0.007887698709964752,-0.013601419515907764,0.004169538151472807,-0.0008014238555915654,-0.013386833481490612
0.008730359375476837,0.007887698709964752,-0.013601419515907764,0.004169538151472807,-0.0008014238555915654,-0.013386833481490612
0.008380803279578686,0.007878399454057217,-0.013130048289895058,0.0038773769047111273,-0.0007325541228055954,-0.013228095136582851
0.008741537109017372,0.0079732034355402,-0.013951561413705349,0.003293121699243784,-0.0006769520696252584,-0.01397331990301609
0.008845683187246323,0.008234195411205292,-0.013137830421328545,0.003290434367954731,-0.0006483163451775908,-0.013785142451524734
0.008743015117943287,0.007962170988321304,-0.013800214976072311,0.0034475920256227255,-0.0006717396317981184,-0.013693532906472683
0.008836791850626469,0.008042204193770885,-0.01315869577229023,0.0036464156582951546,-0.0006936929421499372,-0.013874080032110214
0.009449758566915989,0.007551804184913635,-0.013942306861281395,0.003935826942324638,-0.000706166320014745,-0.014048385433852673
0.00821020919829607,0.007858725264668465,-0.013658564537763596,0.0036907638423144817,-0.0006710359011776745,-0.014241904020309448
0.008695371448993683,0.008534595370292664,-0.014490440487861633,0.0035730295348912477,-0.0006886144983582199,-0.01447295118123293
0.009112948551774025,0.0084691122174263,-0.01336857583373785,0.0036927189212292433,-0.0006728099542669952,-0.01473370660096407
0.00858682207763195,0.007860611192882061,-0.013596534729003906,0.0038133314810693264,-0.0006489355582743883,-0.014627250842750072
0.00896508526057005,0.007592188194394112,-0.013297907076776028,0.003456646343693137,-0.0006317059742286801,-0.014628833159804344
0.009057682007551193,0.008025553077459335,-0.014294982887804508,0.0035261453595012426,-0.0006147752865217626,-0.014408260583877563
0.009205426089465618,0.00762141402810812,-0.013950187712907791,0.004202520940452814,-0.0006143165519461036,-0.014642743393778801
0.009006209671497345,0.0076088979840278625,-0.014050496742129326,0.004130961839109659,-0.0006383478757925332,-0.014797418378293514
0.009994582273066044,0.0076705897226929665,-0.013601036742329597,0.003923356998711824,-0.0006665706750936806,-0.01507811713963747
0.009786618873476982,0.007738812360912561,-0.013887617737054825,0.004091691225767136,-0.0007013689610175788,-0.015681857243180275
0.009238588623702526,0.008040553890168667,-0.0142256123945117,0.004609756171703339,-0.0010659247636795044,-0.015676170587539673
0.009304537437856197,0.007973597384989262,-0.013913847506046295,0.004353891126811504,-0.0011237943544983864,-0.014823309145867825
0.009544534608721733,0.007106366101652384,-0.013405995443463326,0.004350258037447929,-0.0011184349423274398,-0.01516631431877613
0.009796613827347755,0.008098100312054157,-0.013475457206368446,0.004251781385391951,-0.001330564497038722,-0.015339065343141556
0.0099784629419446,0.00759472418576479,-0.01410139910876751,0.004397124517709017,-0.0013042655773460865,-0.01564262993633747
0.010381264612078667,0.007482804823666811,-0.014087752439081669,0.004221794661134481,-0.001236411859281361,-0.015481974929571152
0.00955995637923479,0.007792165968567133,-0.014039214700460434,0.004295520018786192,-0.0011410739971324801,-0.0159138236194849
0.010205592028796673,0.007186832372099161,-0.013397452421486378,0.00421692943200469,-0.0010983628453686833,-0.01634139195084572
0.010054774582386017,0.006873701699078083,-0.013550205156207085,0.004681549966335297,-0.0011485042050480843,-0.01640377938747406
0.00983972754329443,0.0066763353534042835,-0.013260471634566784,0.004850412253290415,-0.0010698714759200811,-0.016133544966578484
0.010185599327087402,0.006917028222233057,-0.014312458224594593,0.004600037820637226,-0.0011439501540735364,-0.015918519347906113
0.010153047740459442,0.0075654829852283,-0.013683989644050598,0.004380344413220882,-0.0011479397071525455,-0.015995359048247337
0.009790562093257904,0.007342755328863859,-0.013802023604512215,0.004026615526527166,-0.0011309357360005379,-0.015987703576683998
0.010380103252828121,0.0068648927845060825,-0.013915881514549255,0.004399383906275034,-0.0010657102102413774,-0.01653440110385418
0.010380103252828121,0.0068648927845060825,-0.013915881514549255,0.004399383906275034,-0.0010657102102413774,-0.01653440110385418
0.010205027647316456,0.007320209871977568,-0.013408906757831573,0.004585173446685076,-0.0011214626720175147,-0.016809338703751564
0.01011461578309536,0.007427813485264778,-0.014073058031499386,0.004457712639123201,-0.0011635979171842337,-0.016405796632170677
0.009896526113152504,0.007369320373982191,-0.013614444062113762,0.004525143653154373,-0.001309629762545228,-0.01645214483141899
0.01026665698736906,0.006860667373985052,-0.013922466896474361,0.004228132776916027,-0.0012587889796122909,-0.016953283920884132
0.010025701485574245,0.0075175100937485695,-0.01309621799737215,0.00418018689379096,-0.0011366771068423986,-0.016873711720108986
0.00995669700205326,0.006944824475795031,-0.013156895525753498,0.0046705277636647224,-0.0011912807822227478,-0.01784510910511017
0.01068888045847416,0.006240873597562313,-0.013413377106189728,0.004761321935802698,-0.0011862667743116617,-0.016374599188566208
0.011048820801079273,0.006612073630094528,-0.013636775314807892,0.004673591814935207,-0.001142381108365953,-0.01630585268139839
0.010002529248595238,0.006781915668398142,-0.013699053786695004,0.004519217647612095,-0.001031547668389976,-0.016762346029281616
0.010129217989742756,0.007555828429758549,-0.01318409200757742,0.004645062610507011,-0.001030455227009952,-0.017611661925911903
0.010236420668661594,0.006666440982371569,-0.013624394312500954,0.0049073235131800175,-0.0010493253357708454,-0.01809895597398281
0.010256019420921803,0.006357552018016577,-0.01334313116967678,0.005026595201343298,-0.0010473141446709633,-0.01839716173708439
0.010927288793027401,0.006844388321042061,-0.014151116833090782,0.005282518919557333,-0.0011984915472567081,-0.01807648316025734
0.010334115475416183,0.00707479752600193,-0.013405743055045605,0.005447420757263899,-0.001211914699524641,-0.017988717183470726
0.009775975719094276,0.0075015537440776825,-0.01385690551251173,0.0051305582746863365,-0.00118408037815243,-0.018058106303215027
0.010415492579340935,0.006650203373283148,-0.01318412460386753,0.005415014922618866,-0.001333763124421239,-0.017730368301272392
0.009881732985377312,0.006463234778493643,-0.013707784004509449,0.005315162241458893,-0.0013210297329351306,-0.017238905653357506
0.009658177383244038,0.006777058821171522,-0.013194773346185684,0.005312280263751745,-0.001250393339432776,-0.01749623939394951
0.010472191497683525,0.007223561871796846,-0.013733233325183392,0.005033890251070261,-0.0011154046515002847,-0.017977887764573097
0.010211892426013947,0.006876050028949976,-0.013354698196053505,0.0048347460106015205,-0.001075606793165207,-0.018300963565707207
0.010178609751164913,0.006694530136883259,-0.013881265185773373,0.005098880734294653,-0.0010853934800252318,-0.018179159611463547
0.010219871066510677,0.00663713226094842,-0.013903724029660225,0.005373879335820675,-0.0010598411317914724,-0.018303483724594116
0.010575206018984318,0.006842460483312607,-0.013887863606214523,0.005126530770212412,-0.001070483005605638,-0.018856452777981758
0.010575206018984318,0.006842460483312607,-0.013887863606214523,0.005126530770212412,-0.001070483005605638,-0.018856452777981758
0.010141889564692974,0.006481218617409468,-0.01355221401900053,0.005022075492888689,-0.0014932438498362899,-0.01852545700967312
0.010141889564692974,0.006481218617409468,-0.01355221401900053,0.005022075492888689,-0.0014932438498362899,-0.01852545700967312
0.010512996464967728,0.006695086602121592,-0.013529167510569096,0.005231196526437998,-0.0014254986308515072,-0.018645983189344406
0.010575463995337486,0.006836877670139074,-0.01379365660250187,0.005503904540091753,-0.001343362731859088,-0.018400659784674644
0.01044557336717844,0.0068066478706896305,-0.013584471307694912,0.005636425688862801,-0.0012694579781964421,-0.01858942024409771
0.010674387216567993,0.006477033719420433,-0.013938609510660172,0.005204103421419859,-0.0012417942052707076,-0.019107960164546967
0.010617120191454887,0.006141550373286009,-0.013446751050651073,0.0052499063313007355,-0.0012221971992403269,-0.01991433836519718
0.011045250110328197,0.006622948218137026,-0.013797509483993053,0.005599393509328365,-0.0013225621078163385,-0.019671553745865822
0.010489284060895443,0.006718712858855724,-0.013267275877296925,0.005497323349118233,-0.0013592166360467672,-0.01937955431640148
0.010656258091330528,0.006978992372751236,-0.01355596724897623,0.005638517439365387,-0.0013761883601546288,-0.019652491435408592
0.011057841591536999,0.0063035134226083755,-0.013264182023704052,0.005570620764046907,-0.0013834470883011818,-0.01977449655532837
0.011070595122873783,0.006568665150552988,-0.014191452413797379,0.005457090679556131,-0.0014386203838512301,-0.0197491105645895
0.010683798231184483,0.0067219980992376804,-0.013637978583574295,0.00527338357642293,-0.0013913046568632126,-0.02000836655497551
0.011230582371354103,0.006647167261689901,-0.014086056500673294,0.005872766487300396,-0.0014251403044909239,-0.01985318399965763
0.010642019100487232,0.0072319600731134415,-0.013724888674914837,0.005914765875786543,-0.0013753600651398301,-0.0199672169983387
0.01066241879016161,0.007081140298396349,-0.014049848541617393,0.005567505955696106,-0.0014064122224226594,-0.02079520747065544
0.011508717201650143,0.007495597470551729,-0.013646384701132774,0.005480865482240915,-0.0014075388899073005,-0.02093486487865448
0.011053635738790035,0.006628513336181641,-0.014472275972366333,0.005876080598682165,-0.001356743392534554,-0.019545843824744225
0.011053635738790035,0.006628513336181641,-0.014472275972366333,0.005876080598682165,-0.001356743392534554,-0.019545843824744225
0.011068979278206825,0.006680532358586788,-0.014059961773455143,0.006169163156300783,-0.001459508785046637,-0.02008742094039917
0.01298476941883564,0.006840117275714874,-0.014173679985105991,0.005739274434745312,-0.0014846501871943474,-0.02090374007821083
0.013986657373607159,0.007083309814333916,-0.014136419631540775,0.005814873147755861,-0.0014362033689394593,-0.020892631262540817
0.013249194249510765,0.006336602848023176,-0.014992978423833847,0.005876313894987106,-0.001443273387849331,-0.02128119207918644
0.013249194249510765,0.006336602848023176,-0.014992978423833847,0.005876313894987106,-0.001443273387849331,-0.02128119207918644
0.013848940841853619,0.006292312406003475,-0.014415986835956573,0.00559347216039896,-0.001702726585790515,-0.02130499668419361
0.01351005956530571,0.006777291651815176,-0.013786929659545422,0.0059128631837666035,-0.0016745771281421185,-0.021245338022708893
0.013820365071296692,0.006427363492548466,-0.014757896773517132,0.006398951634764671,-0.0020135717932134867,-0.02205335535109043
0.014415625482797623,0.006415368523448706,-0.014610234647989273,0.006159962620586157,-0.0020347903482615948,-0.02138633094727993
0.01395956240594387,0.006718860007822514,-0.014452176168560982,0.005654866341501474,-0.0018301535164937377,-0.02149318903684616
0.014222199097275734,0.0068696183152496815,-0.014499252662062645,0.005924112629145384,-0.0015889032511040568,-0.021746838465332985
0.014297835528850555,0.006353758275508881,-0.014079856686294079,0.0056399148888885975,-0.0014217991847544909,-0.022055204957723618
0.014536725357174873,0.006198082119226456,-0.01446488592773676,0.005880527198314667,-0.0013184366980567575,-0.02209344319999218
0.014179965481162071,0.006280137691646814,-0.014545232988893986,0.00580377783626318,-0.0012014228850603104,-0.0221716295927763
0.014767955988645554,0.006128690205514431,-0.014930843375623226,0.006202287040650845,-0.0010773034300655127,-0.02183774672448635
0.014366957359015942,0.006168192718178034,-0.014315038919448853,0.0063141146674752235,-0.0010628942400217056,-0.022281566634774208
0.01419154368340969,0.006177528761327267,-0.014806166291236877,0.0057569448836147785,-0.0010657943785190582,-0.02244637720286846
0.013927171006798744,0.0056260088458657265,-0.014226017519831657,0.006266907788813114,-0.0013019215548411012,-0.02257879264652729
0.014468428678810596,0.006356122437864542,-0.014911803416907787,0.006123275030404329,-0.0013822349719703197,-0.022724973037838936
0.014456214383244514,0.006707152351737022,-0.014167280867695808,0.006449907086789608,-0.0014013978652656078,-0.022978022694587708
0.014740393497049809,0.005953438114374876,-0.01477055624127388,0.006583335343748331,-0.0015061645535752177,-0.023121772333979607
0.014546825550496578,0.005842722952365875,-0.014541810378432274,0.006746349856257439,-0.0014427476562559605,-0.02311178296804428
0.014475027099251747,0.005725136026740074,-0.014632035046815872,0.006191838998347521,-0.0016948735574260354,-0.023169640451669693
0.01438458263874054,0.006119291763752699,-0.014229322783648968,0.006021708715707064,-0.0016563974786549807,-0.023335644975304604
0.01490257028490305,0.005684319883584976,-0.014904133044183254,0.006538344081491232,-0.0019412994151934981,-0.023434709757566452
0.014448870904743671,0.00591744901612401,-0.013965926133096218,0.006704516708850861,-0.0018489431822672486,-0.02332261949777603
0.015378475189208984,0.006195421330630779,-0.014491324312984943,0.0063895611092448235,-0.0018212352879345417,-0.02358565852046013
0.014635107479989529,0.005507573019713163,-0.014042096212506294,0.006118605844676495,-0.001724163768813014,-0.023798013105988503
0.014635107479989529,0.005507573019713163,-0.014042096212506294,0.006118605844676495,-0.001724163768813014,-0.023798013105988503
0.014842405915260315,0.005430638324469328,-0.01457267627120018,0.006362622138112783,-0.0015110394451767206,-0.02364783175289631
0.014410587958991528,0.005713639780879021,-0.014071786776185036,0.007034193724393845,-0.0015382193960249424,-0.023478975519537926
0.015506376512348652,0.0066348048858344555,-0.014864465221762657,0.0067563424818217754,-0.0014437506906688213,-0.02445208467543125
0.014895420521497726,0.005935634486377239,-0.014075218699872494,0.006324028130620718,-0.0014962839195504785,-0.023639928549528122
0.014812689274549484,0.005805810913443565,-0.014675277285277843,0.006395604927092791,-0.001505166874267161,-0.023096943274140358
0.014858147129416466,0.0054498594254255295,-0.014070241712033749,0.006702672224491835,-0.0014569334452971816,-0.023442363366484642
0.015166815370321274,0.005885442718863487,-0.014762384817004204,0.006665289867669344,-0.0014180544530972838,-0.02349594235420227
0.015041160397231579,0.006088728550821543,-0.014639881439507008,0.006085970439016819,-0.001640824368223548,-0.024364901706576347
0.015110655687749386,0.005955863278359175,-0.014399275183677673,0.005972480867058039,-0.0016313581727445126,-0.025215260684490204
0.01497647538781166,0.005358702503144741,-0.01499838288873434,0.006734990049153566,-0.0017834869213402271,-0.025003457441926003
0.01510348916053772,0.005838172044605017,-0.01429214421659708,0.007042460143566132,-0.0019034846918657422,-0.023697026073932648
0.015235645696520805,0.006053284276276827,-0.014652286656200886,0.006849653087556362,-0.002130532171577215,-0.02357271872460842
0.01537858135998249,0.006254503503441811,-0.014671475626528263,0.006783143151551485,-0.0020772144198417664,-0.023973368108272552
0.015186022967100143,0.005389489699155092,-0.014971292577683926,0.007628756109625101,-0.0017094486393034458,-0.02451915480196476
0.01524985209107399,0.005689936690032482,-0.014694513753056526,0.007903560996055603,-0.0016831738175824285,-0.024648278951644897
0.015033292584121227,0.005925971549004316,-0.015075000934302807,0.007558720652014017,-0.001549765933305025,-0.024422258138656616
0.015204657800495625,0.005893895402550697,-0.014371378347277641,0.007555775344371796,-0.0015165177173912525,-0.02481294423341751
0.015181056223809719,0.006174663081765175,-0.014812004752457142,0.00778180081397295,-0.001512861461378634,-0.025883743539452553
0.015676038339734077,0.005445173475891352,-0.014237347058951855,0.007967038080096245,-0.0014725896762683988,-0.025240104645490646
0.015427112579345703,0.00504152849316597,-0.014856959693133831,0.007838845252990723,-0.001616370864212513,-0.024617433547973633
0.015883781015872955,0.005716096609830856,-0.014338543638586998,0.006987189408391714,-0.0017212098464369774,-0.024627558887004852
0.015375763177871704,0.005572305526584387,-0.015190941281616688,0.007098072208464146,-0.0017851131269708276,-0.02506369911134243
0.015633827075362206,0.0060104308649897575,-0.014504345133900642,0.007546109613031149,-0.0016917111352086067,-0.026076236739754677
0.01574736274778843,0.005407536868005991,-0.015034154057502747,0.008139703422784805,-0.0016761531587690115,-0.026261769235134125
0.01544163003563881,0.005630315747112036,-0.014454392716288567,0.007899481803178787,-0.001720717060379684,-0.02599015086889267
0.015595559030771255,0.005452783778309822,-0.015139495022594929,0.007911336608231068,-0.0020626960322260857,-0.026020588353276253
0.015406928025186062,0.005695476196706295,-0.014940389432013035,0.007918652147054672,-0.0019219075329601765,-0.026254506781697273
0.015590464696288109,0.0065041291527450085,-0.015112736262381077,0.0078335115686059,-0.0018315669149160385,-0.02595927007496357
0.01597059890627861,0.00571836344897747,-0.014762839302420616,0.007212080527096987,-0.0018188991816714406,-0.026143306866288185
0.01647471822798252,0.005281574558466673,-0.015294166281819344,0.007837913930416107,-0.0017911382019519806,-0.02602212503552437
0.01647471822798252,0.005281574558466673,-0.015294166281819344,0.007837913930416107,-0.0017911382019519806,-0.02602212503552437
0.015832452103495598,0.005480049178004265,-0.014630877412855625,0.00839644018560648,-0.0018000673735514283,-0.025491993874311447
0.01634521596133709,0.006114085670560598,-0.014901827089488506,0.007994906976819038,-0.0020378902554512024,-0.026858065277338028
0.016883010044693947,0.005676283501088619,-0.014907103963196278,0.007599928416311741,-0.0021692130248993635,-0.028202487155795097
0.016393311321735382,0.0058204359374940395,-0.01493152417242527,0.007608924992382526,-0.0023762863129377365,-0.026655197143554688
0.016096506267786026,0.005571040324866772,-0.015533902682363987,0.008119918406009674,-0.0023060431703925133,-0.025963706895709038
0.01679481565952301,0.005173440091311932,-0.015434647910296917,0.007462556939572096,-0.002095728414133191,-0.02599835954606533
0.016184603795409203,0.0059117102064192295,-0.01522549893707037,0.008120848797261715,-0.0020175501704216003,-0.027997808530926704
0.01673743687570095,0.00566826993599534,-0.015231238678097725,0.007895994000136852,-0.001968825701624155,-0.026580138131976128
0.016373544931411743,0.005882787052541971,-0.015034180134534836,0.007163133937865496,-0.0019775419495999813,-0.026457559317350388
0.016672831028699875,0.00538341561332345,-0.015568754635751247,0.007039870135486126,-0.0019255828810855746,-0.027512621134519577
0.017053112387657166,0.005031286273151636,-0.01520473975688219,0.00796382874250412,-0.001890538027510047,-0.02783208340406418
0.017266977578401566,0.005186961032450199,-0.015653716400265694,0.008297539316117764,-0.001823548343963921,-0.0267574992030859
0.017214953899383545,0.005574438255280256,-0.015186595730483532,0.007836498320102692,-0.0017463895492255688,-0.025995884090662003
0.016677051782608032,0.005639120936393738,-0.015685997903347015,0.007588081061840057,-0.0018037970876321197,-0.02687974087893963
0.017672691494226456,0.005370683036744595,-0.01546930056065321,0.007626642007380724,-0.0019152092281728983,-0.027768291532993317
0.016896117478609085,0.005546622909605503,-0.015800848603248596,0.007523159962147474,-0.0022956880275160074,-0.028113918378949165
0.01631356030702591,0.005291386507451534,-0.015935827046632767,0.0074051241390407085,-0.002079844241961837,-0.028002772480249405
0.017499148845672607,0.00594394002109766,-0.016453424468636513,0.007370930630713701,-0.0018851623171940446,-0.028008099645376205
0.01767747662961483,0.005518209654837847,-0.016552666202187538,0.0075783622451126575,-0.001796618802472949,-0.0280875526368618
0.017697306349873543,0.004996844567358494,-0.016331125050783157,0.007920312695205212,-0.0017450605519115925,-0.028387315571308136
0.017450278624892235,0.005072752013802528,-0.016596544533967972,0.007502608001232147,-0.0016233606729656458,-0.02874579280614853
0.017009010538458824,0.005118299275636673,-0.01539040356874466,0.007767741102725267,-0.0018374554347246885,-0.02866979129612446
0.017009010538458824,0.005118299275636673,-0.01539040356874466,0.007767741102725267,-0.0018374554347246885,-0.02866979129612446
0.017732148990035057,0.00495218625292182,-0.016319114714860916,0.007793590426445007,-0.0019479346228763461,-0.028382545337080956
0.017528602853417397,0.005272814072668552,-0.01620858907699585,0.00739131448790431,-0.002412655623629689,-0.028777049854397774
0.0181534755975008,0.005164806265383959,-0.016257155686616898,0.00725710391998291,-0.002246276708319783,-0.028801389038562775
0.01825205236673355,0.005206073168665171,-0.016668003052473068,0.008049335330724716,-0.0022358631249517202,-0.0285459253937006
0.01800481602549553,0.004811607301235199,-0.016463512554764748,0.008547200821340084,-0.002021858701482415,-0.02843058481812477
0.018144160509109497,0.004745541140437126,-0.01682855747640133,0.008685844019055367,-0.0017829983262345195,-0.028512543067336082
0.017680352553725243,0.005045415833592415,-0.015763329342007637,0.007996956817805767,-0.0017785485833883286,-0.028625601902604103
0.01842866651713848,0.0050049154087901115,-0.016063621267676353,0.008612580597400665,-0.002080614911392331,-0.028530918061733246
0.018656469881534576,0.004876741208136082,-0.016158437356352806,0.008267313241958618,-0.0021600339096039534,-0.028907770290970802
0.018637914210557938,0.004708581138402224,-0.01656092330813408,0.00820325780659914,-0.0022297685500234365,-0.02930942177772522
0.01882806606590748,0.004834644962102175,-0.01643168181180954,0.008240739814937115,-0.0021928842179477215,-0.02921461872756481
0.01800229586660862,0.0048095909878611565,-0.01713157445192337,0.008356468752026558,-0.0022437856532633305,-0.02917611412703991
0.018418345600366592,0.005140615161508322,-0.016090845689177513,0.008091459982097149,-0.0021668008994311094,-0.02922516129910946
0.018819842487573624,0.005099264904856682,-0.016639787703752518,0.008787184022367,-0.002218439942225814,-0.029376517981290817
0.018453868106007576,0.004449496977031231,-0.01650170050561428,0.008766465820372105,-0.002087990753352642,-0.02968614734709263
0.018778586760163307,0.0043758004903793335,-0.01691378466784954,0.008718030527234077,-0.0022312060464173555,-0.029774127528071404
0.018859315663576126,0.004497008863836527,-0.016942517831921577,0.008942828513681889,-0.002089123707264662,-0.029723478481173515
0.01870635524392128,0.004654976539313793,-0.016510112211108208,0.009119296446442604,-0.002229607431218028,-0.029930459335446358
0.018705885857343674,0.004740269389003515,-0.016954556107521057,0.008927909657359123,-0.0025044374633580446,-0.029884932562708855
0.018852239474654198,0.004435796290636063,-0.016724593937397003,0.009311174042522907,-0.002534512197598815,-0.029957851395010948
0.01939914934337139,0.0049398187547922134,-0.016755083575844765,0.008866481482982635,-0.002664666622877121,-0.030193302780389786
0.019276101142168045,0.004825891926884651,-0.016598587855696678,0.008831190876662731,-0.0024652634747326374,-0.030141836032271385
0.019138794392347336,0.004397005308419466,-0.01622956618666649,0.009132679551839828,-0.002340520266443491,-0.03020891733467579
0.018942615017294884,0.004527604673057795,-0.016372984275221825,0.009291230700910091,-0.002251798752695322,-0.030345460399985313
0.018942615017294884,0.004527604673057795,-0.016372984275221825,0.009291230700910091,-0.002251798752695322,-0.030345460399985313
0.019549589604139328,0.004469449166208506,-0.015880044549703598,0.009119034744799137,-0.0021663836669176817,-0.03049403615295887
0.019438570365309715,0.004738721996545792,-0.016689252108335495,0.008948356844484806,-0.002261791843920946,-0.03084569238126278
0.019538747146725655,0.004834532272070646,-0.01652408577501774,0.009436267428100109,-0.002233425620943308,-0.030878279358148575
0.019892068579792976,0.004735562019050121,-0.016688264906406403,0.009767399169504642,-0.002140684984624386,-0.030550196766853333
0.019738268107175827,0.004391395952552557,-0.016581829637289047,0.009120753034949303,-0.002132202498614788,-0.032059796154499054
0.019649939611554146,0.004066735040396452,-0.016728296875953674,0.009445459581911564,-0.002126811072230339,-0.03195594623684883
0.02020655758678913,0.004106601700186729,-0.016724009066820145,0.009635064750909805,-0.0024992150720208883,-0.031647007912397385
0.019842537119984627,0.004405985586345196,-0.016301879659295082,0.010082506574690342,-0.002636206103488803,-0.030809929594397545
0.020133109763264656,0.004453405737876892,-0.015974683687090874,0.009430676698684692,-0.0024311416782438755,-0.03173360601067543
0.020652620121836662,0.004248276352882385,-0.017193371430039406,0.009502929635345936,-0.0020866207778453827,-0.03217596560716629
0.020863065496087074,0.004048401955515146,-0.016853535547852516,0.009759729728102684,-0.0019556081388145685,-0.03209633752703667
0.020314622670412064,0.00400542700663209,-0.016118647530674934,0.00951732974499464,-0.0018764594569802284,-0.03354397788643837
0.0208628810942173,0.004342011176049709,-0.01656760275363922,0.009368890896439552,-0.0019150420557707548,-0.03252623602747917
0.020818032324314117,0.004373330157250166,-0.01635250635445118,0.009641589596867561,-0.0018965199124068022,-0.031139208003878593
0.02051541395485401,0.004074969328939915,-0.016696259379386902,0.00949303712695837,-0.0021263870876282454,-0.03110204078257084
0.020789146423339844,0.0039089578203856945,-0.016255687922239304,0.009276983328163624,-0.0023213555105030537,-0.032334428280591965
0.021322524175047874,0.0038357737939804792,-0.016452522948384285,0.009383698925375938,-0.0022602728568017483,-0.03336424380540848
0.021300943568348885,0.003781198291108012,-0.016514046117663383,0.009446886368095875,-0.0022501240018755198,-0.03274603560566902
0.021176772192120552,0.0039398930966854095,-0.016506889835000038,0.009152548387646675,-0.0019789468497037888,-0.032668959349393845
0.02128681354224682,0.0037781095597893,-0.0166904479265213,0.009447053074836731,-0.0020220703445374966,-0.032156117260456085
0.021964509040117264,0.0035332301631569862,-0.016121698543429375,0.009237526915967464,-0.0021163211204111576,-0.03257731348276138
0.021927138790488243,0.0036056998651474714,-0.016419243067502975,0.009038410149514675,-0.002396876458078623,-0.03305758163332939
0.021755794063210487,0.0033873789943754673,-0.015750188380479813,0.00939167756587267,-0.0026870069559663534,-0.03283144533634186
0.021755794063210487,0.0033873789943754673,-0.015750188380479813,0.00939167756587267,-0.0026870069559663534,-0.03283144533634186
0.021932175382971764,0.004123535007238388,-0.016222301870584488,0.01007249765098095,-0.0024375119246542454,-0.033536892384290695
0.022056391462683678,0.004123670514672995,-0.016095120459794998,0.009545915760099888,-0.0023237878922373056,-0.034659355878829956
0.022572172805666924,0.0038827587850391865,-0.016790209338068962,0.009118231944739819,-0.002109550405293703,-0.03319673612713814
0.022778918966650963,0.00376399839296937,-0.017015863209962845,0.009769964031875134,-0.0022131854202598333,-0.03237113729119301
0.022198759019374847,0.003750063944607973,-0.016473177820444107,0.009561521001160145,-0.0022529931738972664,-0.032901909202337265
0.02018020860850811,0.003774086246266961,-0.017081687226891518,0.009372059255838394,-0.0021951310336589813,-0.03444984182715416
0.02248559147119522,0.003796194214373827,-0.01751836948096752,0.010302760638296604,-0.002397021511569619,-0.033849190920591354
0.02281060256063938,0.0037872602697461843,-0.01728886179625988,0.009932655841112137,-0.0024443415459245443,-0.03473087400197983
0.021700168028473854,0.003895179135724902,-0.016649173572659492,0.009791775606572628,-0.0019226663280278444,-0.03331055864691734
0.022483859211206436,0.0038692650850862265,-0.01735798455774784,0.009396150708198547,-0.001981333363801241,-0.03313178941607475
0.022998064756393433,0.0036213716957718134,-0.01695985347032547,0.009044819511473179,-0.0023762029595673084,-0.03464318811893463
0.02332344651222229,0.003532879753038287,-0.017187755554914474,0.009116324596107006,-0.002758580259978771,-0.03523528203368187
0.02246461808681488,0.0039483290165662766,-0.0174314733594656,0.009807971306145191,-0.0027763789985328913,-0.03449034318327904
0.022405970841646194,0.0037184664979577065,-0.017347563058137894,0.009382504969835281,-0.0027948052156716585,-0.03423052653670311
0.02216583490371704,0.0025007338263094425,-0.017318079248070717,0.009669248014688492,-0.002620399696752429,-0.03397892415523529
0.022787749767303467,0.0015809190226718783,-0.01692057214677334,0.010327056050300598,-0.0023825771640986204,-0.03466480225324631
0.023341216146945953,0.001389548764564097,-0.01720363087952137,0.010146343149244785,-0.0019592714961618185,-0.034519992768764496
0.022748159244656563,0.001454899669624865,-0.017482472583651543,0.010217411443591118,-0.001996132778003812,-0.03426193818449974
0.02318120189011097,0.0013584969565272331,-0.017314406111836433,0.009948473423719406,-0.0021485155448317528,-0.035013940185308456
0.02361932210624218,0.0023882922250777483,-0.017094939947128296,0.00971250794827938,-0.0022254562936723232,-0.03484470769762993
0.02343508042395115,0.002647167770192027,-0.016290180385112762,0.01062911469489336,-0.0027128614019602537,-0.034686364233493805
0.02317924238741398,0.00260199885815382,-0.017259350046515465,0.010124258697032928,-0.002740380121394992,-0.034500524401664734
0.02265019714832306,0.0020991512574255466,-0.017144642770290375,0.009884035214781761,-0.0024844929575920105,-0.034371133893728256
0.02329218201339245,0.0016941658686846495,-0.01647118106484413,0.010199733078479767,-0.0023118334356695414,-0.03505459800362587
0.023525355383753777,0.0012841213028877974,-0.017082760110497475,0.009095161221921444,-0.0020469569135457277,-0.03553372621536255
0.023631345480680466,0.0012038087006658316,-0.016931837424635887,0.009211589582264423,-0.001976241357624531,-0.035344164818525314
0.023442137986421585,0.001221792888827622,-0.017460446804761887,0.010272697545588017,-0.0022105395328253508,-0.03502029553055763
0.023394281044602394,0.0015165623044595122,-0.016997016966342926,0.010122108273208141,-0.002231444464996457,-0.035256631672382355
0.023556534200906754,0.0018873229855671525,-0.016979534178972244,0.009939566254615784,-0.0024133813567459583,-0.03585019335150719
0.023556534200906754,0.0018873229855671525,-0.016979534178972244,0.009939566254615784,-0.0024133813567459583,-0.03585019335150719
0.023838423192501068,0.001956531312316656,-0.017362874001264572,0.01059442013502121,-0.002550653414800763,-0.035903289914131165
0.02381742373108864,0.0017582046566531062,-0.017263490706682205,0.010202615521848202,-0.0024229285772889853,-0.03572886064648628
0.0238286592066288,0.0014673329424113035,-0.017729874700307846,0.01032429188489914,-0.002491396851837635,-0.03615516796708107
0.023885708302259445,0.0012315461644902825,-0.016968388110399246,0.01002623699605465,-0.0022915098816156387,-0.036427464336156845
0.023926639929413795,0.0011656153947114944,-0.01720239780843258,0.00990181602537632,-0.0024857777170836926,-0.036437470465898514
0.02391202375292778,0.0010918198386207223,-0.017169088125228882,0.010484959930181503,-0.0023319025058299303,-0.036385901272296906
0.02401689440011978,0.001221383805386722,-0.017535025253891945,0.00975741632282734,-0.002283324021846056,-0.03648507222533226
0.02494221366941929,0.0011953182984143496,-0.017186257988214493,0.010046026669442654,-0.0024689720012247562,-0.03682401776313782
0.02478955313563347,0.0015408473554998636,-0.017049629241228104,0.010943932458758354,-0.002650063019245863,-0.036471184343099594
0.02472589537501335,0.0015376587398350239,-0.017405059188604355,0.010242440737783909,-0.0030345036648213863,-0.03638667240738869
0.024526746943593025,0.0014800013741478324,-0.016965754330158234,0.010737636126577854,-0.0029503426048904657,-0.03804191201925278
0.023851502686738968,0.0013534767786040902,-0.017339041456580162,0.010291180573403835,-0.002700204262509942,-0.03787916153669357
0.024701526388525963,0.0013836149591952562,-0.016483185812830925,0.010598109103739262,-0.0025288863107562065,-0.03613913059234619
0.025273991748690605,0.0012717160861939192,-0.016994178295135498,0.01141846552491188,-0.002458820352330804,-0.03590210899710655
0.025038622319698334,0.0012228520354256034,-0.017354557290673256,0.010662547312676907,-0.0022825426422059536,-0.03728106990456581
0.02465091086924076,0.0012755284551531076,-0.016955502331256866,0.009935414418578148,-0.002318477490916848,-0.03767618164420128
0.02481890469789505,0.001571768894791603,-0.016983311623334885,0.01040723267942667,-0.002240408444777131,-0.039001550525426865
0.025051478296518326,0.0014993373770266771,-0.01653662696480751,0.01035628467798233,-0.0022311059292405844,-0.0377640426158905
0.025161564350128174,0.0014340360648930073,-0.01716865599155426,0.010663497261703014,-0.002127812011167407,-0.03624889627099037
0.025359205901622772,0.0015027697663754225,-0.017269698902964592,0.01118097547441721,-0.002108895918354392,-0.03725999966263771
0.025113867595791817,0.0013884431682527065,-0.016879884526133537,0.010676989331841469,-0.0023989668115973473,-0.03815782070159912
0.02492452599108219,0.0012997017474845052,-0.017243634909391403,0.010355875827372074,-0.0028114430606365204,-0.03836973011493683
0.025583256036043167,0.0012545178178697824,-0.016810275614261627,0.010821681469678879,-0.002952191513031721,-0.03790082037448883
0.025361469015479088,0.0012274712789803743,-0.01756017841398716,0.011682690121233463,-0.0027539634611457586,-0.03819069638848305
0.025531724095344543,0.0011859149672091007,-0.017220795154571533,0.011970983818173409,-0.002528144046664238,-0.03873000293970108
0.025570642203092575,0.0013411145191639662,-0.017068596556782722,0.011776612140238285,-0.00229891249909997,-0.03865605220198631
0.025657903403043747,0.001301610260270536,-0.01773659698665142,0.011713823303580284,-0.0024153185077011585,-0.038799021393060684
0.025657903403043747,0.001301610260270536,-0.01773659698665142,0.011713823303580284,-0.0024153185077011585,-0.038799021393060684
0.025710228830575943,0.00124518689699471,-0.017716573551297188,0.011871259659528732,-0.0027073819655925035,-0.03817150741815567
0.025382786989212036,0.001203030114993453,-0.017747435718774796,0.011608341708779335,-0.0028086411766707897,-0.03954194486141205
0.02612985298037529,0.0011508349562063813,-0.018016187474131584,0.011714779771864414,-0.002667600056156516,-0.039697300642728806
0.025995688512921333,0.0010934725869446993,-0.017644857987761497,0.011572240851819515,-0.0026107197627425194,-0.03893844038248062
0.026353828608989716,0.0010333366226404905,-0.017598873004317284,0.011822525411844254,-0.002625320805236697,-0.03775402158498764
0.02624422498047352,0.0009710068698041141,-0.017225751653313637,0.011543896980583668,-0.0025192121975123882,-0.03882960230112076
0.02612738497555256,0.0010728657944127917,-0.018209397792816162,0.011175641790032387,-0.0025031501427292824,-0.039244525134563446
0.026565471664071083,0.0015733473701402545,-0.017940210178494453,0.011822459287941456,-0.0025803830940276384,-0.039990440011024475
0.026333516463637352,0.001453610835596919,-0.017886266112327576,0.012119205668568611,-0.002861699787899852,-0.038176584988832474
0.02670884318649769,0.0013543490786105394,-0.01806521974503994,0.012113668024539948,-0.0027447552420198917,-0.03935917839407921
0.02705088071525097,0.001165296882390976,-0.018222061917185783,0.012138566933572292,-0.00249905651435256,-0.03978350758552551
0.026598885655403137,0.0011108927428722382,-0.01885095052421093,0.012231393717229366,-0.0024648301769047976,-0.03967095538973808
0.026627272367477417,0.001173662836663425,-0.01793358288705349,0.011794432997703552,-0.002556675113737583,-0.039726633578538895
0.02692444808781147,0.001135792350396514,-0.017988169565796852,0.012177983298897743,-0.0025686032604426146,-0.03978392481803894
0.027242474257946014,0.001245520543307066,-0.019115597009658813,0.011823778972029686,-0.0025074745062738657,-0.03968740254640579
0.027505045756697655,0.0012284000404179096,-0.018069494515657425,0.011896817944943905,-0.002604567678645253,-0.040354304015636444
0.027439499273896217,0.001335964654572308,-0.017455440014600754,0.011854575015604496,-0.002515137195587158,-0.040446434170007706
0.027613000944256783,0.0014049784513190389,-0.01774280145764351,0.011661074124276638,-0.0026785950176417828,-0.039909448474645615
0.02781558595597744,0.001311168191023171,-0.01791810803115368,0.012122012674808502,-0.0027807671576738358,-0.040068503469228745
0.027638010680675507,0.0011817089980468154,-0.018605729565024376,0.011983402073383331,-0.00291659077629447,-0.03987477719783783
0.02759931981563568,0.0011646462371572852,-0.01830185577273369,0.012452919036149979,-0.0028260638937354088,-0.04064720496535301
0.027627218514680862,0.001235354458913207,-0.018004460260272026,0.012575188651680946,-0.0027843129355460405,-0.041111622005701065
0.028060950338840485,0.0013106995029374957,-0.018455013632774353,0.01296946406364441,-0.002607992384582758,-0.041148923337459564
0.028326114639639854,0.0013053355505689979,-0.018401728942990303,0.013264168985188007,-0.0024638085160404444,-0.04125102236866951
0.028074519708752632,0.0013452867278829217,-0.018483035266399384,0.012760400772094727,-0.0024135492276400328,-0.0418546125292778
0.027879875153303146,0.0012927406933158636,-0.018647218123078346,0.013244452886283398,-0.0025367187336087227,-0.04206664115190506
0.028093688189983368,0.0012400703271850944,-0.018350176513195038,0.012879310175776482,-0.0025509267579764128,-0.042457833886146545
0.028910648077726364,0.0011758925393223763,-0.01834409311413765,0.013645843602716923,-0.002798737958073616,-0.04227179288864136
0.028910648077726364,0.0011758925393223763,-0.01834409311413765,0.013645843602716923,-0.002798737958073616,-0.04227179288864136
0.029245449230074883,0.0011434934567660093,-0.018495062366127968,0.01315092109143734,-0.0029010495636612177,-0.04231403023004532
0.028872612863779068,0.001217152806930244,-0.017830457538366318,0.013582590036094189,-0.0029243570752441883,-0.04243762791156769
0.027788743376731873,0.001201638369821012,-0.01844603195786476,0.012920167297124863,-0.0030575490090996027,-0.04287265986204147
0.0285154078155756,0.0011728416429832578,-0.018525486811995506,0.013110311701893806,-0.0031277684029191732,-0.04301099851727486
0.029306676238775253,0.0014422539388760924,-0.018073230981826782,0.012980288825929165,-0.0031065219081938267,-0.04254433512687683
0.028778307139873505,0.0013463449431583285,-0.0183981005102396,0.012879730202257633,-0.0027437990065664053,-0.04400542378425598
0.030021270737051964,0.001290785032324493,-0.018318602815270424,0.013103282079100609,-0.002711710287258029,-0.04322509840130806
0.028820471838116646,0.0012702178210020065,-0.018498100340366364,0.013628830201923847,-0.0027997216675430536,-0.04229117929935455
0.0285536739975214,0.0013981793308630586,-0.017912548035383224,0.013374128378927708,-0.0028327656909823418,-0.04315581172704697
0.028665607795119286,0.0013620809186249971,-0.01885676011443138,0.013520113192498684,-0.0028073720168322325,-0.044432979077100754
0.02998805232346058,0.001391650177538395,-0.019028671085834503,0.012934141792356968,-0.00287187984213233,-0.04530629888176918
0.030027201399207115,0.0012231172295287251,-0.017983902245759964,0.01333159301429987,-0.002547998446971178,-0.043036457151174545
0.02789580263197422,0.0012176226591691375,-0.018252169713377953,0.013173548504710197,-0.0023354459553956985,-0.042414069175720215
0.03042185865342617,0.0011973623186349869,-0.018114672973752022,0.013203900307416916,-0.002537171356379986,-0.04423262178897858
0.030685577541589737,0.0011496559018269181,-0.018125277012586594,0.012900947593152523,-0.0030299716163426638,-0.04492567479610443
0.030317077413201332,0.0011176189873367548,-0.018841950222849846,0.01284758374094963,-0.0033980906009674072,-0.04496335610747337
0.02998248115181923,0.0010848805541172624,-0.018540022894740105,0.013323859311640263,-0.003386914962902665,-0.044506147503852844
0.03055131621658802,0.0010581541573628783,-0.0183949526399374,0.013424061238765717,-0.002972169080749154,-0.04468851909041405
0.030505500733852386,0.00103528902400285,-0.018716787919402122,0.013645456172525883,-0.0028797376435250044,-0.04464402422308922
0.030497560277581215,0.0010106705594807863,-0.018454942852258682,0.013184976764023304,-0.003082504030317068,-0.04512597247958183
0.030845945701003075,0.0009937458671629429,-0.0188846867531538,0.013243325985968113,-0.0031291889026761055,-0.04404519498348236
0.03066732920706272,0.0009749904274940491,-0.018811650574207306,0.01279577799141407,-0.0030401195399463177,-0.04505440220236778
0.030388671904802322,0.0009550203685648739,-0.017924999818205833,0.01325556356459856,-0.0029258253052830696,-0.04680905118584633
0.030521294102072716,0.0009078208822757006,-0.018896641209721565,0.013387016952037811,-0.003027195343747735,-0.04461425915360451
0.030662471428513527,0.0009126514196395874,-0.0192418172955513,0.013990074396133423,-0.0029930714517831802,-0.04395441338419914
0.031223783269524574,0.0008806360419839621,-0.01815444603562355,0.014083010144531727,-0.003128540702164173,-0.04536808282136917
0.031567949801683426,0.0008079437538981438,-0.018520964309573174,0.013811680488288403,-0.003081092843785882,-0.046364925801754
0.031567949801683426,0.0008079437538981438,-0.018520964309573174,0.013811680488288403,-0.003081092843785882,-0.046364925801754
0.03105943463742733,0.0008173402165994048,-0.019024483859539032,0.013780969195067883,-0.0031347551848739386,-0.047094348818063736
0.03045707382261753,0.0008234078413806856,-0.0186296496540308,0.014289057813584805,-0.0031578519847244024,-0.04517535865306854
0.03193102777004242,0.0008316829334944487,-0.019169054925441742,0.013780650682747364,-0.003185658250004053,-0.046142298728227615
0.032159473747015,0.0008130667847581208,-0.018483249470591545,0.013528239913284779,-0.0029913675971329212,-0.04759601503610611
0.031695254147052765,0.0007532774470746517,-0.018114009872078896,0.013944298028945923,-0.0029158927500247955,-0.047585438936948776
0.0329778753221035,0.0004154591297265142,-0.019162513315677643,0.01455928385257721,-0.0027701978106051683,-0.04674290120601654
0.03250511363148689,0.00033112068194895983,-0.02013746276497841,0.014772310853004456,-0.002958443481475115,-0.047880638390779495
0.030981021001935005,0.00036219198955222964,-0.01932794786989689,0.014694633893668652,-0.0036544634494930506,-0.04834609478712082
0.032471444457769394,0.0003198245831299573,-0.018888240680098534,0.015291337855160236,-0.003436907660216093,-0.04837169870734215
0.032913897186517715,0.00028593934257514775,-0.01877518743276596,0.014746413566172123,-0.0030152378603816032,-0.04829447343945503
0.03259837254881859,0.00025854510022327304,-0.01937546581029892,0.01498686894774437,-0.0028166882693767548,-0.048345897346735
0.03248311206698418,0.00023594344384036958,-0.019482417032122612,0.01464204490184784,-0.002724198391661048,-0.0492548905313015
0.032825861126184464,0.00021697631746064872,-0.01966611109673977,0.015246099792420864,-0.002824994269758463,-0.04902368783950806
0.03241703659296036,0.00020083150593563914,-0.019161628559231758,0.015136515721678734,-0.003124241717159748,-0.04887446388602257
0.032592833042144775,0.00018692485173232853,-0.01921411044895649,0.015699123963713646,-0.0032527553848922253,-0.04909253865480423
0.03291528671979904,0.00017482101975474507,-0.019528266042470932,0.014995968900620937,-0.0030418536625802517,-0.04941657558083534
0.03322318196296692,0.00016418713494203985,-0.020179742947220802,0.015223526395857334,-0.0030148872174322605,-0.04969540238380432
0.03334244713187218,0.00015477422857657075,-0.020104972645640373,0.014981189742684364,-0.0033244644291698933,-0.049752864986658096
0.03326864168047905,0.0001463820954086259,-0.01902923919260502,0.015339331701397896,-0.003374043619260192,-0.05048215389251709
0.03390856459736824,0.00013885337102692574,-0.01947096548974514,0.015109013766050339,-0.003020807169377804,-0.05047450587153435
0.033249251544475555,0.00013206103176344186,-0.019502367824316025,0.015341442078351974,-0.0028117431793361902,-0.051167432218790054
0.03341861814260483,0.00012590238475240767,-0.018992338329553604,0.014746245928108692,-0.0030363916885107756,-0.05249011144042015
0.033795315772295,0.0001202928542625159,-0.018646609038114548,0.015042738057672977,-0.003491881536319852,-0.05033079534769058
0.03366564214229584,0.00011516150698298588,-0.01966732367873192,0.015202437527477741,-0.0036799132358282804,-0.0498758926987648
0.03262098506093025,0.00011045033170375973,-0.019208570942282677,0.015227100811898708,-0.003484377870336175,-0.05160139128565788
0.03485255315899849,0.00010610934987198561,-0.019568968564271927,0.015174738131463528,-0.003141980152577162,-0.05449560284614563
0.03492017835378647,0.00010209672473138198,-0.020185556262731552,0.015529976226389408,-0.0030123600736260414,-0.05222438648343086
0.03492017835378647,0.00010209672473138198,-0.020185556262731552,0.015529976226389408,-0.0030123600736260414,-0.05222438648343086
0.03428374230861664,9.837670222623274e-05,-0.019802235066890717,0.015831949189305305,-0.003334290347993374,-0.05205605924129486
0.034444354474544525,9.491823584539816e-05,-0.01966736651957035,0.01542117539793253,-0.003953884821385145,-0.052632663398981094
0.03479856252670288,9.169467375613749e-05,-0.019615788012742996,0.01574145257472992,-0.0039276136085391045,-0.05243636295199394
0.03481479734182358,8.868278382578865e-05,-0.019655004143714905,0.015506538562476635,-0.0035756384022533894,-0.05241960659623146
0.03533656522631645,8.586254989495501e-05,-0.01995164528489113,0.016146736219525337,-0.003115702886134386,-0.05261426791548729
0.03513503819704056,8.321595669258386e-05,-0.01979963667690754,0.015908388420939445,-0.0030830081086605787,-0.05284978821873665
0.035182490944862366,7.838431338313967e-05,-0.019719254225492477,0.016078928485512733,-0.0032394430600106716,-0.052805304527282715
0.03444039076566696,7.617285154992715e-05,-0.020200667902827263,0.015956943854689598,-0.00355644547380507,-0.052553318440914154
0.03586394339799881,7.408271630993113e-05,-0.020202716812491417,0.01621153950691223,-0.003841244848445058,-0.055338624864816666
0.036135703325271606,7.210443436633795e-05,-0.019745182245969772,0.01592019572854042,-0.003405794035643339,-0.05447547137737274
0.03448667749762535,7.022879435680807e-05,-0.01999596320092678,0.01608521305024624,-0.0031163026578724384,-0.05173299461603165
0.03442894294857979,6.844850577181205e-05,-0.020203784108161926,0.015577783808112144,-0.003086469601839781,-0.0537702739238739
0.03559444844722748,6.67561253067106e-05,-0.01976095139980316,0.016089171171188354,-0.003324601799249649,-0.05675975978374481
0.03507138788700104,6.527992081828415e-05,-0.020141107961535454,0.01581284962594509,-0.0033620991744101048,-0.05464407056570053
0.03653457388281822,-2.208547630289104e-05,-0.020293978974223137,0.016153840348124504,-0.00352136860601604,-0.054100897163152695
0.036784060299396515,-2.2678808818454854e-05,-0.019504517316818237,0.015908367931842804,-0.0032692444510757923,-0.055216968059539795
0.035468485206365585,-2.2136415282147937e-05,-0.019999103620648384,0.016200998798012733,-0.003092604922130704,-0.05558256432414055
0.034857816994190216,-2.1605228539556265e-05,-0.02053428255021572,0.016506273299455643,-0.0034074143040925264,-0.05519568547606468
0.03674916923046112,-2.1098749130032957e-05,-0.020281536504626274,0.016512203961610794,-0.004188958555459976,-0.055668771266937256
0.03656965121626854,-5.396227788878605e-05,-0.01954803429543972,0.016490714624524117,-0.004184541292488575,-0.0554385669529438
0.03602378070354462,-7.99620829639025e-05,-0.01972898840904236,0.015795689076185226,-0.003693309845402837,-0.05579772964119911
0.036338698118925095,-0.0007649680483154953,-0.02041095495223999,0.016110586002469063,-0.0033794494811445475,-0.05614808574318886
0.036593079566955566,-0.000795921019744128,-0.02019285410642624,0.016145264729857445,-0.0030520251020789146,-0.056194376200437546
0.03627144917845726,-0.0007203315617516637,-0.0200758408755064,0.016445975750684738,-0.0032392952125519514,-0.055656611919403076
0.03650226816534996,-0.0005764507804997265,-0.020220110192894936,0.016741793602705002,-0.003512960160151124,-0.05689145624637604
0.035990700125694275,-0.0005252513219602406,-0.020035870373249054,0.01659383252263069,-0.003426478710025549,-0.056905899196863174
0.036460671573877335,-0.0004847771779168397,-0.020220691338181496,0.01661664806306362,-0.003632546402513981,-0.057063810527324677
0.036164723336696625,-0.000506710319314152,-0.020884670317173004,0.016350368037819862,-0.004302067216485739,-0.05707228183746338
0.036164723336696625,-0.000506710319314152,-0.020884670317173004,0.016350368037819862,-0.004302067216485739,-0.05707228183746338
0.03614061698317528,-0.0004800196911673993,-0.020239731296896935,0.016707170754671097,-0.00447067990899086,-0.056794825941324234
0.037540268152952194,-0.0004501021176110953,-0.019579261541366577,0.01712046191096306,-0.003581443103030324,-0.056356094777584076
0.03597583994269371,-0.00044372736010700464,-0.020527957007288933,0.017020748928189278,-0.003202317748218775,-0.056492701172828674
0.03597583994269371,-0.00044372736010700464,-0.020527957007288933,0.017020748928189278,-0.003202317748218775,-0.056492701172828674
0.037214379757642746,-0.000473156658699736,-0.020598355680704117,0.017070449888706207,-0.003542553400620818,-0.056208062916994095
0.03631164878606796,-0.00044717718265019357,-0.02029852569103241,0.016591543331742287,-0.003714163089171052,-0.05919830873608589
0.037620462477207184,-0.000476434244774282,-0.020189957693219185,0.017174260690808296,-0.003710440592840314,-0.05782979726791382
0.037218790501356125,-0.0004476059984881431,-0.02105852961540222,0.01767355389893055,-0.003586225211620331,-0.05740564316511154
0.03565153852105141,-0.0004225519369356334,-0.0207426305860281,0.017625726759433746,-0.0035331202670931816,-0.05789857730269432
0.03659001365303993,-0.0005180237931199372,-0.021267641335725784,0.017895840108394623,-0.0035869251005351543,-0.05846580117940903
0.037653062492609024,-0.0005481482367031276,-0.020059434697031975,0.01741500198841095,-0.003434600308537483,-0.05894526094198227
0.03773779422044754,-0.0005068510654382408,-0.020408403128385544,0.017490364611148834,-0.0034608477726578712,-0.058809392154216766
0.03740084171295166,-0.000539581582415849,-0.020709266886115074,0.018265293911099434,-0.0032677375711500645,-0.05957070738077164
0.03783039003610611,-0.0005680525791831315,-0.021450793370604515,0.01811954565346241,-0.003475160337984562,-0.060040432959795
0.03797062858939171,-0.0008444736013188958,-0.021079519763588905,0.01820666529238224,-0.0037547526881098747,-0.058932192623615265
0.03808204084634781,-0.0008916437509469688,-0.02122356928884983,0.018023546785116196,-0.003905313555151224,-0.059905920177698135
0.038389284163713455,-0.000867414812091738,-0.02103680931031704,0.017780687659978867,-0.003816586220636964,-0.062290433794260025
0.038195885717868805,-0.0008053373894654214,-0.02032330259680748,0.018113769590854645,-0.004093362484127283,-0.0603584349155426
0.03813920542597771,-0.0008968039765022695,-0.020782243460416794,0.0176188163459301,-0.003652698826044798,-0.05981339514255524
0.03862340748310089,-0.0009029582724906504,-0.02096298150718212,0.017479881644248962,-0.0035889302380383015,-0.06101679056882858
0.039161890745162964,-0.0008726526284590364,-0.020864656195044518,0.017835672944784164,-0.0036709231790155172,-0.06278638541698456
0.03919939324259758,-0.0009019551216624677,-0.020635249093174934,0.01734316349029541,-0.0038024394307285547,-0.060909710824489594
0.03942058980464935,-0.0011375966714695096,-0.020762698724865913,0.01767883636057377,-0.003491598879918456,-0.061913419514894485
0.03962842375040054,-0.0011419117217883468,-0.021283023059368134,0.017909925431013107,-0.003527454799041152,-0.06040753424167633
0.039387479424476624,-0.0011400291696190834,-0.02125571481883526,0.01767018437385559,-0.00398350041359663,-0.06274644285440445
0.03974147513508797,-0.0014594991225749254,-0.02071007899940014,0.01825586147606373,-0.004223023075610399,-0.06307664513587952
0.039855875074863434,-0.001518289907835424,-0.020682567730545998,0.01810556650161743,-0.004033061675727367,-0.06275753676891327
0.04012994468212128,-0.001445755478926003,-0.02087339572608471,0.01863601617515087,-0.003875680500641465,-0.06287705898284912
0.04012994468212128,-0.001445755478926003,-0.02087339572608471,0.01863601617515087,-0.003875680500641465,-0.06287705898284912
0.04015664756298065,-0.0015293898759409785,-0.020827781409025192,0.018803520128130913,-0.003433559089899063,-0.06305807828903198
0.04033650457859039,-0.0016304575838148594,-0.02093636617064476,0.018385492265224457,-0.0035239015705883503,-0.06325449049472809
0.04071933031082153,-0.0016447411617264152,-0.021394914016127586,0.018365543335676193,-0.004200519993901253,-0.06243231147527695
0.0410071536898613,-0.0019736415706574917,-0.020571110770106316,0.018150608986616135,-0.00405310932546854,-0.06427280604839325
0.04103565216064453,-0.0019511203281581402,-0.02112060971558094,0.018635094165802002,-0.003884949954226613,-0.0645051896572113
0.04040462523698807,-0.0019079039338976145,-0.021407965570688248,0.018528953194618225,-0.004309867974370718,-0.06320574134588242
0.04215375334024429,-0.001746904687024653,-0.0209498293697834,0.018112223595380783,-0.004338479600846767,-0.06481284648180008
0.04230676218867302,-0.0018717769999057055,-0.020428869873285294,0.01826980710029602,-0.004284585360437632,-0.06286659091711044
0.04013760760426521,-0.001789467758499086,-0.021106932312250137,0.01800675131380558,-0.0039405920542776585,-0.06313236802816391
0.04109054058790207,-0.0023358738981187344,-0.02128809504210949,0.01803332194685936,-0.0036556886043399572,-0.06635867059230804
0.04165084660053253,-0.002774130553007126,-0.020988469943404198,0.018110651522874832,-0.003625251818448305,-0.06400637328624725
0.04225617274641991,-0.0025675692595541477,-0.020758289843797684,0.018327536061406136,-0.0038065093103796244,-0.06460930407047272
0.04343952611088753,-0.002589900279417634,-0.020938802510499954,0.019078725948929787,-0.00425006914883852,-0.06571058183908463
0.04117714613676071,-0.002332690404728055,-0.021477140486240387,0.01902923732995987,-0.003709988435730338,-0.0657341256737709
0.040937747806310654,-0.0022429502569139004,-0.021457383409142494,0.018398186191916466,-0.003459156258031726,-0.0660204067826271
0.04265357181429863,-0.002517344430088997,-0.022077428176999092,0.01898317039012909,-0.0035054106265306473,-0.06643230468034744
0.04224313423037529,-0.003105317708104849,-0.022025812417268753,0.01894126832485199,-0.0036821512039750814,-0.06691853702068329
0.04227682203054428,-0.0031515646260231733,-0.02146817184984684,0.01856745034456253,-0.003742896020412445,-0.06669274717569351
0.04205254837870598,-0.002886408707126975,-0.021573010832071304,0.018889443948864937,-0.003650298807770014,-0.0669572502374649
0.042194053530693054,-0.0028992670122534037,-0.022059712558984756,0.01882614567875862,-0.0037482487969100475,-0.06712948530912399
0.042443208396434784,-0.002968296641483903,-0.02243739366531372,0.018262702971696854,-0.003967911936342716,-0.06903057545423508
0.04158986359834671,-0.0029706922359764576,-0.022495802491903305,0.018358109518885612,-0.0039689019322395325,-0.06583504378795624
0.04215119779109955,-0.0028417163994163275,-0.022421950474381447,0.018373185768723488,-0.004249622114002705,-0.06609819084405899
0.04404217749834061,-0.0031371889635920525,-0.02150799334049225,0.01865489035844803,-0.004085813648998737,-0.06902503222227097
0.042126961052417755,-0.0034267313312739134,-0.02179795131087303,0.01975816674530506,-0.003993884660303593,-0.0677359476685524
0.041263945400714874,-0.00339548964984715,-0.02269335277378559,0.019268373027443886,-0.0038906787522137165,-0.06627713888883591
0.04298921301960945,-0.003137015737593174,-0.02274734154343605,0.019131548702716827,-0.0038127880543470383,-0.06813043355941772
0.04335777834057808,-0.003442786168307066,-0.021543633192777634,0.01888267695903778,-0.00409314502030611,-0.06862948834896088
0.04335777834057808,-0.003442786168307066,-0.021543633192777634,0.01888267695903778,-0.00409314502030611,-0.06862948834896088
0.04410598427057266,-0.003756513586267829,-0.02252669632434845,0.018429460003972054,-0.004208045545965433,-0.06815335899591446
0.041751813143491745,-0.003849639091640711,-0.022629093378782272,0.020243162289261818,-0.004170479718595743,-0.06727295368909836
0.043527230620384216,-0.003970651887357235,-0.021943720057606697,0.020250264555215836,-0.004184088669717312,-0.0676044225692749
0.04343549162149429,-0.0034996639005839825,-0.021754063665866852,0.019811376929283142,-0.004174413159489632,-0.06580531597137451
0.042984262108802795,-0.004017883911728859,-0.021991193294525146,0.020477429032325745,-0.003994755446910858,-0.06821739673614502
0.043147727847099304,-0.00422250758856535,-0.022111156955361366,0.020114492624998093,-0.004308460745960474,-0.06840182095766068
0.043155111372470856,-0.004127095453441143,-0.022444091737270355,0.019919689744710922,-0.004440091550350189,-0.06794138997793198
0.04360278323292732,-0.00392880430445075,-0.022430995479226112,0.020010031759738922,-0.004767647013068199,-0.06871951371431351
0.0433514267206192,-0.0038013539742678404,-0.02252451702952385,0.01996139995753765,-0.00437905453145504,-0.06995338201522827
0.043282169848680496,-0.004166744649410248,-0.022118790075182915,0.01958109810948372,-0.00398646155372262,-0.06804899126291275
0.04343986138701439,-0.004190598148852587,-0.02223322167992592,0.020177768543362617,-0.0037889545783400536,-0.06904585659503937
0.044167082756757736,-0.00426267646253109,-0.021928695961833,0.02016817219555378,-0.004025615751743317,-0.07081281393766403
0.0441422313451767,-0.004103358834981918,-0.021820958703756332,0.019872434437274933,-0.004082922358065844,-0.0696832537651062
0.04429108649492264,-0.004456634633243084,-0.022621434181928635,0.02003599889576435,-0.004391061142086983,-0.06982622295618057
0.04422714188694954,-0.0048580896109342575,-0.022870603948831558,0.02031945437192917,-0.004211467690765858,-0.07005757838487625
0.044202663004398346,-0.004861833062022924,-0.022129978984594345,0.020113544538617134,-0.004457902163267136,-0.07014305889606476
0.044284749776124954,-0.004709883593022823,-0.021925034001469612,0.01985323242843151,-0.004634247161448002,-0.06994519382715225
0.04444364085793495,-0.0049368590116500854,-0.02252952568233013,0.020110076293349266,-0.00437026284635067,-0.07040568441152573
0.044434357434511185,-0.004856663290411234,-0.02266821451485157,0.019788941368460655,-0.004293135367333889,-0.06861788779497147
0.044434357434511185,-0.004856663290411234,-0.02266821451485157,0.019788941368460655,-0.004293135367333889,-0.06861788779497147
0.044763848185539246,-0.004809241276234388,-0.022405903786420822,0.019478850066661835,-0.00409443024545908,-0.07125017791986465
0.04508981481194496,-0.005456498824059963,-0.022294916212558746,0.019950425252318382,-0.003939703572541475,-0.07109218835830688
0.044904228299856186,-0.005633023101836443,-0.022336916998028755,0.02003389783203602,-0.004649312701076269,-0.07176148146390915
0.04510008916258812,-0.0055620186030864716,-0.02231985330581665,0.01939324103295803,-0.004872180055826902,-0.0719873234629631
0.04465724527835846,-0.005377255845814943,-0.022599078714847565,0.019417013972997665,-0.004545725416392088,-0.07005665451288223
0.045036666095256805,-0.005605403799563646,-0.021956058219075203,0.019627679139375687,-0.004432699643075466,-0.07173287868499756
0.046851858496665955,-0.005912690423429012,-0.022025248035788536,0.01961459219455719,-0.004338794853538275,-0.07018975168466568
0.0459996797144413,-0.006324326153844595,-0.022135356441140175,0.01944214291870594,-0.0044073499739170074,-0.0720835030078888
0.044504743069410324,-0.0060813529416918755,-0.022351836785674095,0.019126780331134796,-0.004744683858007193,-0.07248454540967941
0.045921385288238525,-0.005936594679951668,-0.02256629802286625,0.01949521154165268,-0.004702793899923563,-0.0724504217505455
0.045988451689481735,-0.005881740711629391,-0.02228769287467003,0.02001979947090149,-0.004816237837076187,-0.07205551117658615
0.04703423008322716,-0.0063753388822078705,-0.022635629400610924,0.020281735807657242,-0.0043786680325865746,-0.07239722460508347
0.04633024334907532,-0.006910371128469706,-0.022923573851585388,0.020621757954359055,-0.004401840269565582,-0.07297156006097794
0.045004189014434814,-0.006738221738487482,-0.021979842334985733,0.020929813385009766,-0.004144597798585892,-0.07300068438053131
0.046657487750053406,-0.006174049805849791,-0.022252868860960007,0.021004194393754005,-0.004389352165162563,-0.0716327503323555
0.046461623162031174,-0.006589517928659916,-0.022903461009263992,0.02083835005760193,-0.0045890239998698235,-0.07299835234880447
0.04646912217140198,-0.006919976323843002,-0.023816216737031937,0.021147632971405983,-0.004733857698738575,-0.07510897517204285
0.047011639922857285,-0.007342569995671511,-0.023736249655485153,0.021372253075242043,-0.0046813758090138435,-0.07397612929344177
0.046554453670978546,-0.006924672517925501,-0.02249843068420887,0.021254032850265503,-0.004174008034169674,-0.07243899255990982
0.04662822559475899,-0.006480698473751545,-0.022227544337511063,0.021109534427523613,-0.004323564935475588,-0.0754271149635315
0.04848632216453552,-0.006979340221732855,-0.02308487333357334,0.021392501890659332,-0.00424952432513237,-0.07348643243312836
0.04626033827662468,-0.0069545358419418335,-0.0237860269844532,0.02132229320704937,-0.004394270479679108,-0.07392749190330505
0.04643215611577034,-0.00696370517835021,-0.023812878876924515,0.021212035790085793,-0.004700741730630398,-0.07412619143724442
0.04643215611577034,-0.00696370517835021,-0.023812878876924515,0.021212035790085793,-0.004700741730630398,-0.07412619143724442
0.04684047773480415,-0.007013213355094194,-0.02263343706727028,0.021311717107892036,-0.0046737417578697205,-0.07367636263370514
0.049208082258701324,-0.006963240448385477,-0.023211847990751266,0.021894562989473343,-0.004814988002181053,-0.07477176189422607
0.04839487746357918,-0.007217062637209892,-0.024109849706292152,0.022315222769975662,-0.004382049199193716,-0.07561719417572021
0.046733271330595016,-0.00747593492269516,-0.02325407788157463,0.02223788946866989,-0.00428952369838953,-0.07526517659425735
0.04812737554311752,-0.006958154961466789,-0.0232309028506279,0.02179986611008644,-0.004190849605947733,-0.0746733546257019
0.04866822436451912,-0.007007115054875612,-0.023257024586200714,0.021541042253375053,-0.004430470056831837,-0.0746920183300972
0.048147331923246384,-0.007326359394937754,-0.022847255691885948,0.02255575731396675,-0.004943103063851595,-0.07457385957241058
0.04808612912893295,-0.0068606301210820675,-0.024303441867232323,0.02175704389810562,-0.0049801599234342575,-0.07414175570011139
0.0484008826315403,-0.007169509772211313,-0.024294838309288025,0.02106563374400139,-0.0050179013051092625,-0.07466094195842743
0.048610348254442215,-0.007524506188929081,-0.02393888682126999,0.021267324686050415,-0.004939632024616003,-0.07706411927938461
0.04860328137874603,-0.0074468944221735,-0.02326715737581253,0.02110854722559452,-0.004757762420922518,-0.07532627880573273
0.0482262521982193,-0.007202459033578634,-0.023665666580200195,0.021380670368671417,-0.004885405767709017,-0.07616425305604935
0.04886677861213684,-0.008035674691200256,-0.023902863264083862,0.021448753774166107,-0.004982862621545792,-0.07758240401744843
0.04900914803147316,-0.007778418716043234,-0.023922882974147797,0.021811705082654953,-0.004904725588858128,-0.07767312973737717
0.049261387437582016,-0.007562904618680477,-0.024355260655283928,0.022275665774941444,-0.0047992803156375885,-0.07764274626970291
0.0492594912648201,-0.008059697225689888,-0.0241247545927763,0.023158198222517967,-0.005104842595756054,-0.07817419618368149
0.04924701526761055,-0.007909467443823814,-0.023965157568454742,0.023006515577435493,-0.00497737992554903,-0.07828842848539352
0.04919740930199623,-0.008069026283919811,-0.024098897352814674,0.0225631482899189,-0.004952407907694578,-0.07849620282649994
0.049392931163311005,-0.007870863191783428,-0.024318326264619827,0.021547038108110428,-0.005119372624903917,-0.07877995073795319
0.049613285809755325,-0.007430484984070063,-0.024657361209392548,0.021246107295155525,-0.0049842908047139645,-0.07754316180944443
0.04968353733420372,-0.007555179297924042,-0.024524826556444168,0.021873582154512405,-0.005389323458075523,-0.08029010146856308
0.050405412912368774,-0.0077322558499872684,-0.02488177828490734,0.02402469888329506,-0.005269256420433521,-0.07792162150144577
0.04971430450677872,-0.007607674691826105,-0.024734273552894592,0.02263934537768364,-0.004928812384605408,-0.0794120579957962
0.05033890902996063,-0.007957016117870808,-0.024415014311671257,0.02215317264199257,-0.004632787313312292,-0.08062107861042023
0.05033890902996063,-0.007957016117870808,-0.024415014311671257,0.02215317264199257,-0.004632787313312292,-0.08062107861042023
0.05009987950325012,-0.008248151279985905,-0.024263542145490646,0.021958917379379272,-0.004564897157251835,-0.07840322703123093
0.04995137080550194,-0.0079866424202919,-0.02451365999877453,0.022566502913832664,-0.0046183159574866295,-0.07918152958154678
0.05162506178021431,-0.007510177791118622,-0.02493041753768921,0.02274196222424507,-0.004563522059470415,-0.07993849366903305
0.0499657578766346,-0.007954629138112068,-0.02512703835964203,0.022667117416858673,-0.00478891609236598,-0.08017192780971527
0.04977017268538475,-0.008280488662421703,-0.024545157328248024,0.022470975294709206,-0.004715288523584604,-0.0802566334605217
0.05156894773244858,-0.006253392435610294,-0.02475428767502308,0.022742271423339844,-0.0050259423442184925,-0.07985415309667587
0.05091891437768936,-0.005442135035991669,-0.024626389145851135,0.023051392287015915,-0.005553056485950947,-0.07970205694437027
0.04939093440771103,-0.005731636192649603,-0.024884982034564018,0.023143839091062546,-0.005560270510613918,-0.0820833370089531
0.05112110823392868,-0.0064712041057646275,-0.02489067055284977,0.022613460198044777,-0.005547570064663887,-0.08021844923496246
0.050095152109861374,-0.006811185739934444,-0.024955574423074722,0.022221485152840614,-0.005215093493461609,-0.0808253213763237
