davideferrari95/blind_handover_controller/data/Test 119 - [2024-02-07 -- 16-30-51]/joint_states_data.csv
shoulder_pan_joint,shoulder_lift_joint,elbow_joint,wrist_1_joint,wrist_2_joint,wrist_3_joint
0.003994269762188196,-0.006798237096518278,-0.0158731397241354,0.019268356263637543,0.0,0.003507433459162712
0.003994269762188196,-0.006798237096518278,-0.0158731397241354,0.019268356263637543,0.0,0.003507433459162712
0.0043982211500406265,-0.006666332017630339,-0.014978439547121525,0.019774820655584335,0.0,0.0033700827043503523
0.004547508433461189,-0.006704220548272133,-0.015631122514605522,0.019807443022727966,0.0,0.003601429518312216
0.004392755683511496,-0.007180874701589346,-0.015413968823850155,0.01950366608798504,0.0,0.0033728964626789093
0.004539410583674908,-0.007227476220577955,-0.0157244261354208,0.01998140849173069,0.0,0.003510222537443042
0.004249629098922014,-0.007038364186882973,-0.015279946848750114,0.01947847381234169,0.0,0.003248411463573575
0.004020112566649914,-0.0068589625880122185,-0.015532879158854485,0.018906885758042336,0.0,0.003256842028349638
0.003928654361516237,-0.007237679790705442,-0.015557610429823399,0.019532956182956696,0.0,0.003263615071773529
0.003531165886670351,-0.008112773299217224,-0.015418078750371933,0.019711364060640335,0.0,0.0034557858016341925
0.004060006234794855,-0.007192724850028753,-0.015528528951108456,0.019973231479525566,0.0,0.0036710486747324467
0.004172171466052532,-0.007187816314399242,-0.015188547782599926,0.020290274173021317,0.0,0.003596725407987833
0.00396388303488493,-0.007609789725393057,-0.015825480222702026,0.020112160593271255,0.0,0.0034511478152126074
0.0037823074962943792,-0.00758321862667799,-0.015171187929809093,0.020200621336698532,0.0,0.003177609760314226
0.0037910102400928736,-0.007393517065793276,-0.015324927866458893,0.02095394767820835,0.0,0.003007762599736452
0.004085598047822714,-0.007355968933552504,-0.014605975709855556,0.02071380615234375,0.0,0.0031326040625572205
0.00416210200637579,-0.007566391956061125,-0.015503132715821266,0.019877329468727112,0.0,0.0035468782298266888
0.004321159794926643,-0.008176061324775219,-0.01490718498826027,0.019442962482571602,0.0,0.004188389051705599
0.0040226769633591175,-0.007922776974737644,-0.015286242589354515,0.019771497696638107,0.0,0.0036369620356708765
0.004425760358572006,-0.006999071687459946,-0.015094077214598656,0.01992667093873024,0.0,0.003369007259607315
0.00412637647241354,-0.007976262830197811,-0.01517071109265089,0.02029590867459774,0.0,0.003255053423345089
0.00412637647241354,-0.007976262830197811,-0.01517071109265089,0.02029590867459774,0.0,0.003255053423345089
0.00398555863648653,-0.007994774729013443,-0.014706166461110115,0.020807189866900444,0.0,0.0030924666207283735
0.003952198661863804,-0.007610684726387262,-0.015079203061759472,0.020912084728479385,0.0,0.0034852896351367235
0.004388557747006416,-0.006976235192269087,-0.01493142731487751,0.019999822601675987,0.0,0.0038099330849945545
0.004218770656734705,-0.007446790114045143,-0.01534064207226038,0.020034266635775566,0.0,0.0034660485107451677
0.003978499677032232,-0.008126177825033665,-0.015138909220695496,0.02039666287600994,0.0,0.003590086940675974
0.0038294473197311163,-0.007875670678913593,-0.014904358424246311,0.020219044759869576,0.0,0.0036913645453751087
0.0038589059840887785,-0.007043885532766581,-0.015240929089486599,0.01987389288842678,0.0,0.0033511894289404154
0.0038086373824626207,-0.007607585750520229,-0.015299367718398571,0.02027737908065319,0.0,0.0033442839048802853
0.00392749160528183,-0.007083225529640913,-0.014668012969195843,0.019771380349993706,0.0,0.0037268877495080233
0.003899645758792758,-0.0060188621282577515,-0.015376350842416286,0.01997004635632038,0.0,0.003609784645959735
0.0037957627791911364,-0.004545166622847319,-0.0148491645231843,0.020162364467978477,0.0,0.0033875845838338137
0.0037453174591064453,-0.004023874644190073,-0.015316583216190338,0.020388679578900337,0.0,0.003453747369349003
0.0038286899216473103,-0.004364004824310541,-0.015072530135512352,0.018905462697148323,0.0,0.0032785392832010984
0.0038474430330097675,-0.005539347417652607,-0.015793366357684135,0.01944565959274769,0.0,0.0031115575693547726
0.004224281292408705,-0.005557358730584383,-0.015220563858747482,0.019515052437782288,0.0,0.003370491089299321
0.004070867318660021,-0.004994427785277367,-0.015529963187873363,0.019777936860919,0.0,0.003189514856785536
0.003911414183676243,-0.004865765105932951,-0.015558821149170399,0.01999085769057274,0.0,0.0034545494709163904
0.0038303029723465443,-0.004819443915039301,-0.01572933793067932,0.019835438579320908,0.0,0.0036250906996428967
0.004381522070616484,-0.004866475705057383,-0.01584950089454651,0.0196179561316967,0.0,0.003487248905003071
0.004174836445599794,-0.005198752041906118,-0.015435395762324333,0.019808858633041382,0.0,0.003326271427795291
0.004406094551086426,-0.004899329040199518,-0.015776004642248154,0.01917971298098564,0.0,0.0030422520358115435
0.004150587134063244,-0.004534916020929813,-0.015795506536960602,0.01905963383615017,0.0,0.0033745933324098587
0.004056907724589109,-0.004456153605133295,-0.016380399465560913,0.019781772047281265,0.0,0.003249994944781065
0.0035216808319091797,-0.0046006543561816216,-0.01587040163576603,0.01955457590520382,0.0,0.003160465508699417
0.003912313375622034,-0.004409562796354294,-0.01612117327749729,0.019477002322673798,0.0,0.0031707752496004105
0.00415061553940177,-0.004586842842400074,-0.01477277185767889,0.019827712327241898,0.0,0.003168445313349366
0.004101273603737354,-0.004336737561970949,-0.015346651896834373,0.01998724415898323,0.0,0.003470879979431629
0.004101273603737354,-0.004336737561970949,-0.015346651896834373,0.01998724415898323,0.0,0.003470879979431629
0.004003832582384348,-0.004311616066843271,-0.01547109242528677,0.01950511522591114,0.0,0.0032763853669166565
0.003542840713635087,-0.004031953867524862,-0.015813400968909264,0.019531622529029846,0.0,0.003239215584471822
0.003572156885638833,-0.0043003675527870655,-0.015901343896985054,0.019650548696517944,0.0,0.003278643125668168
0.0037487961817532778,-0.004086559638381004,-0.015249178744852543,0.020008403807878494,0.0,0.003332240739837289
0.00423763133585453,-0.003920722287148237,-0.015589299611747265,0.020543299615383148,0.0,0.003373002167791128
0.004170551896095276,-0.004338324535638094,-0.015360343270003796,0.020323587581515312,0.0,0.0033906763419508934
0.004004388116300106,-0.004723692312836647,-0.01577785238623619,0.019562726840376854,0.0,0.0033441446721553802
0.003962771035730839,-0.00455386471003294,-0.015070187859237194,0.01931849867105484,0.0,0.0030621509067714214
0.004024586174637079,-0.004281500820070505,-0.015483411960303783,0.019697612151503563,0.0,0.002963543636724353
0.00388059439137578,-0.004349555820226669,-0.015541952103376389,0.019915662705898285,0.0,0.003124677110463381
0.0039865486323833466,-0.004570885561406612,-0.015207179822027683,0.019991595298051834,0.0,0.0030847513116896152
0.003926894627511501,-0.004685647785663605,-0.015690594911575317,0.019775541499257088,0.0,0.003016563830897212
0.00375199131667614,-0.004514735657721758,-0.015084713697433472,0.019572371616959572,0.0,0.0031705356668680906
0.0036503751762211323,-0.004984958562999964,-0.015160363167524338,0.019924083724617958,0.0,0.003132322570309043
0.0037781493738293648,-0.004816703964024782,-0.014865173026919365,0.020196834579110146,0.0,0.003341374918818474
0.003984739072620869,-0.0044076391495764256,-0.015409198589622974,0.019677286967635155,0.0,0.0032446556724607944
0.004403901752084494,-0.004550383426249027,-0.015719352290034294,0.019693788141012192,0.0,0.003315236885100603
0.004172616172581911,-0.004620831925421953,-0.015136614441871643,0.020294470712542534,0.0,0.00331494421698153
0.003998271189630032,-0.00514036463573575,-0.015030528418719769,0.020609671249985695,0.0,0.0031818547286093235
0.004331308417022228,-0.004586699418723583,-0.014914222061634064,0.02064771205186844,0.0,0.002856918377801776
0.00426745880395174,-0.004543281625956297,-0.015395834110677242,0.02066740207374096,0.0,0.002677543554455042
0.004051749128848314,-0.004102031700313091,-0.014985832385718822,0.01948574185371399,0.0,0.002752777887508273
0.004381256643682718,-0.004167953506112099,-0.015332438983023167,0.01909213326871395,0.0,0.0032700439915060997
0.004242844879627228,-0.004165945574641228,-0.01504205260425806,0.019591504707932472,0.0,0.003723013447597623
0.00411562854424119,-0.004375157877802849,-0.015201020985841751,0.019960153847932816,0.0,0.0035140877589583397
0.00414092605933547,-0.004616261925548315,-0.014664404094219208,0.01960071362555027,0.0,0.0030942843295633793
0.004016099497675896,-0.0045747775584459305,-0.015129542909562588,0.019681889563798904,0.0,0.0029058530926704407
0.00421880092471838,-0.004372226539999247,-0.014774886891245842,0.019369496032595634,0.0,0.002836015308275819
0.00421880092471838,-0.004372226539999247,-0.014774886891245842,0.019369496032595634,0.0,0.002836015308275819
0.004063147585839033,-0.0040462687611579895,-0.015431780368089676,0.01904875971376896,0.0,0.002778436988592148
0.004458720330148935,-0.00426375400274992,-0.014796772040426731,0.019552243873476982,0.0,0.0025461202021688223
0.004722860176116228,-0.004538051784038544,-0.015302917920053005,0.019328471273183823,0.0,0.0026833568699657917
0.004304344765841961,-0.00463646138086915,-0.014959133230149746,0.018992643803358078,0.0,0.0030425700824707747
0.00434223422780633,-0.004678722470998764,-0.015161316841840744,0.01936955749988556,0.0,0.0034631879534572363
0.004503077827394009,-0.00458258343860507,-0.015087678097188473,0.019598055630922318,0.0,0.003409933065995574
0.004517784342169762,-0.004681229591369629,-0.014962517656385899,0.018713852390646935,0.0,0.0033219349570572376
0.004588447976857424,-0.004885785281658173,-0.015028332360088825,0.019390283152461052,0.0,0.002817583503201604
0.004609342664480209,-0.004677611868828535,-0.014791415072977543,0.019232146441936493,0.0,0.0027255751192569733
0.0045317052863538265,-0.0046580880880355835,-0.014394981786608696,0.01888440176844597,0.0,0.002734503475949168
0.00463741784915328,-0.004722857382148504,-0.014525935053825378,0.018669014796614647,0.0,0.002706412225961685
0.004360924940556288,-0.004816493019461632,-0.014667529612779617,0.018757306039333344,0.0,0.002880774438381195
0.004488829988986254,-0.0044665951281785965,-0.014709006063640118,0.01928144134581089,0.0,0.003213384887203574
0.004392595496028662,-0.0045532905496656895,-0.014408680610358715,0.019013836979866028,0.0,0.0032098512165248394
0.004828437231481075,-0.004973088391125202,-0.014488795772194862,0.018998153507709503,0.0,0.003088948782533407
0.004800477996468544,-0.004531217273324728,-0.014493054710328579,0.019313178956508636,0.0,0.0029581792186945677
0.0047862594947218895,-0.004609318915754557,-0.015079250559210777,0.019086593762040138,0.0,0.0029964677523821592
0.004467953462153673,-0.0045640673488378525,-0.014499128796160221,0.019401419907808304,0.0,0.003144859569147229
0.004423059057444334,-0.004683200269937515,-0.014697556383907795,0.019667286425828934,0.0,0.0031392851378768682
0.004664890468120575,-0.0042499965056777,-0.014662142843008041,0.01927562803030014,0.0,0.0031756816897541285
0.005255076568573713,-0.004450763110071421,-0.014917779713869095,0.01932280883193016,0.0,0.002928917994722724
0.004845025483518839,-0.0046150898560881615,-0.014717720448970795,0.02005687728524208,0.0,0.0028161252848803997
0.0050322818569839,-0.004481671843677759,-0.014781946316361427,0.01972987875342369,0.0,0.002705208258703351
0.004865646827965975,-0.004379095043987036,-0.014523298479616642,0.01905938610434532,0.0,0.0027539648581296206
0.004932435695081949,-0.004414976108819246,-0.014990436844527721,0.019789129495620728,0.0,0.002748462138697505
0.004797539673745632,-0.004457712173461914,-0.015283272601664066,0.019295169040560722,0.0,0.0031258808448910713
0.004797539673745632,-0.004457712173461914,-0.015283272601664066,0.019295169040560722,0.0,0.0031258808448910713
0.005258462391793728,-0.004657723009586334,-0.014819798991084099,0.018742840737104416,0.0,0.0032947075087577105
0.005212903488427401,-0.004482307005673647,-0.014190408401191235,0.019428323954343796,0.0,0.0031535655725747347
0.004793361760675907,-0.004604618530720472,-0.015050672926008701,0.02010503225028515,0.0,0.002759154187515378
0.00473334826529026,-0.004905201029032469,-0.014670762233436108,0.019487444311380386,0.0,0.002790150698274374
0.004826529882848263,-0.004775370471179485,-0.015517097897827625,0.01909240335226059,0.0,0.002720787888392806
0.004785948432981968,-0.004451231565326452,-0.014728551730513573,0.018525170162320137,0.0,0.002698419615626335
0.00505926925688982,-0.004377433564513922,-0.015468929894268513,0.018120694905519485,0.0,0.002567248186096549
0.005539835896342993,-0.004679836332798004,-0.01488986611366272,0.01884334906935692,0.0,0.002525940304622054
0.004816122353076935,-0.00483686150982976,-0.01523900032043457,0.019134651869535446,0.0,0.0023906552232801914
0.0049356683157384396,-0.004323913715779781,-0.015062818303704262,0.01898273639380932,0.0,0.0027895120438188314
0.005157658364623785,-0.004323652014136314,-0.014753700233995914,0.018533777445554733,0.0,0.003097682259976864
0.005538913421332836,-0.004498444031924009,-0.015779906883835793,0.018598180264234543,0.0,0.00308520020917058
0.005248853005468845,-0.004636082332581282,-0.015011807903647423,0.019557589665055275,0.0,0.0029687187634408474
0.0052482448518276215,-0.004421964753419161,-0.014812528155744076,0.019253021106123924,0.0,0.0028622732497751713
0.005307356361299753,-0.004590405151247978,-0.014639278873801231,0.01855417899787426,0.0,0.0024776977952569723
0.005027782171964645,-0.004326434340327978,-0.015120410360395908,0.01918906345963478,0.0,0.00236020446754992
0.00542600778862834,-0.004425836727023125,-0.014888525940477848,0.018377263098955154,0.0,0.002404291182756424
0.005242990795522928,-0.004580134060233831,-0.015663957223296165,0.018206199631094933,0.0,0.0025201106909662485
0.005181708373129368,-0.004516354762017727,-0.015406337566673756,0.018328165635466576,0.0,0.0024894080124795437
0.005607659462839365,-0.004695407114923,-0.0148621229454875,0.018519287928938866,0.0,0.0026820467319339514
0.005261141341179609,-0.004554380662739277,-0.015267470851540565,0.019444985315203667,0.0,0.0025779905263334513
0.005246065091341734,-0.004555429797619581,-0.015001969411969185,0.018888797610998154,0.0,0.0023817040491849184
0.005115334410220385,-0.004869298078119755,-0.014796963892877102,0.01819104701280594,0.0,0.0024703554809093475
0.0055665792897343636,-0.004463749472051859,-0.014528781175613403,0.018554862588644028,0.0,0.0024345272686332464
0.005560468882322311,-0.004586276598274708,-0.014828881248831749,0.018652798607945442,0.0,0.002669945824891329
0.005241073202341795,-0.004202120006084442,-0.01502555888146162,0.018548661842942238,0.0,0.0028613279573619366
0.0052181133069098,-0.004333083052188158,-0.015507102943956852,0.01842276006937027,0.0,0.0027114064432680607
0.005002166144549847,-0.00467357411980629,-0.014678865671157837,0.01829564943909645,0.0,0.0025729467160999775
0.005002166144549847,-0.00467357411980629,-0.014678865671157837,0.01829564943909645,0.0,0.0025729467160999775
0.005329435225576162,-0.004753854591399431,-0.015060526318848133,0.018438614904880524,0.0,0.0025309170596301556
0.005690815858542919,-0.004630405921489,-0.014430520124733448,0.018532292917370796,0.0,0.0024749794974923134
0.0060729472897946835,-0.004380067344754934,-0.014855388551950455,0.0178131852298975,0.0,0.002328229369595647
0.005404289346188307,-0.004064058419317007,-0.014690888114273548,0.018350834026932716,0.0,0.0024795974604785442
0.005011825356632471,-0.00384106719866395,-0.015333066694438457,0.018415769562125206,0.0,0.002295942045748234
0.005629115737974644,-0.004189824685454369,-0.014724568463861942,0.01769915036857128,0.0,0.0025015580467879772
0.005844638682901859,-0.00423479313030839,-0.014520932920277119,0.01828133314847946,0.0,0.0024503704626113176
0.005844638682901859,-0.00423479313030839,-0.014520932920277119,0.01828133314847946,0.0,0.0024503704626113176
0.005265727639198303,-0.0038525816053152084,-0.014499371871352196,0.01811864785850048,0.0,0.0025017238222062588
0.005822636187076569,-0.004316252190619707,-0.014873700216412544,0.018140556290745735,0.0,0.002321741310879588
0.0055959285236895084,-0.0041838414035737514,-0.014626753516495228,0.01850956678390503,0.0,0.0019989036954939365
0.0057801734656095505,-0.004082723520696163,-0.014863818883895874,0.01902998797595501,0.0,0.0019208360463380814
0.005725573748350143,-0.004100910387933254,-0.01473174337297678,0.018686171621084213,0.0,0.0016889235703274608
0.006133411079645157,-0.003986491356045008,-0.014882387593388557,0.01867380179464817,0.0,0.0017036143690347672
0.005635586567223072,-0.0038682310841977596,-0.014711677096784115,0.01895950548350811,0.0,0.002012520330026746
0.005935700610280037,-0.003780192695558071,-0.014975376427173615,0.018532950431108475,0.0,0.0020295095164328814
0.006268733646720648,-0.004228115547448397,-0.014353426173329353,0.0190767589956522,0.0,0.0023854223545640707
0.005659931804984808,-0.0041945031844079494,-0.014339914545416832,0.01909535937011242,0.0,0.0022108005359768867
0.005880166310817003,-0.00397770619019866,-0.014005828648805618,0.018685266375541687,0.0,0.002218123758211732
0.005388068500906229,-0.00407728087157011,-0.014329114928841591,0.01864687353372574,0.0,0.0020454174373298883
0.006017305422574282,-0.0040352665819227695,-0.014113103970885277,0.018516546115279198,0.0,0.0020642841700464487
0.006012532860040665,-0.0038398699834942818,-0.014210371300578117,0.018078045919537544,0.0,0.0020044941920787096
0.006186329293996096,-0.0037788476329296827,-0.014073641039431095,0.018895519897341728,0.0,0.002032094169408083
0.006077620666474104,-0.003814948257058859,-0.01466192863881588,0.018901806324720383,0.0,0.0018607501406222582
0.005932250991463661,-0.0042473622597754,-0.014067765325307846,0.01868412457406521,0.0,0.0018680833745747805
0.0060980129055678844,-0.003979513421654701,-0.01451187115162611,0.01953400857746601,0.0,0.0017197227571159601
0.0062419758178293705,-0.003864550031721592,-0.014429367147386074,0.018460674211382866,0.0,0.0016350153600797057
0.006328605115413666,-0.003806967055425048,-0.014618556946516037,0.018399441614747047,0.0,0.001663799281232059
0.006620859261602163,-0.004208429716527462,-0.014308708719909191,0.018840422853827477,0.0,0.0019096030155196786
0.006620859261602163,-0.004208429716527462,-0.014308708719909191,0.018840422853827477,0.0,0.0019096030155196786
0.006246504839509726,-0.004273280501365662,-0.014845606870949268,0.01856127567589283,0.0,0.001962610986083746
0.0065222918055951595,-0.00409942539408803,-0.014334329403936863,0.018511086702346802,0.0,0.0022802415769547224
0.006655894685536623,-0.003940186928957701,-0.014765567146241665,0.01852022111415863,0.0,0.002183585660532117
0.006945306900888681,-0.003402820322662592,-0.014549432322382927,0.018318500369787216,0.0,0.0020484738051891327
0.00632258178666234,-0.00294669670984149,-0.015015051700174809,0.018434621393680573,0.0,0.0017021176172420382
0.006503368262201548,-0.0031429703813046217,-0.014983103610575199,0.018097056075930595,0.0,0.0016456461744382977
0.006332385819405317,-0.0032768147066235542,-0.01536426693201065,0.018587669357657433,0.0,0.001747134723700583
0.006463862489908934,-0.0034036217257380486,-0.01518431305885315,0.018476886674761772,0.0,0.001800322555936873
0.006275348365306854,-0.0031589530408382416,-0.015091178007423878,0.018091363832354546,0.0,0.0021093497052788734
0.0068769087083637714,-0.0033638000022619963,-0.014504114165902138,0.01813000999391079,0.0,0.002067479072138667
0.006894733756780624,-0.003043081611394882,-0.014831304550170898,0.01787126250565052,0.0,0.001985622104257345
0.006721171550452709,-0.0031893947161734104,-0.01522421557456255,0.018201984465122223,0.0,0.0019417278235778213
0.006500179413706064,-0.003333446802571416,-0.01573660969734192,0.018208201974630356,0.0,0.0016181599348783493
0.006612073164433241,-0.003142214147374034,-0.015124822966754436,0.01798868738114834,0.0,0.0014270901447162032
0.0066581242717802525,-0.0030874949879944324,-0.01512139942497015,0.018669117242097855,0.0,0.0014166440814733505
0.0068214815109968185,-0.0034042587503790855,-0.014246392995119095,0.019052937626838684,0.0,0.0013064990052953362
0.006825839169323444,-0.003211364848539233,-0.014994130469858646,0.018600985407829285,0.0,0.001386349555104971
0.006559920031577349,-0.0032243779860436916,-0.014834555797278881,0.018412185832858086,0.0,0.0013519024942070246
0.006918624509125948,-0.0032141858246177435,-0.015468823723495007,0.017941702157258987,0.0,0.001721344655379653
0.006693711970001459,-0.003182404674589634,-0.014408319257199764,0.017825162038207054,0.0,0.0016588831786066294
0.0067101335152983665,-0.0033236094750463963,-0.014937165193259716,0.018492316827178,0.0,0.0016354743856936693
0.006534669082611799,-0.0031842608004808426,-0.01459474116563797,0.01807066984474659,0.0,0.0015334123745560646
0.007164780516177416,-0.003039639675989747,-0.015438467264175415,0.018533876165747643,0.0,0.0014095432125031948
0.007543005049228668,-0.0031837448477745056,-0.014093485660851002,0.018460851162672043,0.0,0.0012278967769816518
0.006607125513255596,-0.0034346450120210648,-0.014290101826190948,0.017876312136650085,0.0,0.0011501144617795944
0.006438856013119221,-0.0035597779788076878,-0.014125346206128597,0.018338361755013466,0.0,0.0011157257249578834
0.006843928713351488,-0.0034511671401560307,-0.014962819404900074,0.01851094886660576,0.0,0.001101994188502431
0.007372694555670023,-0.003514838172122836,-0.014764389954507351,0.018509814515709877,0.0,0.0013066984247416258
0.007372694555670023,-0.003514838172122836,-0.014764389954507351,0.018509814515709877,0.0,0.0013066984247416258
0.007021826691925526,-0.0036939948331564665,-0.014710593968629837,0.018710127100348473,0.0,0.0013016373850405216
0.006812211126089096,-0.0034677195362746716,-0.014431771822273731,0.018498174846172333,0.0,0.0015730223385617137
0.006707481108605862,-0.003554214956238866,-0.01472523994743824,0.017927296459674835,0.0,0.0016500104684382677
0.007017284166067839,-0.003895069705322385,-0.014538311399519444,0.017455535009503365,0.0,0.0017580664716660976
0.007017284166067839,-0.003895069705322385,-0.014538311399519444,0.017455535009503365,0.0,0.0017580664716660976
0.0067945788614451885,-0.004011405166238546,-0.014707422815263271,0.018564527854323387,0.0,0.0013008243404328823
0.007281282916665077,-0.003497878322377801,-0.01447758823633194,0.018062511458992958,0.0,0.0010156577918678522
0.00772499805316329,-0.0035794852301478386,-0.014793925918638706,0.018437674269080162,0.0,0.0009058840223588049
0.007092342711985111,-0.003655990120023489,-0.014520280063152313,0.01814478263258934,0.0,0.000899127684533596
0.006630685180425644,-0.0036342230159789324,-0.014549264684319496,0.017878156155347824,0.0,0.000898956204764545
0.006880717817693949,-0.0032816343009471893,-0.014277022331953049,0.018056035041809082,0.0,0.0008563619921915233
0.0073489234782755375,-0.0031543199438601732,-0.014773791655898094,0.017855040729045868,0.0,0.0008453471818938851
0.007239294704049826,-0.0033989143557846546,-0.0142822265625,0.01802503690123558,0.0,0.0009377055685035884
0.007081400137394667,-0.003547085914760828,-0.014330731704831123,0.01821601763367653,0.0,0.0012791070621460676
0.0071310605853796005,-0.0034637232311069965,-0.014041123911738396,0.01798507571220398,0.0,0.0014717873418703675
0.007380904629826546,-0.0031198204960674047,-0.01437021978199482,0.018219320103526115,0.0,0.0014008941361680627
0.007378316018730402,-0.003466741181910038,-0.014308087527751923,0.018156111240386963,0.0,0.0013448105892166495
0.006900120992213488,-0.0037773684598505497,-0.014611654914915562,0.017645632848143578,0.0,0.0012582398485392332
0.00698092533275485,-0.0039286925457417965,-0.014186745509505272,0.018209049478173256,0.0,0.0011125156888738275
0.0074906968511641026,-0.003430956043303013,-0.014565526507794857,0.018076887354254723,0.0,0.001004860969260335
0.007718642242252827,-0.0036284904927015305,-0.014175797812640667,0.018194889649748802,0.0,0.0009767363080754876
0.007150810677558184,-0.0038895653560757637,-0.014277884736657143,0.017942436039447784,0.0,0.0008318705949932337
0.0068710604682564735,-0.0035563334822654724,-0.013860847800970078,0.01789391227066517,0.0,0.000773755309637636
0.0068710604682564735,-0.0035563334822654724,-0.013860847800970078,0.01789391227066517,0.0,0.000773755309637636
0.0074134827591478825,-0.0034901222679764032,-0.014386074617505074,0.018316755071282387,0.0,0.0008009859593585134
0.007298164069652557,-0.003543685656040907,-0.014197009615600109,0.01862783171236515,0.0,0.00107792008202523
0.007270733825862408,-0.0041688308119773865,-0.01453706156462431,0.0181764867156744,0.0,0.0012568335514515638
0.007741883397102356,-0.003677905770018697,-0.01389632560312748,0.01851174794137478,0.0,0.0012018829584121704
0.00782423559576273,-0.003475554520264268,-0.014155581593513489,0.017727261409163475,-7.945495599415153e-05,0.0010278119007125497
0.007416351232677698,-0.0034115270245820284,-0.013451820239424706,0.017258942127227783,-8.711497503099963e-05,0.0009926209459081292
0.0071603343822062016,-0.003710337681695819,-0.013867368921637535,0.01733773574233055,-8.447375876130536e-05,0.0007545108092017472
0.007763681001961231,-0.003701871493831277,-0.014527425169944763,0.018113769590854645,-8.291973063023761e-05,0.0006430155481211841
0.007710796780884266,-0.0036909226328134537,-0.013792332261800766,0.018007298931479454,-8.141960279317573e-05,0.000666270439978689
0.007408604957163334,-0.0036663466598838568,-0.01415138691663742,0.017470568418502808,-7.997258944669738e-05,0.0006916163256391883
0.007688301615417004,-0.0035058173816651106,-0.01360132172703743,0.01797620579600334,-7.857618038542569e-05,0.0007153150509111583
0.007872471585869789,-0.003512440947815776,-0.01433696411550045,0.018004711717367172,-7.722766895312816e-05,0.0009606704115867615
0.008171114139258862,-0.0036150470841675997,-0.013744871132075787,0.018471403047442436,-8.912294288165867e-05,0.000965284532867372
0.007855608128011227,-0.004001517780125141,-0.014221325516700745,0.018411722034215927,-8.94680997589603e-05,0.0009572862763889134
0.007914988324046135,-0.004016335122287273,-0.013632082380354404,0.018028264865279198,-8.812701707938686e-05,0.0010008674580603838
0.007743874564766884,-0.0037519168108701706,-0.014155401848256588,0.018334461376070976,-8.671955583849922e-05,0.0010600511450320482
0.00825485773384571,-0.00397775461897254,-0.013776284642517567,0.017628829926252365,-8.534940570825711e-05,0.0009993776911869645
0.0079233692958951,-0.00391394691541791,-0.014406410977244377,0.017091963440179825,-8.40214270283468e-05,0.0009198321495205164
0.008168770931661129,-0.0035438721533864737,-0.013923286460340023,0.017857789993286133,-8.273414277937263e-05,0.000912838033400476
0.008280903100967407,-0.0032761364709585905,-0.014380455017089844,0.018288100138306618,-8.148563210852444e-05,0.0008164034807123244
0.008351192809641361,-0.0035982609260827303,-0.013700492680072784,0.01832941174507141,-8.02743379608728e-05,0.0007305947947315872
0.007763668894767761,-0.0039009982720017433,-0.0143111078068614,0.01842368394136429,-8.888801676221192e-05,0.0006333865458145738
0.008207734674215317,-0.004196849651634693,-0.01389611791819334,0.01781926117837429,-9.072782268049195e-05,0.0005553974187932909
0.008275715634226799,-0.0042423587292432785,-0.014260132797062397,0.01806320995092392,-8.964061998995021e-05,0.0004942880477756262
0.007974888198077679,-0.0035629943013191223,-0.013922328129410744,0.018167903646826744,-8.839616930345073e-05,0.00044529634760692716
0.007974888198077679,-0.0035629943013191223,-0.013922328129410744,0.018167903646826744,-8.839616930345073e-05,0.00044529634760692716
0.00839734822511673,-0.0037720180116593838,-0.014051840640604496,0.018641328439116478,-8.598414569860324e-05,0.0004456056631170213
0.00839734822511673,-0.0037720180116593838,-0.014051840640604496,0.018641328439116478,-8.598414569860324e-05,0.0004456056631170213
0.008610964752733707,-0.003402904374524951,-0.01396260131150484,0.018066730350255966,-8.48264098749496e-05,0.00046232319436967373
0.007686873897910118,-0.003126791212707758,-0.014119261875748634,0.018388504162430763,-8.369943680008873e-05,0.00044530880404636264
0.008142109028995037,-0.003136565675958991,-0.014946344308555126,0.018575754016637802,-8.26020332169719e-05,0.0004168562882114202
0.009062318131327629,-0.0032897661440074444,-0.014917949214577675,0.018399983644485474,-8.1533013144508e-05,0.0004393282870296389
0.008690928108990192,-0.0034464786294847727,-0.015227336436510086,0.01870620809495449,-8.049137250054628e-05,0.00042027956806123257
0.00787193514406681,-0.00325309531763196,-0.01413442101329565,0.01835104078054428,-7.947593257995322e-05,0.0003974999417550862
0.008188917301595211,-0.0032063068356364965,-0.014868625439703465,0.017904574051499367,-8.401246304856613e-05,0.0003767223679460585
0.008537406101822853,-0.0036193050909787416,-0.014795114286243916,0.017726220190525055,-8.749327389523387e-05,0.00034102765494026244
0.008325496688485146,-0.003189257113263011,-0.014272812753915787,0.017276545986533165,-8.646491187391803e-05,0.00028611088055185974
0.009288893081247807,-0.0031245280988514423,-0.014781356789171696,0.01772919110953808,-8.544032607460395e-05,0.0002643708139657974
0.008673870004713535,-0.002943770494312048,-0.014162187464535236,0.017728054895997047,-8.443844126304612e-05,0.0002493913343641907
0.008270177990198135,-0.0030627429950982332,-0.01468046847730875,0.018002651631832123,-8.345967216882855e-05,0.00023627106565982103
0.008915843442082405,-0.0032919521909207106,-0.014381385408341885,0.01770886778831482,-0.00010062280489364639,0.0002244794595753774
0.008824978955090046,-0.003067301120609045,-0.014713693410158157,0.01705194264650345,-0.0001153131524915807,0.00021381067926995456
0.008390624076128006,-0.0031676345970481634,-0.014238459058105946,0.017500657588243484,-0.00011353185254847631,0.00020411018340382725
0.0093636279925704,-0.0032663254532963037,-0.015111923217773438,0.01758088730275631,-0.00011080980766564608,0.00019525131210684776
0.00879581831395626,-0.002803242765367031,-0.014507797546684742,0.01751580275595188,-0.00010815122368512675,0.00018713076133280993
0.008467392064630985,-0.0025816706474870443,-0.014744719490408897,0.017431724816560745,-0.0001056131295626983,0.00017965813458431512
0.00900703389197588,-0.002359885722398758,-0.014600357040762901,0.017146587371826172,-0.00010319122520741075,0.00017275962454732507
0.008779080584645271,-0.0025473283603787422,-0.014814721420407295,0.017941992729902267,-0.00010087783448398113,0.00016637146472930908
0.009017447009682655,-0.002432052046060562,-0.014424091205000877,0.0173814557492733,-9.866587788565084e-05,0.00016043885261751711
0.00855530146509409,-0.002699608914554119,-0.015121839009225368,0.017127737402915955,-9.65490035014227e-05,0.0001549149747006595
0.008544489741325378,-0.0025960803031921387,-0.014357002452015877,0.017551971599459648,-9.452096128370613e-05,0.000149759158375673
0.008803892880678177,-0.002480108058080077,-0.01466128695756197,0.016891688108444214,-0.0001086624397430569,0.00014493530034087598
0.008502138778567314,-0.0026391667779535055,-0.014318953268229961,0.017495719715952873,-0.0001086935299099423,0.00011422265379223973
0.008768659085035324,-0.0025400377344340086,-0.014064517803490162,0.017427556216716766,-0.00010669090261217207,0.00010905425733653829
0.00907072238624096,-0.0026108012534677982,-0.01400259230285883,0.01723705418407917,-0.00010463305079611018,0.00010573936015134677
0.008796445094048977,-0.002666870830580592,-0.015380864031612873,0.017242811620235443,-0.00010264474985888228,0.00010271486826241016
0.008796445094048977,-0.002666870830580592,-0.015380864031612873,0.017242811620235443,-0.00010264474985888228,0.00010271486826241016
0.009509067982435226,-0.0027658960316330194,-0.014642616733908653,0.016871461644768715,-0.00010073004523292184,9.986467921407893e-05
0.009140487760305405,-0.002427891129627824,-0.01441325806081295,0.017713293433189392,-9.888537897495553e-05,9.71692061284557e-05
0.00957005936652422,-0.002469605067744851,-0.014221676625311375,0.017532674595713615,-9.710714221000671e-05,9.461519948672503e-05
0.008622201159596443,-0.002345234388485551,-0.014489413239061832,0.017278579995036125,-0.00010920905333478004,9.219200728693977e-05
0.009236312471330166,-0.0021931647788733244,-0.014052060432732105,0.01737663336098194,-0.0001092225793399848,8.988995250547305e-05
0.009155349805951118,-0.002200016053393483,-0.014355403371155262,0.017086734995245934,-0.00010568866127869114,6.439912249334157e-05
0.009250416420400143,-0.002352123148739338,-0.014754767529666424,0.01711278408765793,-0.0001039453927660361,6.273148756008595e-05
0.009805557318031788,-0.002325780224055052,-0.014213434420526028,0.017009323462843895,-0.00010225817823084071,6.129609391791746e-05
0.009002531878650188,-0.0022931487765163183,-0.014733295887708664,0.017258262261748314,-0.00010062494402518496,5.993464219500311e-05
0.009604141116142273,-0.0024587633088231087,-0.014073763974010944,0.01683991216123104,-0.00011134247324662283,-2.8358384952298366e-05
0.009688318707048893,-0.0022102142684161663,-0.014793025329709053,0.017297830432653427,-0.00011131925566587597,-5.4955333325779065e-05
0.009007768705487251,-0.002326123882085085,-0.014372591860592365,0.017108650878071785,-0.00010973353346344084,-7.550334703410044e-05
0.009268270805478096,-0.002297312021255493,-0.015290270559489727,0.01716327667236328,-0.00010809335799422115,-7.985556294443086e-05
0.009442457929253578,-0.00223566428758204,-0.014294049702584743,0.017449768260121346,-0.00010649505566107109,-7.797947182552889e-05
0.009138359688222408,-0.002344351727515459,-0.014615844003856182,0.016867440193891525,-0.00010494287562323734,-9.77559684542939e-05
0.009462197311222553,-0.0024732837919145823,-0.014008366502821445,0.017138076946139336,-0.00010343523172196001,-9.811350901145488e-05
0.00982621405273676,-0.002352045848965645,-0.014946243725717068,0.017170775681734085,-0.00012682068336289376,-0.0001134347912739031
0.00941342394798994,-0.002075048629194498,-0.014146942645311356,0.017594212666153908,-0.0001312378590228036,-0.00011614148388616741
0.009533330798149109,-0.0019939104095101357,-0.014777184464037418,0.01736711710691452,-0.00012803396384697407,-0.0004277701664250344
0.010095270350575447,-0.0019184601260349154,-0.014307820238173008,0.016978424042463303,-0.00012452533701434731,-0.0004939443315379322
0.00958273559808731,-0.001956578576937318,-0.014829202555119991,0.017541680485010147,-0.00012117428559577093,-0.0004730913497041911
0.009571893140673637,-0.0022355832625180483,-0.014191891066730022,0.017627431079745293,-0.00011799681669799611,-0.000503872346598655
0.010270670987665653,-0.002015017904341221,-0.014284303411841393,0.017780480906367302,-0.0001149816598626785,-0.0005201358580961823
0.009675411507487297,-0.002152275526896119,-0.013896649703383446,0.0179599579423666,-0.00011211674427613616,-0.0004996813368052244
0.009701831266283989,-0.0018886714242398739,-0.014804157428443432,0.017619406804442406,-0.00012980523752048612,-0.0007151335594244301
0.009701831266283989,-0.0018886714242398739,-0.014804157428443432,0.017619406804442406,-0.00012980523752048612,-0.0007151335594244301
0.010334964841604233,-0.002017385559156537,-0.014298006892204285,0.01810338906943798,-0.00012805830920115113,-0.0007638842216692865
0.009914310649037361,-0.0018720242660492659,-0.014539459720253944,0.017157752066850662,-0.0001251766661880538,-0.0008077207021415234
0.010122587904334068,-0.0021604367066174746,-0.013841478154063225,0.016710398718714714,-0.00012234617315698415,-0.0012403723085299134
0.010198245756328106,-0.0024123284965753555,-0.014167563989758492,0.017364203929901123,-0.00011963587166974321,-0.0012741244863718748
0.009905453771352768,-0.002252943115308881,-0.013826237991452217,0.017432130873203278,-0.0001170426985481754,-0.001215488649904728
0.01118110679090023,-0.0021049431525170803,-0.014675993472337723,0.017694171518087387,-0.00011455953790573403,-0.001074457773938775
0.010427611880004406,-0.0020232859533280134,-0.014160176739096642,0.01736019365489483,-0.00012604855874087662,-0.0010740928119048476
0.009644456207752228,-0.0019642014522105455,-0.014669258147478104,0.01673262007534504,-0.00012789743777830154,-0.0010452789720147848
0.010521585121750832,-0.0016422421904280782,-0.014347231946885586,0.01725134812295437,-0.0001231967326020822,-0.0012206975370645523
0.009567948058247566,-0.0017377027543261647,-0.013344037346541882,0.01787790283560753,-0.00012083500041626394,-0.0013711750507354736
0.010098466649651527,-0.001622536568902433,-0.01430919487029314,0.01762482337653637,-0.00011856101627927274,-0.0016169367590919137
0.010224821977317333,-0.0016872781561687589,-0.014389324933290482,0.017194267362356186,-0.00011637091665761545,-0.001725297188386321
0.01038464717566967,-0.00171926140319556,-0.01508078258484602,0.01691361889243126,-0.0001263740996364504,-0.0016120864311233163
0.010063854977488518,-0.0017735998844727874,-0.014328244142234325,0.015361332334578037,-0.0001279822608921677,-0.0015470382058992982
0.010470548644661903,-0.0017965065781027079,-0.014661753550171852,0.01616361178457737,-0.00012599446927197278,-0.0014331925194710493
0.009714511223137379,-0.001638285699300468,-0.013670607469975948,0.01635373756289482,-0.00012384363799355924,-0.0014342069625854492
0.010215851478278637,-0.001717087929137051,-0.014588837511837482,0.0165149737149477,-0.00012175049050711095,-0.0014920373214408755
0.010305759496986866,-0.0016095067840069532,-0.014334011822938919,0.01654021069407463,-0.00011972601350862533,-0.0017431566957384348
0.009696180932223797,-0.0017954364884644747,-0.014754070900380611,0.01649581268429756,-0.00014810817083343863,-0.0021033238153904676
0.009872077964246273,-0.0017063121777027845,-0.014262577518820763,0.016900012269616127,-0.00015294911281671375,-0.0022399898152798414
0.010267937555909157,-0.0019171517342329025,-0.014816687442362309,0.016899265348911285,-0.0001485452667111531,-0.0021749399602413177
0.010060211643576622,-0.0017697244184091687,-0.01418982446193695,0.01576506905257702,-0.00014383875532075763,-0.0020378073677420616
0.009858359582722187,-0.0017692806432023644,-0.014610075391829014,0.01644279435276985,-0.00016357620188500732,-0.0018582354532554746
0.009741364978253841,-0.0017569410847499967,-0.014436191879212856,0.0174225103110075,-0.000161996649694629,-0.0016947786789387465
0.009741364978253841,-0.0017569410847499967,-0.014436191879212856,0.0174225103110075,-0.000161996649694629,-0.0016947786789387465
0.010115288197994232,-0.001708768424578011,-0.014414729550480843,0.01738031953573227,-0.00015748922305647284,-0.001586932921782136
0.01044752448797226,-0.0017381623620167375,-0.014403522945940495,0.01675283908843994,-0.0001530398294562474,-0.0015983215998858213
0.010481380857527256,-0.0016344813629984856,-0.014737093821167946,0.01680978760123253,-0.0001488225971115753,-0.001602677977643907
0.01000006403774023,-0.0016659790417179465,-0.014312593266367912,0.01662817969918251,-0.00016578729264438152,-0.0017223417526111007
0.010622057132422924,-0.0015529500087723136,-0.014905245043337345,0.016703739762306213,-0.00016434781718999147,-0.0024591702967882156
0.011628897860646248,-0.0015309758018702269,-0.014151063747704029,0.016783053055405617,-0.00016035285079851747,-0.0035415946040302515
0.012202553451061249,-0.0014446820132434368,-0.014380753971636295,0.01660950668156147,-0.0001563846308272332,-0.003166203387081623
0.012224597856402397,-0.0015804283320903778,-0.014849851839244366,0.016445837914943695,-0.00016330939251929522,-0.002775871893391013
0.012503694742918015,-0.0017182158771902323,-0.015637073665857315,0.016081567853689194,-0.00016954843886196613,-0.002327513648197055
0.012266798876225948,-0.0016034282743930817,-0.014714849181473255,0.017019707709550858,-0.0001662912400206551,-0.0021849607583135366
0.011442475020885468,-0.0016520691569894552,-0.015060167759656906,0.017590433359146118,-0.00016257923562079668,-0.0024094954133033752
0.01172316912561655,-0.001662695431150496,-0.014562908560037613,0.016932571306824684,-0.0002430029708193615,-0.003327508457005024
0.012042217887938023,-0.0016952232690528035,-0.015011928975582123,0.016383565962314606,-0.00023130718909669667,-0.003110494464635849
0.01227965485304594,-0.0018629581900313497,-0.014770135283470154,0.016547054052352905,-0.000220045170863159,-0.0028527851682156324
0.012299230322241783,-0.0017162184230983257,-0.015324323438107967,0.016205357387661934,-0.0002097872202284634,-0.002749796025454998
0.012583797797560692,-0.0017067615408450365,-0.015185778960585594,0.016609912738204002,-0.00023005106777418405,-0.0031056427396833897
0.0121805714443326,-0.0017219632863998413,-0.015153123997151852,0.017019782215356827,-0.0002295854064868763,-0.0031878994777798653
0.013190437108278275,-0.0016236099181696773,-0.014694362878799438,0.017086243256926537,-0.00022080540657043457,-0.003100021742284298
0.012476191855967045,-0.0018768045119941235,-0.01485937088727951,0.017100993543863297,-0.00021216837922111154,-0.003286656690761447
0.012616073712706566,-0.001735781435854733,-0.014888672158122063,0.016788600012660027,-0.0002041481202468276,-0.00306889321655035
0.012333646416664124,-0.0018326524877920747,-0.015280114486813545,0.01740492880344391,-0.0001967106363736093,-0.003148323856294155
0.012291211634874344,-0.0018048587953671813,-0.014482911676168442,0.016974763944745064,-0.0002172313106711954,-0.0030900854617357254
0.012579339556396008,-0.001724487286992371,-0.015003329142928123,0.016962694004178047,-0.00021363483392633498,-0.002826835960149765
0.012275200337171555,-0.0015816088998690248,-0.014675411395728588,0.016813499853014946,-0.00020686548668891191,-0.003111835801973939
0.013156767934560776,-0.0016236441442742944,-0.015178827568888664,0.016325803473591805,-0.00020030363521073014,-0.00367901474237442
0.012387554161250591,-0.0017294178251177073,-0.014307678677141666,0.016929814592003822,-0.0001941317750606686,-0.003634130349382758
0.012832614593207836,-0.0016103300731629133,-0.014718789607286453,0.015929244458675385,-0.0002015289501287043,-0.0034608037676662207
0.012510166503489017,-0.0018711989978328347,-0.014268765226006508,0.016276316717267036,-0.00020808955014217645,-0.00327634927816689
0.012710818089544773,-0.001758914440870285,-0.014858555980026722,0.01645439863204956,-0.00020303085329942405,-0.003360602306202054
0.012926728464663029,-0.001941072754561901,-0.014309551566839218,0.016556547954678535,-0.000197513509192504,-0.0036416687071323395
0.012883840128779411,-0.0017867032438516617,-0.014906994067132473,0.01726621203124523,-0.00019224290736019611,-0.003603159449994564
0.013024315237998962,-0.001778936362825334,-0.014208169654011726,0.01669098623096943,-0.00020570312335621566,-0.0034791177604347467
0.013024315237998962,-0.001778936362825334,-0.014208169654011726,0.01669098623096943,-0.00020570312335621566,-0.0034791177604347467
0.012440867722034454,-0.0017640662845224142,-0.014910396188497543,0.01663742959499359,-0.00019946492102462798,-0.0036165276542305946
0.012717281468212605,-0.0017917557852342725,-0.014105637557804585,0.01679413579404354,-0.0001911772124003619,-0.003829633817076683
0.012425608932971954,-0.001738760038278997,-0.014553737826645374,0.016900373622775078,-0.00018339692906010896,-0.0038656280376017094
0.013030745089054108,-0.0016224528662860394,-0.01409290824085474,0.016490472480654716,-0.00017621445294935256,-0.0038786130025982857
0.01292384508997202,-0.0016655671643093228,-0.0149841932579875,0.015856726095080376,-0.00018617931345943362,-0.003765708999708295
0.013185716234147549,-0.0018021507421508431,-0.014969853684306145,0.015982074663043022,-0.0001891506981337443,-0.004091810435056686
0.012988210655748844,-0.0016191446920856833,-0.01416091900318861,0.016258778050541878,-0.00018281262600794435,-0.003993039485067129
0.012984576635062695,-0.0015884735621511936,-0.014595252461731434,0.015966935083270073,-0.00020239848527126014,-0.0034865159541368484
0.012378109619021416,-0.001497906749136746,-0.013921719044446945,0.01630835421383381,-0.00019950474961660802,-0.003900285344570875
0.012786283157765865,-0.001382970716804266,-0.014295144937932491,0.016491156071424484,-0.00019360297301318496,-0.004195998422801495
0.012642421759665012,-0.0013804456684738398,-0.013988785445690155,0.01591995730996132,-0.00018784511485137045,-0.004432040732353926
0.01324669923633337,-0.0014185141772031784,-0.014753547497093678,0.01613893173635006,-0.00018240671488456428,-0.0042206584475934505
0.013160912320017815,-0.0014442482497543097,-0.014133846387267113,0.01579182967543602,-0.00017727357044350356,-0.004281559027731419
0.013391348533332348,-0.0016015199944376945,-0.014829371124505997,0.016528690233826637,-0.00017242148169316351,-0.004512965679168701
0.013480229303240776,-0.0017271200194954872,-0.014030508697032928,0.016083046793937683,-0.00016782798047643155,-0.004297988023608923
0.013130738399922848,-0.0017720385221764445,-0.014428798109292984,0.016304705291986465,-0.00018526060739532113,-0.00433465838432312
0.013512047939002514,-0.0016296390676870942,-0.013755758292973042,0.016272682696580887,-0.000181998431799002,-0.004600468557327986
0.013316135853528976,-0.001395577215589583,-0.014544636011123657,0.016455955803394318,-0.0001776019053068012,-0.004498166497796774
0.013656439259648323,-0.0012908073840662837,-0.01408286951482296,0.016333742067217827,-0.00017333209689240903,-0.004469278268516064
0.013183459639549255,-0.0013320848811417818,-0.014715633355081081,0.016021637246012688,-0.00016925772069953382,-0.004668325185775757
0.01339966244995594,-0.0012821395648643374,-0.014270470477640629,0.016334649175405502,-0.00016537003102712333,-0.0042989845387637615
0.013149529695510864,-0.0013776730047538877,-0.014751152135431767,0.016139471903443336,-0.00017532821220811456,-0.004404923878610134
0.013694047927856445,-0.001343305455520749,-0.014010620303452015,0.01632196269929409,-0.00018160139734391123,-0.004595004953444004
0.013737347908318043,-0.00149690848775208,-0.01519626472145319,0.01623564586043358,-0.00017539503460284323,-0.004646993707865477
0.01381308026611805,-0.001419112435542047,-0.015361339785158634,0.01648930460214615,-0.00016886887897271663,-0.005382215604186058
0.01381308026611805,-0.001419112435542047,-0.015361339785158634,0.01648930460214615,-0.00016886887897271663,-0.005382215604186058
0.013515252619981766,-0.0013366320636123419,-0.015254108235239983,0.016144387423992157,-0.00016276375390589237,-0.005414269864559174
0.013851014897227287,-0.0013798474101349711,-0.014914099127054214,0.01629493199288845,-0.00017247581854462624,-0.004992577247321606
0.013813827186822891,-0.0012829956831410527,-0.015370878390967846,0.016796667128801346,-0.00018109289521817118,-0.00463861832395196
0.014219819568097591,-0.0012519678566604853,-0.015163827687501907,0.015888279303908348,-0.00017612708325032145,-0.004629817325621843
0.014099188148975372,-0.0011669541709125042,-0.015293548814952374,0.01652091182768345,-0.0001706229813862592,-0.004901285283267498
0.014201229438185692,-0.0011189896613359451,-0.016153637319803238,0.016197621822357178,-0.00018581305630505085,-0.005010245367884636
0.01439281739294529,-0.0010436436859890819,-0.015788448974490166,0.01602471061050892,-0.0001817972952267155,-0.004987312946468592
0.014670928940176964,-0.000942485174164176,-0.015275812707841396,0.015477946028113365,-0.00018911813094746321,-0.004743637517094612
0.014836573041975498,-0.0009321735124103725,-0.01570260152220726,0.015602769330143929,-0.00019562248780857772,-0.005045173689723015
0.01484538521617651,-0.0009273110772483051,-0.014756896533071995,0.015464362688362598,-0.00019118827185593545,-0.005161196459084749
0.015187697485089302,-0.0009237527847290039,-0.015547084622085094,0.015585622750222683,-0.00018629527767188847,-0.005593020003288984
0.014707313850522041,-0.0010022807400673628,-0.015117743983864784,0.015353824943304062,-0.0002726639504544437,-0.005842244252562523
0.015404172241687775,-0.0010497685289010406,-0.01594918966293335,0.015893880277872086,-0.0002631081733852625,-0.006066538393497467
0.01495916023850441,-0.001030311337672174,-0.015490948222577572,0.015964727848768234,-0.0002856754290405661,-0.005649471655488014
0.01488509587943554,-0.00101930380333215,-0.01540885865688324,0.01613556779921055,-0.0002822666137944907,-0.0054154302924871445
0.014538751915097237,-0.0011865642154589295,-0.015263067558407784,0.015852313488721848,-0.00026895763585343957,-0.005168508272618055
0.015395471826195717,-0.0011350649874657393,-0.015655003488063812,0.016321878880262375,-0.00027709754067473114,-0.00575596047565341
0.015045151114463806,-0.0010976934572681785,-0.015659719705581665,0.01627468876540661,-0.000283978006336838,-0.0058483099564909935
0.01572278141975403,-0.0009933204855769873,-0.015703609213232994,0.016023021191358566,-0.0002729394764173776,-0.00605723075568676
0.014983922243118286,-0.0010258415713906288,-0.015514952130615711,0.016425734385848045,-0.0002965199528262019,-0.0056376042775809765
0.015109059400856495,-0.0009079586598090827,-0.015060411766171455,0.015958962962031364,-0.0003692552854772657,-0.005363417789340019
0.015306727960705757,-0.0009053570684045553,-0.015651820227503777,0.016382921487092972,-0.0004132351605221629,-0.005509388167411089
0.016112934798002243,-0.000904590473510325,-0.014588966965675354,0.01587412878870964,-0.00044926381087861955,-0.005678386427462101
0.01571093127131462,-0.0009001810685731471,-0.015310946851968765,0.01578216813504696,-0.0004575795610435307,-0.005615700501948595
0.015910981222987175,-0.0008965662564150989,-0.014938429929316044,0.015698697417974472,-0.0004562700050882995,-0.0056284512393176556
0.015716873109340668,-0.00089706463040784,-0.015150285325944424,0.0159236378967762,-0.0004570515011437237,-0.005560934077948332
0.015656715258955956,-0.000897471618372947,-0.014841724187135696,0.015019434504210949,-0.00045549191418103874,-0.006092671304941177
0.016179854050278664,-0.0009406136814504862,-0.015656353905797005,0.016444142907857895,-0.0005243230843916535,-0.006182348355650902
0.01575518399477005,-0.000977804884314537,-0.014962919987738132,0.017109662294387817,-0.0005492095369845629,-0.006141721736639738
0.01584131456911564,-0.000934149487875402,-0.015323012135922909,0.016467278823256493,-0.0004946266999468207,-0.006676225457340479
0.01584131456911564,-0.000934149487875402,-0.015323012135922909,0.016467278823256493,-0.0004946266999468207,-0.006676225457340479
0.015473264269530773,-0.0009292024769820273,-0.014807162806391716,0.016237204894423485,-0.0005226623616181314,-0.006450844928622246
0.01659097522497177,-0.0008474336937069893,-0.014792225323617458,0.015787068754434586,-0.0004464785452000797,-0.006142262369394302
0.01659097522497177,-0.0008474336937069893,-0.014792225323617458,0.015787068754434586,-0.0004464785452000797,-0.006142262369394302
0.016134114935994148,-0.000854367099236697,-0.014707372523844242,0.015744298696517944,-0.00047626910964027047,-0.006097744219005108
0.01584562286734581,-0.0008317086030729115,-0.014807767234742641,0.01543918251991272,-0.0004462915239855647,-0.006183330435305834
0.01584562286734581,-0.0008317086030729115,-0.014807767234742641,0.01543918251991272,-0.0004462915239855647,-0.006183330435305834
0.01608339697122574,-0.00078697589924559,-0.015171478502452374,0.015156182460486889,-0.00043356380774639547,-0.006104691885411739
0.016750754788517952,-0.0008026935392990708,-0.015362929552793503,0.015118216164410114,-0.0004013041907455772,-0.006450518034398556
0.01647641696035862,-0.0007032253197394311,-0.0151600306853652,0.015585551969707012,-0.0004324170877225697,-0.006598551757633686
0.0164653193205595,-0.0007214272045530379,-0.01532131340354681,0.01561821810901165,-0.00040838299901224673,-0.006250396370887756
0.016543598845601082,-0.0006508054211735725,-0.015040756203234196,0.01634683646261692,-0.0004267659969627857,-0.006376171018928289
0.016625110059976578,-0.0006729136221110821,-0.015552097000181675,0.015877170488238335,-0.0004132988688070327,-0.006742698606103659
0.01666654646396637,-0.0006565311341546476,-0.014895238913595676,0.0158245712518692,-0.0004296348197385669,-0.006868518423289061
0.016543054953217506,-0.0006539870519191027,-0.015453463420271873,0.015190230682492256,-0.00041755023994483054,-0.006816160399466753
0.016912849619984627,-0.0006150234257802367,-0.014716846868395805,0.015058420598506927,-0.0003954491694457829,-0.0066931890323758125
0.016460971906781197,-0.0006333751953206956,-0.01519409753382206,0.015436151064932346,-0.0004673941875807941,-0.006441040430217981
0.016960980370640755,-0.000584621331654489,-0.01477427314966917,0.015550343319773674,-0.0004788622900377959,-0.00652643758803606
0.01715427078306675,-0.0006022745510563254,-0.015237287618219852,0.01615872047841549,-0.0004757202113978565,-0.0065484363585710526
0.016272131353616714,-0.0005635126144625247,-0.014698972925543785,0.01601608283817768,-0.0004932965384796262,-0.006666567176580429
0.016928033903241158,-0.0005912153283134103,-0.01524700503796339,0.016020232811570168,-0.0004730701039079577,-0.006880651693791151
0.01662328466773033,-0.0006005194736644626,-0.015053195878863335,0.015252425335347652,-0.0004410351684782654,-0.006895054597407579
0.016919737681746483,-0.000570037227589637,-0.015362052246928215,0.015967845916748047,-0.0004631199117284268,-0.006856454070657492
0.016832474619150162,-0.0005915179499424994,-0.01495986059308052,0.015494771301746368,-0.00044165595318190753,-0.006585704628378153
0.01703595370054245,-0.0005493259523063898,-0.015222938731312752,0.016373315826058388,-0.0004935300094075501,-0.007167200092226267
0.017063120380043983,-0.0005745376693084836,-0.015229543671011925,0.01652051880955696,-0.00046925945207476616,-0.00734912883490324
0.017103584483265877,-0.0005346272373571992,-0.015054884366691113,0.01616334356367588,-0.0004889570409432054,-0.006879695691168308
0.01770785078406334,-0.0005977635737508535,-0.015461633913218975,0.01565525121986866,-0.0004661002312786877,-0.007163417059928179
0.017074158415198326,-0.0006009810022078454,-0.015595183707773685,0.0151484664529562,-0.0004649244947358966,-0.007223513443022966
0.017074158415198326,-0.0006009810022078454,-0.015595183707773685,0.0151484664529562,-0.0004649244947358966,-0.007223513443022966
0.01716848835349083,-0.0005703600472770631,-0.01563083566725254,0.01557242963463068,-0.0004625206929631531,-0.007132817525416613
0.017373470589518547,-0.0005722767091356218,-0.015033131465315819,0.01577945426106453,-0.0004328071081545204,-0.007095034699887037
0.01717354916036129,-0.0005493182106874883,-0.01537769939750433,0.01622271165251732,-0.00045511487405747175,-0.007490246091037989
0.01733499765396118,-0.0005320872296579182,-0.015633955597877502,0.01635436713695526,-0.00041016662726178765,-0.007869651541113853
0.017455309629440308,-0.0004978442448191345,-0.015087065286934376,0.015939179807901382,-0.00042191994725726545,-0.007953106425702572
0.017523083835840225,-0.0005068836617283523,-0.015757301822304726,0.015766361728310585,-0.0003973628336098045,-0.007698447443544865
0.016614200547337532,-0.0004613188502844423,-0.014718524180352688,0.015742605552077293,-0.0003658612258732319,-0.007727149873971939
0.01767476461827755,-0.0004184832505416125,-0.015576801262795925,0.01558916736394167,-0.0003967916709370911,-0.007791188079863787
0.017976202070713043,-0.0003828657791018486,-0.015832768753170967,0.015911154448986053,-0.00037703884299844503,-0.007795487530529499
0.017514487728476524,-0.00028522455249913037,-0.015902478247880936,0.015380294993519783,-0.00035290641244500875,-0.0077920882031321526
0.018137270584702492,-0.00019907356181647629,-0.0163386519998312,0.015789899975061417,-0.000371936010196805,-0.008124161511659622
0.01728060282766819,-0.00018303432443644851,-0.015924818813800812,0.015629909932613373,-0.0003631938307080418,-0.008031884208321571
0.017822029069066048,-0.00017137997201643884,-0.016034798696637154,0.015973230823874474,-0.0003441761655267328,-0.007457405794411898
0.017742671072483063,-0.00021264731185510755,-0.01570669189095497,0.01567247323691845,-0.00036675416049547493,-0.007317376788705587
0.01567562110722065,-0.00020273147674743086,-0.01598603092133999,0.01571950875222683,-0.0003542357007972896,-0.008536109700798988
0.018298359587788582,-0.00014967111928854138,-0.01511636096984148,0.015223904512822628,-0.0003394981031306088,-0.008124778047204018
0.018262801691889763,-0.00013675000809598714,-0.016088202595710754,0.015591871924698353,-0.0003607339458540082,-0.007916384376585484
0.0179635938256979,-0.0001300890144193545,-0.016062818467617035,0.016097351908683777,-0.0003368919715285301,-0.0076231141574680805
0.01794455759227276,-0.00012410800263751298,-0.016463547945022583,0.016455966979265213,-0.0003136062587145716,-0.007499778643250465
0.017644908279180527,-0.00011865336273331195,-0.01605246588587761,0.01715223304927349,-0.0002931751369033009,-0.007112570106983185
0.017644908279180527,-0.00011865336273331195,-0.01605246588587761,0.01715223304927349,-0.0002931751369033009,-0.007112570106983185
0.018474435433745384,-0.00011365822865627706,-0.015095459297299385,0.016457388177514076,-0.00027523512835614383,-0.007371452171355486
0.018091779202222824,-0.00010906673560384661,-0.016264410689473152,0.016578080132603645,-0.0002975877723656595,-0.006769515108317137
0.018186023458838463,-0.00010483195364940912,-0.016174009069800377,0.015567082911729813,-0.00029337801970541477,-0.00812121294438839
0.018650634214282036,-0.00010091361764352769,-0.016446275636553764,0.015644479542970657,-0.00027899874839931726,-0.008283982053399086
0.018356850370764732,-9.727771248435602e-05,-0.01558618526905775,0.015786703675985336,-0.00026533662457950413,-0.007706132251769304
0.017730044201016426,-9.389459592057392e-05,-0.01603817380964756,0.016122985631227493,-0.00025290908524766564,-0.007675640285015106
0.018337257206439972,-9.07389767235145e-05,-0.015570076182484627,0.01632516272366047,-0.0002415910130366683,-0.007879147306084633
0.018287455663084984,-8.778851042734459e-05,-0.016200179234147072,0.016308404505252838,-0.00023124311701394618,-0.0077162147499620914
0.018471648916602135,-8.502402488375083e-05,-0.016031714156270027,0.016334358602762222,-0.0002561862929724157,-0.007816892117261887
0.019142383709549904,-8.242815965786576e-05,-0.016026312485337257,0.014487558975815773,-0.00024833224597387016,-0.007667943835258484
0.018587784841656685,-7.768492650939152e-05,-0.015986554324626923,0.016779130324721336,-0.00023032331955619156,-0.007672915235161781
0.01846911385655403,-7.551220915047452e-05,-0.016749195754528046,0.016956301406025887,-0.0002456848742440343,-0.008131115697324276
0.01846911385655403,-7.551220915047452e-05,-0.016749195754528046,0.016956301406025887,-0.0002456848742440343,-0.008131115697324276
0.018827620893716812,-7.151211320888251e-05,-0.01627894677221775,0.0154765285551548,-0.00023717213480267674,-0.008076912723481655
0.019279971718788147,-6.994014256633818e-05,-0.01635252870619297,0.016238871961832047,-0.00022746312606614083,-0.00795453879982233
0.018944066017866135,5.554586823564023e-05,-0.016397379338741302,0.0152807692065835,-0.00021506936172954738,-0.008099748753011227
0.01960683800280094,5.548813351197168e-05,-0.016031406819820404,0.015406079590320587,-0.00020516202494036406,-0.008440358564257622
0.0195549875497818,5.385034455684945e-05,-0.0160893015563488,0.014657577499747276,-0.00023020835942588747,-0.008017044514417648
0.01918385922908783,5.2286297432146966e-05,-0.016525164246559143,0.015312674455344677,-0.00022526748944073915,-0.008051651529967785
0.019447678700089455,5.0810387620003894e-05,-0.01602034829556942,0.015354244969785213,-0.0002432188339298591,-0.007260473445057869
0.019953329116106033,4.9415455578127876e-05,-0.01664198935031891,0.015497301705181599,-0.00024229372502304614,-0.007220853585749865
0.019769545644521713,4.8095054808072746e-05,-0.01622374914586544,0.015184333547949791,-0.0002649968955665827,-0.007156244479119778
0.01990691013634205,4.684345913119614e-05,-0.016546472907066345,0.015300566330552101,-0.00025758249103091657,-0.007841618731617928
0.020221039652824402,4.565529525279999e-05,-0.016518643125891685,0.015314715914428234,-0.00036406461731530726,-0.008276917040348053
0.02004832960665226,4.452597568160854e-05,-0.016253482550382614,0.015535671263933182,-0.0004785717756021768,-0.008058789186179638
0.02001016028225422,6.430431676562876e-05,-0.016535451635718346,0.015516651794314384,-0.000481539434986189,-0.007946549914777279
0.020443342626094818,6.362874410115182e-05,-0.015933779999613762,0.015569222159683704,-0.0004448403778951615,-0.008272012695670128
0.020443342626094818,6.362874410115182e-05,-0.015933779999613762,0.015569222159683704,-0.0004448403778951615,-0.008272012695670128
0.0202683974057436,6.217477493919432e-05,-0.016326904296875,0.015449399128556252,-0.00047482000081799924,-0.007906797342002392
0.02001124620437622,6.077539001125842e-05,-0.016248030588030815,0.015277324244379997,-0.00044539946247823536,-0.007883685640990734
0.02062760293483734,5.943748328718357e-05,-0.0165401641279459,0.016068030148744583,-0.0004715339746326208,-0.007875652983784676
0.0202278271317482,5.815726763103157e-05,-0.016178864985704422,0.015444429591298103,-0.000527338997926563,-0.007847125642001629
0.02028992585837841,5.693093771697022e-05,-0.016426462680101395,0.015970060601830482,-0.0005419563385657966,-0.00802416168153286
0.020444823428988457,5.5755335779394954e-05,-0.016810497269034386,0.01578749716281891,-0.000559547683224082,-0.008066859096288681
0.020641345530748367,5.462732588057406e-05,-0.016226334497332573,0.01607830822467804,-0.0005695542204193771,-0.007860092446208
0.020699582993984222,7.11476823198609e-05,-0.01677776873111725,0.015480974689126015,-0.0005587957566604018,-0.008033949881792068
0.02117026410996914,6.866839248687029e-05,-0.016791680827736855,0.015943650156259537,-0.0005435798084363341,-0.00827233400195837
0.02093076892197132,6.738318916177377e-05,-0.01671544462442398,0.01593676023185253,-0.0005100565031170845,-0.008573267608880997
0.020802224054932594,6.614514131797478e-05,-0.01673654094338417,0.015797555446624756,-0.0005456069484353065,-0.008498936891555786
0.02098017930984497,6.495175330201164e-05,-0.017201488837599754,0.01527378335595131,-0.0005641752504743636,-0.00836024060845375
0.021404828876256943,6.380060221999884e-05,-0.016598742455244064,0.015589289367198944,-0.0005311166751198471,-0.008724385872483253
0.02149430848658085,7.814803393557668e-05,-0.01702062599360943,0.015278956852853298,-0.0005440526874735951,-0.008760226890444756
0.0212571918964386,7.701800495851785e-05,-0.016362065449357033,0.015643639490008354,-0.0005177049315534532,-0.008748535998165607
0.02068851888179779,7.572476897621527e-05,-0.016537513583898544,0.015298398211598396,-0.0004794787964783609,-0.008446503430604935
0.021616581827402115,7.447157986462116e-05,-0.0167063120752573,0.01563444174826145,-0.0005048032617196441,-0.008647611364722252
0.021841729059815407,7.325928163481876e-05,-0.016596395522356033,0.015414022840559483,-0.0004759544972330332,-0.008579019457101822
0.021414652466773987,0.00013741925067733973,-0.017046699300408363,0.015479189343750477,-0.000497549946885556,-0.008544688113033772
0.021655144169926643,0.00013592198956757784,-0.016187330707907677,0.015408506616950035,-0.00045236494042910635,-0.008491591550409794
0.02192782238125801,0.0001319714356213808,-0.01673203893005848,0.016007620841264725,-0.00048763820086605847,-0.008519904688000679
0.02109725959599018,0.00012821174459531903,-0.01674702577292919,0.01628103107213974,-0.0004518100759014487,-0.008798640221357346
0.020579561591148376,0.0001410461700288579,-0.016627376899123192,0.01612221449613571,-0.0004818180459551513,-0.008701743558049202
0.021747609600424767,0.00014544487930834293,-0.016684558242559433,0.016303539276123047,-0.00045150393270887434,-0.009007117711007595
0.022107521072030067,0.00014173726958688349,-0.016508223488926888,0.015917060896754265,-0.0004775608831550926,-0.008827359415590763
0.022107521072030067,0.00014173726958688349,-0.016508223488926888,0.015917060896754265,-0.0004775608831550926,-0.008827359415590763
0.021910127252340317,0.0001381136680720374,-0.01662309467792511,0.01631367951631546,-0.000451285217422992,-0.008866509422659874
0.020986951887607574,0.00013466918608173728,-0.01674043945968151,0.01616176776587963,-0.0004983997205272317,-0.009085622616112232
0.021790405735373497,0.00015072320820763707,-0.017307240515947342,0.0160676259547472,-0.0005039412062615156,-0.009182154200971127
0.022328635677695274,0.00014617708802688867,-0.016666056588292122,0.01573774218559265,-0.00049543910427019,-0.00867360271513462
0.022328635677695274,0.00014617708802688867,-0.016666056588292122,0.01573774218559265,-0.00049543910427019,-0.00867360271513462
0.021787403151392937,0.00016245328879449517,-0.01694837585091591,0.015745870769023895,-0.0004906123504042625,-0.008913281373679638
0.022002890706062317,0.00015964046178851277,-0.016586441546678543,0.015321456827223301,-0.00045720156049355865,-0.009355084970593452
0.022105872631072998,0.00028315893723629415,-0.01712796650826931,0.015628037974238396,-0.00045611997484229505,-0.009095384739339352
0.022154593840241432,0.00026699312729761004,-0.01757313497364521,0.01625680923461914,-0.0005048329476267099,-0.009781909175217152
0.022222857922315598,0.0002520452253520489,-0.016262488439679146,0.015098994597792625,-0.00046531844418495893,-0.008924330584704876
0.022389499470591545,0.0002844500995706767,-0.01629449799656868,0.01689000055193901,-0.0004631662159226835,-0.009123065508902073
0.022303448989987373,0.00027195652364753187,-0.017703533172607422,0.016796821728348732,-0.0004605627036653459,-0.009519481100142002
0.022088810801506042,0.0002589392533991486,-0.017285291105508804,0.016298744827508926,-0.00042657568701542914,-0.009512631222605705
0.022469492629170418,0.00028769299387931824,-0.01798015460371971,0.01600806601345539,-0.00045673848944716156,-0.009611781686544418
0.02255919948220253,0.0002756496542133391,-0.017118552699685097,0.016138454899191856,-0.0004295851686038077,-0.009963405318558216
0.02270011231303215,0.0003002942248713225,-0.01636229082942009,0.01647154800593853,-0.00045587195199914277,-0.009516224265098572
0.022769149392843246,0.0002896648074965924,-0.01799003779888153,0.015940552577376366,-0.0004749284125864506,-0.009492895565927029
0.022706102579832077,0.00038317227154038846,-0.017033224925398827,0.01587389037013054,-0.00046879303408786654,-0.009609868749976158
0.02227487415075302,0.00036585197085514665,-0.01646249182522297,0.015688452869653702,-0.0004896370810456574,-0.009657871909439564
0.022451119497418404,0.000398062082240358,-0.017043817788362503,0.016184216365218163,-0.0004667601315304637,-0.00959018338471651
0.02275271527469158,0.0003776797093451023,-0.017209921032190323,0.016306335106492043,-0.000492715509608388,-0.009324180893599987
0.02273389883339405,0.0003530802787281573,-0.017614923417568207,0.016428107395768166,-0.00046485650818794966,-0.00936520379036665
0.022398315370082855,0.0003843604354187846,-0.016829578205943108,0.016602227464318275,-0.00043341476703062654,-0.009345709346234798
0.022956475615501404,0.00036425268626771867,-0.017264781519770622,0.016118228435516357,-0.00040553463622927666,-0.009381745010614395
0.022956475615501404,0.00036425268626771867,-0.017264781519770622,0.016118228435516357,-0.00040553463622927666,-0.009381745010614395
0.02293252944946289,0.00034436778514645994,-0.017223605886101723,0.016312167048454285,-0.0003809990594163537,-0.009065077640116215
0.02127978578209877,0.0003712498873937875,-0.016817141324281693,0.016163093969225883,-0.0004036587488371879,-0.009816390462219715
0.02399512752890587,0.00035474819014780223,-0.017240777611732483,0.016679342836141586,-0.00038797451998107135,-0.00980584230273962
0.02388809062540531,0.0004177501832600683,-0.01697693020105362,0.01648055389523506,-0.00036850752076134086,-0.0094530638307333
0.023191457614302635,0.00046104000648483634,-0.017225302755832672,0.016135433688759804,-0.0003505842760205269,-0.00931650772690773
0.022999007254838943,0.000432823842857033,-0.017559688538312912,0.015863468870520592,-0.000340758531820029,-0.009537985548377037
0.023656519129872322,0.0004666396416723728,-0.016944071277976036,0.015861347317695618,-0.00031978910556063056,-0.009982410818338394
0.02334192767739296,0.0004685613967012614,-0.016474002972245216,0.015746407210826874,-0.00032141568954102695,-0.01007127296179533
0.02430083230137825,0.000686504237819463,-0.01708853989839554,0.016470691189169884,-0.00031551727443002164,-0.010776788927614689
0.02391139417886734,0.0007135595660656691,-0.01730203628540039,0.016538018360733986,-0.00029889069264754653,-0.009554753080010414
0.02433127909898758,0.0006342830020003021,-0.017230985686182976,0.016428420320153236,-0.00032721913885325193,-0.009682594798505306
0.023507675155997276,0.0006608085823245347,-0.017424043267965317,0.016367727890610695,-0.00031378681887872517,-0.010082398541271687
0.02318999357521534,0.0006811598432250321,-0.016538048163056374,0.01616382971405983,-0.00031993997981771827,-0.010057786479592323
0.02383621782064438,0.000701669545378536,-0.017340924590826035,0.016292748972773552,-0.0003248911234550178,-0.010661212727427483
0.02433125302195549,0.000751381041482091,-0.017207082360982895,0.01580839976668358,-0.000368713604984805,-0.010243569500744343
0.023958614096045494,0.0007702247239649296,-0.01716466061770916,0.016478532925248146,-0.0003913012333214283,-0.010416291654109955
0.02429652027785778,0.0007925640675239265,-0.01741120219230652,0.016480347141623497,-0.00042599011794663966,-0.010456283576786518
0.024953991174697876,0.0011494058417156339,-0.01635286770761013,0.017342258244752884,-0.000452371226856485,-0.010540165938436985
0.025015607476234436,0.0011553592048585415,-0.017283551394939423,0.017070069909095764,-0.00046730361646041274,-0.010661918669939041
0.02469504624605179,0.0011273539857938886,-0.016847316175699234,0.016094015911221504,-0.00046649592695757747,-0.010520639829337597
0.024488328024744987,0.0011802701046690345,-0.016708239912986755,0.016282640397548676,-0.0007871376001276076,-0.010258344002068043
0.024236910045146942,0.0011240022722631693,-0.0171558428555727,0.015670111402869225,-0.0007593170157633722,-0.010652675293385983
0.02460133656859398,0.0010850202525034547,-0.016372043639421463,0.016635818406939507,-0.0007662149146199226,-0.01083800382912159
0.02541241981089115,0.0010575935011729598,-0.016605712473392487,0.016398373991250992,-0.0007426136871799827,-0.010946625843644142
0.025816719979047775,0.001128197880461812,-0.016303688287734985,0.016612524166703224,-0.0007126934942789376,-0.011160860769450665
0.02546723000705242,0.0012060574954375625,-0.016905687749385834,0.016456544399261475,-0.0006552095874212682,-0.010745605453848839
0.02569103240966797,0.0014996413374319673,-0.017212381586432457,0.015936434268951416,-0.0006576127489097416,-0.010790619067847729
0.025286613032221794,0.0016044620424509048,-0.016799435019493103,0.015872322022914886,-0.0006635675672441721,-0.01084163412451744
0.025435414165258408,0.0017162412405014038,-0.017374543473124504,0.01594824530184269,-0.0006633467273786664,-0.01076563261449337
0.025435414165258408,0.0017162412405014038,-0.017374543473124504,0.01594824530184269,-0.0006633467273786664,-0.01076563261449337
0.025307832285761833,0.0018232036381959915,-0.016511226072907448,0.016572266817092896,-0.0006415278767235577,-0.010325639508664608
0.02461155317723751,0.0016524154925718904,-0.017158586531877518,0.016414700075984,-0.0006624840898439288,-0.01061511505395174
0.026096219196915627,0.0016315844841301441,-0.01722732000052929,0.016840001568198204,-0.0006114354473538697,-0.010937484912574291
0.026288839057087898,0.0016210908070206642,-0.017135344445705414,0.016365526244044304,-0.0006378016551025212,-0.010632375255227089
0.026428284123539925,0.0017339185578748584,-0.01723305508494377,0.017466308549046516,-0.0006559726316481829,-0.010831974446773529
0.026168089359998703,0.0020194135140627623,-0.017530549317598343,0.016418619081377983,-0.0006343589629977942,-0.01102055050432682
0.026513423770666122,0.0019947532564401627,-0.0169796384871006,0.016138872131705284,-0.0006557127344422042,-0.01089857704937458
0.026470167562365532,0.0020200947765260935,-0.01716325804591179,0.01578162983059883,-0.000740893417969346,-0.010893923230469227
0.0263271052390337,0.0019656713120639324,-0.017818594351410866,0.016340499743819237,-0.0007757511921226978,-0.01122415903955698
0.02697793021798134,0.002107653534039855,-0.016799496486783028,0.016222158446907997,-0.0007929158164188266,-0.011256329715251923
0.026564329862594604,0.001945009338669479,-0.017629023641347885,0.01620878279209137,-0.0007794095436111093,-0.011324997991323471
0.02652631886303425,0.0021642621140927076,-0.01778988540172577,0.016600223258137703,-0.0007452847203239799,-0.011156672611832619
0.027201734483242035,0.0023908354341983795,-0.01711312308907509,0.016728507354855537,-0.0007744841859675944,-0.010965356603264809
0.02705567143857479,0.002353252377361059,-0.01756199449300766,0.0166759230196476,-0.0006926095811650157,-0.011916901916265488
0.027531299740076065,0.002733857836574316,-0.017604710534214973,0.016109459102153778,-0.0007135416381061077,-0.01158971805125475
0.02762095257639885,0.0026615033857524395,-0.018180636689066887,0.01624663919210434,-0.0006367081077769399,-0.011437887325882912
0.027539171278476715,0.0024853646755218506,-0.01778537593781948,0.015530022792518139,-0.0005698789027519524,-0.011383814737200737
0.028133884072303772,0.0024469904601573944,-0.017459336668252945,0.015841322019696236,-0.0005951377679593861,-0.0121390912681818
0.028071995824575424,0.002511201426386833,-0.01807870902121067,0.016070138663053513,-0.000605940236710012,-0.011809797957539558
0.028481043875217438,0.0025025184731930494,-0.017269611358642578,0.01593315228819847,-0.0005755821475759149,-0.011467579752206802
0.028659570962190628,0.0028193274047225714,-0.01747034303843975,0.016714204102754593,-0.0005356248584575951,-0.011440064758062363
0.028341302648186684,0.00289200060069561,-0.01790563017129898,0.01573631353676319,-0.0004822368500754237,-0.011458799242973328
0.028250573202967644,0.002809298224747181,-0.01755133457481861,0.016376012936234474,-0.0005165907787159085,-0.011832020245492458
0.028701093047857285,0.002632468705996871,-0.0184941403567791,0.01621709205210209,-0.0005447365692816675,-0.011840368621051311
0.02972339652478695,0.0029503474943339825,-0.017744287848472595,0.016434121876955032,-0.0005455671926029027,-0.011870868504047394
0.029549768194556236,0.0033961788285523653,-0.01750725880265236,0.016042275354266167,-0.00053836137522012,-0.011736968532204628
0.02718925289809704,0.0036894914228469133,-0.018108339980244637,0.016415130347013474,-0.0006961163016967475,-0.011783386580646038
0.02718925289809704,0.0036894914228469133,-0.018108339980244637,0.016415130347013474,-0.0006961163016967475,-0.011783386580646038
0.02897579036653042,0.0033858243841677904,-0.01799098402261734,0.01683163084089756,-0.0006754255155101418,-0.01211900170892477
0.029811328276991844,0.003082756884396076,-0.017793234437704086,0.016747454181313515,-0.0006474359543062747,-0.012942827306687832
0.029044775292277336,0.003374462015926838,-0.01786925457417965,0.01693006232380867,-0.0005811498849652708,-0.012368423864245415
0.029230371117591858,0.0038000205531716347,-0.017879551276564598,0.01637272536754608,-0.0005248112720437348,-0.01213111262768507
0.030210232362151146,0.003958000335842371,-0.01758505590260029,0.017154324799776077,-0.0005118357948958874,-0.011754599399864674
0.029404234141111374,0.0035421825014054775,-0.01842697709798813,0.017293261364102364,-0.0005236423457972705,-0.011988245882093906
0.02838623709976673,0.0034789112396538258,-0.019287774339318275,0.016962513327598572,-0.0005025672726333141,-0.0124136907979846
0.02897351048886776,0.00419152295216918,-0.018583115190267563,0.016162507236003876,-0.00046485126949846745,-0.011919623240828514
0.029835928231477737,0.004073867108672857,-0.019016919657588005,0.01745607517659664,-0.00041818065801635385,-0.011974296532571316
0.029548795893788338,0.003877644892781973,-0.01912148855626583,0.015928473323583603,-0.00038238108390942216,-0.011880834586918354
0.02947399392724037,0.004182344768196344,-0.01860802248120308,0.016092414036393166,-0.00041787701775319874,-0.011697092093527317
0.029543310403823853,0.004233275540173054,-0.018897784873843193,0.016325432807207108,-0.0003918119764421135,-0.011760419234633446
0.029263487085700035,0.004018902312964201,-0.019150707870721817,0.016437623649835587,-0.000410363805713132,-0.01216042973101139
0.02960621565580368,0.003897553076967597,-0.01871318556368351,0.017034107819199562,-0.000398388656321913,-0.012176265008747578
0.02946951799094677,0.004296009428799152,-0.018764203414320946,0.016388315707445145,-0.00042194806155748665,-0.012167458422482014
0.029629327356815338,0.0041856239549815655,-0.019070085138082504,0.01668762043118477,-0.0004046321555506438,-0.012207555584609509
0.029751215130090714,0.004157147370278835,-0.018655134364962578,0.01617739163339138,-0.0004744002944789827,-0.012500642798841
0.029929449781775475,0.004037355072796345,-0.01940174400806427,0.016542725265026093,-0.0005186200723983347,-0.012649276293814182
0.030053643509745598,0.003931048791855574,-0.01915501430630684,0.01678462326526642,-0.0005530102062039077,-0.012725301086902618
0.029736671596765518,0.0038241210859268904,-0.018396366387605667,0.016783518716692924,-0.000581604428589344,-0.012976965866982937
0.030372286215424538,0.004207835998386145,-0.01894553191959858,0.016752351075410843,-0.0008573300438001752,-0.012464880011975765
0.030151447281241417,0.00446750782430172,-0.019314272329211235,0.015397461131215096,-0.0009573575807735324,-0.012856032699346542
0.030385052785277367,0.004365791101008654,-0.018884580582380295,0.01704522967338562,-0.0009545627981424332,-0.012763292528688908
0.030385052785277367,0.004365791101008654,-0.018884580582380295,0.01704522967338562,-0.0009545627981424332,-0.012763292528688908
0.029924426227808,0.004546860232949257,-0.0194057859480381,0.017209921032190323,-0.0009475576225668192,-0.013217869214713573
0.03159145638346672,0.0045262956991791725,-0.019234314560890198,0.016490956768393517,-0.0009564363281242549,-0.013046696782112122
0.03208906948566437,0.004393375478684902,-0.018592659384012222,0.016824036836624146,-0.0009459096472710371,-0.013113887049257755
0.029929468408226967,0.00406061252579093,-0.01921795681118965,0.01724342815577984,-0.0008434122428297997,-0.013378418050706387
0.029929468408226967,0.00406061252579093,-0.01921795681118965,0.01724342815577984,-0.0008434122428297997,-0.013378418050706387
0.03142879903316498,0.004649025853723288,-0.019178379327058792,0.016829365864396095,-0.0007625147118233144,-0.013267377391457558
0.031246544793248177,0.004762003663927317,-0.019272377714514732,0.016978716477751732,-0.0007024863152764738,-0.013618114404380322
0.0313207283616066,0.0050589251331985,-0.01845281757414341,0.016767283901572227,-0.000612496049143374,-0.013857344165444374
0.031628869473934174,0.004973181523382664,-0.018807172775268555,0.016939178109169006,-0.0006178340991027653,-0.013793128542602062
0.03226438909769058,0.004448128864169121,-0.01858818717300892,0.016256969422101974,-0.0006221554358489811,-0.013749238103628159
0.03138447180390358,0.004998013377189636,-0.018843119964003563,0.01655779778957367,-0.000669086177367717,-0.01380420196801424
0.031242281198501587,0.005072618834674358,-0.01941395364701748,0.01646358333528042,-0.000706894847098738,-0.013981174677610397
0.03168390318751335,0.004852709360420704,-0.019740397110581398,0.016717983409762383,-0.000793681712821126,-0.013694564811885357
0.03213430941104889,0.005284357350319624,-0.019332699477672577,0.017340919002890587,-0.0007961096125654876,-0.013830672018229961
0.03224804997444153,0.0053906855173408985,-0.019679926335811615,0.016637323424220085,-0.0007813713746145368,-0.014229809865355492
0.03219005838036537,0.005017333664000034,-0.019191421568393707,0.017339767888188362,-0.0007507019909098744,-0.014118902385234833
0.032019298523664474,0.00540558435022831,-0.018747009336948395,0.017147580161690712,-0.0009508996154181659,-0.014270704239606857
0.03181591257452965,0.005201244726777077,-0.019389888271689415,0.017052311450242996,-0.0008840449736453593,-0.013517467305064201
0.03211485967040062,0.005417761392891407,-0.019469991326332092,0.01699860207736492,-0.0008568558841943741,-0.013445372693240643
0.032418761402368546,0.0057783788070082664,-0.01932063139975071,0.016579922288656235,-0.0007790978997945786,-0.013408861123025417
0.03252029791474342,0.005259221885353327,-0.019367264583706856,0.01712051033973694,-0.000694877584464848,-0.01399898063391447
0.03221113979816437,0.005132712889462709,-0.019547199830412865,0.016962330788373947,-0.0006689034053124487,-0.013895979151129723
0.03260977938771248,0.004937817342579365,-0.019649367779493332,0.017213791608810425,-0.0006475307163782418,-0.013997343368828297
0.03260977938771248,0.004937817342579365,-0.019649367779493332,0.017213791608810425,-0.0006475307163782418,-0.013997343368828297
0.032517991960048676,0.0051150256767869,-0.02048589661717415,0.01730085164308548,-0.0006017395644448698,-0.014149979688227177
0.0324719063937664,0.0055947378277778625,-0.019841177389025688,0.016996467486023903,-0.0005603189929388463,-0.014449787326157093
0.032681237906217575,0.005279002711176872,-0.019129790365695953,0.017306631430983543,-0.0005899915122427046,-0.014219315722584724
0.032922692596912384,0.005061100237071514,-0.019776592031121254,0.016763420775532722,-0.0005782757070846856,-0.01433516014367342
0.03265407308936119,0.004967298358678818,-0.02033972553908825,0.016989562660455704,-0.00060280627803877,-0.013940643519163132
0.032750364392995834,0.004954804200679064,-0.019498810172080994,0.01680510677397251,-0.0005606267368420959,-0.013962808065116405
0.03311927989125252,0.005197059363126755,-0.01996457204222679,0.016598235815763474,-0.000627425208222121,-0.014001094736158848
0.03315555304288864,0.0063900696113705635,-0.019809043034911156,0.016816746443510056,-0.0005655581480823457,-0.01416080817580223
0.03321774676442146,0.005307069979608059,-0.019397223368287086,0.01714128814637661,-0.0005760165513493121,-0.01450524851679802
0.03341260552406311,0.004592318553477526,-0.02020701952278614,0.0168869961053133,-0.000540775537956506,-0.014921961352229118
0.033391740173101425,0.004178491421043873,-0.020204739645123482,0.016453785821795464,-0.0004928417620249093,-0.015130686573684216
0.033578019589185715,0.0032064623665064573,-0.01978674903512001,0.016932208091020584,-0.0004516705812420696,-0.014945657923817635
0.03368236869573593,0.0023538146633654833,-0.02025979571044445,0.016948508098721504,-0.0004813327977899462,-0.015012738294899464
0.03340847045183182,0.002319750841706991,-0.019809624180197716,0.017635295167565346,-0.0004510619619395584,-0.01467254851013422
0.03317014127969742,0.0030508909840136766,-0.019659606739878654,0.017074037343263626,-0.0004731499357149005,-0.014320788905024529
0.034761693328619,0.0038140893448144197,-0.020364511758089066,0.0171560887247324,-0.00045063727884553373,-0.013537460938096046
0.035377681255340576,0.0038850228302180767,-0.020276043564081192,0.01732492260634899,-0.00040408250060863793,-0.01429028995335102
0.03316350281238556,0.0034162455704063177,-0.019903963431715965,0.016735609620809555,-0.00036916526732966304,-0.014479786157608032
0.03275154158473015,0.0029892344027757645,-0.020206864923238754,0.015848100185394287,-0.0004044372763019055,-0.014779054559767246
0.034151993691921234,0.0028087287209928036,-0.0205165334045887,0.01720920018851757,-0.0004266881733201444,-0.014860117807984352
0.03380580618977547,0.002933724783360958,-0.020369606092572212,0.017382601276040077,-0.00044223692384548485,-0.015016295947134495
0.03483522683382034,0.0033480338752269745,-0.019961006939411163,0.01724015548825264,-0.0004424691724125296,-0.0144224613904953
0.03459527716040611,0.0034142767544835806,-0.020223060622811317,0.016704509034752846,-0.0005974991363473237,-0.014584573917090893
0.034044601023197174,0.0035272175446152687,-0.02042068913578987,0.016908982768654823,-0.0006802630960009992,-0.014850231818854809
0.0332605354487896,0.0037514648865908384,-0.02020781673491001,0.016753729432821274,-0.0007084624376147985,-0.015603740699589252
0.033819131553173065,0.0034141377545893192,-0.020585503429174423,0.01695474050939083,-0.0006932506803423166,-0.015804044902324677
0.03472418710589409,0.0030799726955592632,-0.02067425288259983,0.01732119917869568,-0.0006697585340589285,-0.015230695717036724
0.03472418710589409,0.0030799726955592632,-0.02067425288259983,0.01732119917869568,-0.0006697585340589285,-0.015230695717036724
0.035057228058576584,0.003690122626721859,-0.02041640877723694,0.01708163134753704,-0.0007601891411468387,-0.014683956280350685
0.035057228058576584,0.003690122626721859,-0.02041640877723694,0.01708163134753704,-0.0007601891411468387,-0.014683956280350685
0.03518770635128021,0.0038094366900622845,-0.020826496183872223,0.016255659982562065,-0.000780615780968219,-0.014544702135026455
0.03394279256463051,0.0037724541034549475,-0.02072015404701233,0.016609925776720047,-0.0007438157917931676,-0.014946836046874523
0.0344887338578701,0.0038353854324668646,-0.02003929391503334,0.0165006872266531,-0.0007569820154458284,-0.014991194009780884
0.03465358167886734,0.003981206566095352,-0.0210532546043396,0.017156021669507027,-0.0008488338789902627,-0.01570165902376175
0.03505178540945053,0.0039972662925720215,-0.021579016000032425,0.017011718824505806,-0.0007642265409231186,-0.014900894835591316
0.03483714535832405,0.0039675417356193066,-0.020723856985569,0.017241591587662697,-0.0007527638808824122,-0.014789150096476078
0.03513605520129204,0.004338410682976246,-0.02039436064660549,0.017005963250994682,-0.0007672352949157357,-0.015015230514109135
0.03495101258158684,0.004290570504963398,-0.020133407786488533,0.017764154821634293,-0.0007218704558908939,-0.015248952433466911
0.03487591817975044,0.004436566028743982,-0.020190833136439323,0.017542898654937744,-0.0007073481101542711,-0.015355413779616356
0.036243949085474014,0.004217792302370071,-0.020743317902088165,0.016867270693182945,-0.0007308442727662623,-0.015266493894159794
0.03557024523615837,0.004394051153212786,-0.021296977996826172,0.016917919740080833,-0.000743644020985812,-0.014938168227672577
0.034825295209884644,0.004454248584806919,-0.02091578207910061,0.01665714755654335,-0.0006767611484974623,-0.015460440889000893
0.03570666164159775,0.0040773991495370865,-0.020047636702656746,0.01733788475394249,-0.0006928942748345435,-0.015292023308575153
0.03530413284897804,0.0039656199514865875,-0.02079705148935318,0.016674453392624855,-0.0007354412227869034,-0.01534324325621128
0.0361391119658947,0.004535415675491095,-0.02103833109140396,0.016394268721342087,-0.0008298765169456601,-0.015097306109964848
0.03686957433819771,0.0047673676162958145,-0.020360058173537254,0.01708363927900791,-0.0007893143338151276,-0.01525514293462038
0.036327481269836426,0.004612282384186983,-0.020724117755889893,0.017159491777420044,-0.0007983739487826824,-0.015242019668221474
0.03449917212128639,0.004846475087106228,-0.02161775715649128,0.017511550337076187,-0.0009395615197718143,-0.015589558519423008
0.03449917212128639,0.004846475087106228,-0.02161775715649128,0.017511550337076187,-0.0009395615197718143,-0.015589558519423008
0.036019954830408096,0.004330759402364492,-0.020975828170776367,0.017233502119779587,-0.0009573985007591546,-0.015458163805305958
0.03702643886208534,0.004471572581678629,-0.02046452835202217,0.01689850725233555,-0.0009500874439254403,-0.015828387811779976
0.03594379127025604,0.004617798607796431,-0.0210867989808321,0.016944609582424164,-0.0009197687031701207,-0.015700599178671837
0.036297332495450974,0.004576443694531918,-0.02174258790910244,0.01655881293118,-0.0008392936433665454,-0.015563346445560455
0.036072734743356705,0.00472544739022851,-0.021410606801509857,0.0172304417937994,-0.0007842804188840091,-0.015468636527657509
0.03689035400748253,0.00479164207354188,-0.02124159224331379,0.016594955697655678,-0.0006754061323590577,-0.015610874630510807
0.0365782305598259,0.004742284305393696,-0.021516943350434303,0.016528241336345673,-0.00069624581374228,-0.015451677143573761
0.036374617367982864,0.00462874211370945,-0.021723851561546326,0.016660811379551888,-0.0007121505332179368,-0.015289755538105965
0.03670816123485565,0.004946711473166943,-0.02176021784543991,0.016654493287205696,-0.0006510134553536773,-0.015515393577516079
0.03681810200214386,0.004582077730447054,-0.021291742101311684,0.016271429136395454,-0.0006219442002475262,-0.016146017238497734
0.03684170916676521,0.005179126281291246,-0.021459782496094704,0.017165523022413254,-0.0005826684064231813,-0.01570732332766056
0.03720376640558243,0.00537493359297514,-0.021634263917803764,0.017048170790076256,-0.0006142004276625812,-0.015665609389543533
0.036959581077098846,0.005093259271234274,-0.021558022126555443,0.01673741824924946,-0.0006251000449992716,-0.015611042268574238
0.036742158234119415,0.005336884409189224,-0.02208697609603405,0.0169382281601429,-0.0006286276620812714,-0.015803731977939606
0.03704741969704628,0.005050285253673792,-0.021684976294636726,0.01701929047703743,-0.0006132149719633162,-0.015571290627121925
0.03766688331961632,0.0049997963942587376,-0.02118469774723053,0.016111629083752632,-0.0007262072176672518,-0.015574741177260876
0.036934271454811096,0.005348468665033579,-0.02117963135242462,0.017919247969985008,-0.0007678528781980276,-0.015489586628973484
0.0368834026157856,0.00511036766692996,-0.02181907743215561,0.01786595769226551,-0.0007347690407186747,-0.015759015455842018
0.03766815364360809,0.005083452444523573,-0.02185344509780407,0.017844941467046738,-0.0007017023744992912,-0.015972862020134926
0.03728443384170532,0.005344310775399208,-0.021194158121943474,0.018130630254745483,-0.0007121519884094596,-0.01553324144333601
0.03766408935189247,0.0050446707755327225,-0.02134169265627861,0.01799646019935608,-0.0007143119000829756,-0.01575566828250885
0.037837062031030655,0.005486726760864258,-0.021549349650740623,0.018056465312838554,-0.0007625418365933001,-0.01591484434902668
0.037502165883779526,0.0053584580309689045,-0.021473320201039314,0.01766187511384487,-0.0007527668494731188,-0.016230782493948936
0.03753983601927757,0.005298107396811247,-0.02151220478117466,0.017546581104397774,-0.0007184294518083334,-0.01597442664206028
0.03753983601927757,0.005298107396811247,-0.02151220478117466,0.017546581104397774,-0.0007184294518083334,-0.01597442664206028
0.0372600182890892,0.00524860667064786,-0.020829200744628906,0.016991162672638893,-0.0007274678209796548,-0.015970125794410706
0.03892973065376282,0.005060561932623386,-0.02139485441148281,0.01716458983719349,-0.0008324179798364639,-0.01583443582057953
0.038531918078660965,0.005374855361878872,-0.021791474893689156,0.017662134021520615,-0.0008614840917289257,-0.016124790534377098
0.036748006939888,0.00528298644348979,-0.02109801024198532,0.017483752220869064,-0.0008679355378262699,-0.01638457179069519
0.03759842738509178,0.005941890180110931,-0.02107330597937107,0.017700528725981712,-0.0008643709006719291,-0.01581011898815632
0.03756235912442207,0.005833576899021864,-0.021693021059036255,0.01728023774921894,-0.0008719626348465681,-0.01611449383199215
0.039759475737810135,0.005185933317989111,-0.021083051338791847,0.018229583278298378,-0.0008844910189509392,-0.016264956444501877
0.03835005313158035,0.004978029057383537,-0.021434418857097626,0.018007995560765266,-0.0008297892054542899,-0.01603703759610653
0.036760829389095306,0.005762406624853611,-0.022165074944496155,0.017587143927812576,-0.0008341614156961441,-0.01598489284515381
0.03890442103147507,0.0055403634905815125,-0.021804112941026688,0.01737958751618862,-0.0008482176344841719,-0.016003714874386787
0.03904725983738899,0.005710356403142214,-0.02102120965719223,0.01718699373304844,-0.00086538604227826,-0.016179069876670837
0.038985803723335266,0.005434148479253054,-0.021425114944577217,0.017588457092642784,-0.0008706783992238343,-0.016378920525312424
0.0393395721912384,0.005309809930622578,-0.023341946303844452,0.017290910705924034,-0.0008667265647090971,-0.018039312213659286
0.0386536605656147,0.00520908972248435,-0.021062498912215233,0.017243480309844017,-0.0009253728785552084,-0.016868000850081444
0.039062585681676865,0.0057537551037967205,-0.02130468748509884,0.01791824772953987,-0.0010391050018370152,-0.016664760187268257
0.03935997188091278,0.005564550403505564,-0.02230440266430378,0.01782442256808281,-0.001060234266333282,-0.01682552881538868
0.0387406200170517,0.005535512696951628,-0.022402849048376083,0.017759637907147408,-0.0011115935631096363,-0.016935154795646667
0.03895220905542374,0.005233461502939463,-0.0219606664031744,0.017228608950972557,-0.0011618997668847442,-0.01688392646610737
0.03878828510642052,0.005885715130716562,-0.021667342633008957,0.017451172694563866,-0.0010782581521198153,-0.01671886071562767
0.0390813834965229,0.005396324209868908,-0.021250735968351364,0.017743343487381935,-0.0009811933850869536,-0.016562553122639656
0.04013863578438759,0.0048119076527655125,-0.021695487201213837,0.017353519797325134,-0.0009653960587456822,-0.01706208847463131
0.03851009160280228,0.004640751983970404,-0.02238769643008709,0.01794019341468811,-0.0008579653222113848,-0.0172327421605587
0.038032855838537216,0.0051247854717075825,-0.021860653534531593,0.017459435388445854,-0.0007304102764464915,-0.017741132527589798
0.0396304726600647,0.005109108984470367,-0.02126462385058403,0.0177287720143795,-0.0007364004850387573,-0.01774793118238449
0.03926979750394821,0.0053105964325368404,-0.02158910036087036,0.018250741064548492,-0.0007134540355764329,-0.017277291044592857
0.0402434803545475,0.005466364789754152,-0.022129198536276817,0.01786121539771557,-0.0006838864064775407,-0.017560327425599098
0.0402434803545475,0.005466364789754152,-0.022129198536276817,0.01786121539771557,-0.0006838864064775407,-0.017560327425599098
0.03946010023355484,0.0055786482989788055,-0.022258764132857323,0.01787221059203148,-0.0006844403105787933,-0.017862005159258842
0.037883177399635315,0.00518784299492836,-0.02119915746152401,0.017897367477416992,-0.0006873234524391592,-0.01774284802377224
0.04003395512700081,0.005052598193287849,-0.021794486790895462,0.017865080386400223,-0.0007447163807228208,-0.01801665686070919
0.04017951339483261,0.005635510664433241,-0.021602125838398933,0.018224414438009262,-0.0007658596150577068,-0.017165720462799072
0.04001063108444214,0.005668041296303272,-0.02164642885327339,0.017795270308852196,-0.0008706139051355422,-0.017099205404520035
0.039732903242111206,0.005395843181759119,-0.022432254627346992,0.018262574449181557,-0.0009793677600100636,-0.01713511347770691
0.04033895209431648,0.005582436453551054,-0.02254251204431057,0.017931684851646423,-0.0009926697239279747,-0.01792036183178425
0.04100194200873375,0.005218405742198229,-0.022503357380628586,0.018330084159970284,-0.0009900304721668363,-0.018119053915143013
0.040136467665433884,0.005872586742043495,-0.02175159938633442,0.01841089129447937,-0.0010548237478360534,-0.01779353991150856
0.04029867798089981,0.005607797764241695,-0.022072577849030495,0.017223229631781578,-0.001032304367981851,-0.01782180741429329
0.040449369698762894,0.005430416204035282,-0.022569626569747925,0.018772488459944725,-0.0010109482100233436,-0.017816342413425446
0.041123904287815094,0.005349075421690941,-0.022772109135985374,0.01899387501180172,-0.00099524378310889,-0.018120206892490387
0.041080523282289505,0.005575391463935375,-0.021934429183602333,0.01856120489537716,-0.0009387416648678482,-0.018035834655165672
0.04130829498171806,0.005618298891931772,-0.021918224170804024,0.018669670447707176,-0.0008732958231121302,-0.018038591369986534
0.04151467978954315,0.0061771078035235405,-0.022501064464449883,0.018347598612308502,-0.0009073532419279218,-0.018298452720046043
0.04107747599482536,0.005851089488714933,-0.022513259202241898,0.018425926566123962,-0.0009238196071237326,-0.018340345472097397
0.04164299741387367,0.005705589894205332,-0.0224217027425766,0.01847754418849945,-0.0010807247599586844,-0.018265677616000175
0.04163854569196701,0.00604455079883337,-0.02235017903149128,0.01800922118127346,-0.00107184995431453,-0.018231838941574097
0.041925761848688126,0.005533586721867323,-0.02247072011232376,0.018121886998414993,-0.001081741531379521,-0.018145209178328514
0.041871197521686554,0.005932504776865244,-0.022287335246801376,0.018250733613967896,-0.0011590839130803943,-0.01846965402364731
0.04210681840777397,0.0059380545280873775,-0.02241470292210579,0.01802663318812847,-0.001150124124251306,-0.01854274608194828
0.04198183864355087,0.0058337002992630005,-0.02215486951172352,0.018931642174720764,-0.0011080189142376184,-0.01846604235470295
0.0420415997505188,0.005787183530628681,-0.022109897807240486,0.018924813717603683,-0.001058371621184051,-0.018122177571058273
0.0420415997505188,0.005787183530628681,-0.022109897807240486,0.018924813717603683,-0.001058371621184051,-0.018122177571058273
0.042448144406080246,0.005754901561886072,-0.022430572658777237,0.018393922597169876,-0.0009919552830979228,-0.01914648897945881
0.041807789355516434,0.006106771528720856,-0.022793639451265335,0.018736252561211586,-0.000995252630673349,-0.018480245023965836
0.042228102684020996,0.005570331588387489,-0.02224346250295639,0.018634263426065445,-0.0009813469368964434,-0.01816449873149395
0.04359375685453415,0.005745923146605492,-0.021937033161520958,0.018136268481612206,-0.0009701874805614352,-0.018209710717201233
0.04093873128294945,0.006108999717980623,-0.02332732081413269,0.017927557229995728,-0.0008557530236430466,-0.018528923392295837
0.04093873128294945,0.006108999717980623,-0.02332732081413269,0.017927557229995728,-0.0008557530236430466,-0.018528923392295837
0.04310865327715874,0.006045444402843714,-0.023483818396925926,0.018623217940330505,-0.0008570696227252483,-0.01838224194943905
0.043427109718322754,0.006326125934720039,-0.02179723232984543,0.01843157969415188,-0.0008447429863736033,-0.01829233020544052
0.04311287775635719,0.0057311770506203175,-0.022774191573262215,0.018425606191158295,-0.0008309198310598731,-0.018588563427329063
0.04160993918776512,0.005840211175382137,-0.023405060172080994,0.01857682317495346,-0.0008568459888920188,-0.018923981115221977
0.043493274599313736,0.006476160138845444,-0.02321244776248932,0.018352549523115158,-0.0008319724001921713,-0.018965262919664383
0.043396543711423874,0.007080374751240015,-0.022586695849895477,0.018841348588466644,-0.0007846395019441843,-0.018980221822857857
0.04329859837889671,0.006346499547362328,-0.023122437298297882,0.018607543781399727,-0.0007937221671454608,-0.018683943897485733
0.04266998544335365,0.006316151469945908,-0.023980416357517242,0.018343385308980942,-0.0007856145966798067,-0.018151696771383286
0.04297083243727684,0.006559992674738169,-0.023610329255461693,0.01852143369615078,-0.0008495537331327796,-0.018147531896829605
0.04321519285440445,0.006436686031520367,-0.023296764120459557,0.018346421420574188,-0.0009280398953706026,-0.018516017124056816
0.042984507977962494,0.005986273288726807,-0.02353215403854847,0.01818123459815979,-0.0011062759440392256,-0.01854497753083706
0.04296555370092392,0.00620921840891242,-0.02217896096408367,0.018794642761349678,-0.0012506427010521293,-0.019076786935329437
0.044458694756031036,0.00614186841994524,-0.023347631096839905,0.018022967502474785,-0.00119532470125705,-0.018889669328927994
0.04314569756388664,0.006610762793570757,-0.024508997797966003,0.018061647191643715,-0.001158004393801093,-0.018580393865704536
0.041710834950208664,0.006414914969354868,-0.024170946329832077,0.01804695464670658,-0.0010675863595679402,-0.018771100789308548
0.043350700289011,0.006132724229246378,-0.023571034893393517,0.01748582161962986,-0.0010394913842901587,-0.019131360575556755
0.04381430521607399,0.0061921305023133755,-0.023626063019037247,0.01827186718583107,-0.0010166268330067396,-0.01944810338318348
0.044472213834524155,0.006110789254307747,-0.023513134568929672,0.018468456342816353,-0.0010000241454690695,-0.018709229305386543
