davideferrari95/blind_handover_controller/data/Test 91 - [2024-02-07 -- 16-11-23]/joint_states_data.csv
shoulder_pan_joint,shoulder_lift_joint,elbow_joint,wrist_1_joint,wrist_2_joint,wrist_3_joint
0.003109671175479889,0.003930381499230862,-0.009087535552680492,0.0027169433888047934,0.00015701762458775192,0.0027543152682483196
0.003109671175479889,0.003930381499230862,-0.009087535552680492,0.0027169433888047934,0.00015701762458775192,0.0027543152682483196
0.003109671175479889,0.003930381499230862,-0.009087535552680492,0.0027169433888047934,0.00015701762458775192,0.0027543152682483196
0.00324135716073215,0.003893811022862792,-0.008861305192112923,0.0027422781568020582,0.0001714191894279793,0.0026857105549424887
0.003357324283570051,0.0037362445145845413,-0.008784867823123932,0.002900986932218075,0.00017268816009163857,0.00275957933627069
0.003457130864262581,0.003491584910079837,-0.008970828726887703,0.0029266381170600653,0.00016846024664118886,0.0026493368204683065
0.003661553841084242,0.003757047699764371,-0.009329787455499172,0.0025541316717863083,0.00016409771342296153,0.002507749479264021
0.0033642579801380634,0.003721594111993909,-0.008678261190652847,0.0025065098889172077,0.0001599332463229075,0.0024564252234995365
0.003096396569162607,0.0035657186526805162,-0.009689785540103912,0.0026526297442615032,0.00017532285710331053,0.002546770730987191
0.002995262620970607,0.003361497074365616,-0.008865433745086193,0.0034747631289064884,0.00017375759489368647,0.0024955670814961195
0.0029396561440080404,0.0034393612295389175,-0.008077830076217651,0.004201635718345642,0.00016983273962978274,0.0026725069619715214
0.002744993893429637,0.004109682980924845,-0.0077010346576571465,0.004322006367146969,0.00016593007603660226,0.0026812718715518713
0.0026471561286598444,0.004206364508718252,-0.008563695475459099,0.003726458875462413,0.00016219272220041603,0.002679301891475916
0.002792848739773035,0.004026224371045828,-0.008762097917497158,0.0032988882157951593,0.00015861961583141237,0.002746409038081765
0.002892983378842473,0.004000021610409021,-0.008359736762940884,0.0032749646343290806,0.00015520022134296596,0.0027820118702948093
0.003264839295297861,0.003933701664209366,-0.008248576894402504,0.003734336234629154,0.00014878589718136936,0.0026970505714416504
0.0030351770110428333,0.004214598331600428,-0.008336030878126621,0.0037522604689002037,0.00014577331603504717,0.0029653918463736773
0.0032568001188337803,0.004056623205542564,-0.007639696821570396,0.0037677553482353687,0.00014288045349530876,0.0030207987874746323
0.0033059101551771164,0.004079536069184542,-0.008077166974544525,0.0033797479700297117,0.00014010031009092927,0.002701172837987542
0.0034868817310780287,0.003984841518104076,-0.008515367284417152,0.0034480555914342403,0.0001374260027660057,0.002676522359251976
0.0033750906586647034,0.003894721856340766,-0.008017503656446934,0.0034330941271036863,0.00013485222007147968,0.002674967283383012
0.003355551278218627,0.004486852791160345,-0.0075506726279854774,0.003436244325712323,0.0001400063920300454,0.002540354151278734
0.003355551278218627,0.004486852791160345,-0.0075506726279854774,0.003436244325712323,0.0001400063920300454,0.002540354151278734
0.0031607397831976414,0.004190005827695131,-0.008257041685283184,0.003192577511072159,0.00014296987501438707,0.002618157071992755
0.0034239469096064568,0.0043995799496769905,-0.008282480761408806,0.0031965658999979496,0.00013903682702220976,0.002648583147674799
0.003216952085494995,0.004186941310763359,-0.008119610138237476,0.0036910218186676502,0.00013490012497641146,0.0027456888929009438
0.0032300958409905434,0.003997005522251129,-0.007720362860709429,0.004190681967884302,0.00013097532792016864,0.0026696808636188507
0.003209961112588644,0.0038996415678411722,-0.008130003698170185,0.0040397122502326965,0.00012727086141239852,0.0028276918455958366
0.0030032910872250795,0.004311463329941034,-0.00811825692653656,0.003814591560512781,0.00012377013626974076,0.00293373828753829
0.003462537657469511,0.0045112562365829945,-0.007807644084095955,0.0036526022013276815,0.00012045687617501244,0.003010884393006563
0.0033098889980465174,0.004275367595255375,-0.007826682180166245,0.003653365420177579,0.00011731642007362098,0.003442521207034588
0.0030799699015915394,0.004276416264474392,-0.00791951548308134,0.003710661781951785,0.00011433530016802251,0.0036446088925004005
0.002921913517639041,0.004043156281113625,-0.00783652812242508,0.003692121710628271,0.00011150215868838131,0.0033552595414221287
0.002831502817571163,0.00434568477794528,-0.007669731974601746,0.0037152550648897886,0.00010880599438678473,0.0029956044163554907
0.0029490652959793806,0.0043216245248913765,-0.0074487170204520226,0.0037746771704405546,0.00010623725393088534,0.0026025818660855293
0.003494085045531392,0.003994075581431389,-0.0075950659811496735,0.003357365494593978,0.00011399037612136453,0.002604009583592415
0.003831444075331092,0.004334243945777416,-0.0075962780974805355,0.0033298323396593332,0.00012104744382668287,0.0027803087141364813
0.0038114001508802176,0.004341366235166788,-0.008107724599540234,0.0033245582599192858,0.00011900753452209756,0.00277135893702507
0.0032332451082766056,0.004162948112934828,-0.008599609136581421,0.0034473733976483345,0.00011648138024611399,0.002771879080682993
0.0031367687042802572,0.003929889295250177,-0.008003808557987213,0.0037170008290559053,0.00011402434029150754,0.00267031230032444
0.003396224230527878,0.004285002592951059,-0.007728456053882837,0.00342947943136096,0.00011166670446982607,0.0028698707465082407
0.0037642617244273424,0.004143525846302509,-0.007324486505240202,0.003516531316563487,0.00010940428182948381,0.0032542888075113297
0.003557380521669984,0.004274297039955854,-0.007549630478024483,0.003472386859357357,0.00010514368477743119,0.0033453544601798058
0.003801054321229458,0.004454435780644417,-0.006748176645487547,0.003949631471186876,0.00010313565871911123,0.0028345889877527952
0.003455414669588208,0.004089287016540766,-0.007034424692392349,0.004171001724898815,0.00010120268416358158,0.002798967994749546
0.003580211428925395,0.0038644287269562483,-0.007620237302035093,0.004021810833364725,9.934076661011204e-05,0.0028129981365054846
0.0037623210810124874,0.003889793297275901,-0.007200760301202536,0.0035191706847399473,0.00011272300616838038,0.002821927657350898
0.003856956958770752,0.003993463236838579,-0.0070155225694179535,0.003560864133760333,0.00011171404185006395,0.00275729363784194
0.0038158392999321222,0.003999517764896154,-0.006830782163888216,0.003956667147576809,0.0001098311404348351,0.002844132948666811
0.0038158392999321222,0.003999517764896154,-0.006830782163888216,0.003956667147576809,0.0001098311404348351,0.002844132948666811
0.0033900358248502016,0.003917471505701542,-0.0075201187282800674,0.0042021912522614,0.00010795335401780903,0.0030794276390224695
0.0033289482817053795,0.0038746583741158247,-0.007378827314823866,0.00361805921420455,0.00010613499762257561,0.003551753703504801
0.0035057689528912306,0.0040753548964858055,-0.00728571554645896,0.0035468824207782745,0.00010437662422191352,0.0033566621132194996
0.004313543904572725,0.0038788458332419395,-0.007427625358104706,0.0036272848956286907,0.00010267552715959027,0.003119888249784708
0.0038085675332695246,0.0036338497884571552,-0.007614226546138525,0.0042168013751506805,0.00010102897067554295,0.0030174851417541504
0.0035243311431258917,0.0034471869003027678,-0.007383935619145632,0.0040848893113434315,9.943438635673374e-05,0.0030535287223756313
0.0035060641821473837,0.0035918375942856073,-0.0074311671778559685,0.003539398079738021,9.788935858523473e-05,0.003149601398035884
0.0035630296915769577,0.004035388119518757,-0.007796349935233593,0.003490172093734145,9.63916681939736e-05,0.0030570891685783863
0.0034852440003305674,0.00401235930621624,-0.008036239072680473,0.0036826422438025475,9.493900142842904e-05,0.003058370668441057
0.0033784236293286085,0.004449694883078337,-0.007781905587762594,0.003836345626041293,9.352964843856171e-05,0.003205849090591073
0.003569166176021099,0.0041839987970888615,-0.007763119414448738,0.003916958346962929,0.00010445485531818122,0.003038419410586357
0.0038154248613864183,0.0039309971034526825,-0.006751009728759527,0.003903440898284316,0.00010375175043009222,0.0032255612313747406
0.0039405617862939835,0.0043629733845591545,-0.0068867444060742855,0.0038502775132656097,0.00010232958447886631,0.0032999045215547085
0.0039011419285088778,0.004189431667327881,-0.0076623596251010895,0.003820868441835046,0.0001008990075206384,0.0030726082623004913
0.003948395140469074,0.004464961122721434,-0.007341424003243446,0.0037727882154285908,9.95048030745238e-05,0.002676797565072775
0.0039682406932115555,0.004207678139209747,-0.006711209658533335,0.0037124520167708397,9.814838267629966e-05,0.002709059976041317
0.003859119024127722,0.004705072846263647,-0.007154923398047686,0.004423560108989477,9.554358257446438e-05,0.0030803268309682608
0.0038103386759757996,0.004283111076802015,-0.007270989008247852,0.004377287346869707,9.429233614355326e-05,0.003462535561993718
0.004120086319744587,0.004369810689240694,-0.006888226605951786,0.004028302617371082,9.307346772402525e-05,0.0033551484812051058
0.004483308643102646,0.004216707777231932,-0.00744246132671833,0.004010618198662996,9.188563126372173e-05,0.0035008061677217484
0.004133061971515417,0.004010635428130627,-0.00800313986837864,0.0040129381231963634,9.072781540453434e-05,0.0032082567922770977
0.003858617739751935,0.0038256128318607807,-0.007030530832707882,0.003952355124056339,8.95988559932448e-05,0.003099213121458888
0.0043055214919149876,0.0041491626761853695,-0.006691279821097851,0.004327490925788879,8.849750156514347e-05,0.0029013976454734802
0.0041677337139844894,0.004286156501621008,-0.006605413276702166,0.004706587642431259,8.650437666801736e-05,0.002944007981568575
0.003944209311157465,0.004069766495376825,-0.007462490815669298,0.004294189624488354,8.466908911941573e-05,0.003264453262090683
0.004226083401590586,0.0038886028341948986,-0.007319625001400709,0.004344332963228226,8.309211989399046e-05,0.0035911581944674253
0.004146692343056202,0.0038439359050244093,-0.007152020465582609,0.004160815384238958,8.15846724435687e-05,0.003309083404019475
0.004043493419885635,0.0037853179965168238,-0.007071699947118759,0.004031249787658453,8.013195474632084e-05,0.003119898959994316
0.004043493419885635,0.0037853179965168238,-0.007071699947118759,0.004031249787658453,8.013195474632084e-05,0.003119898959994316
0.004009542055428028,0.003850877983495593,-0.007936942391097546,0.004344284534454346,7.87298777140677e-05,0.0030633476562798023
0.003911271691322327,0.003980363719165325,-0.007601855788379908,0.004549840930849314,7.737616397207603e-05,0.003214293858036399
0.0038169058971107006,0.004016599617898464,-0.007434249389916658,0.004609353374689817,7.606814324390143e-05,0.0032257456332445145
0.0043459427542984486,0.004343788139522076,-0.007655898109078407,0.004596898797899485,7.480374915758148e-05,0.003071875311434269
0.004142423160374165,0.004081213381141424,-0.00803461205214262,0.004282383248209953,7.358056609518826e-05,0.003004817059263587
0.004442577250301838,0.003875188296660781,-0.008034899830818176,0.004210813902318478,7.239676779136062e-05,0.002799578243866563
0.004091337788850069,0.0037696734070777893,-0.008180472999811172,0.004080990329384804,8.363787492271513e-05,0.003122658934444189
0.004408601671457291,0.004152648150920868,-0.007784820627421141,0.004352682735770941,8.404633263126016e-05,0.0031307723838835955
0.004221821203827858,0.004235764499753714,-0.008179575204849243,0.004591829609125853,8.286823140224442e-05,0.002967531094327569
0.004247994627803564,0.004164078272879124,-0.008123732171952724,0.004432941321283579,8.162291487678885e-05,0.003007330698892474
0.004495955538004637,0.0035116728395223618,-0.007799199316650629,0.004546368960291147,8.040799002628773e-05,0.002992667257785797
0.0042509716004133224,0.003530680201947689,-0.008268054574728012,0.004262913949787617,7.922838267404586e-05,0.0032792233396321535
0.004503509029746056,0.004031280055642128,-0.008364835754036903,0.0039994302205741405,7.808274676790461e-05,0.003152752062305808
0.004545852541923523,0.004202954936772585,-0.007681099697947502,0.003887744853273034,7.696977991145104e-05,0.0029394221492111683
0.0047332835383713245,0.0034141300711780787,-0.008444782346487045,0.004153495188802481,7.483635999960825e-05,0.0029356125742197037
0.004567919764667749,0.003489244030788541,-0.008355085738003254,0.004410019610077143,8.451017492916435e-05,0.003372500417754054
0.004297605715692043,0.0038101726677268744,-0.008413530886173248,0.004618293140083551,8.484961290378124e-05,0.0033165146596729755
0.004481385927647352,0.003940497990697622,-0.007887676358222961,0.0044792466796934605,8.381726365769282e-05,0.003101612674072385
0.004563294351100922,0.0044541978277266026,-0.00802409928292036,0.004532379563897848,8.272303239209577e-05,0.0029168606270104647
0.00455822516232729,0.004166978877037764,-0.00783460307866335,0.004293418955057859,8.165132021531463e-05,0.0028043112251907587
0.004552426747977734,0.004239702131599188,-0.007378694601356983,0.0041872598230838776,8.06066527729854e-05,0.0027687980327755213
0.0048146541230380535,0.0042289369739592075,-0.007561026141047478,0.004274121485650539,7.958830246934667e-05,0.002776622073724866
0.004385609645396471,0.004081586375832558,-0.00825275294482708,0.004873305093497038,7.859551260480657e-05,0.002914868760854006
0.003981064539402723,0.0038504996336996555,-0.008261622861027718,0.005012791138142347,7.762702443869784e-05,0.0028628103900700808
0.004568375647068024,0.0040992675349116325,-0.006954895798116922,0.004455833230167627,7.668221223866567e-05,0.002945891348645091
0.004369757603853941,0.004094244446605444,-0.008159746415913105,0.0043880813755095005,8.517223614035174e-05,0.002855835482478142
0.004369757603853941,0.004094244446605444,-0.008159746415913105,0.0043880813755095005,8.517223614035174e-05,0.002855835482478142
0.003627854399383068,0.003935548476874828,-0.008464161306619644,0.004522466566413641,8.54620520840399e-05,0.002912038704380393
0.003855610266327858,0.0038891073781996965,-0.007487850729376078,0.004592683631926775,8.454345515929163e-05,0.002883451757952571
0.004890613257884979,0.0038754171691834927,-0.00729204760864377,0.004245315678417683,8.356775651918724e-05,0.002678605495020747
0.00448912288993597,0.003847134532406926,-0.008721456862986088,0.00437414925545454,8.260934555437416e-05,0.0026355874724686146
0.0044993688352406025,0.0037583087105304003,-0.00816721748560667,0.0042863995768129826,8.167230407707393e-05,0.0027620624750852585
0.004145087208598852,0.0036747667472809553,-0.00757552357390523,0.0040942225605249405,8.075625373749062e-05,0.002861928893253207
0.004284191876649857,0.0037526823580265045,-0.007757297717034817,0.004288204945623875,7.98605615273118e-05,0.002847987227141857
0.004106559325009584,0.0038561548572033644,-0.008732925169169903,0.004509847145527601,1.028672977554379e-05,0.002682425081729889
0.00476102065294981,0.0039033887442201376,-0.00785573199391365,0.00448897760361433,6.716500138281845e-07,0.002627825364470482
0.00450682220980525,0.003984006121754646,-0.008146315813064575,0.00436546141281724,4.385393737038612e-08,0.002516766544431448
0.00453174626454711,0.004049671348184347,-0.00799675565212965,0.004555427469313145,2.8633491133689404e-09,0.002419090596958995
0.004430239088833332,0.0035393545404076576,-0.008663596585392952,0.0045983740128576756,1.8695621439857035e-10,0.002662470331415534
0.004848743788897991,0.0035875458270311356,-0.008475157432258129,0.004597763530910015,1.220690475783881e-11,0.00304207531735301
0.004789865110069513,0.004150564782321453,-0.008006948977708817,0.004512921907007694,7.970236883675375e-13,0.0027655770536512136
0.00470705097541213,0.0037992577999830246,-0.008534780703485012,0.004596852231770754,8.910350152291358e-05,0.0027115964330732822
0.004625313449651003,0.0035807350650429726,-0.007922924123704433,0.004437251482158899,9.456570114707574e-05,0.0026236537378281355
0.0046493131667375565,0.003868239466100931,-0.008109837770462036,0.004255054052919149,9.123238851316273e-05,0.0024514952674508095
0.0046493131667375565,0.003868239466100931,-0.008109837770462036,0.004255054052919149,9.123238851316273e-05,0.0024514952674508095
0.00490820175036788,0.004267219919711351,-0.008007541298866272,0.0048592002131044865,8.767934195930138e-05,0.0025079750921577215
0.0050626820884644985,0.004254742059856653,-0.007052145432680845,0.0049011302180588245,8.60036161611788e-05,0.0025965680833905935
0.004958581645041704,0.0040429322980344296,-0.008860429748892784,0.004898183047771454,8.439060911769047e-05,0.002434532158076763
0.004746297840029001,0.003997321706265211,-0.008265292271971703,0.004785137251019478,8.28372867545113e-05,0.0023875520564615726
0.004759509582072496,0.0039937784895300865,-0.007943572476506233,0.004896558355540037,8.133979281410575e-05,0.0026107169687747955
0.004759509582072496,0.0039937784895300865,-0.007943572476506233,0.004896558355540037,8.133979281410575e-05,0.0026107169687747955
0.005249147303402424,0.0039375354535877705,-0.007894936949014664,0.0048489342443645,7.989566802280024e-05,0.0027235064189881086
0.005014829337596893,0.003911460284143686,-0.008429097943007946,0.005051164422184229,7.850198016967624e-05,0.0025419604498893023
0.004921668209135532,0.003914067521691322,-0.00825998093932867,0.005071689374744892,7.715590618317947e-05,0.0026017825584858656
0.004841520916670561,0.0039237248711287975,-0.007790135685354471,0.004559890367090702,7.585529237985611e-05,0.0027330322191119194
0.004727679770439863,0.004215475171804428,-0.007906297221779823,0.004924111533910036,7.459786138497293e-05,0.002803152659907937
0.004740635398775339,0.004022633191198111,-0.008527851663529873,0.00497879832983017,7.33813940314576e-05,0.0027758036740124226
0.005108307581394911,0.003915955312550068,-0.008325791917741299,0.004810019861906767,7.220394763862714e-05,0.0027468211483210325
0.0053932578302919865,0.004188443534076214,-0.008039395324885845,0.0042898990213871,7.106371049303561e-05,0.0025487695820629597
0.005498543381690979,0.00406267074868083,-0.008359642699360847,0.004330293275415897,6.995892181294039e-05,0.0024117417633533478
0.005103638861328363,0.0039541637524962425,-0.008215461857616901,0.004959599114954472,6.888800271553919e-05,0.002276299288496375
0.004794677719473839,0.004359548445791006,-0.008123350329697132,0.004883396904915571,6.784929428249598e-05,0.0021679745987057686
0.004747267346829176,0.004606867674738169,-0.007639635819941759,0.00455842399969697,6.68414359097369e-05,0.002291683340445161
0.005304587539285421,0.004293797072023153,-0.008703961037099361,0.004589809570461512,6.586317613255233e-05,0.0023695200216025114
0.005212428979575634,0.004034604877233505,-0.008561904542148113,0.004895403049886227,6.491311069112271e-05,0.0023417493794113398
0.005761143751442432,0.0038873653393238783,-0.00807943195104599,0.004858654923737049,6.399001722456887e-05,0.0025462883058935404
0.005292556248605251,0.003818156197667122,-0.008170673623681068,0.004597042221575975,6.309293530648574e-05,0.0027474164962768555
0.004831552039831877,0.0037458420265465975,-0.008375191129744053,0.004694175440818071,6.222051160875708e-05,0.0028330842033028603
0.005253663752228022,0.0029497905634343624,-0.008058981969952583,0.004915481898933649,6.137191667221487e-05,0.0027124970220029354
0.005335977766662836,0.0027250780258327723,-0.007712909951806068,0.004948600195348263,6.0546222812263295e-05,0.0023665570188313723
0.005140615627169609,0.003285389393568039,-0.00812074076384306,0.004879998508840799,5.895963477087207e-05,0.002455768408253789
0.005730519071221352,0.0034410080406814814,-0.00812101922929287,0.004906098358333111,5.8197168982587755e-05,0.002532161772251129
0.005386337172240019,0.0035187446046620607,-0.007707688957452774,0.004844998009502888,5.745414819102734e-05,0.002409626729786396
0.004859400913119316,0.003180956467986107,-0.008278793655335903,0.005220104940235615,5.672985571436584e-05,0.002466428792104125
0.00545099750161171,0.0031157624907791615,-0.008705465123057365,0.005248200614005327,5.60236003366299e-05,0.002450337866321206
0.00517126452177763,0.003312801942229271,-0.00856374017894268,0.005045800935477018,5.5334658100036904e-05,0.002318574581295252
0.0050308359786868095,0.003636704757809639,-0.008434219285845757,0.005062357522547245,5.466254151542671e-05,0.0024572883266955614
0.0051391771994531155,0.003825564170256257,-0.008466273546218872,0.004994399845600128,5.400651934905909e-05,0.0024025719612836838
0.005120433401316404,0.0034314014483243227,-0.008370966650545597,0.004695927258580923,5.3366053180070594e-05,0.0025372726377099752
0.005590633489191532,0.003227900480851531,-0.008660778403282166,0.004961063154041767,5.2740640967385843e-05,0.0026530451141297817
0.005590633489191532,0.003227900480851531,-0.008660778403282166,0.004961063154041767,5.2740640967385843e-05,0.0026530451141297817
0.0054285768419504166,0.0032234357204288244,-0.008284332230687141,0.005418124608695507,6.119703903095797e-05,0.0023865734692662954
0.0054391310550272465,0.0035429836716502905,-0.00806040782481432,0.005188459064811468,6.175051385071129e-05,0.0022329436615109444
0.005686279386281967,0.0037098354659974575,-0.007972870953381062,0.005179206840693951,6.113333074608818e-05,0.0019963448867201805
0.005268183071166277,0.0033751726150512695,-0.008356227539479733,0.00508843781426549,6.0454269259935245e-05,0.0017675597919151187
0.0056909252889454365,0.003293359884992242,-0.008335726335644722,0.005293428432196379,5.9785310440929607e-05,0.0016909926198422909
0.005993533879518509,0.003130558645352721,-0.007969463244080544,0.005569675005972385,7.700902642682195e-06,0.001778665347956121
0.005845017731189728,0.002987937768921256,-0.00762883760035038,0.005487872753292322,5.028139185014879e-07,0.001705791219137609
0.006148823536932468,0.0031554419547319412,-0.008357958868145943,0.0056615774519741535,3.283015459487615e-08,0.0016657356172800064
0.0054546380415558815,0.0034046771470457315,-0.00876160804182291,0.005234283860772848,2.143574651114477e-09,0.0015200438210740685
0.006000682711601257,0.003521447768434882,-0.007987197488546371,0.005202342290431261,1.3996011294370447e-10,0.0014096187660470605
0.0058408030308783054,0.00345870410092175,-0.007606508210301399,0.005543975625187159,9.138395769270335e-12,0.0013277316465973854
0.006377343088388443,0.003181061241775751,-0.008027806878089905,0.006143395788967609,5.96671963139922e-13,0.0012210627319291234
0.006675085052847862,0.0030354249756783247,-0.007934702560305595,0.006326446309685707,3.8958409659091767e-14,0.001202401239424944
0.006112987641245127,0.0033693083096295595,-0.008226461708545685,0.0055814762599766254,2.543705797416313e-15,0.0011943448334932327
0.005763010587543249,0.003098288318142295,-0.008444157429039478,0.005362671334296465,1.6608579678114958e-16,0.0015341966645792127
0.005767508875578642,0.0032931258901953697,-0.00816916674375534,0.005631760694086552,1.0844216235020148e-17,0.0015374327776953578
0.006369519978761673,0.003451761556789279,-0.007980626076459885,0.006049588322639465,7.080497505404109e-19,0.0017574277007952332
0.005989015102386475,0.0035892482846975327,-0.008389781229197979,0.005796879064291716,3.0185272560996566e-21,0.0014461969258263707
0.006046852096915245,0.00357798277400434,-0.00848707091063261,0.005371495150029659,1.970882386321741e-22,0.0011603496968746185
0.006535730790346861,0.0035286538768559694,-0.007992957718670368,0.004615327343344688,1.286845444404242e-23,0.0010948175331577659
0.006265026051551104,0.0035964595153927803,-0.007828420959413052,0.004908409900963306,8.402181167336153e-25,0.0011326649691909552
0.00611138716340065,0.00332315219566226,-0.00865336786955595,0.005328950937837362,5.486024080687477e-26,0.0011771940626204014
0.006211663596332073,0.003568430431187153,-0.0083332983776927,0.005385076627135277,3.5819816367834216e-27,0.0013055488234385848
0.005879969336092472,0.003338147420436144,-0.00823815818876028,0.005576107185333967,2.338778065055917e-28,0.0013050856068730354
0.006493374239653349,0.0033289201091974974,-0.00809559691697359,0.005549626890569925,1.5270549570402257e-29,0.0016907526878640056
0.006551199126988649,0.0034473277628421783,-0.008123171515762806,0.00556441443040967,9.970577878307427e-31,0.0016086791874840856
0.006113157607614994,0.0035833988804370165,-0.007833035662770271,0.005313147325068712,6.510075206202784e-32,0.0016055378364399076
0.006113157607614994,0.0035833988804370165,-0.007833035662770271,0.005313147325068712,6.510075206202784e-32,0.0016055378364399076
0.006272153463214636,0.0036885503213852644,-0.007603419944643974,0.005440360400825739,4.250614021196285e-33,0.0014565539313480258
0.006438303738832474,0.003674320178106427,-0.008810178376734257,0.005457754712551832,2.7753472132437095e-34,0.0012610427802428603
0.006429653149098158,0.00351532269269228,-0.008065341971814632,0.00551507156342268,1.8121033194291042e-35,0.0011640128213912249
0.006169260013848543,0.003383076749742031,-0.007775521371513605,0.0052161505445837975,1.1831738251391944e-36,0.001030074548907578
0.006627383641898632,0.0033127719070762396,-0.008015076629817486,0.005374475382268429,7.7252805216281e-38,0.0008250572136603296
0.006279050838202238,0.0034473722334951162,-0.00860279519110918,0.0058585782535374165,5.044056498946574e-39,0.0008846655837260187
0.0065623256377875805,0.003648148849606514,-0.0079319067299366,0.0061454311944544315,3.2934017157794013e-40,0.0009198857005685568
0.0065824538469314575,0.004028982482850552,-0.008219210430979729,0.005488390568643808,2.1502924935064318e-41,0.0010984011460095644
0.006852576043456793,0.00419897073879838,-0.008195510134100914,0.005107296630740166,1.4041010612534667e-42,0.001225737971253693
0.006154051050543785,0.0040779416449368,-0.008466065861284733,0.004859853070229292,9.10844001811131e-44,0.001219295896589756
0.006365311797708273,0.0034420921001583338,-0.008338679559528828,0.005443257745355368,5.605193857299268e-45,0.0010935610625892878
0.006668656598776579,0.0031716132070869207,-0.007963228039443493,0.0062266383320093155,0.0,0.0011106620077043772
0.0067653413861989975,0.0032915861811488867,-0.008307188749313354,0.005791804753243923,0.0,0.0009970514802262187
0.00678707892075181,0.0036197814624756575,-0.008053497411310673,0.005618242546916008,0.0,0.0009764862479642034
0.006359519436955452,0.0037855119444429874,-0.0076654995791614056,0.00518428860232234,0.0,0.0009656095644459128
0.006583832204341888,0.0037605902180075645,-0.008112657815217972,0.005719192326068878,0.0,0.0008951227646321058
0.006949442904442549,0.0034199655055999756,-0.007696330081671476,0.005799386650323868,0.0,0.000958856544457376
0.0068028150126338005,0.0035746186040341854,-0.007351284381002188,0.0055033075623214245,0.0,0.0010634951759129763
0.006404154468327761,0.004164519254118204,-0.008291468024253845,0.005346932448446751,0.0,0.0011597059201449156
0.006816674955189228,0.0035613463260233402,-0.00819432083517313,0.005194284021854401,0.0,0.001209698966704309
0.006908867508172989,0.0033484220039099455,-0.007961099967360497,0.005712793208658695,0.0,0.001106293871998787
0.006915198173373938,0.003462936030700803,-0.008275005035102367,0.005647817626595497,0.0,0.0010679528350010514
0.006785811856389046,0.003695594845339656,-0.008210768923163414,0.005588546860963106,0.0,0.0010353720281273127
0.00756440544500947,0.0037269569002091885,-0.007583485450595617,0.005223532672971487,0.0,0.0010028480319306254
0.006972788367420435,0.0037776422686874866,-0.007379451766610146,0.005320035386830568,0.0,0.0009712505852803588
0.0068771024234592915,0.0038012112490832806,-0.007986113429069519,0.005648384802043438,0.0,0.0008923157583922148
0.0068771024234592915,0.0038012112490832806,-0.007986113429069519,0.005648384802043438,0.0,0.0008923157583922148
0.006702296901494265,0.0035578450188040733,-0.008269624784588814,0.005938020534813404,0.0,0.000890007708221674
0.007050148211419582,0.003522036597132683,-0.007621710654348135,0.005743763875216246,0.0,0.0009087224025279284
0.007156400941312313,0.0037512860726565123,-0.007394395302981138,0.005587280262261629,0.0,0.0009087319485843182
0.007175738457590342,0.003466987982392311,-0.008384943939745426,0.005612500943243504,0.0,0.0011859281221404672
0.006935762707144022,0.0035625584423542023,-0.008619542233645916,0.00607668049633503,0.0,0.0011681077303364873
0.0068563902750611305,0.0037062610499560833,-0.008349405601620674,0.006363178137689829,0.0,0.0011256481520831585
0.0072225420735776424,0.003814118914306164,-0.008528316393494606,0.005872578825801611,0.0,0.0010316844563931227
0.007607987150549889,0.004284133203327656,-0.008778934367001057,0.005925235338509083,0.0,0.000932774506509304
0.007006373256444931,0.004198595881462097,-0.008049258962273598,0.005950461607426405,0.0,0.0007876951713114977
0.007016278337687254,0.003719546366482973,-0.008247526362538338,0.006153971888124943,0.0,0.0007856926531530917
0.008154287002980709,0.003539324039593339,-0.009633527137339115,0.0063169109635055065,0.0,0.0006992490962147713
0.007796765770763159,0.003649792866781354,-0.008992490358650684,0.005671061109751463,0.0,0.0007155261700972915
0.006713504437357187,0.004356820601969957,-0.007897588424384594,0.005699383094906807,0.0,0.0007158288499340415
0.006663617677986622,0.004135624039918184,-0.008849558420479298,0.005685064010322094,0.0,0.0006703514372929931
0.007677236571907997,0.003936853259801865,-0.009234159253537655,0.00562959024682641,0.0,0.0006107210647314787
0.007562549784779549,0.003788832575082779,-0.008891602978110313,0.005683960393071175,0.0,0.0006183801451697946
0.007005167659372091,0.00382357370108366,-0.009343879297375679,0.005795563571155071,0.0,0.000603004707954824
0.0071288892067968845,0.0035375156439840794,-0.009457893669605255,0.005913718603551388,0.0,0.000613343610893935
0.007435268722474575,0.00355079909786582,-0.009287048131227493,0.005645568948239088,0.0,0.0005820639780722558
0.007392764091491699,0.0038182996213436127,-0.009347234852612019,0.005994722247123718,0.0,0.000539606437087059
0.007136121857911348,0.00397148635238409,-0.009160956367850304,0.006268733646720648,0.0,0.0005886064027436078
0.007567261345684528,0.004005774389952421,-0.0091524263843894,0.006004882510751486,0.0,0.0005334243178367615
0.007578500546514988,0.003531406633555889,-0.00960104912519455,0.006162597332149744,0.0,0.0005598042625933886
0.007578500546514988,0.003531406633555889,-0.00960104912519455,0.006162597332149744,0.0,0.0005598042625933886
0.007382798939943314,0.003591381013393402,-0.009323597885668278,0.00605232547968626,0.0,0.0005173177341930568
0.0076547106727957726,0.003816927084699273,-0.009716941975057125,0.0060362196527421474,0.0,0.0005064114811830223
0.0076547106727957726,0.003816927084699273,-0.009716941975057125,0.0060362196527421474,0.0,0.0005064114811830223
0.007993942126631737,0.003805884625762701,-0.009750442579388618,0.00566620659083128,0.0,0.00046926940558478236
0.00754057290032506,0.00344814988784492,-0.009170346893370152,0.006090420298278332,0.0,0.00043675306369550526
0.007162564434111118,0.003400111570954323,-0.00940912775695324,0.005266228690743446,0.0,0.0004588491574395448
0.007808886934071779,0.0036699173506349325,-0.010562587529420853,0.00628846837207675,0.0,0.0004378230369184166
0.00769352912902832,0.004414140712469816,-0.009281456470489502,0.006521438714116812,0.0,0.0004131406603846699
0.00733842933550477,0.0041281054727733135,-0.009764662943780422,0.006284554488956928,0.0,0.0003907416539732367
0.007487273309379816,0.003839951939880848,-0.010031703859567642,0.0056003425270318985,0.0,0.0003706218267325312
0.008150051347911358,0.004191914573311806,-0.00964527577161789,0.005939688999205828,0.0,0.0003337775415275246
0.008319688029587269,0.004173122812062502,-0.009914897382259369,0.0063455062918365,0.0,0.00030637424788437784
0.007803419604897499,0.004027832765132189,-0.01026011724025011,0.00617665471509099,0.0,0.0002865488932002336
0.007497566286474466,0.003950117155909538,-0.008908949792385101,0.005956495180726051,0.0,0.00026936724316328764
0.008005998097360134,0.0040454077534377575,-0.010093734599649906,0.00588953634724021,0.0,0.0002541457361076027
0.008421319536864758,0.004110117442905903,-0.00992538407444954,0.0063670482486486435,0.0,0.00024055494577623904
0.008191387169063091,0.004017749801278114,-0.009267709217965603,0.006319692824035883,0.0,0.00022834414266981184
0.007910426706075668,0.00390807818621397,-0.009246069937944412,0.006019532214850187,0.0,0.00021731403830926865
0.008145133964717388,0.003863186575472355,-0.009357861243188381,0.006151342298835516,0.0,0.00020730005053337663
0.007983619347214699,0.003991828765720129,-0.009303843602538109,0.006242864299565554,0.0,0.0001981689565582201
0.007716131862252951,0.003585352562367916,-0.008988401852548122,0.006378056947141886,0.0,0.0001898083573905751
0.008149225264787674,0.002788430079817772,-0.01018825639039278,0.0066948398016393185,0.0,0.00018212528084404767
0.008654345758259296,0.003010921645909548,-0.009308968670666218,0.006456529721617699,0.0,0.00017503944400232285
0.008293953724205494,0.0032867896370589733,-0.009642578661441803,0.0063669015653431416,0.0,0.00016240352124441415
0.008457913063466549,0.0034218267537653446,-0.00921471044421196,0.007143918424844742,0.0,0.00015674585301894695
0.008808081969618797,0.003485657973214984,-0.008891367353498936,0.006623045075684786,0.0,0.0001514689502073452
0.00808042287826538,0.0032206254545599222,-0.00942959077656269,0.006134367082268,0.0,0.0001719628635328263
0.007860846817493439,0.003441390348598361,-0.009244299493730068,0.005486990325152874,0.0,0.00017004404799081385
0.008209065534174442,0.003277401439845562,-0.008858919143676758,0.006110744085162878,0.0,0.00016507388500031084
0.008749161846935749,0.0030880614649504423,-0.010417286306619644,0.0064801801927387714,0.0,0.00016019171744119376
0.008699805475771427,0.0030601441394537687,-0.009106489829719067,0.006075778976082802,0.0,0.0001555770868435502
0.008699805475771427,0.0030601441394537687,-0.009106489829719067,0.006075778976082802,0.0,0.0001555770868435502
0.008566874079406261,0.0031844142358750105,-0.008912744000554085,0.005249992478638887,0.0,0.00015122017066460103
0.008665349334478378,0.0034699528478085995,-0.009308910928666592,0.005365629214793444,0.0,0.00014710061077494174
0.008494237437844276,0.003716583363711834,-0.009663023985922337,0.005434616468846798,0.0,0.00014319954789243639
0.008982768282294273,0.003413415513932705,-0.008910964243113995,0.006786962505429983,0.0,0.0001394998689647764
0.009007277898490429,0.003520623780786991,-0.009459096938371658,0.006489923223853111,0.0,0.00013598690566141158
0.008205289952456951,0.0037312477361410856,-0.009525141678750515,0.005892299115657806,0.0,0.00013264635344967246
0.00871015340089798,0.0038407386746257544,-0.009099426679313183,0.0060556503012776375,0.0,0.00012946585775353014
0.009107385762035847,0.003780764527618885,-0.009107209742069244,0.0057561821304261684,0.0,0.00011081036791438237
0.008905308321118355,0.0037407120689749718,-0.009406373836100101,0.006383644416928291,0.0,0.00010330716031603515
0.009929569438099861,0.0038146688602864742,-0.009292716160416603,0.006807256489992142,0.0,0.00010067217226605862
0.008989483118057251,0.003868755651637912,-0.009234564378857613,0.006481744349002838,0.0,9.844842861639336e-05
0.008923284709453583,0.003911883570253849,-0.00978043768554926,0.006179793272167444,0.0,9.63392885751091e-05
0.00872349925339222,0.003919303882867098,-0.00927494466304779,0.006201067939400673,0.0,9.432008664589375e-05
0.009194347076117992,0.0039044630248099566,-0.009369113482534885,0.006712096743285656,0.0,9.23836778383702e-05
0.0095893619582057,0.003819157602265477,-0.009579232893884182,0.006729726679623127,0.0,9.052510722540319e-05
0.009647279046475887,0.003708080854266882,-0.009382580406963825,0.0064987437799572945,0.0,8.87400092324242e-05
0.009617229923605919,0.0037149586714804173,-0.008953691460192204,0.006160488817840815,0.0,8.702379273017868e-05
0.009386977180838585,0.0038258067797869444,-0.009522569365799427,0.007108213845640421,6.195803962327773e-06,6.759290408808738e-05
0.009177499450743198,0.003783593187108636,-0.009029309265315533,0.006993206217885017,4.0454170857628924e-07,6.583843060070649e-05
0.01019226759672165,0.0037087698001414537,-0.009483611211180687,0.006600889842957258,2.6413681908366016e-08,6.46228072582744e-05
0.00917950551956892,0.0037573345471173525,-0.009082040749490261,0.006857532076537609,1.7246247763225142e-09,4.866562085226178e-05
0.009698928333818913,0.0038764337077736855,-0.008917862549424171,0.006771140266209841,1.1260568172355434e-10,4.685459134634584e-05
0.00977590773254633,0.0034546402748674154,-0.009674782864749432,0.006888749543577433,7.352346162448065e-12,4.599323801812716e-05
0.009397752583026886,0.003537616925314069,-0.009727570228278637,0.006628017406910658,4.800556653583588e-13,-1.716987208055798e-05
0.009412734769284725,0.0037547952961176634,-0.008873631246387959,0.007031966000795364,3.1344203491392997e-14,-3.6627032386604697e-05
0.009646383114159107,0.0038879304192960262,-0.009543205611407757,0.006922078784555197,2.04655251451961e-15,-4.6325869334395975e-05
0.009480305016040802,0.003448297269642353,-0.009507756680250168,0.007061481010168791,1.3362524431109865e-16,-6.310427852440625e-05
0.010711816139519215,0.0033271501306444407,-0.009127266705036163,0.006927379406988621,8.724774364867377e-18,-7.090409781085327e-05
0.009477417916059494,0.0033978463616222143,-0.009309927001595497,0.0064173112623393536,5.696653808912216e-19,-8.648467337479815e-05
0.009477417916059494,0.0033978463616222143,-0.009309927001595497,0.0064173112623393536,5.696653808912216e-19,-8.648467337479815e-05
0.009499955922365189,0.003577216062694788,-0.009377285838127136,0.006643273867666721,3.71950777410676e-20,-0.0005417073844000697
0.009815694764256477,0.0036358514335006475,-0.009259097278118134,0.007277257274836302,2.428572592042104e-21,-0.0006983228377066553
0.009996545501053333,0.0035089387092739344,-0.01041446067392826,0.007441955152899027,1.5856843830927073e-22,-0.0006506928475573659
0.00972752831876278,0.003614812158048153,-0.00978613831102848,0.006755184382200241,1.0353385229050539e-23,-0.0006536772125400603
0.010539314709603786,0.003769282018765807,-0.0091444356366992,0.006985791027545929,6.760020760813086e-25,-0.0006120273610576987
0.01000390388071537,0.0037959141191095114,-0.009413043037056923,0.0074260542169213295,4.413810193138108e-26,-0.0006279250374063849
0.009699308313429356,0.003756913123652339,-0.009741632267832756,0.007037498522549868,2.8819026353247615e-27,-0.0006721720565110445
0.0101874228566885,0.0037859755102545023,-0.009800353087484837,0.0067934575490653515,1.8816765279782136e-28,-0.0007189979660324752
0.010611857287585735,0.0038658480625599623,-0.00966861192137003,0.006878411862999201,1.2286003644059965e-29,-0.0008010832825675607
0.01009537186473608,0.0034743151627480984,-0.009559825994074345,0.00732271047309041,8.021882840124426e-31,-0.0011678129667416215
0.010488549247384071,0.0036122421734035015,-0.009342554956674576,0.007489317562431097,5.237716006642512e-32,-0.0012307207798585296
0.01037183590233326,0.0038561024703085423,-0.009236840531229973,0.007399586960673332,-0.0001723800232866779,-0.001164060551673174
0.010200214572250843,0.0037978598847985268,-0.009761574678122997,0.006933765951544046,-0.00018732006719801575,-0.0009995317086577415
0.01055071596056223,0.0036877384409308434,-0.009567667730152607,0.007099783048033714,-0.00020802881044801325,-0.0009529623785056174
0.010110660456120968,0.003629107028245926,-0.009380419738590717,0.007507991045713425,-0.00020853843307122588,-0.0008703542407602072
0.010575536638498306,0.0037189421709626913,-0.009403606876730919,0.006520707625895739,-0.00019411944958847016,-0.0009357176604680717
0.010515366680920124,0.003792191157117486,-0.009909483604133129,0.006811166647821665,-0.00020268857770133764,-0.001674228929914534
0.010108987800776958,0.0033798967488110065,-0.010015103034675121,0.0071888999082148075,-0.00021024329180363566,-0.001787213608622551
0.010390868410468102,0.0035214873496443033,-0.009376347996294498,0.0075345877557992935,-0.00020435865735635161,-0.001977037638425827
0.010253752581775188,0.0036768759600818157,-0.009228273294866085,0.007063319906592369,-0.00022254047507885844,-0.0018806480802595615
0.010702650062739849,0.003722929395735264,-0.010705068707466125,0.006629336625337601,-0.0002191463572671637,-0.0016812507528811693
0.010931541211903095,0.0033070628996938467,-0.009342802688479424,0.0070809233002364635,-0.00021288738935254514,-0.0016861093463376164
0.01005290076136589,0.0031903849449008703,-0.009677489288151264,0.007311494089663029,-0.00020678705186583102,-0.0015270295552909374
0.010300993919372559,0.0033170271199196577,-0.009894175454974174,0.006742268335074186,-0.00029345546499826014,-0.0013339091092348099
0.010491838678717613,0.0034391956869512796,-0.009454441256821156,0.006688070949167013,-0.0003036414855159819,-0.001333613763563335
0.009815718047320843,0.003601119387894869,-0.00947454571723938,0.007204337976872921,-0.0003357948735356331,-0.0013652851339429617
0.01042618602514267,0.003967784345149994,-0.009717317298054695,0.007412269711494446,-0.00036228940007276833,-0.002049674978479743
0.010143991559743881,0.003958393353968859,-0.009524969384074211,0.007354861591011286,-0.0003547388769220561,-0.0033491135109215975
0.010143991559743881,0.003958393353968859,-0.009524969384074211,0.007354861591011286,-0.0003547388769220561,-0.0033491135109215975
0.010088948532938957,0.003597811795771122,-0.009159456938505173,0.007340522482991219,-0.00038139987736940384,-0.0035561094991862774
0.010038931854069233,0.003345811041072011,-0.009439695626497269,0.007473482750356197,-0.0005172470700927079,-0.0027218922041356564
0.009945685043931007,0.0035806377418339252,-0.00926777720451355,0.007598571944981813,-0.0005913612549193203,-0.002176084090024233
0.009765701368451118,0.0038918491918593645,-0.009012024849653244,0.007220636587589979,-0.0005308867548592389,-0.0018711084267124534
0.010584181174635887,0.0034915057476609945,-0.00965479388833046,0.007178339641541243,-0.0004753263492602855,-0.0015058175195008516
0.01015754695981741,0.0035520342644304037,-0.010154004208743572,0.00745669100433588,-0.0005096639506518841,-0.0015348774613812566
0.009922998026013374,0.0036574804689735174,-0.010154969990253448,0.00795594323426485,-0.0004704341699834913,-0.002265998860821128
0.010745608247816563,0.0037226127460598946,-0.011006355285644531,0.007828094996511936,-0.00043301499681547284,-0.002966491971164942
0.010303943417966366,0.003777950070798397,-0.010173595510423183,0.007926136255264282,-0.00040086786611936986,-0.003494283417239785
0.011012837290763855,0.0036958586424589157,-0.010316221043467522,0.00814505573362112,-0.00037314658402465284,-0.00331959780305624
0.01046390924602747,0.0036288222763687372,-0.011124660260975361,0.008279876783490181,-0.0003490156668704003,-0.0030635171569883823
0.009796567261219025,0.003664255142211914,-0.01011299155652523,0.007807489484548569,-0.0003278172225691378,-0.0030032992362976074
0.010330111719667912,0.0038723330944776535,-0.010114496573805809,0.007563857827335596,-0.00035698740975931287,-0.003114346181973815
0.010315909050405025,0.004043924156576395,-0.010317756794393063,0.007806075271219015,-0.00032349536195397377,-0.002893772441893816
0.010901843197643757,0.004091113340109587,-0.010728225111961365,0.007486399263143539,-0.0003077041474170983,-0.0026483035180717707
0.011344319209456444,0.003747758222743869,-0.010691751725971699,0.00764620304107666,-0.0003296727081760764,-0.0026655823457986116
0.010278243571519852,0.0035460975486785173,-0.010107843205332756,0.007891605608165264,-0.0003199935017619282,-0.003093486186116934
0.010054490529000759,0.003645045915618539,-0.01117471419274807,0.007628515362739563,-0.00030668670660816133,-0.0032231167424470186
0.009885168634355068,0.003252311609685421,-0.011558899655938148,0.00745203485712409,-0.0002551273792050779,-0.0033895201049745083
0.01037662848830223,0.0032431669533252716,-0.010334569960832596,0.008211146108806133,-0.0002367849083384499,-0.0031415624544024467
0.011247551068663597,0.0032769576646387577,-0.010906307958066463,0.008425754494965076,-0.00026353352586738765,-0.003238879144191742
0.011321437545120716,0.0035301356110721827,-0.010158009827136993,0.007948018610477448,-0.0002563284360803664,-0.0033541852608323097
0.010509200394153595,0.0033381793182343245,-0.010237080045044422,0.007758429739624262,-0.0002804220130201429,-0.00351534690707922
0.010509200394153595,0.0033381793182343245,-0.010237080045044422,0.007758429739624262,-0.0002804220130201429,-0.00351534690707922
0.011929869651794434,0.0035879609640687704,-0.010573364794254303,0.00839303620159626,-0.00030200180481188,-0.00363537366501987
0.010447612032294273,0.0038192460779100657,-0.010437951423227787,0.008473929017782211,-0.0004807549121323973,-0.0037218278739601374
0.01088739838451147,0.003387501696124673,-0.010883246548473835,0.008373682387173176,-0.0006880356231704354,-0.0034019583836197853
0.011759075336158276,0.0030681113712489605,-0.010896330699324608,0.008336915634572506,-0.0007093248423188925,-0.0034278815146535635
0.011893147602677345,0.0030282139778137207,-0.010758478194475174,0.008599741384387016,-0.0006601223140023649,-0.0036821758840233088
0.013334335759282112,0.003302766941487789,-0.01055086962878704,0.008206053636968136,-0.0006783430580981076,-0.003928496036678553
0.01186693087220192,0.0034786988981068134,-0.010551758110523224,0.008225924335420132,-0.000624721753410995,-0.0040434133261442184
0.012415253557264805,0.0036014141514897346,-0.010712327435612679,0.007775019388645887,-0.0007042623474262655,-0.003998951520770788
0.012312818318605423,0.0037162380758672953,-0.011355392634868622,0.00792371854186058,-0.0007190693868324161,-0.00396884186193347
0.012655060738325119,0.003370523452758789,-0.010646450333297253,0.008056702092289925,-0.0006601788336411119,-0.004237080924212933
0.012555470690131187,0.0032809057738631964,-0.01094425655901432,0.008519887924194336,-0.0006809848127886653,-0.004320979584008455
0.012519397772848606,0.003355117980390787,-0.011229991912841797,0.008501841686666012,-0.0006626466056331992,-0.004051125142723322
0.013114580884575844,0.0032463776879012585,-0.010640576481819153,0.008032719604671001,-0.0006424023886211216,-0.0038449640851467848
0.0128389373421669,0.0032523812260478735,-0.011287950910627842,0.008160158060491085,-0.0005928645259700716,-0.003820846788585186
0.012923778966069221,0.0033334363251924515,-0.011074604466557503,0.009051112458109856,-0.0005809283466078341,-0.003916207235306501
0.012929612770676613,0.003358853282406926,-0.01090899109840393,0.008705219253897667,-0.0005181888118386269,-0.004120201803743839
0.013179761357605457,0.00322004035115242,-0.011189909651875496,0.0077948784455657005,-0.0005050997715443373,-0.004287912044674158
0.01339771505445242,0.0034851597156375647,-0.011217072606086731,0.008179820142686367,-0.0005186544731259346,-0.004028174094855785
0.012856153771281242,0.0038268377538770437,-0.011188285425305367,0.008351301774382591,-0.0004953529569320381,-0.0041687930934131145
0.013206693343818188,0.0034071917179971933,-0.010643682442605495,0.007898793555796146,-0.00046028566430322826,-0.004048854578286409
0.013464600779116154,0.0034609518479555845,-0.01140882819890976,0.008186166174709797,-0.00042899500112980604,-0.003988806623965502
0.013246477581560612,0.003011892316862941,-0.011108795180916786,0.008002616465091705,-0.00040163472294807434,-0.0042540836147964
0.013246477581560612,0.003011892316862941,-0.011108795180916786,0.008002616465091705,-0.00040163472294807434,-0.0042540836147964
0.013414611108601093,0.003057712921872735,-0.011211433447897434,0.008032090961933136,-0.0004038043844047934,-0.004311911296099424
0.01304437406361103,0.0030196087900549173,-0.012255596928298473,0.00792923104017973,-0.0004052750300616026,-0.004564140923321247
0.013507252559065819,0.0034366261679679155,-0.011485685594379902,0.008876045234501362,-0.00038517199573107064,-0.004522358067333698
0.01319524459540844,0.0032575277145951986,-0.011544753797352314,0.00877020601183176,-0.000353444047505036,-0.004207215737551451
0.013819423504173756,0.002990512643009424,-0.01140980701893568,0.00815062690526247,-0.0003749880997929722,-0.00438284408301115
0.013403527438640594,0.0031254622153937817,-0.011318263597786427,0.007924498990178108,-0.00040938123129308224,-0.004624176770448685
0.01342581957578659,0.0033119686413556337,-0.0113149955868721,0.008612425997853279,-0.000426185637479648,-0.004674697760492563
0.013240274973213673,0.003185969078913331,-0.01067264936864376,0.008285613730549812,-0.0004274025559425354,-0.0045905038714408875
0.013548782095313072,0.003407747484743595,-0.011345681734383106,0.008579506538808346,-0.0007343636825680733,-0.004644325468689203
0.013597706332802773,0.003197989659383893,-0.01120314933359623,0.009181221947073936,-0.0006736575742252171,-0.004297976847738028
0.013793235644698143,0.003436174476519227,-0.0111604118719697,0.008236709050834179,-0.0005885920254513621,-0.003985261544585228
0.013675814494490623,0.0032833965960890055,-0.01144383568316698,0.007826095446944237,-0.0005704566719941795,-0.004149772226810455
0.013936148956418037,0.0032378784380853176,-0.011823526583611965,0.00801561214029789,-0.0005562715814448893,-0.004670105874538422
0.013795392587780952,0.0032073305919766426,-0.011796046979725361,0.00871201790869236,-0.0005069255130365491,-0.004882874432951212
0.01378775853663683,0.003395909210667014,-0.011349678039550781,0.008473487570881844,-0.0005201832391321659,-0.004907318390905857
0.013991698622703552,0.0032999005634337664,-0.011057129129767418,0.00829846877604723,-0.0004966845735907555,-0.00509310606867075
0.013956871815025806,0.003465845715254545,-0.011603002436459064,0.009204177185893059,-0.0004614318604581058,-0.004937130492180586
0.014083042740821838,0.0036851693876087666,-0.011305020190775394,0.008804568089544773,-0.00042999055585823953,-0.0049104709178209305
0.014139109291136265,0.0034052464179694653,-0.01066290121525526,0.009109381586313248,-0.00043210916919633746,-0.004753860644996166
0.013634332455694675,0.0030634356662631035,-0.011435067281126976,0.009038127027451992,-0.0003686080453917384,-0.004926234949380159
0.013989413157105446,0.0030851371120661497,-0.012334429658949375,0.008969970047473907,-0.00036243785871192813,-0.0048500546254217625
0.013542337343096733,0.0033286900725215673,-0.011474674567580223,0.008902302011847496,-0.00036637461744248867,-0.0048990813083946705
0.014199968427419662,0.0032590448390692472,-0.011037853546440601,0.00935217086225748,-0.00039832034963183105,-0.004873647354543209
0.014061756432056427,0.0035164067521691322,-0.011389541439712048,0.00878061167895794,-0.0004247551551088691,-0.0050992476753890514
0.014495103619992733,0.0033312563318759203,-0.011737407185137272,0.008617814630270004,-0.00040924453060142696,-0.005093619227409363
0.013881020247936249,0.0029184729792177677,-0.01158924587070942,0.008523502387106419,-0.0006836527609266341,-0.005038878880441189
0.0142666045576334,0.0028701876290142536,-0.01109174732118845,0.008388171903789043,-0.0006127353990450501,-0.004947837442159653
0.01393016055226326,0.0030982247553765774,-0.011042555794119835,0.00818040780723095,-0.0005404539406299591,-0.004813740961253643
0.01393016055226326,0.0030982247553765774,-0.011042555794119835,0.00818040780723095,-0.0005404539406299591,-0.004813740961253643
0.014012150466442108,0.00302773411385715,-0.011614503338932991,0.008737767115235329,-0.0005211434909142554,-0.005392485298216343
0.014303048141300678,0.002824643161147833,-0.01205142680555582,0.00850740633904934,-0.0004765282792504877,-0.005395017098635435
0.014303048141300678,0.002824643161147833,-0.01205142680555582,0.00850740633904934,-0.0004765282792504877,-0.005395017098635435
0.013961097225546837,0.0029345096554607153,-0.011732880026102066,0.008030937053263187,-0.00043793642544187605,-0.0053557902574539185
0.014628667384386063,0.0032920336816459894,-0.01152366679161787,0.008776902221143246,-0.00045464630238711834,-0.00515752611681819
0.013934515416622162,0.003269707318395376,-0.012461456470191479,0.00906461663544178,-0.000438404968008399,-0.005384925752878189
0.014647805131971836,0.003447601106017828,-0.011432214640080929,0.0090262396261096,-0.00041081130621023476,-0.0054749008268117905
0.01440038625150919,0.003226951230317354,-0.0121314050629735,0.008868113160133362,-0.00043698278022930026,-0.0056917136535048485
0.014867482706904411,0.0029257454443722963,-0.012000980786979198,0.008736386895179749,-0.00041512769530527294,-0.005594924092292786
0.014444638974964619,0.0030617588199675083,-0.012000048533082008,0.008496536873281002,-0.000370249297702685,-0.005369933322072029
0.014942760579288006,0.003098683198913932,-0.0119907446205616,0.008874966762959957,-0.0003250817535445094,-0.005682145245373249
0.014612510800361633,0.0032940111123025417,-0.011610008776187897,0.008686189539730549,-0.000354210555087775,-0.0053193592466413975
0.015137605369091034,0.0031298634130507708,-0.012460668571293354,0.008739816956222057,-0.000380668236175552,-0.006009483709931374
0.015253642573952675,0.002982218051329255,-0.011565834283828735,0.008764236234128475,-0.00041771805263124406,-0.005715027917176485
0.0156991109251976,0.0030977693386375904,-0.011890746653079987,0.008889843709766865,-0.0008211535168811679,-0.005802940111607313
0.01515921764075756,0.0032234699465334415,-0.012132949195802212,0.009304060600697994,-0.0008862184477038682,-0.005652184598147869
0.014773005619645119,0.0032288534566760063,-0.01200680248439312,0.009434442967176437,-0.000780633941758424,-0.005764342844486237
0.014773005619645119,0.0032288534566760063,-0.01200680248439312,0.009434442967176437,-0.000780633941758424,-0.005764342844486237
0.015160459093749523,0.003209075191989541,-0.01197829656302929,0.009551998227834702,-0.0006307529984042048,-0.006053573451936245
0.015566376969218254,0.003400554647669196,-0.011725791729986668,0.009341883473098278,-0.0005733066936954856,-0.005568255204707384
0.01563291996717453,0.003094925545156002,-0.011547324247658253,0.009457583539187908,-0.0005951540661044419,-0.005044835619628429
0.015979520976543427,0.003254157258197665,-0.012251367792487144,0.009259453043341637,-0.0005538889090530574,-0.005523758474737406
0.01600300706923008,0.0035192377399653196,-0.012352856807410717,0.009273318573832512,-0.0005169708747416735,-0.006012046709656715
0.015183604322373867,0.003616203088313341,-0.012351340614259243,0.009464391507208347,-0.0004304901813156903,-0.006368093192577362
0.016119742766022682,0.0035022201482206583,-0.011643381789326668,0.009389507584273815,-0.0004579320375341922,-0.006371456664055586
0.015656108036637306,0.0032099992968142033,-0.011759727261960506,0.009961658157408237,-0.0004304006288293749,-0.005905698984861374
0.015656108036637306,0.0032099992968142033,-0.011759727261960506,0.009961658157408237,-0.0004304006288293749,-0.005905698984861374
0.016471344977617264,0.0034614689648151398,-0.012048514559864998,0.009807447902858257,-0.0004609929455909878,-0.005816581193357706
0.016220834106206894,0.0037457470316439867,-0.011910821311175823,0.009403030388057232,-0.0004333395336288959,-0.006469795014709234
0.016444919630885124,0.0038180232513695955,-0.012670716270804405,0.009834455326199532,-0.00045959881390444934,-0.006190123036503792
0.016987258568406105,0.0037787603214383125,-0.012094722129404545,0.009709946811199188,-0.00043533233110792935,-0.005973859690129757
0.01542193815112114,0.003914969973266125,-0.01231622975319624,0.009243258275091648,-0.00041071989107877016,-0.006000167690217495
0.016044383868575096,0.003496822202578187,-0.011904635466635227,0.009308095090091228,-0.0003894271212629974,-0.005985811352729797
0.016201764345169067,0.003592336317524314,-0.012009656056761742,0.009555086493492126,-0.00044847605749964714,-0.006344056222587824
0.0163470059633255,0.0036979406140744686,-0.012712311930954456,0.00929204560816288,-0.0004136531497351825,-0.006244500633329153
0.016515251249074936,0.0038149631582200527,-0.011930868029594421,0.00932313036173582,-0.00037918324233032763,-0.006007932126522064
0.01706540212035179,0.003957794513553381,-0.012788268737494946,0.009599544107913971,-0.0004100625519640744,-0.005553845316171646
0.01675979234278202,0.0035456246696412563,-0.012092073448002338,0.00961102545261383,-0.0003887508646585047,-0.00563026824966073
0.016570348292589188,0.0033781486563384533,-0.012742369435727596,0.009485872462391853,-0.00036313195596449077,-0.006093447562307119
0.016617633402347565,0.0034002719912678003,-0.012502583675086498,0.009966976940631866,-0.0003930312523152679,-0.006249101832509041
0.016527634114027023,0.003621601266786456,-0.012397310696542263,0.009714423678815365,-0.00037318383692763746,-0.00692113908007741
0.017004042863845825,0.0035472724121063948,-0.01260910090059042,0.009555550292134285,-0.00039939870475791395,-0.006127346772700548
0.016700904816389084,0.0035466509871184826,-0.012231091037392616,0.010296009480953217,-0.0003813113726209849,-0.005915544927120209
0.0169791579246521,0.0036974980030208826,-0.012950283475220203,0.01016420777887106,-0.0003623184747993946,-0.0060336412861943245
0.017022529616951942,0.003767006564885378,-0.012453678995370865,0.01038441900163889,-0.00037470864481292665,-0.006341104861348867
0.017060989513993263,0.003792399540543556,-0.012780172750353813,0.009827337227761745,-0.0003256355121266097,-0.006541319191455841
0.01682843267917633,0.003888957668095827,-0.012477313168346882,0.009897320531308651,-0.00030366797000169754,-0.00661023985594511
0.017248770222067833,0.0035418691113591194,-0.012638415209949017,0.009862689301371574,-0.0003263419202994555,-0.006387585308402777
0.017329558730125427,0.004038415849208832,-0.012717236764729023,0.009420403279364109,-0.00032006949186325073,-0.00671564182266593
0.01715525984764099,0.004143569152802229,-0.01324858795851469,0.009467428550124168,-0.0003029623767361045,-0.00643512886017561
0.01758294366300106,0.0035956094507128,-0.012655531987547874,0.009942990727722645,-0.00028691525221802294,-0.006391866598278284
0.0171250831335783,0.0035342727787792683,-0.013344364240765572,0.00982682779431343,-0.00027243755175732076,-0.0064658429473638535
0.017722303047776222,0.003980420995503664,-0.012910434976220131,0.010540870949625969,-0.0002912570780608803,-0.006942396052181721
0.0175859946757555,0.004216691013425589,-0.013751134276390076,0.010838103480637074,-0.0002879661333281547,-0.00723210908472538
0.0175859946757555,0.004216691013425589,-0.013751134276390076,0.010838103480637074,-0.0002879661333281547,-0.00723210908472538
0.016844457015395164,0.0036352542228996754,-0.013071048073470592,0.010682771913707256,-0.0002952809736598283,-0.006550503429025412
0.017578545957803726,0.003875576891005039,-0.013061802834272385,0.010343211703002453,-0.00030092132510617375,-0.006163912825286388
0.017310095950961113,0.00416046567261219,-0.01294984482228756,0.01035289466381073,-0.00028997662593610585,-0.006519794464111328
0.01748466305434704,0.003582862438634038,-0.01287152525037527,0.010011930018663406,-0.00029848390840925276,-0.006962073966860771
0.017555110156536102,0.003623164724558592,-0.01337234303355217,0.010594367980957031,-0.00028678966918960214,-0.005940556526184082
0.017113713547587395,0.0038020082283765078,-0.013063531368970871,0.01030269917100668,-0.00027005249285139143,-0.0055167460814118385
0.017699338495731354,0.003944600932300091,-0.011957311071455479,0.010458847507834435,-0.00030221708584576845,-0.005483332090079784
0.01743210107088089,0.003974154591560364,-0.013026629574596882,0.011063209734857082,-0.0002891260082833469,-0.005755058489739895
0.017728079110383987,0.003417997620999813,-0.013638244941830635,0.010473931208252907,-0.0003172426950186491,-0.006531841587275267
0.01767505332827568,0.003088947618380189,-0.012889937497675419,0.01058073341846466,-0.0003046894271392375,-0.005957519635558128
0.017549945041537285,0.003301358548924327,-0.013354910537600517,0.010994297452270985,-0.00032950539025478065,-0.00655062822625041
0.017946865409612656,0.0036508257035166025,-0.012956623919308186,0.010508940555155277,-0.00031887798104435205,-0.005752962548285723
0.017442263662815094,0.004214793909341097,-0.013824228197336197,0.01011085044592619,-0.0004697995609603822,-0.00561510631814599
0.01762581057846546,0.0040231728926301,-0.013990459963679314,0.009858476929366589,-0.00043632849701680243,-0.0063714743591845036
0.017512356862425804,0.0038947309367358685,-0.013606484979391098,0.00958185363560915,-0.0004369337693788111,-0.006726337596774101
0.017589444294571877,0.0034561462234705687,-0.013265911489725113,0.009940853342413902,-0.0004365768691059202,-0.006463168654590845
0.017961535602808,0.003338761627674103,-0.013566620647907257,0.010318616405129433,-0.00040602227090857923,-0.0068334732204675674
0.01805543340742588,0.00382270198315382,-0.01310752797871828,0.009937021881341934,-0.00041159905958920717,-0.006834486499428749
0.018375148996710777,0.0043245283886790276,-0.013501728884875774,0.009882647544145584,-0.00038658163975924253,-0.00657299067825079
0.01783103495836258,0.0040680901147425175,-0.01300205010920763,0.009560735896229744,-0.00041266315383836627,-0.006449661683291197
0.017996376380324364,0.003561048535630107,-0.013503273017704487,0.01085446123033762,-0.00039327653939835727,-0.0067815156653523445
0.017709726467728615,0.003423878690227866,-0.013369331136345863,0.010623273439705372,-0.0003730954194907099,-0.006994735915213823
0.017467696219682693,0.0035689971409738064,-0.013885574415326118,0.010636399500072002,-0.00036457375972531736,-0.006868639960885048
0.017467696219682693,0.0035689971409738064,-0.013885574415326118,0.010636399500072002,-0.00036457375972531736,-0.006868639960885048
0.01838141307234764,0.0041943322867155075,-0.013208111748099327,0.01093725860118866,-0.0003471431555226445,-0.00736419390887022
0.01800328493118286,0.004165951628237963,-0.01337619498372078,0.010280519723892212,-0.00032291741808876395,-0.006745863705873489
0.017930500209331512,0.004000105895102024,-0.013147495687007904,0.010013200342655182,-0.0003306034195702523,-0.0065371026284992695
0.018215961754322052,0.0038522547110915184,-0.014008033089339733,0.010636148042976856,-0.00033686545793898404,-0.007129790727049112
0.018120452761650085,0.0038426264654845,-0.013724494725465775,0.01041475124657154,-0.00031873706029728055,-0.007079870905727148
0.01855415292084217,0.003367287339642644,-0.013971206732094288,0.010804702527821064,-0.00032552515040151775,-0.00742702791467309
0.01871587336063385,0.0034344024024903774,-0.01368128415197134,0.010435983538627625,-0.0003310251049697399,-0.007442561909556389
0.018363162875175476,0.003672992344945669,-0.013633329421281815,0.009954112581908703,-0.0003159006591886282,-0.007342471741139889
0.018063820898532867,0.004230671562254429,-0.01356435101479292,0.010541656985878944,-0.00032189671765081584,-0.007198086939752102
0.01831963285803795,0.003640455659478903,-0.013358158990740776,0.010782727971673012,-0.00032678147545084357,-0.007360650692135096
0.017498662695288658,0.0034978326875716448,-0.013374612666666508,0.010232673026621342,-0.000314010598231107,-0.007008868735283613
0.01818273775279522,0.003562749130651355,-0.013231199234724045,0.010556244291365147,-0.0003652031591627747,-0.007272852584719658
0.01833774708211422,0.0042521352879703045,-0.013491139747202396,0.01085009053349495,-0.0004015987506136298,-0.007434781640768051
0.017925767228007317,0.004064858425408602,-0.012690377421677113,0.011234341189265251,-0.0004284278256818652,-0.007126011420041323
0.018702048808336258,0.003937148489058018,-0.013444265350699425,0.011539336293935776,-0.00041530406451784074,-0.006902666762471199
0.018681786954402924,0.0033855661749839783,-0.012989239767193794,0.010534875094890594,-0.0004424539511092007,-0.007209297269582748
0.018972009420394897,0.0034954920411109924,-0.012953170575201511,0.011196387000381947,-0.0006234661559574306,-0.007223426830023527
0.018711792305111885,0.0036994856782257557,-0.013495159335434437,0.010562875308096409,-0.0005775347235612571,-0.0071016279980540276
0.01887722685933113,0.0037040896713733673,-0.01348128542304039,0.01085774227976799,-0.0006089346716180444,-0.007204009685665369
0.01909439079463482,0.0035178938414901495,-0.013729210942983627,0.011236955411732197,-0.0005972451763227582,-0.007283864542841911
0.019215267151594162,0.003588845022022724,-0.01341077871620655,0.010328538715839386,-0.0005823679966852069,-0.0073774815537035465
0.01945742592215538,0.0037510639522224665,-0.013005376793444157,0.010965965688228607,-0.0005354748573154211,-0.007428884506225586
0.019574586302042007,0.0037704084534198046,-0.013538995757699013,0.01098672952502966,-0.0005454150377772748,-0.007941938936710358
0.019574586302042007,0.0037704084534198046,-0.013538995757699013,0.01098672952502966,-0.0005454150377772748,-0.007941938936710358
0.019329342991113663,0.0036902022548019886,-0.013319986872375011,0.010686525143682957,-0.0005219372687861323,-0.007640341762453318
0.019408803433179855,0.003646796802058816,-0.01391282957047224,0.010915706865489483,-0.00048779085045680404,-0.007719803601503372
0.019850457087159157,0.003746379166841507,-0.012879095040261745,0.010697907768189907,-0.00046242488315328956,-0.007155649829655886
0.019578667357563972,0.003479763399809599,-0.014291053637862206,0.011044926941394806,-0.00042076711542904377,-0.00714769447222352
0.019228583201766014,0.0035267756320536137,-0.013647923246026039,0.01112902257591486,-0.0004563212860375643,-0.007256964687258005
0.019780509173870087,0.004154306370764971,-0.014174732379615307,0.010927495546638966,-0.0004250486090313643,-0.00782332755625248
0.019561415538191795,0.0041709886863827705,-0.013571550138294697,0.012265718542039394,-0.0004553866165224463,-0.0074347746558487415
0.019328277558088303,0.003921618685126305,-0.014114542864263058,0.011546401306986809,-0.00048131277435459197,-0.007432341575622559
0.019610323011875153,0.0037396384868770838,-0.013476964086294174,0.011369911022484303,-0.0006045150803402066,-0.007367056328803301
0.01967446692287922,0.00344749609939754,-0.013982380740344524,0.011404392309486866,-0.000677327683661133,-0.0075813219882547855
0.01951746456325054,0.0037642691750079393,-0.013883496634662151,0.011421551927924156,-0.000705145881511271,-0.008013812825083733
0.020194068551063538,0.004158094059675932,-0.014592831954360008,0.012394146993756294,-0.0007354296976700425,-0.007751433178782463
0.019986648112535477,0.004077318124473095,-0.0137395691126585,0.012243172153830528,-0.0011720365146175027,-0.007426868658512831
0.01937643066048622,0.003977663349360228,-0.014093264937400818,0.012490758672356606,-0.001104815280996263,-0.007921586744487286
0.02034018747508526,0.003935906570404768,-0.01364857330918312,0.01192428171634674,-0.0010027894750237465,-0.007882347330451012
0.019887303933501244,0.00395351042971015,-0.0146039929240942,0.012311824597418308,-0.0007636910304427147,-0.007145943585783243
0.020189601927995682,0.0038335479330271482,-0.015076283365488052,0.011919393204152584,-0.000727714563254267,-0.008057305589318275
0.020505649968981743,0.003950770013034344,-0.014479810371994972,0.011252555064857006,-0.0006989468820393085,-0.008148466236889362
0.020396115258336067,0.003926037345081568,-0.014653944410383701,0.010847920551896095,-0.0006395551608875394,-0.0082363560795784
0.02041430026292801,0.0035571132320910692,-0.013962548226118088,0.011022965423762798,-0.0005874956259503961,-0.007823355495929718
0.02051135152578354,0.003590273903682828,-0.014905055053532124,0.011204464361071587,-0.0005431491881608963,-0.007464997936040163
0.0204976387321949,0.0040335035882890224,-0.014259666204452515,0.010912982746958733,-0.00043855051626451313,-0.008046419359743595
0.020397238433361053,0.004001782275736332,-0.014719467610120773,0.010899288579821587,-0.0003816222888417542,-0.007693013176321983
0.020821744576096535,0.003773467382416129,-0.014230282045900822,0.011048050597310066,-0.00035056902561336756,-0.007974239997565746
0.021411089226603508,0.0036723283119499683,-0.014777063392102718,0.010768328793346882,-0.0003251330927014351,-0.007761232554912567
0.021449154242873192,0.00418156897649169,-0.0143259447067976,0.011535802856087685,-0.0003032052773050964,-0.007867615669965744
0.021449154242873192,0.00418156897649169,-0.0143259447067976,0.011535802856087685,-0.0003032052773050964,-0.007867615669965744
0.02072013169527054,0.0035365973599255085,-0.01376560889184475,0.011558403261005878,-0.0003331611806061119,-0.007467146962881088
0.021289102733135223,0.0033143931068480015,-0.014664017595350742,0.011908781714737415,-0.00032011404982768,-0.0071298121474683285
0.020763644948601723,0.0033575415145605803,-0.015244191512465477,0.011884533800184727,-0.00033978719147853553,-0.007198377046734095
0.020772432908415794,0.0036305401008576155,-0.014255828224122524,0.011346555314958096,-0.00033346793497912586,-0.00809886772185564
0.02101580984890461,0.0035836875904351473,-0.014781458303332329,0.011859227903187275,-0.0003596594324335456,-0.008120430633425713
0.021537013351917267,0.0035418218467384577,-0.0142498929053545,0.012065372429788113,-0.00034521622001193464,-0.008106371387839317
0.021355237811803818,0.003639417700469494,-0.01486431248486042,0.012406332418322563,-0.00038416474126279354,-0.008292773738503456
0.02131202444434166,0.0038505415432155132,-0.014550487510859966,0.01224459707736969,-0.0003970551479142159,-0.008061426691710949
0.021582406014204025,0.003996375948190689,-0.014949299395084381,0.011573461815714836,-0.0004001870984211564,-0.00811287946999073
0.022041860967874527,0.003505990607663989,-0.014346749521791935,0.012395991012454033,-0.00042046720045618713,-0.008195944130420685
0.021986182779073715,0.0035807527601718903,-0.01477148849517107,0.011975297704339027,-0.00040769047336652875,-0.008268353529274464
0.021819667890667915,0.0037902093026787043,-0.014137730933725834,0.012349216267466545,-0.0003837888943962753,-0.008370242081582546
0.021744756028056145,0.0038319111336022615,-0.014924495480954647,0.012267032638192177,-0.00038697244599461555,-0.008424236439168453
0.021366864442825317,0.0037663294933736324,-0.014214687049388885,0.011890680529177189,-0.0003892950189765543,-0.00867175217717886
0.022932618856430054,0.0036565749906003475,-0.014387506060302258,0.011945066973567009,-0.0004602264962159097,-0.008764277212321758
0.022417111322283745,0.003558983327820897,-0.014955658465623856,0.012279135175049305,-0.0004996550269424915,-0.008877202868461609
0.0221208818256855,0.003693836508318782,-0.014304556883871555,0.012544880621135235,-0.0004995129420422018,-0.008826863951981068
0.0227177944034338,0.0033618086017668247,-0.01519081648439169,0.012279251590371132,-0.00049450877122581,-0.009389271028339863
0.02276059240102768,0.0035933994222432375,-0.01440413948148489,0.012239347212016582,-0.0005174012621864676,-0.008752522058784962
0.022666510194540024,0.003898096503689885,-0.015049608424305916,0.011753782629966736,-0.0004936829791404307,-0.008773677051067352
0.022116446867585182,0.003991029690951109,-0.014585512690246105,0.012059544213116169,-0.0006092141265980899,-0.008778255432844162
0.022723305970430374,0.003965313546359539,-0.014889780431985855,0.011960277333855629,-0.0006411285721696913,-0.008418545126914978
0.022847553715109825,0.003429580479860306,-0.014751411974430084,0.01288360171020031,-0.0005850839661434293,-0.008397171273827553
0.0228445902466774,0.003478861879557371,-0.015155484899878502,0.012100418098270893,-0.0006103501073084772,-0.008829144760966301
0.022822648286819458,0.0036653850693255663,-0.014784712344408035,0.01229641679674387,-0.000620089122094214,-0.008691499009728432
0.023049822077155113,0.003721867688000202,-0.015454058535397053,0.012356565333902836,-0.0005879429518245161,-0.00883067399263382
0.023055294528603554,0.0036080291029065847,-0.015164574608206749,0.011545110493898392,-0.0006287529249675572,-0.008907482959330082
0.023055294528603554,0.0036080291029065847,-0.015164574608206749,0.011545110493898392,-0.0006287529249675572,-0.008907482959330082
0.023106230422854424,0.004217843525111675,-0.015189281664788723,0.012260904535651207,-0.0005993976374156773,-0.008787710219621658
0.023106230422854424,0.004217843525111675,-0.015189281664788723,0.012260904535651207,-0.0005993976374156773,-0.008787710219621658
0.023264294490218163,0.003976285457611084,-0.015409729443490505,0.011530259624123573,-0.0006201473879627883,-0.00850176066160202
0.023233236744999886,0.0038253734819591045,-0.015323475934565067,0.011516507714986801,-0.0005743297515437007,-0.008724532090127468
0.023476766422390938,0.003861713223159313,-0.014988239854574203,0.011447008699178696,-0.0005918557289987803,-0.008977895602583885
0.023701729252934456,0.003856509691104293,-0.015636637806892395,0.012399947270751,-0.0005550754140131176,-0.009806846268475056
0.02380661852657795,0.003830778179690242,-0.015203353948891163,0.012408999726176262,-0.0005820356891490519,-0.009205819107592106
0.02383921854197979,0.003877216950058937,-0.015633001923561096,0.0128379100933671,-0.0006161367055028677,-0.009534761309623718
0.023874063044786453,0.003998545929789543,-0.015244620852172375,0.012620831839740276,-0.0006334958598017693,-0.009254097007215023
0.023685196414589882,0.0040930756367743015,-0.01574568636715412,0.01257774606347084,-0.0005955735105089843,-0.009362631477415562
0.02407812513411045,0.004059195052832365,-0.01504345890134573,0.012539148330688477,-0.0006177640170790255,-0.009256771765649319
0.024295039474964142,0.0040623764507472515,-0.015768390148878098,0.012315144762396812,-0.0007219180115498602,-0.009359822608530521
0.02366659604012966,0.004000389948487282,-0.015459622256457806,0.012777871452271938,-0.0007817939040251076,-0.009353628382086754
0.024266384541988373,0.003846022067591548,-0.015595728531479836,0.012491580098867416,-0.0007993759354576468,-0.008937018923461437
0.02468224987387657,0.003774760290980339,-0.015612325631082058,0.012774930335581303,-0.0007718889974057674,-0.009081646800041199
0.02451624721288681,0.003839900018647313,-0.015825951471924782,0.013212147168815136,-0.0007379847229458392,-0.00972762517631054
0.02466568909585476,0.003968504257500172,-0.016215017065405846,0.01266867108643055,-0.0007396402070298791,-0.010477878153324127
0.024169906973838806,0.004050107207149267,-0.015828892588615417,0.012969952076673508,-0.0006970996037125587,-0.010004966519773006
0.025270720943808556,0.003940453752875328,-0.014950058422982693,0.013175598345696926,-0.000634531956166029,-0.009515656158328056
0.02498120628297329,0.00441562058404088,-0.01608656719326973,0.0124339135363698,-0.0005735410377383232,-0.00944699440151453
0.024449065327644348,0.004176205489784479,-0.015909258276224136,0.012987026013433933,-0.0005932145868428051,-0.010003158822655678
0.025066427886486053,0.003523929277434945,-0.016437966376543045,0.01256547961384058,-0.0005513878422789276,-0.01029649842530489
0.02552267163991928,0.003567189211025834,-0.015736564993858337,0.012937016785144806,-0.0005607910570688546,-0.009268343448638916
0.02551066130399704,0.0037302651908248663,-0.015815896913409233,0.013303862884640694,-0.0005355927860364318,-0.0096303541213274
0.025363605469465256,0.0038491510786116123,-0.01638920046389103,0.013404004275798798,-0.0004994979244656861,-0.010372105054557323
0.024551358073949814,0.00391122093424201,-0.016404496505856514,0.012939996086061,-0.0004671425267588347,-0.010082954540848732
0.024609621614217758,0.0039296080358326435,-0.016948707401752472,0.013785216957330704,-0.00043990928679704666,-0.009630526416003704
0.02553568407893181,0.003866837825626135,-0.01611104980111122,0.013864248991012573,-0.00037733715726062655,-0.009828522801399231
0.02553568407893181,0.003866837825626135,-0.01611104980111122,0.013864248991012573,-0.00037733715726062655,-0.009828522801399231
0.025702424347400665,0.003765953006222844,-0.016907358542084694,0.01343423780053854,-0.0003465611662250012,-0.010561277158558369
0.02541562356054783,0.0037532446440309286,-0.01657179743051529,0.013361801393330097,-0.0003882684977725148,-0.010143568739295006
0.02541562356054783,0.0037532446440309286,-0.01657179743051529,0.013361801393330097,-0.0003882684977725148,-0.010143568739295006
0.025259999558329582,0.0037737719248980284,-0.016739482060074806,0.01355762965977192,-0.00039186811773106456,-0.010074585676193237
0.025849753990769386,0.003768897382542491,-0.01680825650691986,0.012823088094592094,-0.00039641049806959927,-0.010493469424545765
0.025853265076875687,0.0038531299214810133,-0.017337080091238022,0.013356836512684822,-0.0003983828646596521,-0.010469944216310978
0.025822939351201057,0.004484087228775024,-0.017506027594208717,0.01303553581237793,-0.0004692385846283287,-0.010335004888474941
0.025710130110383034,0.004206957761198282,-0.01701936684548855,0.01352730579674244,-0.0005031137843616307,-0.010661094449460506
0.025840740650892258,0.0038428071420639753,-0.017030909657478333,0.013370620086789131,-0.0005363799864426255,-0.010477907955646515
0.02591290883719921,0.003653142601251602,-0.017026612535119057,0.01353478990495205,-0.0005587951163761318,-0.010691753588616848
0.026196956634521484,0.0039633819833397865,-0.017552100121974945,0.013194028288125992,-0.0005311651038937271,-0.010346505790948868
0.026333576068282127,0.0042147524654865265,-0.016877630725502968,0.013280613347887993,-0.0005562056321650743,-0.010579565539956093
0.026257997378706932,0.0040827542543411255,-0.017082978039979935,0.013510677963495255,-0.0005208055954426527,-0.010223714634776115
0.026041656732559204,0.0039203413762152195,-0.017066210508346558,0.01345206517726183,-0.0006249116268008947,-0.01040707342326641
0.02663378044962883,0.004258992150425911,-0.01701071858406067,0.013932931236922741,-0.0006123835919424891,-0.010285804979503155
0.026217490434646606,0.003747605951502919,-0.016540322452783585,0.014353752136230469,-0.0006029934156686068,-0.009392022155225277
0.026949090883135796,0.0035584091674536467,-0.017560504376888275,0.013992879539728165,-0.000568876916076988,-0.009447906166315079
0.02654987946152687,0.0035728805232793093,-0.018468059599399567,0.01438212115317583,-0.0005873793852515519,-0.010683325119316578
0.0265186820179224,0.0037112433928996325,-0.017419636249542236,0.013865683227777481,-0.0005512342322617769,-0.010331578552722931
0.02710331231355667,0.004231560975313187,-0.01724390871822834,0.014580429531633854,-0.0005585935432463884,-0.010407389141619205
0.02686423808336258,0.004110102076083422,-0.01709761470556259,0.014468560926616192,-0.0005126609466969967,-0.010437355376780033
0.02640928141772747,0.003926422912627459,-0.01809506118297577,0.014525986276566982,-0.0005405534175224602,-0.01049331296235323
0.027133053168654442,0.004278906621038914,-0.017643388360738754,0.013573002070188522,-0.0005011731991544366,-0.010886621661484241
0.02732134982943535,0.004155326168984175,-0.01700427569448948,0.014065856114029884,-0.0005303033394739032,-0.010808455757796764
0.02732134982943535,0.004155326168984175,-0.01700427569448948,0.014065856114029884,-0.0005303033394739032,-0.010808455757796764
0.0271464716643095,0.003561124438419938,-0.01772189885377884,0.01383453980088234,-0.000493425119202584,-0.010800441727042198
0.025919312611222267,0.0035923542454838753,-0.017658771947026253,0.014610007405281067,-0.000514318177010864,-0.01074410043656826
0.02764403074979782,0.004294381942600012,-0.01765223778784275,0.014164541848003864,-0.0005413924809545279,-0.010718454606831074
0.028102798387408257,0.004169338848441839,-0.017750490456819534,0.014594090171158314,-0.0005824892432428896,-0.010949668474495411
0.02806268259882927,0.0040285540744662285,-0.017348799854516983,0.014078940264880657,-0.0005702729104086757,-0.011047478765249252
0.027772827073931694,0.004354760050773621,-0.018195176497101784,0.014492851682007313,-0.0005819507641717792,-0.011009846813976765
0.027088887989521027,0.004205268807709217,-0.018296752125024796,0.013884284533560276,-0.0005507527384907007,-0.011203940957784653
0.02695113606750965,0.0035514268092811108,-0.017436275258660316,0.01434636116027832,-0.0005608476931229234,-0.011176466010510921
0.02820933237671852,0.0036053999792784452,-0.017912359908223152,0.014193867333233356,-0.0005356845213100314,-0.011199385859072208
0.02800934948027134,0.0038331930991262197,-0.01734471134841442,0.014878454618155956,-0.0005903089186176658,-0.01086917519569397
0.02741360478103161,0.0039857299998402596,-0.0179904755204916,0.014614532701671124,-0.000631492177490145,-0.010528859682381153
0.02853415533900261,0.00346513488329947,-0.018456105142831802,0.0146220363676548,-0.0006611954886466265,-0.010815384797751904
0.02830451726913452,0.003638074267655611,-0.01775093749165535,0.014140275306999683,-0.0006963320192880929,-0.011073089204728603
0.02773290127515793,0.004392443690448999,-0.01846536248922348,0.014300128445029259,-0.0009259134531021118,-0.011286787688732147
0.02771126478910446,0.00413025775924325,-0.017974287271499634,0.013960043899714947,-0.00099316390696913,-0.011265609413385391
0.027699962258338928,0.0037495451979339123,-0.018563542515039444,0.013861157931387424,-0.0008658278384245932,-0.011269470676779747
0.028365246951580048,0.0033672559075057507,-0.01860818825662136,0.014110013842582703,-0.000762040785048157,-0.011818913742899895
0.027979576960206032,0.003574325004592538,-0.018408464267849922,0.013629593886435032,-0.0006797369569540024,-0.011710013262927532
0.02758859656751156,0.004067063331604004,-0.01827375963330269,0.01456940546631813,-0.0006947448709979653,-0.011760388500988483
0.028331078588962555,0.004204529337584972,-0.017487861216068268,0.014674401842057705,-0.0006383899599313736,-0.011608997359871864
0.028085965663194656,0.004027174785733223,-0.018117614090442657,0.015189758501946926,-0.0005412436439655721,-0.011552676558494568
0.028103351593017578,0.003913418389856815,-0.018726559355854988,0.014435919001698494,-0.00047921965597197413,-0.012202436104416847
0.02807047963142395,0.003425086382776499,-0.0186461228877306,0.014745655469596386,-0.0004960917285643518,-0.012185799889266491
0.028106722980737686,0.003510010428726673,-0.019224293529987335,0.014460013248026371,-0.0004721820878330618,-0.012171962298452854
0.027709128335118294,0.003659255104139447,-0.019484952092170715,0.015468209981918335,-0.0004353590775281191,-0.011986088007688522
0.02807619981467724,0.0036974672693759203,-0.018014896661043167,0.015240704640746117,-0.00046534687862731516,-0.01250792108476162
0.027757002040743828,0.0036272758152335882,-0.018515566363930702,0.014910358935594559,-0.0004674570227507502,-0.012405707500874996
0.027757002040743828,0.0036272758152335882,-0.018515566363930702,0.014910358935594559,-0.0004674570227507502,-0.012405707500874996
0.02815401926636696,0.0036286183167248964,-0.01814640872180462,0.01395897101610899,-0.0004653244686778635,-0.011582736857235432
0.02847767435014248,0.003940275404602289,-0.01895003952085972,0.013300163671374321,-0.0004568762378767133,-0.011778287589550018
0.02847767435014248,0.003940275404602289,-0.01895003952085972,0.013300163671374321,-0.0004568762378767133,-0.011778287589550018
0.029120799154043198,0.0039013742934912443,-0.0183334331959486,0.01420073676854372,-0.00046254147309809923,-0.012072588317096233
0.0286723580211401,0.003481327323243022,-0.018860409036278725,0.01460364181548357,-0.00046045376802794635,-0.012552150525152683
0.02831556461751461,0.003340266179293394,-0.018877679482102394,0.015456173568964005,-0.00042651439434848726,-0.011929844506084919
0.02877024933695793,0.0034196230117231607,-0.017962712794542313,0.015782169997692108,-0.0004566809511743486,-0.012166423723101616
0.02848609909415245,0.003565582912415266,-0.019387707114219666,0.016037387773394585,-0.00042953394586220384,-0.011936045251786709
0.029555702582001686,0.003464695066213608,-0.020095497369766235,0.01608823426067829,-0.0004023477958980948,-0.012142396531999111
0.02954760007560253,0.003534286981448531,-0.01921209879219532,0.01593346893787384,-0.00042847596341744065,-0.012148601934313774
0.02969636768102646,0.003922067582607269,-0.0189550518989563,0.016464656218886375,-0.00040749527397565544,-0.012252002954483032
0.02813481166958809,0.003941978327929974,-0.01961612142622471,0.016083478927612305,-0.0004255227104295045,-0.012181603349745274
0.029276147484779358,0.003559525590389967,-0.018866995349526405,0.0157781895250082,-0.0004235057858750224,-0.012277374975383282
0.029999369755387306,0.003459787927567959,-0.019075315445661545,0.014976311475038528,-0.00044642455759458244,-0.012739870697259903
0.029408471658825874,0.0032067361753433943,-0.01973809115588665,0.015463829971849918,-0.00042879011016339064,-0.012635543942451477
0.02973063662648201,0.003520931350067258,-0.01998404785990715,0.015358749777078629,-0.00043050452950410545,-0.012945117428898811
0.031059449538588524,0.0037229747977107763,-0.01976541429758072,0.015994444489479065,-0.0004306008049752563,-0.012854288332164288
0.02977006696164608,0.0037053765263408422,-0.01940411888062954,0.015828991308808327,-0.0005201546591706574,-0.012460451573133469
0.02979130856692791,0.003705754177644849,-0.01943899504840374,0.015776319429278374,-0.0005408371216617525,-0.012436666525900364
0.031217804178595543,0.003710127202793956,-0.019957469776272774,0.015534638427197933,-0.0005588713102042675,-0.013042183592915535
0.031455252319574356,0.0037521407939493656,-0.019639568403363228,0.01592639833688736,-0.0005265510990284383,-0.0127670643851161
0.030992792919278145,0.003750680712983012,-0.019639380276203156,0.015598642639815807,-0.0005501401028595865,-0.012956279329955578
0.030942322686314583,0.0037477444857358932,-0.01987576298415661,0.01587430015206337,-0.0005146550247445703,-0.012684425339102745
0.031147990375757217,0.003736643586307764,-0.019608300179243088,0.015119807794690132,-0.0005395809421315789,-0.013274982571601868
0.0310499370098114,0.004079787526279688,-0.01943625882267952,0.015666749328374863,-0.0005657938309013844,-0.013667416758835316
0.02969522774219513,0.003734934376552701,-0.019887225702404976,0.015489108860492706,-0.0006357718375511467,-0.012930690310895443
0.0310724675655365,0.003575692418962717,-0.02009609341621399,0.01592355966567993,-0.0006669508293271065,-0.012901213951408863
0.03167152404785156,0.0036632916890084743,-0.0195674616843462,0.015679290518164635,-0.0006679833750240505,-0.012997672893106937
0.031660210341215134,0.004038408398628235,-0.020156385377049446,0.01610909029841423,-0.0006482676253654063,-0.013577376492321491
0.03209634870290756,0.004200942348688841,-0.020510997623205185,0.01624641939997673,-0.0005971185746602714,-0.013326892629265785
0.03200431913137436,0.003627185244113207,-0.019532034173607826,0.01623946614563465,-0.000551512697711587,-0.013452669605612755
0.03200431913137436,0.003627185244113207,-0.019532034173607826,0.01623946614563465,-0.000551512697711587,-0.013452669605612755
0.03216513618826866,0.0035351915284991264,-0.019640306010842323,0.016457688063383102,-0.0005919715040363371,-0.013236576691269875
0.03256867825984955,0.00378232984803617,-0.02046673372387886,0.01620873622596264,-0.000548123789485544,-0.013214229606091976
0.0325331911444664,0.004045454319566488,-0.020293250679969788,0.01665201596915722,-0.0005810600123368204,-0.012943842448294163
0.0320604108273983,0.004050157032907009,-0.02011721208691597,0.016613030806183815,-0.0006061065942049026,-0.01313302107155323
0.032613884657621384,0.0040261344984173775,-0.020160913467407227,0.016777101904153824,-0.0006015127873979509,-0.013299097307026386
0.03211919218301773,0.004411138594150543,-0.0198209211230278,0.016769271343946457,-0.0005882904515601695,-0.013397209346294403
0.032770559191703796,0.004227919969707727,-0.019606897607445717,0.016466397792100906,-0.0006483629695139825,-0.01333222258836031
0.032880883663892746,0.00408147880807519,-0.020132990553975105,0.016769541427493095,-0.0006562736816704273,-0.013417099602520466
0.03333384543657303,0.004015324171632528,-0.020227406173944473,0.01617053523659706,-0.0006325970171019435,-0.013615391217172146
0.03337996080517769,0.003919176757335663,-0.01950252242386341,0.016539160162210464,-0.0006509312079288065,-0.013891401700675488
0.0335519015789032,0.0038474369794130325,-0.02019353397190571,0.01630963385105133,-0.0006001511355862021,-0.013782707042992115
0.03353975713253021,0.004299497697502375,-0.01978575438261032,0.01637265458703041,-0.0006161158089525998,-0.013928505592048168
0.03401242569088936,0.00438317283987999,-0.01971220038831234,0.016311034560203552,-0.0005959895206615329,-0.013951248489320278
0.03498352691531181,0.00417676754295826,-0.020089972764253616,0.01653878018260002,-0.0006286890711635351,-0.0134455356746912
0.035020265728235245,0.0040319375693798065,-0.019590063020586967,0.01624034158885479,-0.0006638919585384429,-0.013624235987663269
0.031631626188755035,0.004009888041764498,-0.019853556528687477,0.0170734915882349,-0.000687043706420809,-0.01444978080689907
0.0340287908911705,0.003966760355979204,-0.020395129919052124,0.017555678263306618,-0.0009179640328511596,-0.014575233682990074
0.03522607311606407,0.0038719873409718275,-0.020192064344882965,0.017517058178782463,-0.0009492958779446781,-0.014552501030266285
0.03477814048528671,0.0037782168947160244,-0.019478127360343933,0.017760779708623886,-0.0009345298749394715,-0.01423841342329979
0.03554456681013107,0.004282873589545488,-0.020408209413290024,0.01711840182542801,-0.0008844852563925087,-0.014257661998271942
0.03504641726613045,0.004106724634766579,-0.020395340397953987,0.017132766544818878,-0.0008331906283274293,-0.014208073727786541
0.03416194021701813,0.004147911909967661,-0.01950412429869175,0.017077220603823662,-0.0007868745597079396,-0.01473971176892519
0.033974241465330124,0.004091331735253334,-0.02048570103943348,0.017099078744649887,-0.0007765521877445281,-0.014824154786765575
0.03547777980566025,0.004378787241876125,-0.020664967596530914,0.01783950813114643,-0.0007053209701552987,-0.014726568944752216
0.035316284745931625,0.0044676014222204685,-0.02018868178129196,0.017013367265462875,-0.0007220245315693319,-0.01456279307603836
0.03515308350324631,0.004260812886059284,-0.019558658823370934,0.017016161233186722,-0.0007217107340693474,-0.01484683621674776
0.03529683127999306,0.003994292113929987,-0.0210604015737772,0.01670294627547264,-0.0006753465859219432,-0.014895191416144371
0.03508394584059715,0.004391432274132967,-0.021150659769773483,0.01633891463279724,-0.0006651310832239687,-0.014717371203005314
0.0353374183177948,0.004227443598210812,-0.020950449630618095,0.016486214473843575,-0.0006887449417263269,-0.01464074943214655
0.03535370156168938,0.004221085458993912,-0.021219458431005478,0.01676616072654724,-0.0006233843159861863,-0.014729147776961327
0.03535370156168938,0.004221085458993912,-0.021219458431005478,0.01676616072654724,-0.0006233843159861863,-0.014729147776961327
0.03492468222975731,0.0042091901414096355,-0.021402262151241302,0.017744367942214012,-0.0006460936274379492,-0.01477683987468481
0.03524995222687721,0.004372824914753437,-0.02065710350871086,0.01769964024424553,-0.0005911153275519609,-0.014993976801633835
0.03569406270980835,0.004453849047422409,-0.020424969494342804,0.017414040863513947,-0.0006124274805188179,-0.015020552091300488
0.0351056344807148,0.004337112884968519,-0.02070322073996067,0.017410926520824432,-0.0006364601431414485,-0.014958799816668034
0.03525190055370331,0.004090331494808197,-0.021343190222978592,0.017213284969329834,-0.0006656402838416398,-0.014716426841914654
0.03566494956612587,0.004421491641551256,-0.021053118631243706,0.018503177911043167,-0.0006922859465703368,-0.015111301094293594
0.03529609367251396,0.00424713222309947,-0.02066073752939701,0.01858212798833847,-0.0006905935588292778,-0.015089405700564384
0.037179525941610336,0.004126479849219322,-0.021653300151228905,0.018286287784576416,-0.0009098147857002914,-0.014741177670657635
0.037179525941610336,0.004126479849219322,-0.021653300151228905,0.018286287784576416,-0.0009098147857002914,-0.014741177670657635
0.0354071669280529,0.004056955687701702,-0.020994039252400398,0.017626142129302025,-0.0008563452283851802,-0.015366807579994202
0.03637811914086342,0.0038924103137105703,-0.02097516506910324,0.017427539452910423,-0.0008397828205488622,-0.014962991699576378
0.03621914982795715,0.0043899440206587315,-0.020786797627806664,0.017485802993178368,-0.0008405596017837524,-0.015185964293777943
0.03679598122835159,0.004471438471227884,-0.020542114973068237,0.01844051294028759,-0.0008798288181424141,-0.014980686828494072
0.036902375519275665,0.0043335892260074615,-0.021091239526867867,0.018200736492872238,-0.0008848573779687285,-0.015349917113780975
0.03631044551730156,0.004363729152828455,-0.021936150267720222,0.01787913218140602,-0.0008869924931786954,-0.015568012371659279
0.035639870911836624,0.003956103231757879,-0.021702053025364876,0.018035326153039932,-0.0009356660884805024,-0.015810227021574974
0.0364716537296772,0.003798414021730423,-0.020920630544424057,0.017919177189469337,-0.000957659853156656,-0.015505931340157986
0.03637521341443062,0.004343121778219938,-0.021130595356225967,0.018277300521731377,-0.000880442326888442,-0.016722500324249268
0.03655659407377243,0.004546145908534527,-0.021306507289409637,0.018308907747268677,-0.0008532399078831077,-0.015094121918082237
0.03655460104346275,0.004681415390223265,-0.021467633545398712,0.017951877787709236,-0.0007761759916320443,-0.014905305579304695
0.03653476759791374,0.004481637384742498,-0.021068423986434937,0.01818118244409561,-0.000740053306799382,-0.015506862662732601
0.03653476759791374,0.004481637384742498,-0.021068423986434937,0.01818118244409561,-0.000740053306799382,-0.015506862662732601
0.03686987981200218,0.004403266124427319,-0.021481603384017944,0.01838390901684761,-0.0007097561028786004,-0.01616351492702961
0.036653783172369,0.004147868137806654,-0.021536555141210556,0.018137861043214798,-0.0006298897787928581,-0.01649707928299904
0.03684341162443161,0.00440263282507658,-0.021272173151373863,0.018462369218468666,-0.0006556285079568624,-0.016352999955415726
0.03691190853714943,0.004185815341770649,-0.02137604169547558,0.01838892698287964,-0.0006818656111136079,-0.016411524266004562
0.037354931235313416,0.004489932209253311,-0.02170693129301071,0.018188923597335815,-0.0007081900257617235,-0.016245119273662567
0.036249227821826935,0.004595769569277763,-0.021966533735394478,0.018178584054112434,-0.001097984379157424,-0.016101323068141937
0.038054559379816055,0.004464522935450077,-0.02128801867365837,0.01799377053976059,-0.0011074618669226766,-0.015601536259055138
0.037912238389253616,0.0042220051400363445,-0.021665148437023163,0.01824883744120598,-0.001078639179468155,-0.016145456582307816
0.037406109273433685,0.004350841511040926,-0.02176705375313759,0.01804444193840027,-0.0010395653080195189,-0.016343185678124428
0.037985093891620636,0.004649382550269365,-0.022076338529586792,0.01767619699239731,-0.001004645018838346,-0.01659279316663742
0.038791630417108536,0.004622953478246927,-0.022228052839636803,0.01808580756187439,-0.000986479572020471,-0.016697322949767113
0.03831575810909271,0.00438907602801919,-0.02198805660009384,0.018139280378818512,-0.0009739475790411234,-0.01650107093155384
0.03887352719902992,0.004434291739016771,-0.022184869274497032,0.018470263108611107,-0.0009128291858360171,-0.016665000468492508
0.03851044550538063,0.004724604077637196,-0.021860569715499878,0.018438981845974922,-0.0008659852901473641,-0.01634821482002735
0.03824910148978233,0.004681224934756756,-0.021878940984606743,0.01834905333817005,-0.0008682901971042156,-0.016568919643759727
0.03895939141511917,0.004207725170999765,-0.022074779495596886,0.018386047333478928,-0.0008723852224647999,-0.016775308176875114
0.03855226933956146,0.004263569135218859,-0.022558217868208885,0.017869912087917328,-0.0007865371881052852,-0.01731884479522705
0.039391037076711655,0.004234835505485535,-0.021819323301315308,0.018407456576824188,-0.0007379720918834209,-0.01695498451590538
0.04021748527884483,0.00426185829564929,-0.021517138928174973,0.018535302951931953,-0.0006616369355469942,-0.016935225576162338
0.03934601694345474,0.004443139303475618,-0.022355064749717712,0.017990604043006897,-0.0006776772206649184,-0.016805630177259445
0.03818070888519287,0.004498609807342291,-0.023260654881596565,0.01825331151485443,-0.0007020639022812247,-0.016348067671060562
0.03957793116569519,0.004571246448904276,-0.023280665278434753,0.01847120374441147,-0.0007222650456242263,-0.016810890287160873
0.03971882537007332,0.004231712780892849,-0.022856455296278,0.019243378192186356,-0.0007608670275658369,-0.016733400523662567
0.04098273813724518,0.004306985065340996,-0.0229952409863472,0.020222285762429237,-0.0007983296527527273,-0.01751253567636013
0.04098273813724518,0.004306985065340996,-0.0229952409863472,0.020222285762429237,-0.0007983296527527273,-0.01751253567636013
0.03942137956619263,0.00519631989300251,-0.023953909054398537,0.019050877541303635,-0.0007676256936974823,-0.016788722947239876
0.038914162665605545,0.004694181494414806,-0.02379932999610901,0.018698059022426605,-0.0007751763914711773,-0.017111657187342644
0.038914162665605545,0.004694181494414806,-0.02379932999610901,0.018698059022426605,-0.0007751763914711773,-0.017111657187342644
0.040668923407793045,0.004509398248046637,-0.023287037387490273,0.018294459208846092,-0.0008153524249792099,-0.016560856252908707
0.039527423679828644,0.004549078643321991,-0.02319307066500187,0.019186196848750114,-0.0008289709803648293,-0.01687134988605976
0.04087755084037781,0.004580403678119183,-0.02368721179664135,0.019731784239411354,-0.0007481763605028391,-0.017487280070781708
0.04092615470290184,0.0048316349275410175,-0.023917844519019127,0.01930970512330532,-0.0007531570736318827,-0.017456218600273132
0.03972533717751503,0.004627416376024485,-0.02395910583436489,0.018779978156089783,-0.0007311376975849271,-0.01650935783982277
0.04087160900235176,0.004899296909570694,-0.02405444160103798,0.01956246793270111,-0.0007027368410490453,-0.01662926748394966
0.04029259458184242,0.004860085900872946,-0.02418348379433155,0.01982361637055874,-0.0007508287089876831,-0.017106883227825165
0.040656790137290955,0.0047551607713103294,-0.024141181260347366,0.020242463797330856,-0.0007758890278637409,-0.017488427460193634
0.04109829664230347,0.004281708505004644,-0.023824824020266533,0.020169168710708618,-0.0008175285183824599,-0.017611881718039513
0.04084319993853569,0.004348612856119871,-0.024093283340334892,0.01961386390030384,-0.0009600655757822096,-0.01760157197713852
0.04053710773587227,0.004743155092000961,-0.024300692602992058,0.019252469763159752,-0.001109663280658424,-0.017399873584508896
0.04207874834537506,0.0048178196884691715,-0.024517597630620003,0.019829627126455307,-0.0010835765860974789,-0.017528505995869637
0.04115938022732735,0.0047629764303565025,-0.024882500991225243,0.019663242623209953,-0.001005480531603098,-0.017114391550421715
0.039381712675094604,0.004483130294829607,-0.024229425936937332,0.019345061853528023,-0.0009325208375230432,-0.017131347209215164
0.04106577858328819,0.0038998681120574474,-0.024179667234420776,0.01945643126964569,-0.0008508082246407866,-0.017224952578544617
0.04197513312101364,0.003652882995083928,-0.024458574131131172,0.01931990310549736,-0.0008371355943381786,-0.0176997072994709
0.042216707020998,0.003862478071823716,-0.02490200661122799,0.01919604279100895,-0.0008579503046348691,-0.017112094908952713
0.03964725509285927,0.003989869728684425,-0.024599621072411537,0.019414054229855537,-0.001091256272047758,-0.01717216894030571
0.04114945977926254,0.004375741817057133,-0.02503150701522827,0.01904892548918724,-0.0011837485944852233,-0.0176022257655859
0.04206616431474686,0.004479054361581802,-0.02477581612765789,0.019040115177631378,-0.0013298926642164588,-0.01749323680996895
0.04075655713677406,0.00429525226354599,-0.024327069520950317,0.018923074007034302,-0.0014141278807073832,-0.01760575734078884
0.04168453812599182,0.003988475538790226,-0.024441152811050415,0.01855754479765892,-0.001153759309090674,-0.017323514446616173
0.04159985110163689,0.004375188611447811,-0.024694345891475677,0.019000370055437088,-0.001098094740882516,-0.017280621454119682
0.041357945650815964,0.00436756294220686,-0.024875087663531303,0.01924280636012554,-0.0009429242345504463,-0.017335960641503334
0.04149405285716057,0.004248174838721752,-0.02466825395822525,0.018940605223178864,-0.0009208125993609428,-0.017582938075065613
