davideferrari95/blind_handover_controller/data/Test 224 - [2024-02-08 -- 12-16-36]/joint_states_data.csv
shoulder_pan_joint,shoulder_lift_joint,elbow_joint,wrist_1_joint,wrist_2_joint,wrist_3_joint
0.005928286351263523,-0.020714079961180687,-0.008585941977798939,0.01919693313539028,-0.007027163170278072,0.005679999478161335
0.005928286351263523,-0.020714079961180687,-0.008585941977798939,0.01919693313539028,-0.007027163170278072,0.005679999478161335
0.005928286351263523,-0.020714079961180687,-0.008585941977798939,0.01919693313539028,-0.007027163170278072,0.005679999478161335
0.0061793252825737,-0.02103843353688717,-0.007596549578011036,0.02041320502758026,-0.0075968909077346325,0.005705160554498434
0.0061793252825737,-0.02103843353688717,-0.007596549578011036,0.02041320502758026,-0.0075968909077346325,0.005705160554498434
0.00608451571315527,-0.021236639469861984,-0.007633631583303213,0.01983264833688736,-0.0071446518413722515,0.005942010786384344
0.006291594821959734,-0.020786087960004807,-0.00863929744809866,0.019825579598546028,-0.007198258303105831,0.0058316695503890514
0.005708961747586727,-0.020072458311915398,-0.008520623669028282,0.01952492631971836,-0.007974177598953247,0.005987381096929312
0.005760468542575836,-0.02043910138309002,-0.008017733693122864,0.019529620185494423,-0.007555438205599785,0.005283561069518328
0.005490706767886877,-0.020837154239416122,-0.00874844565987587,0.020574213936924934,-0.0068274266086518764,0.004828961566090584
0.005858988035470247,-0.02128615975379944,-0.0090787373483181,0.02132706344127655,-0.007087689824402332,0.00538622634485364
0.005848713219165802,-0.02116408944129944,-0.007986478507518768,0.021120673045516014,-0.0069007426500320435,0.005509788636118174
0.005713688209652901,-0.020947379991412163,-0.007955821231007576,0.020521055907011032,-0.006460227072238922,0.00587823148816824
0.005381076131016016,-0.020915977656841278,-0.008642943575978279,0.021600723266601562,-0.006573804654181004,0.005386990029364824
0.005433725658804178,-0.021801887080073357,-0.008682065643370152,0.02274226024746895,-0.006003622896969318,0.0052610887214541435
0.005321992561221123,-0.02034689113497734,-0.008589247241616249,0.022833526134490967,-0.005696636158972979,0.0050705852918326855
0.005304250866174698,-0.020682690665125847,-0.009789281524717808,0.021850062534213066,-0.005972190760076046,0.005172494798898697
0.0050111617892980576,-0.021262377500534058,-0.00895962119102478,0.021628573536872864,-0.00545791769400239,0.005025832913815975
0.005217310041189194,-0.020941337570548058,-0.008421165868639946,0.022086411714553833,-0.005332395434379578,0.00539039634168148
0.005041731987148523,-0.020964495837688446,-0.008831579238176346,0.022075921297073364,-0.005590956192463636,0.0052255792543292046
0.0051786694675683975,-0.02156676910817623,-0.009077351540327072,0.022130822762846947,-0.0061108144000172615,0.005147668533027172
0.005580063909292221,-0.02103552035987377,-0.009413285180926323,0.021855423226952553,-0.006067905109375715,0.005040965508669615
0.00506239291280508,-0.02087310701608658,-0.008948687463998795,0.022017957642674446,-0.0061589255928993225,0.005190417170524597
0.004593918099999428,-0.02084692008793354,-0.009510857053101063,0.02181670442223549,-0.00571046257391572,0.004864026326686144
0.004981602542102337,-0.020924817770719528,-0.009345700033009052,0.022019974887371063,-0.005617772229015827,0.0044129048474133015
0.0049749878235161304,-0.0205195602029562,-0.009458441287279129,0.02162259630858898,-0.005523659288883209,0.004339037463068962
0.0047574713826179504,-0.0202983058989048,-0.009211279451847076,0.02187217026948929,-0.005258476827293634,0.004483373835682869
0.004852610174566507,-0.020470360293984413,-0.008575985208153725,0.022186873480677605,-0.004968545865267515,0.004669192247092724
0.00471160002052784,-0.02052396535873413,-0.0075158956460654736,0.02189643867313862,-0.005174919962882996,0.00433857087045908
0.00471160002052784,-0.02052396535873413,-0.0075158956460654736,0.02189643867313862,-0.005174919962882996,0.00433857087045908
0.004845737013965845,-0.020868679508566856,-0.007626603823155165,0.021544696763157845,-0.004956671968102455,0.003980601672083139
0.0046966481022536755,-0.020870817825198174,-0.008190109394490719,0.021620500832796097,-0.004932277370244265,0.003903002943843603
0.0045930854976177216,-0.020431503653526306,-0.00788453035056591,0.022051244974136353,-0.004786290694028139,0.004264990799129009
0.004747838247567415,-0.020640622824430466,-0.008198954164981842,0.02178913913667202,-0.004824827425181866,0.004854528233408928
0.00495110871270299,-0.02067522704601288,-0.007812866941094398,0.022312432527542114,-0.004953598137944937,0.004889868199825287
0.004396273288875818,-0.020885346457362175,-0.00795517023652792,0.0230849701911211,-0.005178030114620924,0.0044450475834310055
0.004383392166346312,-0.020467862486839294,-0.007811166811734438,0.02328301966190338,-0.004892573691904545,0.004298489075154066
0.004439185373485088,-0.020592719316482544,-0.008775407448410988,0.02351965382695198,-0.004690955858677626,0.0036448894534260035
0.004552892409265041,-0.021309569478034973,-0.007674540393054485,0.02310931868851185,-0.004862169735133648,0.004017605911940336
0.0046499320305883884,-0.020899631083011627,-0.007305952720344067,0.02293834649026394,-0.0050407894887030125,0.004526069387793541
0.0043471697717905045,-0.020129550248384476,-0.008023165166378021,0.02360670454800129,-0.005117586348205805,0.004976652562618256
0.004445510916411877,-0.020424742251634598,-0.007940291427075863,0.024054985493421555,-0.004937885329127312,0.004535220097750425
0.004503245931118727,-0.020442580804228783,-0.007719122339040041,0.023511428385972977,-0.004607704468071461,0.004331653472036123
0.004576290957629681,-0.020270738750696182,-0.007507999427616596,0.023134242743253708,-0.004239766392856836,0.0038547792937606573
0.004618973936885595,-0.02023165300488472,-0.0076545546762645245,0.023153139278292656,-0.004272089805454016,0.003467108588665724
0.004488541278988123,-0.020289605483412743,-0.008009048178792,0.02370254322886467,-0.0046119787730276585,0.003571298671886325
0.004145590588450432,-0.019829532131552696,-0.007468316238373518,0.02336694858968258,-0.004700036253780127,0.004055957775563002
0.004646627232432365,-0.0196557454764843,-0.007225151173770428,0.023521386086940765,-0.004264917224645615,0.004116559401154518
0.0042973230592906475,-0.0201108455657959,-0.007836961187422276,0.023431003093719482,-0.004323387052863836,0.0038596559315919876
0.004406866151839495,-0.019421333447098732,-0.00901921559125185,0.02317214012145996,-0.004167946055531502,0.0036950190551579
0.004332424607127905,-0.019621940329670906,-0.008028415031731129,0.02370927669107914,-0.003538683522492647,0.0036150659434497356
0.00407826853916049,-0.02024431712925434,-0.007746924180537462,0.023943739011883736,-0.0035289369989186525,0.0035336061846464872
0.004170733503997326,-0.01926295831799507,-0.0076378402300179005,0.024975668638944626,-0.0037884251214563847,0.0032804077491164207
0.0039759548380970955,-0.019828293472528458,-0.0073118144646286964,0.024765321984887123,-0.0033660538028925657,0.002820882946252823
0.004122283309698105,-0.019496291875839233,-0.007538298610597849,0.023683656007051468,-0.00337009085342288,0.0034970021806657314
0.00382854207418859,-0.01887858659029007,-0.008414965122938156,0.022672690451145172,-0.0031471464317291975,0.004282940179109573
0.003083989256992936,-0.019607003778219223,-0.008256404660642147,0.023530809208750725,-0.003370051272213459,0.004156587645411491
0.0024216650053858757,-0.01936647854745388,-0.007886766456067562,0.023948853835463524,-0.0035803630016744137,0.003875469323247671
0.002082118997350335,-0.01930067501962185,-0.0076942951418459415,0.024490011855959892,-0.0036635661963373423,0.003596621099859476
0.00256274058483541,-0.019228259101510048,-0.008067254908382893,0.023823298513889313,-0.003365907585248351,0.0034142255317419767
0.00256274058483541,-0.019228259101510048,-0.008067254908382893,0.023823298513889313,-0.003365907585248351,0.0034142255317419767
0.0030950813088566065,-0.019123496487736702,-0.00873652659356594,0.0246117003262043,-0.0032609370537102222,0.0033823440317064524
0.0026658980641514063,-0.01981857791543007,-0.008800512179732323,0.02494359202682972,-0.003169185481965542,0.003588011022657156
0.0026658980641514063,-0.01981857791543007,-0.008800512179732323,0.02494359202682972,-0.003169185481965542,0.003588011022657156
0.0024649633560329676,-0.01984839141368866,-0.008366539143025875,0.024795884266495705,-0.003546882886439562,0.0034093260765075684
0.002209617057815194,-0.019158082082867622,-0.00760626420378685,0.023675069212913513,-0.0034432546235620975,0.0032319214660674334
0.0024140519089996815,-0.01930978335440159,-0.008091188035905361,0.023771239444613457,-0.003306125057861209,0.003142435336485505
0.0023650997318327427,-0.01883632503449917,-0.008607788011431694,0.024062039330601692,-0.0032122584525495768,0.003082938026636839
0.0025842557661235332,-0.018592074513435364,-0.007883913815021515,0.02508999966084957,-0.0031246966682374477,0.0034547990653663874
0.0027508025523275137,-0.018919605761766434,-0.007811822462826967,0.023867808282375336,-0.003061209572479129,0.0033107378985732794
0.002570317592471838,-0.020447896793484688,-0.008214155212044716,0.02402968518435955,-0.002800598042085767,0.0031573818996548653
0.0025532376021146774,-0.01878509670495987,-0.00826469250023365,0.02410411275923252,-0.0025602702517062426,0.002927088411524892
0.002536421874538064,-0.018870819360017776,-0.007693312596529722,0.024196086451411247,-0.002433599904179573,0.0027948529459536076
0.0024156919680535793,-0.01928718574345112,-0.007457918021827936,0.02386118657886982,-0.002333402866497636,0.0030789582524448633
0.002657391596585512,-0.018646324053406715,-0.00817599706351757,0.024129929021000862,-0.0024596652947366238,0.003305603750050068
0.0031446199864149094,-0.018634723499417305,-0.008239994756877422,0.023883899673819542,-0.002214813372120261,0.003230619477108121
0.002744220895692706,-0.01868191733956337,-0.008055704645812511,0.024040929973125458,-0.0021254296880215406,0.0030567150097340345
0.0027902177534997463,-0.018434597179293633,-0.007561094593256712,0.024275952950119972,-0.002081600483506918,0.0028720947448164225
0.0027885669842362404,-0.01897416263818741,-0.008068831637501717,0.0240300465375185,-0.0022467179223895073,0.002774673281237483
0.0026636214461177588,-0.018282175064086914,-0.008186743594706059,0.023340240120887756,-0.0026327352970838547,0.002601171378046274
0.0028643168043345213,-0.01831541582942009,-0.00768692372366786,0.023600157350301743,-0.002273815916851163,0.002753393491730094
0.0031395223923027515,-0.01800442487001419,-0.009316103532910347,0.023552319034934044,-0.0020248957443982363,0.002632949035614729
0.003102993592619896,-0.018658839166164398,-0.007882763631641865,0.023528873920440674,-0.001954249804839492,0.0027128790970891714
0.0026904279366135597,-0.01872416026890278,-0.007298873271793127,0.023123713210225105,-0.0017590080387890339,0.002557463012635708
0.002760845934972167,-0.01819528266787529,-0.007654906716197729,0.023213405162096024,-0.0016579079674556851,0.002457522554323077
0.003080317284911871,-0.018178042024374008,-0.007621946278959513,0.023691780865192413,-0.0016846017679199576,0.002417865442112088
0.00308617134578526,-0.018208885565400124,-0.007382088806480169,0.023960549384355545,-0.0017708438681438565,0.0021640765480697155
0.003028753912076354,-0.01788719743490219,-0.00814451277256012,0.024012655019760132,-0.0017376155592501163,0.002051530871540308
0.003028753912076354,-0.01788719743490219,-0.00814451277256012,0.024012655019760132,-0.0017376155592501163,0.002051530871540308
0.0030907336622476578,-0.017789877951145172,-0.008010449819266796,0.02386525645852089,-0.0014218189753592014,0.0020484901033341885
0.0030907336622476578,-0.017789877951145172,-0.008010449819266796,0.02386525645852089,-0.0014218189753592014,0.0020484901033341885
0.0033017974346876144,-0.01764148846268654,-0.0075803822837769985,0.024093935266137123,-0.0013359658187255263,0.002367040840908885
0.0035678513813763857,-0.017967266961932182,-0.00735431956127286,0.02441553957760334,-0.0013285285094752908,0.0024446402676403522
0.0033523873426020145,-0.017583472654223442,-0.007723185233771801,0.02430340275168419,-0.0012812544591724873,0.002611943054944277
0.003609833074733615,-0.017873000353574753,-0.007258514408022165,0.02429850772023201,-0.0013048785040155053,0.0023443750105798244
0.0033581664320081472,-0.017923882231116295,-0.007151257712393999,0.0248270221054554,-0.0013032715069130063,0.0021789618767797947
0.003556380281224847,-0.0178298968821764,-0.007386432029306889,0.024712344631552696,-0.00142082036472857,0.0018049869686365128
0.0037017888389527798,-0.018603069707751274,-0.007807297166436911,0.024193961173295975,-0.0013999082148075104,0.001750409952364862
0.003344247816130519,-0.017224906012415886,-0.007769799325615168,0.023020697757601738,-0.001479729893617332,0.0017314900178462267
0.003166950074955821,-0.017468824982643127,-0.007270503789186478,0.022690171375870705,-0.0015778171364217997,0.001966045703738928
0.0033687285613268614,-0.017898496240377426,-0.007000078447163105,0.022673040628433228,-0.0015215768944472075,0.0024937884882092476
0.003521349746733904,-0.0172696765512228,-0.007783365901559591,0.023003440350294113,-0.0014477454824373126,0.002316833706572652
0.003590209875255823,-0.01780688390135765,-0.0075711277313530445,0.022442959249019623,-0.0013465456431731582,0.0022341718431562185
0.0038147433660924435,-0.01725296676158905,-0.0072260284796357155,0.02258414961397648,-0.00125628593377769,0.0019013244891539216
0.003821814665570855,-0.01740468107163906,-0.007431660778820515,0.02346278354525566,-0.0011498978128656745,0.0015877431724220514
0.0035613495856523514,-0.01742328144609928,-0.008301815949380398,0.02417079545557499,-0.0010573015315458179,0.0011890308232977986
0.003650101600214839,-0.017371900379657745,-0.007459262851625681,0.022139396518468857,-0.0007904827944003046,0.0010428433306515217
0.0037266460712999105,-0.016969269141554832,-0.006870302837342024,0.02206789143383503,-0.0007863695500418544,0.0010481372009962797
0.00394700700417161,-0.017823336645960808,-0.00807148590683937,0.022450342774391174,-0.0007982937968336046,0.0012995731085538864
0.00388027704320848,-0.0179448164999485,-0.00775703601539135,0.023292135447263718,-0.0008696088334545493,0.0013429770478978753
0.003664839081466198,-0.01692396029829979,-0.0075454916805028915,0.023335730656981468,-0.0009532258263789117,0.0018754684133455157
0.003506621578708291,-0.017294051125645638,-0.007828762754797935,0.022910786792635918,-0.0008476668153889477,0.0017800567438825965
0.003918023314327002,-0.016579527407884598,-0.007983202114701271,0.023029418662190437,-0.0007349073421210051,0.0016653486527502537
0.004113525617867708,-0.016674919053912163,-0.007653884589672089,0.023045742884278297,-0.0006468470091931522,0.0013742248993366957
0.004317423794418573,-0.01632680930197239,-0.006784816738218069,0.022938048467040062,-0.0006667561247013509,0.001269334345124662
0.004097373690456152,-0.01653851568698883,-0.007086203899234533,0.02260947972536087,-0.0006081446190364659,0.0011951696360483766
0.0035424893721938133,-0.016953617334365845,-0.007834223099052906,0.022803939878940582,-0.0005548972403630614,0.0009678015485405922
0.0035424893721938133,-0.016953617334365845,-0.007834223099052906,0.022803939878940582,-0.0005548972403630614,0.0009678015485405922
0.0041422792710363865,-0.016499463468790054,-0.007923192344605923,0.023261919617652893,-0.0005099605768918991,0.0009215317550115287
0.004130592569708824,-0.016916023567318916,-0.007563462946563959,0.023488176986575127,-0.0004717456176877022,0.0010220326948910952
0.00445188395678997,-0.01632767729461193,-0.0077838837169110775,0.023507142439484596,-0.0004388579400256276,0.001352593651972711
0.004625826608389616,-0.01643998548388481,-0.007918234914541245,0.02284989506006241,-0.00041026141843758523,0.0014036135980859399
0.004228377249091864,-0.016669247299432755,-0.007486793212592602,0.02268647588789463,-0.0003851668443530798,0.0013527397532016039
0.003997262101620436,-0.016392959281802177,-0.00728819752112031,0.022802093997597694,-0.00036296507460065186,0.001283107092604041
0.0038957088254392147,-0.01677003875374794,-0.008082631975412369,0.022592006251215935,-0.0003431846562307328,0.0011711183469742537
0.0041528185829520226,-0.016318252310156822,-0.008054816164076328,0.022419627755880356,-0.00032545055728405714,0.0009988874662667513
0.004531908314675093,-0.01647207699716091,-0.0074715265072882175,0.022213103249669075,-0.0003094585263170302,0.0009651471627876163
0.004265796393156052,-0.01653217524290085,-0.00731526967138052,0.022127732634544373,-0.00029496551724150777,0.0008508270839229226
0.0045130024664103985,-0.016566628590226173,-0.00741515401750803,0.02238025702536106,-0.0002817705681081861,0.0008495823130942881
0.004085842985659838,-0.0164836086332798,-0.007999998517334461,0.02203229069709778,-0.00026970438193529844,0.0007292286609299481
0.004359256476163864,-0.01621994376182556,-0.007533731870353222,0.02150210551917553,-0.0002586298214737326,0.0006909461808390915
0.004445254802703857,-0.016600001603364944,-0.007629276718944311,0.021499760448932648,-0.0002484296855982393,0.0006851700018160045
0.0042912401258945465,-0.016397804021835327,-0.007634313777089119,0.021776430308818817,-0.00023900311498437077,0.0007058831979520619
0.0043856240808963776,-0.016418401151895523,-0.007678538095206022,0.02198030613362789,-0.00023026585404295474,0.0008603924652561545
0.004586892668157816,-0.0162541251629591,-0.007999035529792309,0.021673187613487244,-0.00022214573982637376,0.000994442612864077
0.004679971374571323,-0.016486061736941338,-0.007639281917363405,0.021209249272942543,-0.00021457836555782706,0.0009876162512227893
0.004229262471199036,-0.016446031630039215,-0.008200026117265224,0.021708177402615547,-0.00020089192548766732,0.0008798252092674375
0.0043386491015553474,-0.016779018566012383,-0.007860741578042507,0.021375514566898346,-0.0001946835545822978,0.0007899979245848954
0.004538448061794043,-0.016483288258314133,-0.007871151901781559,0.02156664803624153,-0.00018884702876675874,0.0007121883681975305
0.004669493064284325,-0.016501858830451965,-0.008198637515306473,0.02186877839267254,-0.00018335085769649595,0.0006401637801900506
0.004542361479252577,-0.016189903020858765,-0.007661668583750725,0.021799247711896896,-0.0001781649625627324,0.0005623220349662006
0.004807132761925459,-0.01619770936667919,-0.0074287415482103825,0.021988490596413612,-0.0001732647797325626,0.0004998776712454855
0.0049606915563344955,-0.016179827973246574,-0.00819481909275055,0.02217835932970047,-0.00016862699703779072,0.0004498350608628243
0.004838298540562391,-0.016102194786071777,-0.008554252795875072,0.02175404317677021,-0.0001642306597204879,0.00044837413588538766
0.004527105484157801,-0.016579758375883102,-0.007894312962889671,0.021082328632473946,-0.00016005791258066893,0.0004470096027944237
0.004606134723871946,-0.016197891905903816,-0.007624699268490076,0.020176542922854424,-0.00015609200636390597,0.00046578393084928393
0.004766623489558697,-0.016225293278694153,-0.007653295993804932,0.020407719537615776,-0.0001523183163953945,0.00044854014413431287
0.004766623489558697,-0.016225293278694153,-0.007653295993804932,0.020407719537615776,-0.0001523183163953945,0.00044854014413431287
0.004929731599986553,-0.01569017395377159,-0.008082217536866665,0.02041030116379261,-0.00014872218889649957,0.000475457840366289
0.004822696093469858,-0.01619561016559601,-0.007640092633664608,0.020153813064098358,-0.00014529196778312325,0.0004494687309488654
0.004937062971293926,-0.01594187691807747,-0.007645882200449705,0.0197303406894207,-0.0001420169573975727,0.0004232771461829543
0.00483462680131197,-0.01588064804673195,-0.007805512752383947,0.02007918991148472,-0.00013888599642086774,0.00039380116504617035
0.004536239895969629,-0.016090992838144302,-0.00821391586214304,0.020049242302775383,-0.0001358900626655668,0.0003583033394534141
0.004983935505151749,-0.01588752306997776,-0.007881841622292995,0.02070329710841179,-0.00013302071602083743,0.00033160613384097815
0.005365138407796621,-0.016259726136922836,-0.007641310803592205,0.021214550361037254,-0.00013027022941969335,0.00030881466227583587
0.0045439451932907104,-0.015962909907102585,-0.008299107663333416,0.02084125578403473,-0.00012763848644681275,0.00028897245647385716
0.003585045225918293,-0.016437141224741936,-0.008076893165707588,0.01947586052119732,-4.4679945858661085e-05,0.00027152642724104226
0.0036612674593925476,-0.015855472534894943,-0.007623227313160896,0.0195145346224308,-3.8494803447974846e-05,0.0002560681605245918
0.003950343932956457,-0.01611054129898548,-0.007362994831055403,0.02038665860891342,-3.7354206142481416e-05,0.00024227637914009392
0.003920733463019133,-0.015976259484887123,-0.008107256144285202,0.020774831995368004,-3.6572968383552507e-05,0.00022989523131400347
0.0043479809537529945,-0.015771185979247093,-0.008622861467301846,0.0208500474691391,-3.584314981708303e-05,0.0002187178033636883
0.004114600829780102,-0.015834178775548935,-0.007861433550715446,0.02112376131117344,-3.5143290006089956e-05,0.00020857734489254653
0.003939522430300713,-0.015892989933490753,-0.007997782900929451,0.02059078775346279,-2.168167156924028e-05,0.0001993352925637737
0.003963753115385771,-0.015591132454574108,-0.008187315426766872,0.020134804770350456,-1.6618307199678384e-05,0.00018310996529180557
0.003896729089319706,-0.016022618860006332,-0.007641877047717571,0.0201560128480196,-1.6299980416079052e-05,0.00017594912787899375
0.0038896752521395683,-0.01580977998673916,-0.00827881135046482,0.019808346405625343,-1.064272169060132e-06,0.00016932736616581678
0.004327147733420134,-0.015870466828346252,-0.007948013953864574,0.019620494917035103,-6.948936004391726e-08,0.00016318619600497186
0.004046584013849497,-0.015586593188345432,-0.007793022319674492,0.01984575390815735,-4.537159092876664e-09,0.00015747491852380335
0.004342187196016312,-0.015829062089323997,-0.00762667041271925,0.01974082738161087,-2.9624408481865316e-10,0.00015214967424981296
0.0041261822916567326,-0.015388869680464268,-0.007932302542030811,0.01979880779981613,-1.9342621254692105e-11,0.0001471728755859658
0.004041140433400869,-0.01553127821534872,-0.007488990668207407,0.020118024200201035,-1.2629350690240848e-12,0.0001425116934115067
0.004288068972527981,-0.0159187912940979,-0.008047765120863914,0.02006104402244091,-8.246062930790735e-14,0.00013813696568831801
0.0043343668803572655,-0.015688257291913033,-0.007880507968366146,0.019287340342998505,-5.3840895432896545e-15,0.00013402223703451455
0.0037257971707731485,-0.01600588858127594,-0.00827755592763424,0.01967741549015045,0.0009631997672840953,0.00013014579599257559
0.003569595981389284,-0.015406256541609764,-0.007615960668772459,0.0199448149651289,0.0012640180066227913,0.0001264874154003337
0.003569595981389284,-0.015406256541609764,-0.007615960668772459,0.0199448149651289,0.0012640180066227913,0.0001264874154003337
0.0048993537202477455,-0.01588570885360241,-0.007440573535859585,0.019418515264987946,0.0011417254572734237,0.00010479766933713108
0.004779728129506111,-0.01563628762960434,-0.008067896589636803,0.019331542775034904,0.0009720628149807453,9.622013749321923e-05
0.004279759246855974,-0.01535769458860159,-0.008261236362159252,0.019339367747306824,0.0008421630482189357,9.334743663202971e-05
0.003985662944614887,-0.01513745542615652,-0.007326524239033461,0.018784310668706894,0.0008337220060639083,9.09640293684788e-05
0.004373141564428806,-0.015449491329491138,-0.007063291035592556,0.0190319512039423,0.0007581186946481466,8.872053876984864e-05
0.004128327593207359,-0.015417151153087616,-0.007136999163776636,0.018770724534988403,0.0007156688370741904,8.658655133331195e-05
0.004238417372107506,-0.015594611875712872,-0.00767036247998476,0.01842554472386837,0.0007363014155998826,8.455276838503778e-05
0.004543570801615715,-0.015665315091609955,-0.007398535497486591,0.018611738458275795,0.000753495201934129,6.333943019853905e-05
0.004676240496337414,-0.01521995011717081,-0.007219200022518635,0.018103115260601044,0.0007705244934186339,6.065942579880357e-05
0.004826580174267292,-0.017236286774277687,-0.007038618437945843,0.0178865697234869,0.0012991937110200524,-3.796047531068325e-05
0.0045230453833937645,-0.014529877342283726,-0.007661386393010616,0.01843675971031189,0.0012605221709236503,-5.024575148127042e-05
0.004479605704545975,-0.015514780767261982,-0.007357637397944927,0.018149886280298233,0.0012252823216840625,-7.295341492863372e-05
0.004938286729156971,-0.015948109328746796,-0.006867156829684973,0.01811014488339424,0.0013184713898226619,-9.05151100596413e-05
0.004929425660520792,-0.016186926513910294,-0.007219285238534212,0.018345938995480537,0.001424279878847301,-9.394610242452472e-05
0.004749252460896969,-0.01511305384337902,-0.007665557321161032,0.018145758658647537,0.0017138785915449262,-0.00011337342584738508
0.0048563419841229916,-0.01488617155700922,-0.0071039884351193905,0.018781393766403198,0.0018988278461620212,-0.0007069584680721164
0.005008300766348839,-0.015432542189955711,-0.00711665116250515,0.018331285566091537,0.001992845209315419,-0.0007127316202968359
0.0046943011693656445,-0.015045328065752983,-0.00744772469624877,0.017943911254405975,0.0020265127532184124,-0.0006621420034207404
0.004843743052333593,-0.01514660008251667,-0.007177871186286211,0.016916777938604355,0.001986901508644223,-0.0006005480536259711
0.0049393195658922195,-0.015352241694927216,-0.007132004946470261,0.016983892768621445,0.0019941183272749186,-0.0006210491992533207
0.004783364944159985,-0.01490760687738657,-0.007424286101013422,0.01719316653907299,0.0019600847736001015,-0.0005785880493931472
0.004663268104195595,-0.0151860686019063,-0.007392132189124823,0.01741492561995983,0.0021783949341624975,-0.0005909186438657343
0.005041937809437513,-0.015053617767989635,-0.007193382829427719,0.018203916028141975,0.0024612797424197197,-0.0006757141090929508
0.004915833007544279,-0.015069673769176006,-0.0071219452656805515,0.01757717691361904,0.002509371843189001,-0.0007025683298707008
0.004762343131005764,-0.014946367591619492,-0.007066819351166487,0.017049437388777733,0.0025224564597010612,-0.0011212800163775682
0.005012160632759333,-0.015215237624943256,-0.007875786162912846,0.017518185079097748,0.002199952956289053,-0.0012335124192759395
0.005275885574519634,-0.014627384953200817,-0.007608215324580669,0.017511527985334396,0.0021654684096574783,-0.0012072321260347962
0.005059198476374149,-0.015106582082808018,-0.007099558599293232,0.018347280099987984,0.002183912554755807,-0.0014209897490218282
0.005059198476374149,-0.015106582082808018,-0.007099558599293232,0.018347280099987984,0.002183912554755807,-0.0014209897490218282
0.004943834152072668,-0.014654578641057014,-0.007265032734721899,0.018004698678851128,0.0024535597767680883,-0.0012447364861145616
0.004782410804182291,-0.01509651355445385,-0.007418861612677574,0.01731765642762184,0.0027327437419444323,-0.0011749576078727841
0.004764375276863575,-0.01472493726760149,-0.0070655131712555885,0.017852939665317535,0.0026868039276450872,-0.0011305911466479301
0.005311559420078993,-0.01499700266867876,-0.007068044040352106,0.01656033657491207,0.0025960986968129873,-0.0010557320201769471
0.00562046654522419,-0.01467868871986866,-0.007057041395455599,0.017537221312522888,0.0027810547035187483,-0.0011620394652709365
0.004956018645316362,-0.015214587561786175,-0.007271085865795612,0.016125734895467758,0.0026390196289867163,-0.0016170949675142765
0.004719085991382599,-0.014298212714493275,-0.007363282144069672,0.0168471522629261,0.00249867863021791,-0.001831797999329865
0.004912191070616245,-0.01473502442240715,-0.006921688094735146,0.017562221735715866,0.002396410098299384,-0.002069092122837901
0.004871878772974014,-0.014493023045361042,-0.007415718864649534,0.01679394766688347,0.0024018054828047752,-0.001968926750123501
0.005212821532040834,-0.015027261339128017,-0.007797676604241133,0.017243515700101852,0.0022873347625136375,-0.001724890898913145
0.0050180042162537575,-0.014158466830849648,-0.006714717950671911,0.01684388518333435,0.0024342124816030264,-0.0017123074503615499
0.005105744581669569,-0.014192170463502407,-0.006605786737054586,0.016955560073256493,0.0026684424374252558,-0.0016970884753391147
0.004984284285455942,-0.01404297910630703,-0.007060755044221878,0.01712850108742714,0.002645295113325119,-0.0017865519039332867
0.004875834099948406,-0.014558452181518078,-0.007867932319641113,0.016710514202713966,0.0026946556754410267,-0.0018566716462373734
0.005696186795830727,-0.014927072450518608,-0.006543848197907209,0.016474256291985512,0.002471854444593191,-0.002309374511241913
0.005236892960965633,-0.013886144384741783,-0.007159093860536814,0.016543442383408546,0.0023318459279835224,-0.0021956751588732004
0.005263058934360743,-0.014357221312820911,-0.007612934336066246,0.016181763261556625,0.002140517346560955,-0.0020313088316470385
0.005044015124440193,-0.013864743523299694,-0.007277997210621834,0.01580875553190708,0.0022039141040295362,-0.001971763325855136
0.00520201725885272,-0.014096241444349289,-0.006653520278632641,0.01584167778491974,0.0025189509615302086,-0.0019478399772197008
0.0055346922017633915,-0.013607589527964592,-0.006301898043602705,0.015708765015006065,0.0026746976654976606,-0.0019509118283167481
0.005699647590517998,-0.014203563332557678,-0.006850720848888159,0.016026431694626808,0.0028792524244636297,-0.002503298921510577
0.005477424245327711,-0.014104388654232025,-0.007403999101370573,0.015439113602042198,0.0031084297224879265,-0.0028751161880791187
0.005513795651495457,-0.014193074777722359,-0.007089599501341581,0.015562666580080986,0.0030205403454601765,-0.002901580883190036
0.006052643526345491,-0.013359819538891315,-0.006572690326720476,0.014988396316766739,0.002915332792326808,-0.0027445650193840265
0.006052643526345491,-0.013359819538891315,-0.006572690326720476,0.014988396316766739,0.002915332792326808,-0.0027445650193840265
0.0057206046767532825,-0.013932603411376476,-0.006913056597113609,0.015435433946549892,0.0026778820902109146,-0.002582361688837409
0.00604592589661479,-0.012943774461746216,-0.007686506491154432,0.01470353826880455,0.0027106015477329493,-0.002540613990277052
0.006316471844911575,-0.01289805956184864,-0.007090873084962368,0.014993954449892044,0.0028152181766927242,-0.002440303796902299
0.005871810484677553,-0.012922145426273346,-0.006633985787630081,0.01520715095102787,0.0027590191457420588,-0.0028828601352870464
0.005787555128335953,-0.012902012094855309,-0.007249017246067524,0.01531306840479374,0.0027377712540328503,-0.003073771484196186
0.0057051824405789375,-0.013563300482928753,-0.0076627363450825214,0.014932340011000633,0.0027427743189036846,-0.0034380347933620214
0.006222674157470465,-0.013201654888689518,-0.007495386991649866,0.014842589385807514,0.0027312401216477156,-0.003224266692996025
0.006281831301748753,-0.013027319684624672,-0.006530165672302246,0.014923538081347942,0.00259414897300303,-0.003316255286335945
0.005589950829744339,-0.0124793890863657,-0.006507206708192825,0.014745616354048252,0.0028782549779862165,-0.0030716683249920607
0.005784389562904835,-0.012801473960280418,-0.007053891662508249,0.01455710083246231,0.0030473186634480953,-0.0033472534269094467
0.005782056134194136,-0.012343188747763634,-0.007198432460427284,0.014376423321664333,0.003031466156244278,-0.0034419202711433172
0.006308527197688818,-0.012577573768794537,-0.006891155149787664,0.014495703391730785,0.002909545786678791,-0.003477388061583042
0.005876157432794571,-0.012839026749134064,-0.006496766582131386,0.014681763015687466,0.0030346368439495564,-0.003217217978090048
0.005870060063898563,-0.011694325134158134,-0.006746411323547363,0.01483332272619009,0.003301085904240608,-0.003082939190790057
0.005647227168083191,-0.012230873107910156,-0.006869870703667402,0.014536532573401928,0.0031874149572104216,-0.003353792242705822
0.005885510239750147,-0.01234121061861515,-0.006834184750914574,0.014185628853738308,0.003059016540646553,-0.003568936139345169
0.006612482015043497,-0.011582570150494576,-0.007131434977054596,0.01413353718817234,0.00296698696911335,-0.0033450000919401646
0.006101034581661224,-0.01145440898835659,-0.007632515858858824,0.01395202986896038,0.0029353948775678873,-0.0034380489960312843
0.006325139664113522,-0.011908585205674171,-0.006821651477366686,0.013727320358157158,0.002934720367193222,-0.004161926452070475
0.006661352701485157,-0.011059660464525223,-0.0065782563760876656,0.0138278529047966,0.002760426141321659,-0.00459972582757473
0.006581655703485012,-0.011745903640985489,-0.0066162156872451305,0.013705910183489323,0.002737027360126376,-0.004699499346315861
0.006359979510307312,-0.011635899543762207,-0.007002753205597401,0.01383433397859335,0.0027917465195059776,-0.004432118032127619
0.006708346772938967,-0.01139109581708908,-0.007257814519107342,0.01375421043485403,0.003089286619797349,-0.004395724274218082
0.0066899387165904045,-0.01112458948045969,-0.006831253878772259,0.013718129135668278,0.003015161259099841,-0.004508868791162968
0.006479810457676649,-0.010676238685846329,-0.006321640219539404,0.012803899124264717,0.003027668921276927,-0.004671498667448759
0.006349336821585894,-0.011048413813114166,-0.006657553371042013,0.013082039542496204,0.003312943037599325,-0.004688659682869911
0.006349336821585894,-0.011048413813114166,-0.006657553371042013,0.013082039542496204,0.003312943037599325,-0.004688659682869911
0.006624612957239151,-0.01107337698340416,-0.006867440417408943,0.012439978308975697,0.003217334160581231,-0.0042537422850728035
0.006624612957239151,-0.01107337698340416,-0.006867440417408943,0.012439978308975697,0.003217334160581231,-0.0042537422850728035
0.00621702941134572,-0.011270512826740742,-0.006603588350117207,0.0126841114833951,0.0032331577967852354,-0.003789891954511404
0.006472639739513397,-0.010788043029606342,-0.006351423915475607,0.012737550772726536,0.003038519760593772,-0.004027665127068758
0.006921570282429457,-0.010517670772969723,-0.006869841367006302,0.013023190200328827,0.0031848358921706676,-0.004595392849296331
0.007060227449983358,-0.011384718120098114,-0.006728349719196558,0.01242461521178484,0.003063701093196869,-0.004742429591715336
0.006454340182244778,-0.010913037694990635,-0.006629480980336666,0.012816004455089569,0.0029553575441241264,-0.004450834821909666
0.006541196722537279,-0.011130998842418194,-0.006605927366763353,0.012611818499863148,0.002813300583511591,-0.004246579948812723
0.00678110821172595,-0.011063824407756329,-0.007707749959081411,0.01348819863051176,0.0027748115826398134,-0.004009335767477751
0.006641034036874771,-0.010492284782230854,-0.006953971926122904,0.012726271525025368,0.0029088412411510944,-0.004307798109948635
0.006397371180355549,-0.011518089100718498,-0.006569894962012768,0.012828362174332142,0.003197988960891962,-0.004152616020292044
0.0065744295716285706,-0.010823188349604607,-0.0066421800293028355,0.012289688922464848,0.0033541375305503607,-0.0043498375453054905
0.006595073267817497,-0.010467800311744213,-0.0069732666015625,0.01187090389430523,0.0033412540797144175,-0.004362939391285181
0.006737810559570789,-0.01088386494666338,-0.006887957453727722,0.012380349449813366,0.0029911058954894543,-0.004132901318371296
0.006355078425258398,-0.010796112939715385,-0.006688574329018593,0.0118569852784276,0.0030339218210428953,-0.004498621448874474
0.006705231033265591,-0.010636316612362862,-0.0071103437803685665,0.011831465177237988,0.0029770575929433107,-0.004701515659689903
0.006735782604664564,-0.010589499026536942,-0.0071094161830842495,0.01167628075927496,0.003077132860198617,-0.004854741506278515
0.007152568083256483,-0.011132804676890373,-0.006704564671963453,0.011942572891712189,0.0031651966273784637,-0.0049487934447824955
0.006961988750845194,-0.010770506225526333,-0.006966032553464174,0.012605716474354267,0.00337787508033216,-0.005096926353871822
0.006563147529959679,-0.010298660025000572,-0.006845069583505392,0.011103982105851173,0.0033914376981556416,-0.00484227342531085
0.00696664210408926,-0.010595493949949741,-0.007221113424748182,0.010197147727012634,0.0035511290188878775,-0.0048877522349357605
0.006699207238852978,-0.010751199908554554,-0.007281709928065538,0.010978762060403824,0.0033177698496729136,-0.004981514066457748
0.006661343853920698,-0.011258247308433056,-0.007421459071338177,0.011529441922903061,0.003378653898835182,-0.005175768863409758
0.006576814688742161,-0.011533555574715137,-0.006560367997735739,0.010896613821387291,0.0028872345574200153,-0.005192246753722429
0.006576814688742161,-0.011533555574715137,-0.006560367997735739,0.010896613821387291,0.0028872345574200153,-0.005192246753722429
0.006708914879709482,-0.01037533301860094,-0.006901120766997337,0.010930061340332031,0.0028444586787372828,-0.005620517302304506
0.006723730359226465,-0.01042659766972065,-0.0072573162615299225,0.01114643644541502,0.0026944451965391636,-0.005383218638598919
0.006682123057544231,-0.010516015812754631,-0.00694081699475646,0.010222246870398521,0.0027208561077713966,-0.005333807785063982
0.006621802691370249,-0.011395626701414585,-0.006821094546467066,0.01036121603101492,0.0031667128205299377,-0.005518003366887569
0.006771725136786699,-0.01213971059769392,-0.00672574620693922,0.010466896928846836,0.00361729902215302,-0.005205968860536814
0.007476318161934614,-0.011233865283429623,-0.007225897163152695,0.010771812871098518,0.003813613671809435,-0.0052208746783435345
0.006656960118561983,-0.01128306519240141,-0.00730748288333416,0.011363927274942398,0.003399154869839549,-0.005182250868529081
0.006403571926057339,-0.01120041124522686,-0.007433448918163776,0.010483400896191597,0.0031626017298549414,-0.005128809716552496
0.006858334876596928,-0.010654609650373459,-0.006812409497797489,0.010022208094596863,0.003307559760287404,-0.00545481638982892
0.007501760497689247,-0.011192205362021923,-0.007132766302675009,0.010813615284860134,0.0031929677352309227,-0.005159541964530945
0.007064141798764467,-0.010664579458534718,-0.007250744383782148,0.010560157708823681,0.0032820471096783876,-0.005170327145606279
0.006446584593504667,-0.01068658847361803,-0.0072495038621127605,0.010658744722604752,0.003307206556200981,-0.0051427786238491535
0.006357159465551376,-0.010932106524705887,-0.007078050170093775,0.01009880006313324,0.0029682901222258806,-0.005367085337638855
0.006700056605041027,-0.010495619848370552,-0.007442548871040344,0.009686870500445366,0.0026932593900710344,-0.005766395479440689
0.006636493839323521,-0.010636572726070881,-0.0072168465703725815,0.010818932205438614,0.002350602997466922,-0.00607044342905283
0.007164236158132553,-0.010810689069330692,-0.007141768932342529,0.01032074261456728,0.0023745200596749783,-0.0059221102856099606
0.006750587373971939,-0.010227241553366184,-0.007106814067810774,0.009540584869682789,0.0026372617576271296,-0.006087340880185366
0.006926620379090309,-0.009600527584552765,-0.00811266154050827,0.009987798519432545,0.0026405577082186937,-0.006175089627504349
0.007117141969501972,-0.010998306795954704,-0.007030774839222431,0.009555535390973091,0.0026262172032147646,-0.006252158898860216
0.006975519936531782,-0.011471826583147049,-0.007074639201164246,0.010275982320308685,0.002717595314607024,-0.005706933327019215
0.006674063857644796,-0.011022589169442654,-0.008192114531993866,0.009914913214743137,0.0030334668699651957,-0.0057716104201972485
0.007679685950279236,-0.010305723175406456,-0.007556588388979435,0.009294147603213787,0.002907689195126295,-0.0055787344463169575
0.006924902554601431,-0.010627414099872112,-0.007199594751000404,0.009257612749934196,0.002777778310701251,-0.00602721469476819
0.007030222564935684,-0.00981137901544571,-0.007541639264672995,0.009021466597914696,0.0027173091657459736,-0.006398397032171488
0.007030222564935684,-0.00981137901544571,-0.007541639264672995,0.009021466597914696,0.0027173091657459736,-0.006398397032171488
0.006819188129156828,-0.010188805870711803,-0.007705113850533962,0.008408975787460804,0.0030642328783869743,-0.006432520691305399
0.007124488241970539,-0.010742285288870335,-0.007315531838685274,0.00883084163069725,0.003297765739262104,-0.006281191948801279
0.007217387668788433,-0.0098614152520895,-0.0071451738476753235,0.008738583885133266,0.003278633113950491,-0.006009453441947699
0.0073537444695830345,-0.010034875012934208,-0.007454403676092625,0.00784094538539648,0.0031232864130288363,-0.00607283553108573
0.007186269853264093,-0.01011926680803299,-0.008261296898126602,0.007383415009826422,0.0030026559252291918,-0.0063780806958675385
0.007374284323304892,-0.010047090239822865,-0.007544342428445816,0.008081444539129734,0.0029761309269815683,-0.006570142228156328
0.0074229771271348,-0.009963124990463257,-0.007267254404723644,0.008187670260667801,0.002935416530817747,-0.006575961131602526
0.007155068218708038,-0.01026435848325491,-0.0069649433717131615,0.00745336152613163,0.00306720077060163,-0.006208470556885004
0.0072220745496451855,-0.009744330309331417,-0.007996967993676662,0.007225614972412586,0.0031914107967168093,-0.006339038722217083
0.007356051355600357,-0.010327573865652084,-0.007656375877559185,0.007505922112613916,0.0031042511109262705,-0.006780129857361317
0.007709759287536144,-0.009697736240923405,-0.007570494897663593,0.007393735460937023,0.0030532553791999817,-0.006948639173060656
0.007380882278084755,-0.00962838064879179,-0.0070418138056993484,0.007653017062693834,0.0029509910382330418,-0.006798669695854187
0.00696369307115674,-0.010460064746439457,-0.008015432395040989,0.008737092837691307,0.002885682974010706,-0.006338322535157204
0.0073440829291939735,-0.009627104736864567,-0.00763000687584281,0.00829536933451891,0.00290857651270926,-0.006425625644624233
0.007943790405988693,-0.009130412712693214,-0.00753041310235858,0.007717238273471594,0.00326974387280643,-0.0065382299944758415
0.007796742022037506,-0.009231561794877052,-0.007754475809633732,0.007461636792868376,0.003402652218937874,-0.006609444972127676
0.006973343435674906,-0.009188489988446236,-0.007749191485345364,0.007452191319316626,0.0034335386008024216,-0.006683241110295057
0.007233249023556709,-0.008847559802234173,-0.007392037194222212,0.007269475609064102,0.0035680534783750772,-0.006853264290839434
0.007779564708471298,-0.008986511267721653,-0.007250427734106779,0.007095647975802422,0.003189787967130542,-0.006989640649408102
0.007486047223210335,-0.008982578292489052,-0.007239047437906265,0.007165381219238043,0.003094704356044531,-0.006990806665271521
0.007347746752202511,-0.008957592770457268,-0.006946123670786619,0.006966200191527605,0.0029324283823370934,-0.00680209044367075
0.00851911585777998,-0.009565502405166626,-0.006757110822945833,0.006928216200321913,0.0036801465321332216,-0.00686690816655755
0.007962695322930813,-0.008253553882241249,-0.006817537825554609,0.006382644642144442,0.0038047730922698975,-0.006816137116402388
0.007540208287537098,-0.008487788029015064,-0.007000799756497145,0.006170010659843683,0.003882052842527628,-0.006951498333364725
0.008094905875623226,-0.008618570864200592,-0.006921730935573578,0.0063717118464410305,0.0035690530203282833,-0.007268188055604696
0.008094905875623226,-0.008618570864200592,-0.006921730935573578,0.0063717118464410305,0.0035690530203282833,-0.007268188055604696
0.008184678852558136,-0.008533713407814503,-0.00643661106005311,0.006465919315814972,0.0034694336354732513,-0.007403790485113859
0.007793027441948652,-0.00772465905174613,-0.006257046014070511,0.006196038331836462,0.0035674937535077333,-0.007502993568778038
0.008357612416148186,-0.007919438183307648,-0.006803541909903288,0.005910107400268316,0.0034023907501250505,-0.007193375378847122
0.008616781793534756,-0.008159475401043892,-0.007110194303095341,0.006013814825564623,0.003317351918667555,-0.007175887934863567
0.00728352926671505,-0.008284639567136765,-0.00657067634165287,0.006693162489682436,0.003360690549015999,-0.007539131212979555
0.008326679468154907,-0.007908790372312069,-0.0063376473262906075,0.00668255053460598,0.0033761044032871723,-0.007581405341625214
0.008386308327317238,-0.00831502117216587,-0.007082204334437847,0.006818599533289671,0.0035496081691235304,-0.007351471111178398
0.008297107182443142,-0.008466731756925583,-0.007610883563756943,0.006723227445036173,0.0034547029063105583,-0.00720221409574151
0.008024124428629875,-0.0075468095019459724,-0.006491846404969692,0.0070864539593458176,0.003395075211301446,-0.007481109816581011
0.008087599650025368,-0.007396810222417116,-0.0062296390533447266,0.006654093973338604,0.003204788314178586,-0.007171277888119221
0.008525526151061058,-0.007801458239555359,-0.006538625340908766,0.006245027761906385,0.00342060555703938,-0.007160976529121399
0.008465462364256382,-0.0076259528286755085,-0.008105826564133167,0.006286059971898794,0.0036553663667291403,-0.007310850080102682
0.00805300660431385,-0.007117968983948231,-0.007240731734782457,0.0063155642710626125,0.0033201288897544146,-0.00760387210175395
0.008401977829635143,-0.0071874395944178104,-0.006451263092458248,0.006662934552878141,0.003222299739718437,-0.007005307357758284
0.009186409413814545,-0.007280441932380199,-0.0062049804255366325,0.006401121150702238,0.003292517503723502,-0.0071292961947619915
0.008116163313388824,-0.007441326044499874,-0.006668729241937399,0.005993233993649483,0.003557140240445733,-0.006991545669734478
0.008119008503854275,-0.006887142546474934,-0.0072359791956841946,0.005649930331856012,0.003768335562199354,-0.006810975726693869
0.008900312706828117,-0.007095972076058388,-0.0067701213993132114,0.005358639173209667,0.00390683114528656,-0.006208763923496008
0.008399690501391888,-0.007336912211030722,-0.006337882485240698,0.005843321792781353,0.00396726792678237,-0.006680693943053484
0.008027849718928337,-0.007309823762625456,-0.00629193102940917,0.005808508023619652,0.0039432113990187645,-0.0077549125999212265
0.008361326530575752,-0.006882204208523035,-0.007096271030604839,0.005689776968210936,0.003705292008817196,-0.007715178653597832
0.009127382189035416,-0.00733188958838582,-0.007192797958850861,0.005120754707604647,0.0034477622248232365,-0.007274417206645012
0.008042341098189354,-0.0070512122474610806,-0.006966460961848497,0.0046824258752167225,0.003386311698704958,-0.006772225257009268
0.00871441513299942,-0.006624679081141949,-0.006627133581787348,0.004833833780139685,0.0035678811836987734,-0.006307521834969521
0.008496883325278759,-0.0069369724951684475,-0.007124596741050482,0.005183878354728222,0.003707641502842307,-0.006405775900930166
0.008264560252428055,-0.007061161566525698,-0.006834371946752071,0.005027501378208399,0.0038397007156163454,-0.006632411852478981
0.009544380009174347,-0.006861397530883551,-0.006617424543946981,0.004789761267602444,0.0039038783870637417,-0.006903293076902628
0.009544380009174347,-0.006861397530883551,-0.006617424543946981,0.004789761267602444,0.0039038783870637417,-0.006903293076902628
0.008809566497802734,-0.007071302272379398,-0.007206619251519442,0.004381265956908464,0.0038919963408261538,-0.00680164759978652
0.008560369722545147,-0.0071281930431723595,-0.007014549802988768,0.0047936332412064075,0.0037543519865721464,-0.006560468580573797
0.008924401365220547,-0.006984473671764135,-0.007102953270077705,0.004976923111826181,0.0036468387115746737,-0.0066900537349283695
0.008411936461925507,-0.006754394620656967,-0.006541498005390167,0.004711937624961138,0.003681660396978259,-0.007119671907275915
0.008601470850408077,-0.006441700737923384,-0.006499262060970068,0.004219371359795332,0.003752603195607662,-0.007133055478334427
0.009036535397171974,-0.006513671018183231,-0.006915589328855276,0.004240794572979212,0.0038410546258091927,-0.006997190415859222
0.008958950638771057,-0.006854511797428131,-0.007206418085843325,0.004041803535073996,0.0038069221191108227,-0.007170784752815962
0.008899186737835407,-0.00673828786239028,-0.006959530524909496,0.0037528695538640022,0.003819024423137307,-0.007040853146463633
0.008673258125782013,-0.00656526442617178,-0.0063043502159416676,0.0037183123640716076,0.004365975968539715,-0.007212678901851177
0.00956016592681408,-0.006441757082939148,-0.006553629878908396,0.004209918901324272,0.004155611619353294,-0.007535080425441265
0.009765798225998878,-0.006370105314999819,-0.007021395955234766,0.0037657488137483597,0.003444352885708213,-0.007134159095585346
0.009530145674943924,-0.006501154508441687,-0.006782787851989269,0.0032109967432916164,0.0034108958207070827,-0.007064130622893572
0.009049704298377037,-0.006372798699885607,-0.006314895581454039,0.0028656611684709787,0.0032490326557308435,-0.007952637039124966
0.009692859835922718,-0.006224469747394323,-0.006357490550726652,0.002782164141535759,0.0033443369902670383,-0.00794427003711462
0.009495647624135017,-0.0064735738560557365,-0.006952662952244282,0.0032071371097117662,0.0035674350801855326,-0.007646728307008743
0.009097361005842686,-0.006694713607430458,-0.006566287484019995,0.003609132720157504,0.004282121546566486,-0.007712635211646557
0.009979704394936562,-0.006573622114956379,-0.006367592606693506,0.0033765346743166447,0.004480657633394003,-0.007456743624061346
0.009416544809937477,-0.006178216077387333,-0.006559921894222498,0.003315870650112629,0.004289547447115183,-0.007515112869441509
0.009767469018697739,-0.006089535541832447,-0.006706662476062775,0.0030088271014392376,0.003974271472543478,-0.008121607825160027
0.009591959416866302,-0.005907540209591389,-0.006964815780520439,0.0026589154731482267,0.0033555678091943264,-0.007821249775588512
0.009249752387404442,-0.0062845125794410706,-0.0061262138187885284,0.0020728588569909334,0.0037272856570780277,-0.007977086119353771
0.009465379640460014,-0.006336087826639414,-0.006237884052097797,0.0019760923460125923,0.0039181336760520935,-0.008316662162542343
0.009538637474179268,-0.006039263680577278,-0.0070596556179225445,0.00207497482188046,0.003979014698415995,-0.007673203479498625
0.009481947869062424,-0.006004184950143099,-0.006900177337229252,0.002025595400482416,0.003996584564447403,-0.008023266680538654
0.009858731180429459,-0.006387006491422653,-0.0066698407754302025,0.002228965051472187,0.0035824982915073633,-0.008286667056381702
0.009858731180429459,-0.006387006491422653,-0.0066698407754302025,0.002228965051472187,0.0035824982915073633,-0.008286667056381702
0.010519366711378098,-0.006499023176729679,-0.006302233785390854,0.002085248939692974,0.003478483995422721,-0.008709968067705631
0.009490937925875187,-0.0064066024497151375,-0.006743173580616713,0.002190225524827838,0.0035302925389260054,-0.008139885030686855
0.009839195758104324,-0.0055416421964764595,-0.006920746061950922,0.002034155186265707,0.003621816635131836,-0.008684125728905201
0.010364728048443794,-0.005338397342711687,-0.006189251318573952,0.0017738548340275884,0.003668519202619791,-0.008829259313642979
0.009381959214806557,-0.006237666122615337,-0.006105942185968161,0.0017354786396026611,0.0035900911316275597,-0.008780253119766712
0.009999042376875877,-0.0062369657680392265,-0.006600386928766966,0.0016604148549959064,0.0034570309799164534,-0.008417371660470963
0.010315937921404839,-0.006448793690651655,-0.006928230170160532,0.0016368963988497853,0.003430538345128298,-0.008586409501731396
0.009229336865246296,-0.005566180218011141,-0.0067191701382398605,0.0015330056194216013,0.0031987305264919996,-0.008875719271600246
0.009901859797537327,-0.005870540160685778,-0.006048376671969891,0.0015593348070979118,0.0034529631957411766,-0.00853712297976017
0.01028407458215952,-0.0068808263167738914,-0.006403631530702114,0.0014440567465499043,0.004132164176553488,-0.008314460515975952
0.009676305577158928,-0.006495626177638769,-0.006886965129524469,0.0013215821236371994,0.003916999325156212,-0.008386100642383099
0.01006428524851799,-0.006367160938680172,-0.007023729849606752,0.0012495593400672078,0.003531070426106453,-0.008700476959347725
0.010387327522039413,-0.0055529954843223095,-0.006261141039431095,0.0011608469067141414,0.0031538151670247316,-0.008641453459858894
0.01108316145837307,-0.005608078092336655,-0.006047048140317202,0.0010811442043632269,0.0028600397054105997,-0.008938644081354141
0.011394022963941097,-0.005560289137065411,-0.006395649164915085,0.0009940369054675102,0.0029617371037602425,-0.00886062067002058
0.010764846578240395,-0.00597613537684083,-0.0070420000702142715,0.0008768333354964852,0.0033446524757891893,-0.008642091415822506
0.011396462097764015,-0.005573160480707884,-0.006740945391356945,0.0007817146251909435,0.0033092256635427475,-0.008939595893025398
0.01103559322655201,-0.005605008453130722,-0.0065805185586214066,0.0007050646818242967,0.003511974820867181,-0.009035664610564709
0.0109813641756773,-0.005131392739713192,-0.0060238041914999485,0.000642105471342802,0.0036769933067262173,-0.009469947777688503
0.01101645827293396,-0.005601318087428808,-0.007146496791392565,0.0005448316223919392,0.003478623228147626,-0.00942971184849739
0.011790051124989986,-0.005868154112249613,-0.006870113778859377,0.0005064783035777509,0.0036608611699193716,-0.009568126872181892
0.011267812922596931,-0.005454259924590588,-0.006432930938899517,0.0004731753724627197,0.004117320757359266,-0.009223702363669872
0.010772006586194038,-0.005197162739932537,-0.005923931021243334,0.00044397899182513356,0.004565685521811247,-0.008948358707129955
0.01096582692116499,-0.0050824531354010105,-0.006480413954705,0.00041818147292360663,0.004569237120449543,-0.009199937805533409
0.010770421475172043,-0.005886191967874765,-0.006265448871999979,0.00039521738654002547,0.004406238440424204,-0.008238330483436584
0.01088116317987442,-0.005983577109873295,-0.0063721779733896255,0.0003746453148778528,0.003990113269537687,-0.008331957273185253
0.01088116317987442,-0.005983577109873295,-0.0063721779733896255,0.0003746453148778528,0.003990113269537687,-0.008331957273185253
0.01105714775621891,-0.005956986919045448,-0.00637100962921977,0.0003561103076208383,0.0035039724316447973,-0.009324644692242146
0.01079749595373869,-0.005334293469786644,-0.00596783310174942,0.00033932150108739734,0.0037352554500102997,-0.009499462321400642
0.011256947182118893,-0.005263006780296564,-0.006391869857907295,0.00030424862052313983,0.0040732864290475845,-0.009241664782166481
0.0114631662145257,-0.005092707462608814,-0.006551504135131836,0.00027267797850072384,0.003838182659819722,-0.009280038066208363
0.011006033048033714,-0.00534886633977294,-0.005673529114574194,0.0002602090244181454,0.003426243783906102,-0.009282155893743038
0.010880854912102222,-0.005655655171722174,-0.005803851876407862,0.0002498106041457504,0.003481360385194421,-0.00916350819170475
0.01079908199608326,-0.005389291327446699,-0.005777832120656967,0.00024027586914598942,0.0034155312459915876,-0.008875385858118534
0.011166331358253956,-0.005221846047788858,-0.006529191508889198,9.52487753238529e-05,0.0035170235205441713,-0.009553696028888226
0.011524004861712456,-0.004910746589303017,-0.006330933887511492,7.279225246747956e-05,0.004060526378452778,-0.010654170997440815
0.011674411594867706,-0.005482453387230635,-0.005887212231755257,3.677239510579966e-05,0.004167200997471809,-0.011046728119254112
0.01153190340846777,-0.005352405831217766,-0.006155802868306637,1.704004898783751e-05,0.003815746633335948,-0.009579075500369072
0.011390858329832554,-0.005411574151366949,-0.006519355345517397,1.1125933951916522e-06,0.00350618502125144,-0.009397628717124462
0.011130543425679207,-0.005556208547204733,-0.006416762247681618,7.264439716436755e-08,0.0035926334094256163,-0.009643328376114368
0.011836325749754906,-0.004863652400672436,-0.006255247630178928,4.743159642828232e-09,0.004168772604316473,-0.009715979918837547
0.011176807805895805,-0.005397561006247997,-0.006226020865142345,3.096944090064113e-10,0.0042219506576657295,-0.009911864064633846
0.01168802846223116,-0.005234505981206894,-0.00590137904509902,2.0220831953299268e-11,0.004308259580284357,-0.009770738892257214
0.011679887771606445,-0.005320822820067406,-0.006477832794189453,-0.0007742975139990449,0.00396070396527648,-0.009296885691583157
0.011595836840569973,-0.00553493108600378,-0.0064427293837070465,-0.0014016530476510525,0.0038794083520770073,-0.009532405994832516
0.012054584920406342,-0.0048833261243999004,-0.005863131955265999,-0.0023367900867015123,0.004362035077065229,-0.009904010221362114
0.01162115577608347,-0.004418923053890467,-0.006091143935918808,-0.002738408511504531,0.004454534035176039,-0.010174151510000229
0.011710269376635551,-0.004698323551565409,-0.006175259128212929,-0.0033706899266690016,0.0040986849926412106,-0.010003921575844288
0.011760752648115158,-0.004797903820872307,-0.006485269870609045,-0.004316519480198622,0.003931698389351368,-0.009826907888054848
0.01236988976597786,-0.005077673122286797,-0.00572615023702383,-0.004568682052195072,0.0037746080197393894,-0.00994686409831047
0.012254428118467331,-0.004894687794148922,-0.0057046860456466675,-0.004649756010621786,0.004205248784273863,-0.010531177744269371
0.012782025150954723,-0.004711254965513945,-0.006452333647757769,-0.004747806116938591,0.004487998783588409,-0.010716770775616169
0.011960683390498161,-0.004271141719073057,-0.006499642040580511,-0.005402216222137213,0.004358747508376837,-0.010360359214246273
0.012971639633178711,-0.004269381985068321,-0.0062722633592784405,-0.006077662575989962,0.004391471389681101,-0.010702291503548622
0.012971639633178711,-0.004269381985068321,-0.0062722633592784405,-0.006077662575989962,0.004391471389681101,-0.010702291503548622
0.012528738006949425,-0.004607943817973137,-0.005995376501232386,-0.00626863120123744,0.00415124511346221,-0.0101731913164258
0.0122956782579422,-0.004754108842462301,-0.005430624820291996,-0.006119452882558107,0.004011638928204775,-0.010244020260870457
0.012674322351813316,-0.004437452647835016,-0.005858950782567263,-0.0061759548261761665,0.004039740655571222,-0.010114683769643307
0.012224986217916012,-0.004584583919495344,-0.006135786883533001,-0.0063138697296381,0.004027451388537884,-0.009930836968123913
0.01287018321454525,-0.004279863554984331,-0.006465212441980839,-0.006816373206675053,0.004506052006036043,-0.010504145175218582
0.012498196214437485,-0.004015946760773659,-0.006631107535213232,-0.006827840581536293,0.004708191845566034,-0.010865189135074615
0.012766209430992603,-0.004120917990803719,-0.005917765200138092,-0.006269254721701145,0.004663797561079264,-0.010267266072332859
0.012952655553817749,-0.00402833940461278,-0.006006093230098486,-0.0064045097678899765,0.004518116358667612,-0.010484907776117325
0.012673321180045605,-0.0038119012024253607,-0.007013957481831312,-0.006912912242114544,0.00457259314134717,-0.010419257916510105
0.012356126680970192,-0.0038128094747662544,-0.0063713849522173405,-0.007195423357188702,0.0042183054611086845,-0.010370604693889618
0.012737611308693886,-0.004297464154660702,-0.005914237815886736,-0.007171028759330511,0.004361534956842661,-0.0100914491340518
0.01345108263194561,-0.003966042771935463,-0.005942980758845806,-0.007181937340646982,0.004230658058077097,-0.010322218760848045
0.012648895382881165,-0.0038218162953853607,-0.006024134811013937,-0.007494771853089333,0.003977985121309757,-0.010077888146042824
0.013118850998580456,-0.003810083493590355,-0.006269262172281742,-0.007599317003041506,0.004098742734640837,-0.010279161855578423
0.012777314521372318,-0.00336723611690104,-0.0059686568565666676,-0.007600040640681982,0.004128229804337025,-0.010471092537045479
0.012973119504749775,-0.003374083898961544,-0.005543654318898916,-0.007753129117190838,0.004352096933871508,-0.010669914074242115
0.01325555332005024,-0.003526726271957159,-0.0056144664995372295,-0.008358209393918514,0.004514053929597139,-0.010966801084578037
0.013222540728747845,-0.003820456564426422,-0.005756997037678957,-0.008524587377905846,0.004145805258303881,-0.0109441252425313
0.013039099052548409,-0.003728796960785985,-0.006745940539985895,-0.00839140173047781,0.00411334540694952,-0.010842724703252316
0.01330683846026659,-0.0034295697696506977,-0.0059900907799601555,-0.008625349029898643,0.004217051435261965,-0.010902953334152699
0.013490187004208565,-0.003389539197087288,-0.005731781013309956,-0.00892603863030672,0.0045450893230736256,-0.011152753606438637
0.013505338691174984,-0.003351902589201927,-0.006175301503390074,-0.008659238927066326,0.004722635727375746,-0.011200890876352787
0.013232558034360409,-0.00348261627368629,-0.006560435518622398,-0.009368246421217918,0.004709246568381786,-0.011241325177252293
0.013678978197276592,-0.0032490307930856943,-0.00659949192777276,-0.00987789686769247,0.004441841505467892,-0.011459876783192158
0.013363542035222054,-0.0031182116363197565,-0.006354938726872206,-0.009880627505481243,0.004082048311829567,-0.011249923147261143
0.013800845481455326,-0.0029843992087990046,-0.005936783272773027,-0.009880682453513145,0.003869907697662711,-0.011403247714042664
0.013279459439218044,-0.003023143857717514,-0.006071882788091898,-0.010189063847064972,0.0042465608566999435,-0.01124771498143673
0.013279459439218044,-0.003023143857717514,-0.006071882788091898,-0.010189063847064972,0.0042465608566999435,-0.01124771498143673
0.013939246535301208,-0.003119676373898983,-0.006930631585419178,-0.010308989323675632,0.004642750136554241,-0.011587831191718578
0.01387036219239235,-0.003015690017491579,-0.006977471988648176,-0.010324019938707352,0.004595591686666012,-0.01178084034472704
0.013989652507007122,-0.0029135148506611586,-0.006752260960638523,-0.010420763865113258,0.004319510422646999,-0.011931774206459522
0.013596465811133385,-0.0027640811167657375,-0.0060737463645637035,-0.009991604834794998,0.004041106905788183,-0.011971816420555115
0.014099881052970886,-0.0027820621617138386,-0.006545537617057562,-0.010902352631092072,0.003516858210787177,-0.012076431885361671
0.013925216160714626,-0.0025630397722125053,-0.006895067170262337,-0.011082944460213184,0.0031822058372199535,-0.01188367698341608
0.013913747854530811,-0.002462246920913458,-0.006817143876105547,-0.01081677433103323,0.003172457916662097,-0.012186555191874504
0.014031336642801762,-0.0026584055740386248,-0.0064503964968025684,-0.01071203127503395,0.004166517872363329,-0.012168733403086662
0.014095636084675789,-0.0027998550795018673,-0.006325188092887402,-0.010173171758651733,0.004735358990728855,-0.011661727912724018
0.013960781507194042,-0.002485808217898011,-0.006848887540400028,-0.010664389468729496,0.0048103416338562965,-0.012735823169350624
0.01394096203148365,-0.0025359930004924536,-0.006877497769892216,-0.011023816652595997,0.004192117601633072,-0.012508779764175415
0.014585084281861782,-0.0024248487316071987,-0.006527623161673546,-0.010663958266377449,0.00394082348793745,-0.012139622122049332
0.014308681711554527,-0.0023130790796130896,-0.00714620016515255,-0.01109106745570898,0.004014373756945133,-0.012006177566945553
0.01413797028362751,-0.002346181543543935,-0.006837516091763973,-0.01069359015673399,0.004028916824609041,-0.012061243876814842
0.014426495879888535,-0.002439926378428936,-0.006353257689625025,-0.010345193557441235,0.004033018834888935,-0.011919287964701653
0.014674627222120762,-0.002106181113049388,-0.006646777503192425,-0.010944023728370667,0.004375919699668884,-0.012251892127096653
0.014756512828171253,-0.0018741755047813058,-0.006582459434866905,-0.010842821560800076,0.005097507033497095,-0.012392856180667877
0.014650814235210419,-0.0018537602154538035,-0.006806005258113146,-0.010859961621463299,0.004976782947778702,-0.012861371971666813
0.01466035470366478,-0.0017062192782759666,-0.006657131016254425,-0.011089200153946877,0.004572841338813305,-0.01294037140905857
0.0148497698828578,-0.0016959566855803132,-0.006379891186952591,-0.011289700865745544,0.003894644323736429,-0.013296370394527912
0.014911871403455734,-0.001742655411362648,-0.007105264812707901,-0.010997078381478786,0.004485132172703743,-0.01287756860256195
0.01506062038242817,-0.0017374682938680053,-0.006914098281413317,-0.011375331319868565,0.005300010554492474,-0.012854751199483871
0.014722106046974659,-0.0017919369274750352,-0.006186774466186762,-0.012194985523819923,0.005395620130002499,-0.013134577311575413
0.015089736320078373,-0.0015936624258756638,-0.006508731748908758,-0.011652312241494656,0.004960250109434128,-0.01297130435705185
0.014708615839481354,-0.0015029913047328591,-0.006684673484414816,-0.012408421374857426,0.004418960772454739,-0.012666789814829826
0.014880901202559471,-0.0014191996306180954,-0.0075703151524066925,-0.012412706390023232,0.004429593216627836,-0.012901260517537594
0.014734544791281223,-0.0013258615508675575,-0.006623307708650827,-0.012781161814928055,0.004553324077278376,-0.013011027127504349
0.015177533030509949,-0.0013652173802256584,-0.006018345709890127,-0.012831360101699829,0.005295120645314455,-0.013351771049201488
0.014775333926081657,-0.0013091485016047955,-0.00556262768805027,-0.01265916507691145,0.004687739070504904,-0.013756179250776768
0.014775333926081657,-0.0013091485016047955,-0.00556262768805027,-0.01265916507691145,0.004687739070504904,-0.013756179250776768
0.014960062690079212,-0.00138852430973202,-0.006050521042197943,-0.01340660359710455,0.004516689572483301,-0.01375524140894413
0.014888274483382702,-0.0013912280555814505,-0.006918428000062704,-0.013436838984489441,0.0044886404648423195,-0.01338482741266489
0.01519547589123249,-0.0014912623446434736,-0.006148887798190117,-0.013883995823562145,0.0043457685969769955,-0.013547724112868309
0.014570336788892746,-0.0013934490270912647,-0.005727255716919899,-0.012944098562002182,0.0040185959078371525,-0.013918126001954079
0.015300191007554531,-0.001446640002541244,-0.0061171879060566425,-0.013559730723500252,0.0047148447483778,-0.013930827379226685
0.015391334891319275,-0.0013318411074578762,-0.005907760933041573,-0.01324132364243269,0.005033400841057301,-0.014395772479474545
0.01569364406168461,-0.0012532997643575072,-0.00643136166036129,-0.013886489905416965,0.00488312728703022,-0.013878388330340385
0.015505418181419373,-0.0011093238135799766,-0.0058805677108466625,-0.013456663116812706,0.004724507685750723,-0.013680944219231606
0.015461995266377926,-0.0009307307191193104,-0.005740565247833729,-0.014244957827031612,0.004600341897457838,-0.013441677205264568
0.015382984653115273,-0.0009066169150173664,-0.006255012471228838,-0.014170035719871521,0.004381941631436348,-0.01412114780396223
0.015472364611923695,-0.0007901712669990957,-0.0060804858803749084,-0.014648397453129292,0.0045632352121174335,-0.014084565453231335
0.0154790747910738,-0.0008025370188988745,-0.006449081003665924,-0.015567153692245483,0.005066534038633108,-0.014076205901801586
0.015650486573576927,-0.0008135060197673738,-0.0059066833928227425,-0.01494577806442976,0.004889855161309242,-0.013862987980246544
0.016250912100076675,-0.0007863199571147561,-0.005809066351503134,-0.01406251359730959,0.004925635177642107,-0.014358473010361195
0.015827499330043793,-0.0006773600471206009,-0.005714738741517067,-0.014950796961784363,0.004915797617286444,-0.014767696149647236
0.016299916431307793,-0.0007013746653683484,-0.005919432267546654,-0.015548113733530045,0.004812520928680897,-0.01506218034774065
0.016061527654528618,-0.0006246575503610075,-0.006650138180702925,-0.016420019790530205,0.004816715139895678,-0.014550774358212948
0.016111357137560844,-0.0005599079886451364,-0.005828534718602896,-0.015855370089411736,0.004769419319927692,-0.014239645563066006
0.01641920953989029,-0.0005398544017225504,-0.006045467220246792,-0.015355340205132961,0.005303846672177315,-0.014514238573610783
0.01644892245531082,-0.0004981803358532488,-0.006005397066473961,-0.015509496442973614,0.005128851160407066,-0.014655576087534428
0.016370469704270363,-0.0004616747028194368,-0.006506097037345171,-0.01502311322838068,0.004829679150134325,-0.014736057259142399
0.017296308651566505,-0.0004301480657886714,-0.006279388442635536,-0.015729589387774467,0.00491770263761282,-0.01467375922948122
0.017110550776124,-0.0004026510287076235,-0.005515242461115122,-0.01632230542600155,0.0049043563194572926,-0.015201948583126068
0.016881776973605156,-0.0003784580039791763,-0.005692122504115105,-0.016492413356900215,0.004714739974588156,-0.01509576290845871
0.016629749909043312,-0.0003570082481019199,-0.005848109256476164,-0.017101755365729332,0.004603732842952013,-0.015023238956928253
0.016629749909043312,-0.0003570082481019199,-0.005848109256476164,-0.017101755365729332,0.004603732842952013,-0.015023238956928253
0.015673073008656502,-0.00033785958657972515,-0.006478323135524988,-0.016429785639047623,0.005074867978692055,-0.014698876067996025
0.01738780550658703,-0.0003206623368896544,-0.0063243224285542965,-0.016679393127560616,0.005081098061054945,-0.014723883010447025
0.01681976579129696,-0.0003051299718208611,-0.005518833640962839,-0.015973132103681564,0.004922107793390751,-0.01381753571331501
0.017257142812013626,-0.0002910333569161594,-0.00575421703979373,-0.016596945002675056,0.004939732141792774,-0.015002858825027943
0.01687605306506157,-0.0002781815128400922,-0.006031950004398823,-0.016650846228003502,0.0050582424737513065,-0.015002644620835781
0.016642801463603973,-0.00026641730801202357,-0.006977171171456575,-0.01671084761619568,0.005060466006398201,-0.014785577543079853
0.017115851864218712,-1.4048971934244037e-05,-0.006430875509977341,-0.017214950174093246,0.005057698581367731,-0.014561665244400501
0.017372071743011475,-1.8848488991807244e-07,-0.005494283512234688,-0.016887780278921127,0.004934677854180336,-0.014749307185411453
0.018042253330349922,0.0035635512322187424,-0.005909176077693701,-0.017249353229999542,0.004353486001491547,-0.014858884736895561
0.01769431307911873,0.002348970388993621,-0.006694120354950428,-0.0173842404037714,0.0044724163599312305,-0.015034048818051815
0.017258379608392715,0.0002215367858298123,-0.006830452475696802,-0.017389481887221336,0.005010071210563183,-0.015114491805434227
0.017748326063156128,2.972198672068771e-06,-0.006086606066673994,-0.017903488129377365,0.005057836417108774,-0.015320966951549053
0.016995511949062347,3.987583951925444e-08,-0.005126473493874073,-0.01768810674548149,0.0046225846745073795,-0.01531831081956625
0.017486685886979103,5.34985278299871e-10,-0.00522602628916502,-0.017874548211693764,0.0047079166397452354,-0.014829871244728565
0.01771346665918827,7.177510322198266e-12,-0.005748800002038479,-0.0181546863168478,0.005437043029814959,-0.015123030170798302
0.017392488196492195,9.629546238090064e-14,-0.006582917645573616,-0.01821797527372837,0.005278968717902899,-0.015107494778931141
0.017804553732275963,0.001760532963089645,-0.006520127411931753,-0.01894783228635788,0.005085479933768511,-0.015665264800190926
0.017522888258099556,0.001422232948243618,-0.005486849695444107,-0.018573623150587082,0.004874006379395723,-0.015338271856307983
0.01778392121195793,0.0010818180162459612,-0.005359374452382326,-0.018281586468219757,0.0049294764176011086,-0.015712372958660126
0.01739143393933773,0.0005841206293553114,-0.006448440253734589,-0.01919511705636978,0.0056976149789988995,-0.01581062749028206
0.017992567270994186,0.00021546598873101175,-0.005818077828735113,-0.01916614919900894,0.005138785112649202,-0.015435143373906612
0.01803920604288578,0.0003848981868941337,-0.005542415659874678,-0.01977365091443062,0.00481796870008111,-0.015351087786257267
0.017689857631921768,0.0004967100685462356,-0.005467058625072241,-0.01944083347916603,0.0044024065136909485,-0.015354851260781288
0.018119938671588898,0.001475962228141725,-0.005696737673133612,-0.0194056686013937,0.004307253286242485,-0.015517622232437134
0.01791229285299778,0.0013980946969240904,-0.006741706281900406,-0.020130580291152,0.005397474393248558,-0.01528667937964201
0.01823761872947216,0.0012940451269969344,-0.006122187711298466,-0.020615549758076668,0.005563194397836924,-0.015378654934465885
0.018203945830464363,0.0011114742374047637,-0.005951867438852787,-0.020332789048552513,0.005317635368555784,-0.01573764532804489
0.01765279471874237,0.0009464757167734206,-0.005671285558491945,-0.02007162943482399,0.004817940294742584,-0.0153573052957654
0.018256310373544693,0.0007771303644403815,-0.005866114050149918,-0.02050938457250595,0.00457691540941596,-0.01562085933983326
0.018256310373544693,0.0007771303644403815,-0.005866114050149918,-0.02050938457250595,0.00457691540941596,-0.01562085933983326
0.01814446598291397,0.0008785194950178266,-0.006676654797047377,-0.020755890756845474,0.004631240852177143,-0.015851464122533798
0.018452273681759834,0.000921819475479424,-0.006029870361089706,-0.02104559913277626,0.0052949669770896435,-0.016100402921438217
0.018527599051594734,0.0013785818591713905,-0.00581570528447628,-0.02102162502706051,0.006029130425304174,-0.016246668994426727
0.018180767074227333,0.001369936391711235,-0.005960249807685614,-0.02106894552707672,0.00600700918585062,-0.01633947156369686
0.018140871077775955,0.0018066002521663904,-0.005758256185799837,-0.021018877625465393,0.005223141051828861,-0.015808606520295143
0.018312539905309677,0.0017554702935740352,-0.006495564244687557,-0.02179153822362423,0.004763257224112749,-0.015903066843748093
0.018247010186314583,0.0014990806812420487,-0.006446015555411577,-0.02216249331831932,0.004859129898250103,-0.016105031594634056
0.018458673730492592,0.0014264710480347276,-0.005680053494870663,-0.020962120965123177,0.005455650854855776,-0.01568707451224327
0.018458673730492592,0.0014264710480347276,-0.005680053494870663,-0.020962120965123177,0.005455650854855776,-0.01568707451224327
0.01829964481294155,0.0015031666262075305,-0.005223638843744993,-0.021882491186261177,0.005142942536622286,-0.015895377844572067
0.019042087718844414,0.0015709775034338236,-0.0060019600205123425,-0.022181853652000427,0.005116650369018316,-0.016740430146455765
0.01813693530857563,0.0019423000048846006,-0.00602496275678277,-0.021877387538552284,0.005133418831974268,-0.016949620097875595
0.01936657913029194,0.00201396644115448,-0.005955241154879332,-0.02167527936398983,0.005601570941507816,-0.01655254326760769
0.01920323632657528,0.0023585862945765257,-0.005540582351386547,-0.020809022709727287,0.005439235363155603,-0.016768546774983406
0.019279148429632187,0.0020598082337528467,-0.00591549975797534,-0.021728835999965668,0.004964650142937899,-0.01726342923939228
0.019507158547639847,0.001877287868410349,-0.0057692984119057655,-0.022607726976275444,0.004894185345619917,-0.017233306542038918
0.019163616001605988,0.0020464262925088406,-0.005405297502875328,-0.02230755239725113,0.004753320012241602,-0.017265284433960915
0.018675966188311577,0.002689289627596736,-0.005495948251336813,-0.022412635385990143,0.005028076469898224,-0.017496811226010323
0.01980692520737648,0.0033790557645261288,-0.005125477910041809,-0.023379070684313774,0.0054149627685546875,-0.0171983540058136
0.01956903375685215,0.0032227381598204374,-0.005433684680610895,-0.023305222392082214,0.005609672982245684,-0.0167448278516531
0.019673090428113937,0.002829412231221795,-0.005655622109770775,-0.022781554609537125,0.005125935655087233,-0.01728358305990696
0.01938437856733799,0.0025355208199471235,-0.005565754137933254,-0.022224269807338715,0.004696263931691647,-0.01766159012913704
0.019486183300614357,0.0025862199254333973,-0.005056591238826513,-0.02226431295275688,0.004606773145496845,-0.017928849905729294
0.019486183300614357,0.0025862199254333973,-0.005056591238826513,-0.02226431295275688,0.004606773145496845,-0.017928849905729294
0.01947834901511669,0.002519744448363781,-0.00490780221298337,-0.02301856502890587,0.0052620829083025455,-0.017456218600273132
0.020409757271409035,0.0030823773704469204,-0.005624891724437475,-0.023718826472759247,0.005626024678349495,-0.016335539519786835
0.0195575300604105,0.003424506401643157,-0.0059081208892166615,-0.023895036429166794,0.00570126436650753,-0.017830727621912956
0.019185341894626617,0.003544839797541499,-0.0058224317617714405,-0.02344297245144844,0.0050498927012085915,-0.017867134883999825
0.01981290429830551,0.003653066698461771,-0.005120679270476103,-0.02323167212307453,0.004460320807993412,-0.017684370279312134
0.01931939460337162,0.003495612647384405,-0.005309620872139931,-0.02324029989540577,0.004506653640419245,-0.017514128237962723
0.01966332271695137,0.0035339295864105225,-0.005592651199549437,-0.02335968054831028,0.005214719567447901,-0.01787876896560192
0.0197124145925045,0.003708049887791276,-0.006143662612885237,-0.023316029459238052,0.0060491845943033695,-0.01792900823056698
0.020046338438987732,0.003796214470639825,-0.005790736526250839,-0.023751618340611458,0.006383695639669895,-0.01770111732184887
0.019761763513088226,0.0037803431041538715,-0.005242784507572651,-0.023455757647752762,0.006200868170708418,-0.018053630366921425
0.01990579068660736,0.0037829861976206303,-0.00528867170214653,-0.02365301176905632,0.005338921211659908,-0.01813792623579502
0.020163338631391525,0.0038296300917863846,-0.005588778294622898,-0.0242878757417202,0.005179272498935461,-0.018060285598039627
0.019834773615002632,0.003835136303678155,-0.005237746983766556,-0.024389302358031273,0.005075386259704828,-0.018253128975629807
0.019648268818855286,0.00435933843255043,-0.00582279684022069,-0.024465417489409447,0.0051435502246022224,-0.018107924610376358
0.019960250705480576,0.004711964167654514,-0.005866342224180698,-0.02508309856057167,0.005747057963162661,-0.018092744052410126
0.019691571593284607,0.005613815505057573,-0.005543861072510481,-0.024716950953006744,0.005792890675365925,-0.01833883859217167
0.019369829446077347,0.005407295655459166,-0.005475099664181471,-0.024759698659181595,0.0055685751140117645,-0.01842380501329899
0.02009003236889839,0.005459255073219538,-0.0055886381305754185,-0.026340531185269356,0.005233200266957283,-0.0184855405241251
0.019952962175011635,0.00530196400359273,-0.00618338119238615,-0.02645222470164299,0.00518942391499877,-0.018612993881106377
0.02006221003830433,0.005359236616641283,-0.0055312057957053185,-0.026674799621105194,0.0057442872785031796,-0.018685834482312202
0.02030579000711441,0.00603652885183692,-0.005329522304236889,-0.02672876976430416,0.005867487285286188,-0.01849944517016411
0.02023415081202984,0.0067465174943208694,-0.0054736630991101265,-0.027035467326641083,0.005727619398385286,-0.018525592982769012
0.020164627581834793,0.00577195268124342,-0.006207371596246958,-0.026948045939207077,0.005401664413511753,-0.018601663410663605
0.02092527598142624,0.005948560778051615,-0.006564962211996317,-0.026806417852640152,0.005531301721930504,-0.018452977761626244
0.020856201648712158,0.005965119693428278,-0.005873022135347128,-0.02686430513858795,0.005866637919098139,-0.018345803022384644
0.020371587947010994,0.00651027774438262,-0.005707758478820324,-0.026974612846970558,0.006066435482352972,-0.018817195668816566
0.020371587947010994,0.00651027774438262,-0.005707758478820324,-0.026974612846970558,0.006066435482352972,-0.018817195668816566
0.020792994648218155,0.007050271145999432,-0.00564474705606699,-0.027831874787807465,0.005456909071654081,-0.018471358343958855
0.021158713847398758,0.0062723467126488686,-0.006335355807095766,-0.027142681181430817,0.005182663910090923,-0.018584569916129112
0.02029374986886978,0.006381630431860685,-0.006513277534395456,-0.025769351050257683,0.004919286817312241,-0.018653718754649162
0.02066962607204914,0.006821712478995323,-0.005825323518365622,-0.026045890524983406,0.005652930587530136,-0.018702207133173943
0.021063392981886864,0.00724675040692091,-0.005561427678912878,-0.02723385952413082,0.005852674134075642,-0.01849977858364582
0.020895004272460938,0.007078572642058134,-0.005250138230621815,-0.027449319139122963,0.005620304495096207,-0.0181932020932436
0.020609034225344658,0.006887125317007303,-0.0065403892658650875,-0.027874596416950226,0.005842277314513922,-0.01825576089322567
0.020757336169481277,0.006969197187572718,-0.006963680498301983,-0.027402831241488457,0.006049783900380135,-0.01862402632832527
0.02112235128879547,0.006675334181636572,-0.005748583935201168,-0.027771921828389168,0.0057212491519749165,-0.018530378118157387
0.021219877526164055,0.007346589583903551,-0.005920057650655508,-0.02760888636112213,0.00566834956407547,-0.018502701073884964
0.02065172791481018,0.007334094028919935,-0.005568741355091333,-0.026505470275878906,0.005461260676383972,-0.01842346601188183
0.02088947966694832,0.007094014901667833,-0.00597872119396925,-0.02717413380742073,0.005697965621948242,-0.019200235605239868
0.020937811583280563,0.007314816117286682,-0.006429909262806177,-0.02864716947078705,0.006135443225502968,-0.01950506865978241
0.02055381052196026,0.008030002936720848,-0.0060614896938204765,-0.028944307938218117,0.005994136910885572,-0.019049599766731262
0.02090519294142723,0.007672755513340235,-0.005893582012504339,-0.02875628136098385,0.005750852171331644,-0.018575303256511688
0.02157513238489628,0.00771397864446044,-0.005728538613766432,-0.028827255591750145,0.005513323936611414,-0.019120652228593826
0.021394772455096245,0.0077263228595256805,-0.006245672702789307,-0.02926534228026867,0.005728192627429962,-0.018814655020833015
0.02107897400856018,0.008127555251121521,-0.006787766702473164,-0.029318852350115776,0.005787709727883339,-0.01823984831571579
0.02110697701573372,0.0076880562119185925,-0.006259590853005648,-0.02976507693529129,0.005686450283974409,-0.018516680225729942
0.02154669351875782,0.007977494969964027,-0.00616928655654192,-0.0299795214086771,0.005613686051219702,-0.019026853144168854
0.021588027477264404,0.008419064804911613,-0.006262702401727438,-0.030192790552973747,0.006038098130375147,-0.019327670335769653
0.021480126306414604,0.00833769328892231,-0.0065300846472382545,-0.030510805547237396,0.0063928719609975815,-0.01921677775681019
0.02162805385887623,0.008791408501565456,-0.006585310213267803,-0.030447855591773987,0.0066133784130215645,-0.019396869465708733
0.02199205383658409,0.00916263833642006,-0.0066373408772051334,-0.03029404953122139,0.006294844206422567,-0.019750721752643585
0.021812526509165764,0.008340823464095592,-0.006262600887566805,-0.029943319037556648,0.005497945472598076,-0.01972360350191593
0.021976688876748085,0.00833394005894661,-0.0066891820169985294,-0.030470503494143486,0.005778799764811993,-0.019115211442112923
0.021490104496479034,0.009228415787220001,-0.006829933263361454,-0.030546894297003746,0.006400497630238533,-0.019335588440299034
0.021580776199698448,0.009137921966612339,-0.006670384667813778,-0.031094549223780632,0.006667553912848234,-0.01902870647609234
0.021580776199698448,0.009137921966612339,-0.006670384667813778,-0.031094549223780632,0.006667553912848234,-0.01902870647609234
0.022127943113446236,0.00904688611626625,-0.005997753236442804,-0.03114471398293972,0.006513936910778284,-0.019288232550024986
0.022464124485850334,0.009022410959005356,-0.006309025920927525,-0.031016387045383453,0.006339121609926224,-0.019718840718269348
0.02212649956345558,0.009622165933251381,-0.006653330754488707,-0.03117983229458332,0.0057122791185975075,-0.020216023549437523
0.022333551198244095,0.009303160011768341,-0.006470943335443735,-0.031142666935920715,0.0063514793291687965,-0.020067865028977394
0.02260315790772438,0.009227258153259754,-0.006287997122853994,-0.03154541179537773,0.006772125139832497,-0.02006390318274498
0.02266421727836132,0.009536197409033775,-0.006508272606879473,-0.031203916296362877,0.006430886685848236,-0.020387077704072
0.022235561162233353,0.009254168719053268,-0.0067515200935304165,-0.03142758458852768,0.005809932481497526,-0.01976655423641205
0.022860996425151825,0.010103639215230942,-0.00650219339877367,-0.03250567242503166,0.005491562187671661,-0.01985318772494793
0.0226737130433321,0.010091056115925312,-0.00610536290332675,-0.032534487545490265,0.006238264497369528,-0.020690688863396645
0.022376837208867073,0.009593218564987183,-0.006599292159080505,-0.03091798722743988,0.0064733088947832584,-0.020534604787826538
0.022785743698477745,0.010056903585791588,-0.0069441404193639755,-0.030054563656449318,0.0062062693759799,-0.020805561915040016
0.023401012644171715,0.010679883882403374,-0.006770456675440073,-0.031154615804553032,0.005920089315623045,-0.020672278478741646
0.023210324347019196,0.010962813161313534,-0.006294420454651117,-0.031764090061187744,0.006381547078490257,-0.020544134080410004
0.02160974033176899,0.010247296653687954,-0.006405598483979702,-0.03126058727502823,0.0064701419323682785,-0.020724385976791382
0.0235154889523983,0.01002409216016531,-0.006170009728521109,-0.0326220765709877,0.006918363273143768,-0.020571690052747726
0.023539328947663307,0.009920063428580761,-0.00659245066344738,-0.03261960670351982,0.00665228720754385,-0.02051469124853611
0.023463895544409752,0.010602002032101154,-0.0064203920774161816,-0.031597524881362915,0.005888228304684162,-0.020623816177248955
0.023610103875398636,0.01076529175043106,-0.005710752215236425,-0.031864240765571594,0.0057943337596952915,-0.020595092326402664
0.023630177602171898,0.010243125259876251,-0.00558348698541522,-0.033531807363033295,0.006556049454957247,-0.020402155816555023
0.024103466421365738,0.010900991968810558,-0.00639572786167264,-0.033848851919174194,0.007276874966919422,-0.020534232258796692
0.024141419678926468,0.01164727658033371,-0.006394034717231989,-0.03420325368642807,0.006409419700503349,-0.020757796242833138
0.02405131421983242,0.008978883735835552,-0.0056293741799890995,-0.034913789480924606,0.006407614331692457,-0.020947856828570366
0.02469913847744465,0.008662188425660133,-0.005730318371206522,-0.03504078462719917,0.006218499504029751,-0.021187346428632736
0.0244844201952219,0.009556400589644909,-0.005654721986502409,-0.03533952683210373,0.0061637479811906815,-0.021170776337385178
0.024762526154518127,0.010684642009437084,-0.005895472597330809,-0.03550254926085472,0.006673792842775583,-0.021265460178256035
0.02459540218114853,0.009988704696297646,-0.006047401577234268,-0.03585071489214897,0.006450795102864504,-0.021715594455599785
0.024643123149871826,0.009769451804459095,-0.00558209465816617,-0.03594885393977165,0.006147250533103943,-0.02180207148194313
0.024686696007847786,0.010272914543747902,-0.00560308201238513,-0.03570025414228439,0.006570281460881233,-0.021638814359903336
0.024867838248610497,0.010196967981755733,-0.005400651600211859,-0.03569600731134415,0.006828323472291231,-0.021754328161478043
0.02613031677901745,0.009563303552567959,-0.005835223942995071,-0.03593113645911217,0.006913664750754833,-0.021912867203354836
0.02613031677901745,0.009563303552567959,-0.005835223942995071,-0.03593113645911217,0.006913664750754833,-0.021912867203354836
0.02581648714840412,0.009751645848155022,-0.006022871006280184,-0.03541315346956253,0.005975975189357996,-0.021575458347797394
0.024949830025434494,0.010355861857533455,-0.005856739357113838,-0.03574215620756149,0.006091832648962736,-0.02272147499024868
0.02467939257621765,0.010009399615228176,-0.005365770775824785,-0.036100391298532486,0.0068558985367417336,-0.022638557478785515
0.02555307000875473,0.010257051326334476,-0.005885920953005552,-0.03765925392508507,0.00687755923718214,-0.02147776447236538
0.025996457785367966,0.009817926213145256,-0.005707877222448587,-0.036362119019031525,0.00658061821013689,-0.021378086879849434
0.025212207809090614,0.010517473332583904,-0.006063445005565882,-0.0368289053440094,0.006182036828249693,-0.022109199315309525
0.025744058191776276,0.010309276171028614,-0.006176488008350134,-0.038486283272504807,0.006623028311878443,-0.022589141502976418
0.026675716042518616,0.00993441604077816,-0.005443962290883064,-0.0381760448217392,0.00677426578477025,-0.02219030261039734
0.026447469368577003,0.010629042983055115,-0.005070812534540892,-0.03673867508769035,0.0063900514505803585,-0.0225242767482996
0.026868054643273354,0.010910634882748127,-0.005790381692349911,-0.03817730024456978,0.00637341383844614,-0.022653518244624138
0.02553940936923027,0.010467907413840294,-0.006000465713441372,-0.03892870992422104,0.006433348637074232,-0.02319665066897869
0.025651266798377037,0.010853053070604801,-0.005770699121057987,-0.03936847671866417,0.006988139357417822,-0.022423064336180687
0.026572151109576225,0.010309524834156036,-0.00547367800027132,-0.03930937498807907,0.006578275002539158,-0.02195247821509838
0.026316115632653236,0.010402359999716282,-0.005589946638792753,-0.037482697516679764,0.00651781028136611,-0.02208111621439457
0.026057500392198563,0.011092244647443295,-0.0054930937476456165,-0.03793756663799286,0.0068250978365540504,-0.0225769504904747
0.025383805856108665,0.010639915242791176,-0.005908682942390442,-0.03885561600327492,0.007001903839409351,-0.02286393567919731
0.026503855362534523,0.010750140063464642,-0.006159989628940821,-0.03939909487962723,0.006965980865061283,-0.022981643676757812
0.026209505274891853,0.010912735015153885,-0.005417421460151672,-0.03861033916473389,0.006435004994273186,-0.023022476583719254
0.026296837255358696,0.010715282522141933,-0.004954053089022636,-0.039054024964571,0.0063166688196361065,-0.022859979420900345
0.026628511026501656,0.011183496564626694,-0.0052542658522725105,-0.039184313267469406,0.0065215760841965675,-0.022743165493011475
0.02630559355020523,0.010851329192519188,-0.005555421579629183,-0.03911484032869339,0.006462339777499437,-0.02261868119239807
0.026751836761832237,0.010930327698588371,-0.005638143979012966,-0.03927506506443024,0.006880664732307196,-0.02271212637424469
0.026464415714144707,0.010805409401655197,-0.005205408204346895,-0.038637448102235794,0.006471665110439062,-0.022292552515864372
0.026218673214316368,0.011193797923624516,-0.005365234799683094,-0.03893528878688812,0.005941607989370823,-0.02258177474141121
0.02674722857773304,0.011453994549810886,-0.0056843324564397335,-0.03907991200685501,0.006086491048336029,-0.022787636145949364
0.027054786682128906,0.011452170088887215,-0.0057074869982898235,-0.039218463003635406,0.006802192889153957,-0.023010684177279472
0.02623409777879715,0.011720556765794754,-0.005640367511659861,-0.03950752690434456,0.0073233298026025295,-0.02310064062476158
0.026692496612668037,0.011591400019824505,-0.005453886464238167,-0.038986630737781525,0.007282741367816925,-0.02311672642827034
0.027016516774892807,0.010660767555236816,-0.005559373646974564,-0.039317574352025986,0.006698045413941145,-0.023132309317588806
0.027016516774892807,0.010660767555236816,-0.005559373646974564,-0.039317574352025986,0.006698045413941145,-0.023132309317588806
0.02693532221019268,0.011762130074203014,-0.005608813371509314,-0.03958413749933243,0.006019140128046274,-0.023072320967912674
0.026696328073740005,0.011133954860270023,-0.006144767161458731,-0.03974310681223869,0.006729737389832735,-0.0229546669870615
0.026613974943757057,0.011018785648047924,-0.005876624956727028,-0.03910082206130028,0.007405044976621866,-0.02463710866868496
0.0276824701577425,0.011343147605657578,-0.005732520017772913,-0.03951563313603401,0.007057682145386934,-0.02307480201125145
0.027429906651377678,0.011043999344110489,-0.005806254222989082,-0.0404563844203949,0.006176415830850601,-0.022809594869613647
0.02701392024755478,0.01160003524273634,-0.005826183594763279,-0.04156110808253288,0.006144396029412746,-0.02300415374338627
0.02704908512532711,0.011804373934864998,-0.005574492737650871,-0.03995624557137489,0.007340572774410248,-0.023305416107177734
0.026650462299585342,0.011060339398682117,-0.005845802370458841,-0.04117182642221451,0.007467909716069698,-0.023624448105692863
0.02671576477587223,0.011671843007206917,-0.005900879856199026,-0.04175719618797302,0.007073426153510809,-0.02377449721097946
0.026620712131261826,0.011228037066757679,-0.005673591513186693,-0.042630430310964584,0.006976549047976732,-0.024038774892687798
0.026708882302045822,0.011357149109244347,-0.005559871904551983,-0.04305548593401909,0.0070468406192958355,-0.024056661874055862
0.026783175766468048,0.012889173813164234,-0.005291213281452656,-0.04081808403134346,0.0069113485515117645,-0.023923324421048164
0.0263076014816761,0.012017224915325642,-0.006356667261570692,-0.04192608594894409,0.007289637345820665,-0.023766985163092613
0.026633065193891525,0.011848174966871738,-0.005894397385418415,-0.04277171567082405,0.007365463767200708,-0.02400122955441475
0.02665613405406475,0.011583623476326466,-0.005709213670343161,-0.04281805083155632,0.006866966374218464,-0.02395389787852764
0.026414521038532257,0.011958669871091843,-0.005421643611043692,-0.042331479489803314,0.006866219453513622,-0.02380877360701561
0.026089660823345184,0.011592000722885132,-0.005757025443017483,-0.042523663491010666,0.007150652352720499,-0.0237191841006279
0.027478791773319244,0.012105297297239304,-0.005872299894690514,-0.04326937347650528,0.006715460680425167,-0.023884817957878113
0.027465976774692535,0.01174627523869276,-0.006022899877279997,-0.04296576604247093,0.007356860674917698,-0.024419397115707397
0.026525257155299187,0.012034553103148937,-0.0054624611511826515,-0.04304298385977745,0.007607220206409693,-0.025172946974635124
0.02579011395573616,0.011937061324715614,-0.00596386194229126,-0.042940035462379456,0.007176310755312443,-0.024441516026854515
0.025976024568080902,0.012523939833045006,-0.005962254945188761,-0.04382798820734024,0.006710500456392765,-0.023888973519206047
0.026968874037265778,0.012101598083972931,-0.006322826258838177,-0.04427739977836609,0.0068342494778335094,-0.02364053763449192
0.026968874037265778,0.012101598083972931,-0.006322826258838177,-0.04427739977836609,0.0068342494778335094,-0.02364053763449192
0.026242809370160103,0.011832944117486477,-0.005675705149769783,-0.044729262590408325,0.00752715440467,-0.023600928485393524
0.026654040440917015,0.012319916859269142,-0.005776931531727314,-0.04340187460184097,0.007531730458140373,-0.02405903860926628
0.027829235419631004,0.0121903195977211,-0.005878645461052656,-0.04563751816749573,0.007032847031950951,-0.024471571668982506
0.0272216796875,0.013105406425893307,-0.0059206620790064335,-0.04637545347213745,0.006609885022044182,-0.02433563396334648
0.026972685009241104,0.01232740469276905,-0.006044367328286171,-0.04463275521993637,0.0069347890093922615,-0.024876032024621964
0.02628580667078495,0.01233576238155365,-0.00573990261182189,-0.045126721262931824,0.007616118527948856,-0.024825414642691612
0.02648366615176201,0.012441983446478844,-0.005508416332304478,-0.045358020812273026,0.007208464201539755,-0.024161571636795998
0.027899032458662987,0.012192022986710072,-0.005590721964836121,-0.047595299780368805,0.007146946154534817,-0.023722173646092415
0.02782590501010418,0.012593129649758339,-0.005997716914862394,-0.0459863543510437,0.00774158351123333,-0.023638220503926277
0.02744804508984089,0.012250361032783985,-0.00650112796574831,-0.04425779730081558,0.007930542342364788,-0.024160394445061684
0.027268636971712112,0.012672970071434975,-0.005674649961292744,-0.04505150020122528,0.007682011462748051,-0.024885639548301697
0.027567218989133835,0.01278435904532671,-0.005787434987723827,-0.04540226235985756,0.007568189408630133,-0.025183159857988358
0.02789795584976673,0.013395446352660656,-0.005714602768421173,-0.046124693006277084,0.00682990625500679,-0.02509384974837303
0.02761448547244072,0.01313120499253273,-0.006281901150941849,-0.04547416418790817,0.007183371111750603,-0.025068586692214012
0.02771102823317051,0.01270204596221447,-0.005935186054557562,-0.045706089586019516,0.007302404846996069,-0.02499121055006981
0.028042245656251907,0.013099830597639084,-0.005901884753257036,-0.04609993100166321,0.0074235061183571815,-0.025638626888394356
0.02766982652246952,0.01278784591704607,-0.005643018521368504,-0.04602107033133507,0.007084133569151163,-0.025862907990813255
0.02766217105090618,0.013154443353414536,-0.005716835148632526,-0.0458495058119297,0.007151769939810038,-0.025648541748523712
0.0279574953019619,0.012935403734445572,-0.006200112868100405,-0.046004049479961395,0.007212372031062841,-0.02577401138842106
0.027639247477054596,0.013452352955937386,-0.006126968655735254,-0.04606323316693306,0.007228223606944084,-0.02575966902077198
0.028777271509170532,0.013811600394546986,-0.005567499436438084,-0.047412555664777756,0.007625505328178406,-0.025818852707743645
0.028911272063851357,0.013460466638207436,-0.0061586033552885056,-0.04764663428068161,0.0069693392142653465,-0.025846268981695175
0.028692342340946198,0.013795683160424232,-0.005730759352445602,-0.047887470573186874,0.007085312623530626,-0.02550405077636242
0.027967963367700577,0.014002556912600994,-0.00597186665982008,-0.04854544997215271,0.006993225309997797,-0.025793444365262985
0.02837423048913479,0.014466801658272743,-0.00606434466317296,-0.04916311055421829,0.007125400006771088,-0.0259046982973814
0.02928905189037323,0.014154897071421146,-0.005402154289186001,-0.04906271770596504,0.006966453976929188,-0.02599492482841015
0.028580142185091972,0.013937801122665405,-0.006040872540324926,-0.05083005130290985,0.007022160105407238,-0.026183193549513817
0.02923544868826866,0.013496343046426773,-0.005599087569862604,-0.04990195110440254,0.006828592158854008,-0.026077648624777794
0.030189551413059235,0.013929787091910839,-0.006518257781863213,-0.04828045144677162,0.007257711607962847,-0.02609282359480858
0.029084403067827225,0.014459019526839256,-0.005987146869301796,-0.04938551038503647,0.007279425393790007,-0.02607007510960102
0.028621500357985497,0.014817267656326294,-0.00577782467007637,-0.050462741404771805,0.006973688956350088,-0.02696540392935276
0.028621500357985497,0.014817267656326294,-0.00577782467007637,-0.050462741404771805,0.006973688956350088,-0.02696540392935276
0.028857290744781494,0.014411523006856441,-0.0058104791678488255,-0.051431331783533096,0.007318978197872639,-0.02751779556274414
0.03042418323457241,0.01415664330124855,-0.0059336088597774506,-0.04882456362247467,0.007307048887014389,-0.027154091745615005
0.030255883932113647,0.014551249332726002,-0.005899634212255478,-0.05100589245557785,0.007401140406727791,-0.025786859914660454
0.030255883932113647,0.014551249332726002,-0.005899634212255478,-0.05100589245557785,0.007401140406727791,-0.025786859914660454
0.029924124479293823,0.014110486023128033,-0.005817007273435593,-0.050870802253484726,0.007285407744348049,-0.027087654918432236
0.030104225501418114,0.014305561780929565,-0.00541276391595602,-0.05119406804442406,0.007444754708558321,-0.027527375146746635
0.030386563390493393,0.014566652476787567,-0.005280810873955488,-0.051295772194862366,0.007478692568838596,-0.026788853108882904
0.030356038361787796,0.014388822950422764,-0.005501913372427225,-0.05149904638528824,0.007523661945015192,-0.027264976873993874
0.0303852129727602,0.014944881200790405,-0.0055457414127886295,-0.05135227367281914,0.00745509983971715,-0.02822156995534897
0.030922969803214073,0.014687992632389069,-0.005480180494487286,-0.051533643156290054,0.00768965994939208,-0.02684975601732731
0.030653193593025208,0.014233116060495377,-0.005495508201420307,-0.051305487751960754,0.007998195476830006,-0.026085862889885902
0.030697841197252274,0.014860216528177261,-0.0054386816918849945,-0.04987717792391777,0.007634485140442848,-0.026688143610954285
0.030543001368641853,0.01532914862036705,-0.005514032673090696,-0.051487769931554794,0.007179838605225086,-0.027923285961151123
0.030867189168930054,0.015576650388538837,-0.005669213365763426,-0.052864834666252136,0.007472126744687557,-0.02706015855073929
0.0313149020075798,0.015050088055431843,-0.005603807512670755,-0.0506717711687088,0.008082368411123753,-0.026933077722787857
0.031131135299801826,0.014906085096299648,-0.005560267250984907,-0.0502704381942749,0.008419808000326157,-0.027253109961748123
0.031197743490338326,0.014628098346292973,-0.005519538186490536,-0.05060200020670891,0.00803294312208891,-0.02724904753267765
0.0320628322660923,0.015255074948072433,-0.005422342102974653,-0.052594926208257675,0.007637799251824617,-0.02766498178243637
0.03199273720383644,0.015625275671482086,-0.005596374627202749,-0.05043140426278114,0.00758720375597477,-0.02799946255981922
0.03183791786432266,0.015257084742188454,-0.005349962040781975,-0.051591578871011734,0.0076637109741568565,-0.028035182505846024
