davideferrari95/blind_handover_controller/data/Test 152 - [2024-02-08 -- 10-56-45]/joint_states_data.csv
shoulder_pan_joint,shoulder_lift_joint,elbow_joint,wrist_1_joint,wrist_2_joint,wrist_3_joint
-0.00840130914002657,-0.01776149682700634,5.6573062465758994e-05,0.016795970499515533,-0.0,-0.006173917558044195
-0.00840130914002657,-0.01776149682700634,5.6573062465758994e-05,0.016795970499515533,-0.0,-0.006173917558044195
-0.008446544408798218,-0.018499275669455528,2.195471552113304e-06,0.017329946160316467,-0.0,-0.006273002829402685
-0.007953515276312828,-0.01835189387202263,2.945505350737676e-08,0.017283475026488304,-0.0,-0.006100340746343136
-0.007755393628031015,-0.017711875960230827,3.9517711325487426e-10,0.017783235758543015,-0.0,-0.005958203226327896
-0.007836309261620045,-0.018030507490038872,5.301804568286217e-12,0.01789177767932415,-0.0,-0.005656196735799313
-0.007555981166660786,-0.017868787050247192,7.113047943620859e-14,0.01589352823793888,-0.0,-0.006019400432705879
-0.007765704300254583,-0.018215222284197807,9.5430617601315e-16,0.016907963901758194,-0.0,-0.0062082745134830475
-0.007738705258816481,-0.018175851553678513,1.2803235524354996e-17,0.017075955867767334,-0.0,-0.005924805533140898
-0.008047363720834255,-0.017641572281718254,1.7177173146669645e-19,0.01829264499247074,-0.0,-0.006028254982084036
-0.007588071282953024,-0.018093230202794075,2.3045373034762393e-21,0.01892807148396969,-0.0,-0.005844620987772942
-0.008106053806841373,-0.017270125448703766,3.091831139664473e-23,0.01851530559360981,-0.0,-0.005947979167103767
-0.007138654123991728,-0.017910636961460114,4.148086033370145e-25,0.018490131944417953,-0.0,-0.006377659272402525
-0.006721224635839462,-0.01786673627793789,5.565187196972778e-27,0.01822209358215332,-0.0,-0.005854003597050905
-0.006638368591666222,-0.01774386130273342,7.466409097213979e-29,0.01729949191212654,-0.0,-0.005922538228332996
-0.006638368591666222,-0.01774386130273342,7.466409097213979e-29,0.01729949191212654,-0.0,-0.005922538228332996
-0.006701646372675896,-0.01826765201985836,1.00171415605322e-30,0.017548732459545135,-0.0,-0.006428183987736702
-0.007078471593558788,-0.0180633757263422,1.3439274098685606e-32,0.018080906942486763,-0.0,-0.006526075769215822
-0.006978337187319994,-0.01771147921681404,1.803050147519257e-34,0.017810679972171783,-0.0,-0.006355321500450373
-0.006889337208122015,-0.01817895844578743,2.4190217645083203e-36,0.01766994781792164,-0.0,-0.006500434596091509
-0.006443284451961517,-0.017943058162927628,3.245426581295084e-38,0.01714427024126053,-0.0,-0.006198482122272253
-0.0069257705472409725,-0.01828140579164028,4.354156627304001e-40,0.01729453168809414,-0.0,-0.006096521392464638
-0.0067236884497106075,-0.01779899001121521,7.847271400218976e-44,0.017021752893924713,-0.0,-0.006483009085059166
-0.006584608927369118,-0.018059900030493736,1.401298464324817e-45,0.01757235638797283,-0.0,-0.006109771318733692
-0.0072851357981562614,-0.01808614283800125,0.0,0.017142295837402344,-0.0,-0.006238432135432959
-0.006769601721316576,-0.017845965921878815,-0.0,0.01721879467368126,-0.0,-0.006320993881672621
-0.006264191586524248,-0.018358664587140083,-0.0,0.01701873354613781,-0.0,-0.006264541298151016
-0.006709297187626362,-0.019058292731642723,-0.0,0.016983352601528168,-0.0,-0.005937529262155294
-0.006836045999079943,-0.01793941855430603,-0.0,0.017174851149320602,-0.0,-0.005817024037241936
-0.006628389470279217,-0.017805004492402077,-0.0,0.016382835805416107,-0.0,-0.005868901032954454
-0.006438461132347584,-0.017723560333251953,-0.0,0.017198996618390083,-0.0,-0.006018010899424553
-0.006510313134640455,-0.018354838714003563,-0.0,0.017263174057006836,-0.0,-0.0060740141198039055
-0.005853398237377405,-0.01840050332248211,-0.0,0.01719912886619568,-0.0,-0.005868452601134777
-0.006142713129520416,-0.01826239377260208,-0.0,0.017005693167448044,-0.0,-0.005770802963525057
-0.006750309374183416,-0.018431831151247025,-0.0,0.016917377710342407,-0.0,-0.005786897148936987
-0.006734022870659828,-0.018060334026813507,-0.0,0.017711931839585304,-0.0,-0.0060021765530109406
-0.006140056066215038,-0.01835232600569725,-0.0,0.017719538882374763,-0.0,-0.005848471540957689
-0.006269797217100859,-0.01877291314303875,-0.0,0.017330152913928032,-0.0,-0.005752846598625183
-0.006125234067440033,-0.01803465373814106,-0.0,0.017502449452877045,-0.0,-0.005723068490624428
-0.006528057623654604,-0.018109984695911407,-0.0,0.016993727535009384,-0.0,-0.006244094111025333
-0.0064704278483986855,-0.018078461289405823,-0.0,0.017195094376802444,-0.0,-0.0064232260920107365
-0.0062571302987635136,-0.018051613122224808,-0.0,0.017382720485329628,-0.0,-0.006147876847535372
-0.005880482029169798,-0.01824868470430374,-0.0,0.017360340803861618,-0.0,-0.0060607679188251495
-0.006254993379116058,-0.017953023314476013,-0.0,0.017292287200689316,-0.0,-0.006442436017096043
-0.006254993379116058,-0.017953023314476013,-0.0,0.017292287200689316,-0.0,-0.006442436017096043
-0.006307175382971764,-0.01768704690039158,-0.0,0.016792627051472664,-0.0,-0.006403461564332247
-0.005975236184895039,-0.01832195371389389,-0.0,0.017229896038770676,-0.0,-0.0065401154570281506
-0.0059445020742714405,-0.017589598894119263,-0.0,0.017129119485616684,-0.0,-0.006400248967111111
-0.005839897785335779,-0.01762945018708706,-0.0,0.017066089436411858,-0.0,-0.005681200884282589
-0.006452977191656828,-0.017700809985399246,-0.0,0.015839768573641777,-0.0,-0.006672436837106943
-0.005915735848248005,-0.017825743183493614,-0.0,0.016265513375401497,-0.0,-0.0064195068553090096
-0.005780443549156189,-0.017127593979239464,-0.0,0.01609332486987114,-0.0,-0.006215874571353197
-0.005315274465829134,-0.017375009134411812,-0.0,0.016250088810920715,-0.0,-0.005704104900360107
-0.00596999516710639,-0.01769079826772213,-0.0,0.015926243737339973,-0.0,-0.005910990294069052
-0.006171183194965124,-0.017129527404904366,-0.0,0.01607934758067131,-0.0,-0.005753075238317251
-0.005854220129549503,-0.017704764381051064,-0.0,0.015857037156820297,-0.0,-0.006342473439872265
-0.005998851265758276,-0.016798149794340134,-0.0,0.014849747531116009,-0.0,-0.006330227944999933
-0.005857659969478846,-0.01702413521707058,-0.0,0.01618126593530178,-0.0,-0.005819132551550865
-0.0059057739563286304,-0.01749972626566887,-0.0,0.016732314601540565,-0.0,-0.005938660819083452
-0.006505778059363365,-0.017241496592760086,-0.0,0.016793182119727135,-0.0,-0.006417618598788977
-0.006505778059363365,-0.017241496592760086,-0.0,0.016793182119727135,-0.0,-0.006417618598788977
-0.005883561447262764,-0.018051190301775932,-0.0,0.016044167801737785,-0.0,-0.0065919277258217335
-0.0057957787066698074,-0.01634429208934307,-0.0,0.016250204294919968,-6.274856332311174e-06,-0.006129289511591196
-0.0054497490637004375,-0.01659926027059555,-0.0,0.016319477930665016,-4.097032899608166e-07,-0.006177512928843498
-0.0060788230039179325,-0.017195530235767365,-0.0,0.0162916649132967,-2.675069765700755e-08,-0.005992293357849121
-0.006309493910521269,-0.016302788630127907,-0.0,0.016335168853402138,-1.7466293966705848e-09,-0.005887836683541536
-0.0056601096875965595,-0.01694389432668686,-0.0,0.01600331999361515,-1.1404241440082785e-10,-0.006443370599299669
-0.005837954115122557,-0.0164602342993021,-0.0,0.016505533829331398,-7.446154803858462e-12,-0.006248271092772484
-0.0056326426565647125,-0.0172042828053236,-0.0,0.016281167045235634,-4.861807571115984e-13,-0.0060810549184679985
-0.005569744855165482,-0.01704048365354538,-0.0,0.01654958352446556,-3.174412501524143e-14,-0.006451735273003578
-0.005792867857962847,-0.01644463837146759,-0.0,0.016298700124025345,-2.072664634459329e-15,-0.0066961911506950855
-0.006295171566307545,-0.01658022589981556,-0.0,0.01613132283091545,-8.836093850162926e-18,-0.006187134888023138
-0.0054555186070501804,-0.01721809431910515,-0.0,0.015880290418863297,-5.769338169337251e-19,-0.005892625078558922
-0.006036456674337387,-0.01653553731739521,-0.0,0.01635304093360901,-3.7669653230474294e-20,-0.005930496845394373
-0.005861845798790455,-0.016630135476589203,-0.0,0.015936464071273804,-2.459559351321773e-21,-0.006369415670633316
-0.00580113660544157,-0.016234129667282104,-0.0,0.016226312145590782,-1.6059165827188364e-22,-0.006132152397185564
-0.005600030533969402,-0.016201088204979897,-0.0,0.01588321290910244,-1.0485487087377944e-23,-0.005986176431179047
-0.005418805871158838,-0.01628914661705494,-0.0,0.016088824719190598,-6.846273333075754e-25,-0.006021241191774607
-0.0055262246169149876,-0.016291458159685135,-0.0,0.01587723195552826,-4.470127158051111e-26,-0.006121076177805662
-0.00567752867937088,-0.016829099506139755,-0.0,0.015908295288681984,-2.9186736453809692e-27,-0.0062634628266096115
-0.005617879331111908,-0.016771307215094566,-0.0,0.01612667739391327,-1.9056851706649449e-28,-0.006635913625359535
-0.005459290463477373,-0.01819121465086937,-0.0,0.015919238328933716,-1.2442763056787318e-29,-0.006242713890969753
-0.005386977456510067,-0.016070589423179626,-0.0,0.016676904633641243,-8.124234543843744e-31,-0.00609940942376852
-0.0055120522156357765,-0.016176411882042885,-0.0,0.016459688544273376,-5.304544623728286e-32,-0.006424725521355867
-0.0052300249226391315,-0.016890352591872215,-0.0,0.016757236793637276,-3.463488310206296e-33,-0.006125601939857006
-0.005470873787999153,-0.016612261533737183,-0.0,0.016311215236783028,-2.261410292393407e-34,-0.006009588949382305
-0.0056620510295033455,-0.016787253320217133,-0.0,0.015859385952353477,-1.476539429820022e-35,-0.0064219944179058075
-0.005501207895576954,-0.01644519343972206,-0.0,0.015472088940441608,-9.64074689370317e-37,-0.006301500368863344
-0.005494311451911926,-0.016631154343485832,-0.0,0.015480702742934227,-6.294719021732481e-38,-0.006124359555542469
-0.005457756575196981,-0.016811823472380638,-0.0,0.01614457741379738,-4.110001389372367e-39,-0.006447311490774155
-0.005457756575196981,-0.016811823472380638,-0.0,0.01614457741379738,-4.110001389372367e-39,-0.006447311490774155
-0.005411386489868164,-0.016988324001431465,-0.0,0.016289155930280685,-1.7521835997917513e-41,-0.005924568511545658
-0.005411386489868164,-0.016988324001431465,-0.0,0.016289155930280685,-1.7521835997917513e-41,-0.005924568511545658
-0.005493991542607546,-0.016696054488420486,-0.0,0.015946105122566223,-1.1434595468890507e-42,-0.006094001233577728
-0.005180160515010357,-0.016874391585588455,-0.0,0.01649501547217369,-7.42688186092153e-44,-0.005783488042652607
-0.005338621791452169,-0.01675236038863659,-0.0,0.015951870009303093,-4.203895392974451e-45,-0.006324757356196642
-0.005183015950024128,-0.016468411311507225,-0.0,0.01663634367287159,-0.0,-0.006638443097472191
-0.005550427827984095,-0.016598723828792572,-0.0,0.015644177794456482,-0.0,-0.00663259020075202
-0.005189884454011917,-0.017063535749912262,-0.0,0.016043104231357574,-0.0,-0.0067266011610627174
-0.004832268226891756,-0.016606958582997322,-0.0,0.014985290355980396,-0.0,-0.00688274996355176
-0.004746048245579004,-0.016806256026029587,-0.0,0.014813272282481194,-0.0,-0.006196937989443541
-0.004822960123419762,-0.01679624430835247,-0.0,0.01425174344331026,-0.0,-0.006547950673848391
-0.005057341419160366,-0.016441449522972107,-0.0,0.015077635645866394,-0.0,-0.006786980666220188
-0.004793139174580574,-0.01705346070230007,-0.0,0.014850916340947151,-0.0,-0.0068479604087769985
-0.004818727262318134,-0.016597967594861984,-0.0,0.015602474100887775,-0.0,-0.006874588318169117
-0.004992540925741196,-0.016826041042804718,-0.0,0.015089936554431915,-0.0,-0.006832146551460028
-0.004831391852349043,-0.016595961526036263,-0.0,0.014524003490805626,-0.0,-0.006797182839363813
-0.004901742096990347,-0.01642655022442341,-0.0,0.015481184236705303,-0.0,-0.006930573843419552
-0.0048719714395701885,-0.01647484116256237,-0.0,0.015857571735978127,-0.0,-0.0067441705614328384
-0.0051659694872796535,-0.016241680830717087,-0.0,0.015438809059560299,-0.0,-0.006517506670206785
-0.004985413979738951,-0.0168568454682827,-0.0,0.015022577717900276,-0.0,-0.0065709808841347694
-0.004533927887678146,-0.016630418598651886,-0.0,0.015231071040034294,-0.0,-0.006373659707605839
-0.004657008685171604,-0.01692584529519081,-0.0,0.015366858802735806,0.0003488225338514894,-0.006628069560974836
-0.004657008685171604,-0.01692584529519081,-0.0,0.015366858802735806,0.0003488225338514894,-0.006628069560974836
-0.005121056456118822,-0.01706729456782341,-0.0,0.015299730002880096,0.00040440354496240616,-0.00671093026176095
-0.00490453839302063,-0.016703948378562927,-0.0,0.015022962354123592,0.00037627705023624003,-0.006485647987574339
-0.00461575947701931,-0.017050379887223244,-0.0,0.01551430020481348,0.000407548388466239,-0.006215185392647982
-0.004944221116602421,-0.016431264579296112,-0.0,0.015083751641213894,0.00038655681419186294,-0.006455839145928621
-0.004513051826506853,-0.016623321920633316,-0.0,0.01496895868331194,0.00036121977609582245,-0.006773222703486681
-0.004503584001213312,-0.016302242875099182,-0.0,0.014574038796126842,0.0003801377024501562,-0.006769540719687939
-0.004681871272623539,-0.016685280948877335,-0.0,0.01461593247950077,0.00037073795101605356,-0.006441280245780945
-0.005008355714380741,-0.016693903133273125,-0.0,0.013981519266963005,0.00037536112358793616,-0.006355976220220327
-0.0048833792097866535,-0.016857217997312546,-0.0,0.014031407423317432,0.00037827357300557196,-0.006786514073610306
-0.004214426036924124,-0.01642315462231636,-0.0,0.014429887756705284,0.000437183742178604,-0.0065625817514956
-0.004058863967657089,-0.016940241679549217,-0.0,0.014166275039315224,0.0004380576137918979,-0.006295092403888702
-0.004330780357122421,-0.016649659723043442,-0.0,0.014694364741444588,0.0004659961850848049,-0.006483409088104963
-0.004538558889180422,-0.016821544617414474,-0.0,0.013781754299998283,0.00044147123116999865,-0.006753311958163977
-0.004643791355192661,-0.017230963334441185,-0.0,0.014101020991802216,0.00046793223009444773,-0.00731753371655941
-0.004109659697860479,-0.016217684373259544,-0.0,0.01398415956646204,0.0005700589972548187,-0.007102299481630325
-0.0040359459817409515,-0.016974564641714096,-0.0,0.01416777353733778,0.0006128392415121198,-0.006428827531635761
-0.004039359744638205,-0.016139930114150047,-0.0,0.013578660786151886,0.0005986207979731262,-0.006518655456602573
-0.003951337654143572,-0.017019694671034813,-0.0,0.013343855738639832,0.0005813000607304275,-0.006583400070667267
-0.0042405035346746445,-0.01671210117638111,-0.0,0.013448525220155716,0.0005275451694615185,-0.0071367849595844746
-0.004049353301525116,-0.016507932916283607,-0.0,0.01409341674298048,0.0004807254299521446,-0.006701071280986071
-0.004426939878612757,-0.016764916479587555,-0.0,0.014583772048354149,0.00044140126556158066,-0.006843542214483023
-0.004136955831199884,-0.016587408259510994,-0.0,0.014526262879371643,0.00046671152813360095,-0.006729132495820522
-0.0039021004922688007,-0.01693660020828247,-0.0,0.01400879118591547,0.000441952608525753,-0.006809660699218512
-0.0038607828319072723,-0.016202429309487343,-0.0,0.013837111182510853,0.0004134558839723468,-0.006306211929768324
-0.004314914811402559,-0.016742246225476265,-0.0,0.014050783589482307,0.00042882547131739557,-0.005947532132267952
-0.004314914811402559,-0.016742246225476265,-0.0,0.014050783589482307,0.00042882547131739557,-0.005947532132267952
-0.004196588881313801,-0.018312474712729454,-0.0,0.014185622334480286,0.00041675101965665817,-0.00639121700078249
-0.003976780921220779,-0.015868252143263817,-0.0,0.015072251670062542,0.00039473033393733203,-0.006809796206653118
-0.0040631042793393135,-0.016317417845129967,-0.0,0.013675445690751076,0.0003475200792308897,-0.006843930575996637
-0.004005491733551025,-0.01642666943371296,-0.0,0.013098582625389099,0.00031987953116185963,-0.006789480336010456
-0.003710061078891158,-0.016909349709749222,-0.0,0.012356228195130825,0.00032745994394645095,-0.006586747709661722
-0.003435333725064993,-0.016201743856072426,-0.0,0.012984532862901688,0.0003338432579766959,-0.006415561772882938
-0.0035888543352484703,-0.016377856954932213,-0.0,0.012024641036987305,0.0003417000116314739,-0.006941213272511959
-0.003989712335169315,-0.016844425350427628,-0.0,0.012119011953473091,0.0003466825874056667,-0.006831602193415165
-0.0039493427611887455,-0.016229433938860893,-0.0,0.012092947028577328,0.00037089744000695646,-0.006807764060795307
-0.0037623546086251736,-0.015649978071451187,-0.0,0.01268400065600872,0.0006656725890934467,-0.006807458121329546
-0.004197943955659866,-0.015660200268030167,-0.0,0.012297590263187885,0.0007151023019105196,-0.006842271890491247
-0.004101462196558714,-0.015201849862933159,-0.0,0.012374564073979855,0.000745015568099916,-0.007336665876209736
-0.0035259490832686424,-0.016019336879253387,-0.0,0.0118745481595397,0.0012726607965305448,-0.007055223453789949
-0.0035060232039541006,-0.01561011653393507,-0.0,0.012009668163955212,0.0012717173667624593,-0.006842170841991901
-0.0035943742841482162,-0.01551459077745676,-0.0,0.011846860870718956,0.0011484265560284257,-0.006578597705811262
-0.0036453362554311752,-0.01518804207444191,-0.0,0.011857607401907444,0.0011095623485744,-0.006891250144690275
-0.0036872655618935823,-0.015230308286845684,-0.0,0.011916696093976498,0.0009748609736561775,-0.0073675308376550674
-0.004209686070680618,-0.015392487868666649,-0.0,0.01151072047650814,0.0008035997161641717,-0.007556576747447252
-0.0036727881524711847,-0.015495600178837776,-0.0,0.011800987645983696,0.0008073890348896384,-0.007056309841573238
-0.003320489777252078,-0.01554469857364893,-0.0,0.011929767206311226,0.00079528265632689,-0.007218106649816036
-0.003212152048945427,-0.015160522423684597,-0.0,0.011526479385793209,0.0007798238657414913,-0.0075109838508069515
-0.003527012886479497,-0.015310030430555344,-0.0,0.01183620747178793,0.0007514742901548743,-0.006912116892635822
-0.0037981041241437197,-0.014760824851691723,-0.0,0.011031663976609707,0.0008229136583395302,-0.006660355255007744
-0.0034316082019358873,-0.015367220155894756,-0.0,0.01200912706553936,0.0008369134156964719,-0.007037807255983353
-0.00350933731533587,-0.015045990236103535,-0.0,0.01291557215154171,0.0008591350633651018,-0.007254322990775108
-0.003688214113935828,-0.015149017795920372,-0.0,0.012360201217234135,0.0011947595048695803,-0.007186275906860828
-0.003782142186537385,-0.014960580505430698,-0.0,0.011829028837382793,0.0012274312321096659,-0.006880330387502909
-0.003782142186537385,-0.014960580505430698,-0.0,0.011829028837382793,0.0012274312321096659,-0.006880330387502909
-0.0033836893271654844,-0.014774544164538383,-0.0,0.011903335340321064,0.001169427763670683,-0.007179358042776585
-0.0033836893271654844,-0.014774544164538383,-0.0,0.011903335340321064,0.001169427763670683,-0.007179358042776585
-0.0031990751158446074,-0.015033528208732605,-0.0,0.011325567029416561,0.001140004605986178,-0.007709193509072065
-0.003222683211788535,-0.014559080824255943,-0.0,0.011520407162606716,0.0010988040594384074,-0.007192560937255621
-0.003323501208797097,-0.01506776176393032,-0.0,0.011516209691762924,0.001080450601875782,-0.006844609510153532
-0.0033439784310758114,-0.014704236760735512,-0.0,0.0109094912186265,0.001133460202254355,-0.00692439591512084
-0.0032219060231000185,-0.014947529882192612,-7.447248935932294e-05,0.011665613390505314,0.0010156912030652165,-0.007277606520801783
-0.0031734441872686148,-0.014535542577505112,-5.9119269280927256e-05,0.011059376411139965,0.0009535715798847377,-0.0071287876926362514
-0.0033656531013548374,-0.014112906530499458,-5.79726547584869e-05,0.011256742291152477,0.0008794793975539505,-0.00724659813567996
-0.0035615793894976377,-0.01461226399987936,-0.00018405012087896466,0.010713670402765274,0.0008520352421328425,-0.007067106664180756
-0.0028891251422464848,-0.014241223223507404,-0.00015721723320893943,0.010781219229102135,0.0008572139195166528,-0.006931914947926998
-0.0027518626302480698,-0.014502556063234806,-0.00013387094077188522,0.010901260189712048,0.0008916371152736247,-0.007108435966074467
-0.0026037662755697966,-0.013874710537493229,-0.00011652112152660266,0.010120255872607231,0.0010266297031193972,-0.007439013570547104
-0.0030198595486581326,-0.014009984210133553,-0.00010315544932382181,0.010277866385877132,0.0011957830283790827,-0.007956227287650108
-0.003016077447682619,-0.013678370974957943,-0.00015274793258868158,0.010332036763429642,0.0011791714932769537,-0.007826278917491436
-0.002923938911408186,-0.014163096435368061,-0.00016738538397476077,0.010032023303210735,0.0014081739354878664,-0.007466497831046581
-0.0028863491024821997,-0.013664995320141315,-0.00015349614841397852,0.010623118840157986,0.001334484899416566,-0.00774528831243515
-0.0029063611291348934,-0.01410230528563261,-0.00014143603038974106,0.010596619918942451,0.0011761828791350126,-0.007650456856936216
-0.0028851558454334736,-0.013325716368854046,-0.0001311300729867071,0.010020466521382332,0.001126886927522719,-0.007426508702337742
-0.002734806388616562,-0.013664952479302883,-0.0001222237478941679,0.01006412785500288,0.000976627110503614,-0.00711361039429903
-0.0026463691610842943,-0.013169173151254654,-0.00011445092968642712,0.010478818789124489,0.000810315425042063,-0.007186301983892918
-0.002750425599515438,-0.013609267771244049,-0.00010760725126601756,0.010266111232340336,0.0008135474636219442,-0.007732601370662451
-0.0028423157054930925,-0.013450723141431808,-0.0001015363959595561,0.010690602473914623,0.0007708665798418224,-0.007407564204186201
-0.0029325669165700674,-0.013472809456288815,-0.00013845153443980962,0.009786161594092846,0.0007320688455365598,-0.00709398090839386
-0.0026933797635138035,-0.012950989417731762,-0.00013678544200956821,0.010137948207557201,0.0007397014414891601,-0.007270963862538338
-0.0025806480553001165,-0.012665496207773685,-0.00013025791849941015,0.009916512295603752,0.0006987291853874922,-0.00791122019290924
-0.0026736825238913298,-0.013326535932719707,-0.00012426341709215194,0.009543501771986485,0.0007202689303085208,-0.007646806072443724
-0.0026736825238913298,-0.013326535932719707,-0.00012426341709215194,0.009543501771986485,0.0007202689303085208,-0.007646806072443724
-0.002712721936404705,-0.013097045011818409,-0.00011879556404892355,0.009259349666535854,0.0008007044671103358,-0.007654423825442791
-0.002847429597750306,-0.012717355974018574,-0.00011378877388779074,0.009327986277639866,0.001016090507619083,-0.007677772082388401
-0.0030322105158120394,-0.013217131607234478,-0.0001399168249918148,0.009023120626807213,0.0012433921219781041,-0.006942680571228266
-0.0030322105158120394,-0.013217131607234478,-0.0001399168249918148,0.009023120626807213,0.0012433921219781041,-0.006942680571228266
-0.0025443516205996275,-0.012481330893933773,-0.00013468846736941487,0.009082017466425896,0.0011411597952246666,-0.007040809839963913
-0.0023328952956944704,-0.012451502494513988,-0.00012983092165086418,0.008610090240836143,0.0012142916675657034,-0.0075149983167648315
-0.0024003125727176666,-0.012691021896898746,-0.00017475923232268542,0.008454615250229836,0.0011624451726675034,-0.007547841407358646
-0.0023464986588805914,-0.012484624050557613,-0.00017425029363948852,0.008578055538237095,0.001120512722991407,-0.007412518374621868
-0.002636522054672241,-0.012861411087214947,-0.0002009345917031169,0.00843916554003954,0.0010597677901387215,-0.007088607642799616
-0.00258660688996315,-0.01226075179874897,-0.00019415532005950809,0.008024697192013264,0.0010043027577921748,-0.007486387621611357
-0.002138521522283554,-0.012107780203223228,-0.00020096154185011983,0.007806569803506136,0.0010053225560113788,-0.00782572478055954
-0.0020460064988583326,-0.012674381025135517,-0.00020432691962923855,0.007366608828306198,0.0010403869673609734,-0.0073301224038004875
-0.002054924611002207,-0.012458930723369122,-0.00022518550395034254,0.006852429825812578,0.0011381966760382056,-0.007781511638313532
-0.00206354889087379,-0.01245446689426899,-0.00021941630984656513,0.007260448765009642,0.0011443952098488808,-0.0077531044371426105
-0.002384705003350973,-0.01224441360682249,-0.0003800273407250643,0.00810687243938446,0.0012438645353540778,-0.007405462674796581
-0.002163645578548312,-0.012000521644949913,-0.0004256380198057741,0.007877489551901817,0.0012385863810777664,-0.007284159772098064
-0.0021623498760163784,-0.012502542696893215,-0.00044069113209843636,0.007242810446768999,0.0011787496041506529,-0.007962296716868877
-0.002052934607490897,-0.011916805990040302,-0.00043016509152948856,0.007292246911674738,0.0011342230718582869,-0.00832351390272379
-0.00202019140124321,-0.012128423899412155,-0.0004571852623485029,0.007475549820810556,0.0011371662840247154,-0.007802261505275965
-0.0019511261489242315,-0.012445797212421894,-0.0004330833617132157,0.007331660948693752,0.0011010195594280958,-0.007689272053539753
-0.0019676857627928257,-0.01218130998313427,-0.0004431820416357368,0.006757013499736786,0.0011053422931581736,-0.0077614570036530495
-0.0021932916715741158,-0.012576611712574959,-0.0004349443770479411,0.007358045782893896,0.001133639831095934,-0.007729067001491785
-0.002155408961698413,-0.012210258282721043,-0.0005360519862733781,0.007612442132085562,0.0011306244414299726,-0.007940728217363358
-0.002229290781542659,-0.013724414631724358,-0.0005471082404255867,0.007532027084380388,0.0010927708353847265,-0.007544967345893383
-0.0021282576490193605,-0.011373428627848625,-0.0005241459584794939,0.007254242897033691,0.0010638585081323981,-0.007379812654107809
-0.0019695248920470476,-0.011871146969497204,-0.00047812567208893597,0.007304155733436346,0.0010092982556670904,-0.007894889451563358
-0.0017590699717402458,-0.012103734537959099,-0.0004869904660154134,0.007312485482543707,0.0011166707845404744,-0.0075460453517735004
-0.0016314551467075944,-0.011827233247458935,-0.0004735345719382167,0.007634865585714579,0.0011142352595925331,-0.007903133518993855
-0.001682515605352819,-0.012469089590013027,-0.0005027631996199489,0.007156047038733959,0.001591195585206151,-0.007909652777016163
-0.001682515605352819,-0.012469089590013027,-0.0005027631996199489,0.007156047038733959,0.001591195585206151,-0.007909652777016163
-0.001820188364945352,-0.011343797668814659,-0.0005460807005874813,0.007011250592768192,0.0015653165755793452,-0.008259388618171215
-0.0018468624912202358,-0.011404844000935555,-0.0005209696828387678,0.007153558079153299,0.0017766448436304927,-0.0079163433983922
-0.0017001194646582007,-0.011646929197013378,-0.0005493947537615895,0.007071269676089287,0.0017541168490424752,-0.007638376671820879
-0.0016580269439145923,-0.011335320770740509,-0.000582259614020586,0.007258476689457893,0.0015609704423695803,-0.007678268942981958
-0.0016429347451776266,-0.011579658836126328,-0.0006096017896197736,0.006961480248719454,0.0013921974459663033,-0.008317430503666401
-0.0015382944839075208,-0.01096973568201065,-0.0005755374440923333,0.0070954253897070885,0.0012869836064055562,-0.007909340783953667
-0.0015994634013623,-0.011837671510875225,-0.000717609073035419,0.006690762005746365,0.0012394607765600085,-0.008085774257779121
-0.0014861226081848145,-0.011454404331743717,-0.0007404376519843936,0.006227177567780018,0.0011716006556525826,-0.008429627865552902
-0.0015266118571162224,-0.0111570805311203,-0.0007597520016133785,0.00612638657912612,0.0012703065294772387,-0.008241917937994003
-0.0015406360616907477,-0.011370828375220299,-0.0007749199867248535,0.0061699505895376205,0.001396716688759625,-0.007953651249408722
-0.0015188142424449325,-0.010496624745428562,-0.0008900500251911581,0.0061408341862261295,0.001592109678313136,-0.007790566887706518
-0.0013956337934359908,-0.011827445589005947,-0.0008878065855242312,0.005800314247608185,0.0016013968270272017,-0.008249560371041298
-0.0012760693207383156,-0.010608622804284096,-0.0008892405312508345,0.006064955610781908,0.0014760291669517756,-0.008033200167119503
-0.001217450713738799,-0.010525977239012718,-0.0011189032811671495,0.00577525794506073,0.001366451266221702,-0.007999865338206291
-0.001270777778699994,-0.010843918658792973,-0.0012080534361302853,0.0059091816656291485,0.0011333262082189322,-0.0077037811279296875
-0.0012763505801558495,-0.009988154284656048,-0.001099815359339118,0.0053221313282847404,0.001203829306177795,-0.007958955131471157
-0.0012425140012055635,-0.010234334506094456,-0.0013744073221459985,0.005205772817134857,0.00119332957547158,-0.008001674897968769
-0.0011920498218387365,-0.010438204742968082,-0.0012960416497662663,0.00518726697191596,0.001636022119782865,-0.008458167314529419
-0.0011453726328909397,-0.009777682833373547,-0.0012326360447332263,0.005169040057808161,0.0015706722624599934,-0.008551236242055893
-0.0010600253008306026,-0.01033856999129057,-0.0012395632220432162,0.005456952843815088,0.001474314951337874,-0.008528213016688824
-0.0010338826104998589,-0.00996961910277605,-0.0012168488465249538,0.0051332274451851845,0.0013620422687381506,-0.008057710714638233
-0.0011102658463642001,-0.010029247030615807,-0.0011773488949984312,0.005105998367071152,0.0014141877181828022,-0.008179501630365849
-0.001174482866190374,-0.009967874735593796,-0.0013625388965010643,0.005201741121709347,0.0014305610675364733,-0.008148599416017532
-0.001177094760350883,-0.009803489781916142,-0.0014584456803277135,0.005135019309818745,0.0015221606008708477,-0.00825137086212635
-0.0010898095788434148,-0.009575633332133293,-0.0018842475255951285,0.005114556755870581,0.0018440413987264037,-0.008443773724138737
-0.0009705645497888327,-0.010029581375420094,-0.0018163080094382167,0.005379051435738802,0.001916163950227201,-0.008382062427699566
-0.0009563871426507831,-0.009590945206582546,-0.0015992129920050502,0.005514906253665686,0.0016790359513834119,-0.008146790787577629
-0.0008554590749554336,-0.009668626822531223,-0.0014607261400669813,0.005000420846045017,0.001413008663803339,-0.008060689084231853
-0.0007260405109263957,-0.009708095341920853,-0.0015142671763896942,0.004584039561450481,0.0013442420167848468,-0.008176499977707863
-0.0007260405109263957,-0.009708095341920853,-0.0015142671763896942,0.004584039561450481,0.0013442420167848468,-0.008176499977707863
-0.0007482451619580388,-0.009480183944106102,-0.001863122102804482,0.0041426713578403,0.0012658521300181746,-0.008125114254653454
-0.0007635931833647192,-0.010034196078777313,-0.0017492198385298252,0.0047713085077703,0.00110351643525064,-0.008303510025143623
-0.0007705778698436916,-0.00984417274594307,-0.0021383287385106087,0.005396153777837753,0.0011901392135769129,-0.00889182835817337
-0.0007092112791724503,-0.009160301648080349,-0.0019150801235809922,0.004761380609124899,0.0011747098760679364,-0.008297532796859741
-0.0007254043011926115,-0.008570355363190174,-0.0020397580228745937,0.004556253552436829,0.0015307161957025528,-0.008238306269049644
-0.000707186758518219,-0.009719878435134888,-0.0018847930477932096,0.004744177218526602,0.001577268005348742,-0.008803213946521282
-0.0006589535623788834,-0.009161559864878654,-0.0020400171633809805,0.004220801871269941,0.001699588494375348,-0.008953261189162731
-0.0005877063958905637,-0.008995277807116508,-0.0019120479701086879,0.0038664271123707294,0.0015915825497359037,-0.008745171129703522
-0.0005629977094940841,-0.009227435104548931,-0.002327884081751108,0.0041558342054486275,0.0012362190755084157,-0.008846473880112171
-0.0005168398492969573,-0.0089027788490057,-0.002195985522121191,0.00366431986913085,0.0012431632494553924,-0.008902297355234623
-0.0005448870942927897,-0.00878886878490448,-0.0020445191767066717,0.0036070665810257196,0.0012386668240651488,-0.008623480796813965
-0.0005073886131867766,-0.009634016081690788,-0.0019775875844061375,0.003711456898599863,0.0016476375749334693,-0.008663743734359741
-0.0004739895521197468,-0.0089299650862813,-0.0020112409256398678,0.0038347418885678053,0.0016801247838884592,-0.008597046136856079
-0.0004123478720430285,-0.008356956765055656,-0.002040429972112179,0.0033918358385562897,0.0021668090485036373,-0.008477830328047276
-0.00037679215893149376,-0.008296951651573181,-0.0023721179459244013,0.00299264770001173,0.00207346654497087,-0.008481895551085472
-0.00034765881719067693,-0.008736714720726013,-0.0024240200873464346,0.0029481477104127407,0.001781660714186728,-0.008789896965026855
-0.00032271930831484497,-0.007805435452610254,-0.002274434780701995,0.003117525251582265,0.0015895277028903365,-0.008530717343091965
-0.00030112022068351507,-0.008304174989461899,-0.0022383122704923153,0.003282618010416627,0.0014653444522991776,-0.008771011605858803
-0.00028223133995197713,-0.008248880505561829,-0.002238217741250992,0.0031537702307105064,0.0012908296193927526,-0.009197021834552288
-0.00026557239471003413,-0.007841679267585278,-0.0025732212234288454,0.002848332514986396,0.0013756384141743183,-0.008652392774820328
-0.0002507720491848886,-0.007548877503722906,-0.0024829793255776167,0.0025717876851558685,0.0019172363681718707,-0.008517405949532986
-0.00023753246932756156,-0.008089330047369003,-0.0022853051777929068,0.0026231473311781883,0.001902199350297451,-0.009058210067451
-0.00022562197409570217,-0.008370840921998024,-0.0022986060939729214,0.002644455060362816,0.002150758169591427,-0.008562331087887287
-0.0002148492931155488,-0.0076708984561264515,-0.0026397581677883863,0.002836032072082162,0.001924418262206018,-0.008555433712899685
-0.00020505819702520967,-0.007466546259820461,-0.002597026526927948,0.0025674866046756506,0.0015524044865742326,-0.00903991051018238
-0.00019612041069194674,-0.008186566643416882,-0.002587613882496953,0.0023384448140859604,0.0014874478802084923,-0.008824149146676064
-0.00019612041069194674,-0.008186566643416882,-0.002587613882496953,0.0023384448140859604,0.0014874478802084923,-0.008824149146676064
-0.0001879297342384234,-0.008015027269721031,-0.0021807674784213305,0.002269146265462041,0.001419143402017653,-0.008494156412780285
-0.00018039628048427403,-0.006967251654714346,-0.0022616670466959476,0.0024711887817829847,0.0012626397656276822,-0.00885239988565445
-0.00017344234220217913,-0.007349945604801178,-0.0026829433627426624,0.002408931264653802,0.0013420403702184558,-0.008883683010935783
-0.00016700544802006334,-0.007079790346324444,-0.002488810336217284,0.00231151538901031,0.001869712257757783,-0.009458444081246853
-0.00016102932568173856,-0.007034987676888704,-0.001965541858226061,0.002104635816067457,0.001967507181689143,-0.008828386664390564
-0.00015546604117844254,-0.006996197160333395,-0.001650922349654138,0.001747745438478887,0.002038984326645732,-0.009129132144153118
-0.00015027426707092673,-0.0068136416375637054,-0.001491933362558484,0.0015066094929352403,0.0018936342094093561,-0.009266505017876625
-0.00014541820564772934,-0.006906196009367704,-0.0011800035135820508,0.0012936022831127048,0.0017680166056379676,-0.009546720422804356
-0.00013659037358593196,-0.007107268553227186,-0.001917486428283155,0.0010845515644177794,0.0016426237998530269,-0.008743103593587875
-0.0001325664052274078,-0.006784752476960421,-0.0019516891334205866,0.0011108220787718892,0.0017823913367465138,-0.00892547331750393
-0.00012877260451205075,-0.006468373350799084,-0.0017055448843166232,0.001138074672780931,0.0019540830980986357,-0.009223531931638718
-0.00010049786942545325,-0.006468439009040594,-0.0016877154121175408,0.0015598308527842164,0.0022833715192973614,-0.009241478517651558
-7.366730278590694e-05,-0.006811049766838551,-0.0015624900115653872,0.0014649747172370553,0.002263089409098029,-0.009266293607652187
0.00011512837954796851,-0.006468170788139105,-0.0013391366228461266,0.0013365910854190588,0.0022591387387365103,-0.009120427072048187
0.00015231430006679147,-0.005986208561807871,-0.0013799708103761077,0.0011596066178753972,0.001994401914998889,-0.009217122569680214
0.0012930057710036635,-0.006595196668058634,-0.0013306847540661693,0.0009508218499831855,0.0018011074280366302,-0.00925799086689949
0.0011101416312158108,-0.007062131073325872,-0.0015414394438266754,0.0008581890142522752,0.0016639071982353926,-0.009077449329197407
0.0007770489319227636,-0.00626994576305151,-0.0015605700900778174,0.0007955222390592098,0.001695510232821107,-0.009213350713253021
0.0005959494155831635,-0.005882599391043186,-0.0015803779242560267,0.0006968489615246654,0.0017863091779872775,-0.009089505299925804
0.0005105934687890112,-0.005746436771005392,-0.0014358155895024538,0.0007056389003992081,0.002056922297924757,-0.00938050914555788
0.00017924036365002394,-0.005851365625858307,-0.001487633679062128,0.0006452461238950491,0.002176748588681221,-0.009208409115672112
0.00037136697210371494,-0.00598358828574419,-0.00145796372089535,0.0005859425873495638,0.0022235282231122255,-0.009414414875209332
0.0004721544391941279,-0.005788122769445181,-0.001534425187855959,0.0005360768991522491,0.002396474126726389,-0.00955701619386673
0.0004340039158705622,-0.0055498406291007996,-0.0018727288115769625,0.0004940047510899603,0.0021445059683173895,-0.009527374990284443
0.0004340039158705622,-0.0055498406291007996,-0.0018727288115769625,0.0004940047510899603,0.0021445059683173895,-0.009527374990284443
0.0009646849357523024,-0.005115016829222441,-0.0017133679939433932,0.0004580578824970871,0.0019156390335410833,-0.00976521335542202
0.0008012901525944471,-0.006015473045408726,-0.0015590242110192776,0.00042699280311353505,0.0018483572639524937,-0.009020088240504265
0.0006801162380725145,-0.005568208172917366,-0.0015054148389026523,0.0003998746979050338,0.001985355978831649,-0.008763870224356651
0.0005907361046411097,-0.005914391949772835,-0.0015229603741317987,0.00037599634379148483,0.0018765993881970644,-0.008870759978890419
0.0006220489158295095,-0.005341015290468931,-0.0015128918457776308,0.0003548141394276172,0.0020341831259429455,-0.00974146369844675
0.0006508899386972189,-0.005378203000873327,-0.0015348183223977685,0.0003358887042850256,0.0020451582968235016,-0.009238582104444504
0.0006766876322217286,-0.005693966988474131,-0.0014979684492573142,0.00031888080411590636,0.002238638699054718,-0.009465673938393593
0.0006375376833602786,-0.00522219855338335,-0.001744962064549327,0.00030351438908837736,0.002220002468675375,-0.009143777191638947
0.0006645380053669214,-0.005229356698691845,-0.0016292966902256012,0.0002895604120567441,0.002231007441878319,-0.00967442151159048
0.0007085727411322296,-0.0049661751836538315,-0.0016617107903584838,0.0002768333361018449,0.0023483866825699806,-0.009733570739626884
0.0012791381450369954,-0.004737374372780323,-0.0015354553470388055,0.000254465383477509,0.0025013727135956287,-0.009227491915225983
0.0012154538417235017,-0.004937639459967613,-0.0016305651515722275,0.00010464445222169161,0.0025437213480472565,-0.009356729686260223
0.0010700831189751625,-0.0048723891377449036,-0.001789069501683116,8.085566514637321e-05,0.002218114910647273,-0.009853402152657509
0.0010992941679432988,-0.004694778472185135,-0.001893985434435308,7.618259405717254e-05,0.0021167017985135317,-0.00919225625693798
0.0010648942552506924,-0.005042837001383305,-0.0016826072242110968,7.301016012206674e-05,0.0019496862078085542,-0.009628417901694775
0.0010712206130847335,-0.004525344353169203,-0.0017842771485447884,7.015857408987358e-05,0.002130435546860099,-0.009720863774418831
0.0013017571764066815,-0.00401329156011343,-0.0017152316868305206,3.825037492788397e-05,0.002402867656201124,-0.009297266602516174
0.001361172297038138,-0.004366857465356588,-0.0021427518222481012,3.283494879724458e-05,0.002713114023208618,-0.009426642209291458
0.0018102978356182575,-0.0042502377182245255,-0.00207091448828578,3.1425326596945524e-05,0.0028019656892865896,-0.010046490468084812
0.0018547293730080128,-0.004444979131221771,-0.0020414202008396387,4.022961547889281e-06,0.002498569432646036,-0.00985358003526926
0.0016602897085249424,-0.0044925925321877,-0.0018440455896779895,2.6267062480656023e-07,0.002323614899069071,-0.00954786129295826
0.0016617367509752512,-0.00448670843616128,-0.0017973334761336446,1.715051389794553e-08,0.0019924272783100605,-0.009747915901243687
0.0015658861957490444,-0.004256299696862698,-0.001944603631272912,1.1198059146622086e-09,0.0019252332858741283,-0.010235591791570187
0.0018070003716275096,-0.00386493606492877,-0.0020020154770463705,7.311531935449977e-11,0.0018524707993492484,-0.01056178379803896
0.002092228038236499,-0.0042854310013353825,-0.0019279886037111282,-0.000259045249549672,0.0019183517433702946,-0.009442929178476334
0.0023580780252814293,-0.004298622254282236,-0.002113952999934554,-0.0017118152463808656,0.002495056949555874,-0.009481512941420078
0.002290331991389394,-0.0042793103493750095,-0.002178197493776679,-0.002134689362719655,0.00257344008423388,-0.009786521084606647
0.002224521478638053,-0.0044274297542870045,-0.0020914857741445303,-0.002329731360077858,0.0024749678559601307,-0.0105441240593791
0.002224521478638053,-0.0044274297542870045,-0.0020914857741445303,-0.002329731360077858,0.0024749678559601307,-0.0105441240593791
0.002350481227040291,-0.004196599125862122,-0.0018061950104311109,-0.0027831303887069225,0.002357139950618148,-0.010062985122203827
0.0023307674564421177,-0.00394548662006855,-0.001959608867764473,-0.0030831818003207445,0.0022049881517887115,-0.009934755973517895
0.0025596674531698227,-0.003800945123657584,-0.0021519423462450504,-0.0036733997985720634,0.002300022169947624,-0.010028308257460594
0.0027046045288443565,-0.004255610518157482,-0.0021588043309748173,-0.004134368617087603,0.0026183146983385086,-0.010458400472998619
0.0027443505823612213,-0.004294087179005146,-0.00246750982478261,-0.0042607844807207584,0.0027098997961729765,-0.01000908575952053
0.002721162047237158,-0.004003113601356745,-0.002094163792207837,-0.0048200637102127075,0.002523308852687478,-0.009977699257433414
0.003007999388501048,-0.003810275811702013,-0.0017658622236922383,-0.00530986487865448,0.002520193811506033,-0.01072089932858944
0.0032124994322657585,-0.0038407149259001017,-0.0017923255218192935,-0.006257110740989447,0.0024086465127766132,-0.011257974430918694
0.0035369505640119314,-0.003841102821752429,-0.0022622852120548487,-0.006338432431221008,0.0025267479941248894,-0.010518528521060944
0.003311687847599387,-0.003907856997102499,-0.0026264882180839777,-0.006132366135716438,0.002742586424574256,-0.010226828046143055
0.0034713721834123135,-0.0033603841438889503,-0.0024087673518806696,-0.006402942351996899,0.0024822214618325233,-0.010410591028630733
0.004011197946965694,-0.003651899518445134,-0.0019400441087782383,-0.0066290125250816345,0.002398039912804961,-0.010357466526329517
0.004005241673439741,-0.0037642698734998703,-0.0018754149787127972,-0.006960853468626738,0.0023384306114166975,-0.010050268843770027
0.003960999194532633,-0.003701580688357353,-0.0023564316798001528,-0.007102559320628643,0.002530524041503668,-0.009820093400776386
0.004301480948925018,-0.0036521204747259617,-0.0025947268586605787,-0.007133420556783676,0.0024094379041343927,-0.010393788106739521
0.004227536730468273,-0.003283111145719886,-0.0023576959501951933,-0.007710980251431465,0.002387749496847391,-0.010693425312638283
0.004404912702739239,-0.003102315589785576,-0.002190093509852886,-0.007783348672091961,0.002637482015416026,-0.010307624004781246
0.004464470315724611,-0.003209450514987111,-0.002046004869043827,-0.008196481503546238,0.0026378966867923737,-0.010616864077746868
0.004613356199115515,-0.003121300134807825,-0.0020386739633977413,-0.008535226806998253,0.00256752735003829,-0.010655037127435207
0.004753442946821451,-0.003520660800859332,-0.0023314692080020905,-0.008120361715555191,0.0026635718531906605,-0.010690215043723583
0.005128456745296717,-0.003710993332788348,-0.0021377059165388346,-0.008090033195912838,0.002791458973661065,-0.010966606438159943
0.005061862524598837,-0.0037569396663457155,-0.0020819983910769224,-0.008482580073177814,0.0028390241786837578,-0.01014461275190115
0.0052601853385567665,-0.003297798801213503,-0.0022866150829941034,-0.008867492899298668,0.0029148925095796585,-0.009892074391245842
0.005551466718316078,-0.0029998961836099625,-0.002254342194646597,-0.009084335528314114,0.0029634975362569094,-0.010311094112694263
0.005355424247682095,-0.003028599312528968,-0.0024970427621155977,-0.008876453153789043,0.00274802022613585,-0.010458642616868019
0.005838178098201752,-0.00325588695704937,-0.0022214208729565144,-0.008703850209712982,0.002432633424177766,-0.010702398605644703
0.005925140809267759,-0.0033015974331647158,-0.002137994160875678,-0.008462154306471348,0.002425743266940117,-0.010480285622179508
0.006791587453335524,-0.003313700668513775,-0.002353282878175378,-0.008504119701683521,0.002549203811213374,-0.010177044197916985
0.00549554405733943,-0.0031631647143512964,-0.0024024723097682,-0.008605792187154293,0.0024528945796191692,-0.010628228075802326
0.005726282950490713,-0.0029153006616979837,-0.002812929917126894,-0.008933971635997295,0.002553565427660942,-0.011084705591201782
0.0069856527261435986,-0.003039676696062088,-0.0025580318178981543,-0.008751057088375092,0.0026856630574911833,-0.011304112151265144
0.0069856527261435986,-0.003039676696062088,-0.0025580318178981543,-0.008751057088375092,0.0026856630574911833,-0.011304112151265144
0.007023065350949764,-0.0030795312486588955,-0.002323583699762821,-0.009145601652562618,0.002765835262835026,-0.011055025272071362
0.0063871960155665874,-0.002714070025831461,-0.0027516514528542757,-0.009810308925807476,0.0030651327688246965,-0.011036091484129429
0.0063871960155665874,-0.002714070025831461,-0.0027516514528542757,-0.009810308925807476,0.0030651327688246965,-0.011036091484129429
0.006973519921302795,-0.002722596749663353,-0.002736916532739997,-0.01041986234486103,0.003327300539240241,-0.01122052501887083
0.007297725882381201,-0.002535199746489525,-0.002834287006407976,-0.010720031335949898,0.003132452955469489,-0.01065695658326149
0.007253366522490978,-0.002455709967762232,-0.0023955695796757936,-0.010174557566642761,0.0027785066049546003,-0.010678553022444248
0.0072193085215985775,-0.0026408929843455553,-0.002273872261866927,-0.010813654400408268,0.00261209555901587,-0.0109929870814085
0.007648563478142023,-0.0024344257544726133,-0.00320983468554914,-0.01166877057403326,0.0028411715757101774,-0.011350614950060844
0.007941902615129948,-0.002640011254698038,-0.0028214999474585056,-0.01138212438672781,0.002933257259428501,-0.011686986312270164
0.007542135659605265,-0.002478603972122073,-0.0027600948233157396,-0.01075289398431778,0.002927253721281886,-0.01145174726843834
0.008347578346729279,-0.0022872204426676035,-0.00240341410972178,-0.011007065884768963,0.003060911549255252,-0.011513162404298782
0.008554422296583652,-0.0023218528367578983,-0.00235530873760581,-0.011105328798294067,0.0032088998705148697,-0.011326903477311134
0.008504466153681278,-0.0022101656068116426,-0.002699309028685093,-0.010746767744421959,0.003243007231503725,-0.01144802663475275
0.008626311086118221,-0.0023678597062826157,-0.0028940998017787933,-0.010878595523536205,0.003402320435270667,-0.011580715887248516
0.008651262149214745,-0.002375304466113448,-0.0027132313698530197,-0.011429186910390854,0.0031926981173455715,-0.011343867518007755
0.008696402423083782,-0.0022216392681002617,-0.002536773681640625,-0.011487743817269802,0.0030283385422080755,-0.011356082744896412
0.008674983866512775,-0.002279214095324278,-0.002778885653242469,-0.01126851886510849,0.0029322835616767406,-0.01152955461293459
0.009093156084418297,-0.002077520126476884,-0.003157587256282568,-0.010499754920601845,0.0028239695820957422,-0.01137769315391779
0.01003519631922245,-0.002161204582080245,-0.0030383006669580936,-0.01028363686054945,0.002781405346468091,-0.011558475904166698
0.008737485855817795,-0.002348381793126464,-0.002701423829421401,-0.010288500227034092,0.0027515373658388853,-0.011427333578467369
0.009473000653088093,-0.0022066489327698946,-0.002449796302244067,-0.010647636838257313,0.002950309542939067,-0.012098453938961029
0.009475890547037125,-0.002106499159708619,-0.0029247126076370478,-0.011301596648991108,0.00315662263892591,-0.01180693507194519
0.009696892462670803,-0.0020274012349545956,-0.0036712295841425657,-0.010576286353170872,0.003257524222135544,-0.011552871204912663
0.009192855097353458,-0.0020442360546439886,-0.0033850502222776413,-0.0100074028596282,0.0034746581222862005,-0.011442224495112896
0.009650602005422115,-0.001992087112739682,-0.002894408069550991,-0.010658450424671173,0.0036264192312955856,-0.011337611824274063
0.009687596932053566,-0.0020385736133903265,-0.0025369348004460335,-0.010622803121805191,0.003312335116788745,-0.01318435650318861
0.009218878112733364,-0.001983781810849905,-0.0026817431207746267,-0.010580300353467464,0.002941165119409561,-0.011205289512872696
0.009957998059689999,-0.002165922662243247,-0.0026573946233838797,-0.011311597190797329,0.0028017086442559958,-0.010804162360727787
0.009817570447921753,-0.0018978748703375459,-0.003263599704951048,-0.011525669135153294,0.002851777244359255,-0.011679038405418396
0.010006889700889587,-0.001758753089234233,-0.003350775921717286,-0.012081985361874104,0.0027916468679904938,-0.012012786231935024
0.010006889700889587,-0.001758753089234233,-0.003350775921717286,-0.012081985361874104,0.0027916468679904938,-0.012012786231935024
0.009906078688800335,-0.0015851185889914632,-0.0024737692438066006,-0.011153933592140675,0.003056904533877969,-0.011996408924460411
0.009906078688800335,-0.0015851185889914632,-0.0024737692438066006,-0.011153933592140675,0.003056904533877969,-0.011996408924460411
0.01109742745757103,-0.001659222412854433,-0.002480187686160207,-0.011703847907483578,0.0033083646558225155,-0.011882901191711426
0.010555961169302464,-0.0017501430120319128,-0.003031108994036913,-0.011769507080316544,0.0033636768348515034,-0.012183720245957375
0.01039951667189598,-0.001775198383256793,-0.0034219115041196346,-0.012472749687731266,0.0028508570976555347,-0.012151321396231651
0.010470755398273468,-0.0016490017296746373,-0.003102688817307353,-0.012062919326126575,0.0028067040257155895,-0.01213602814823389
0.010892672464251518,-0.0013941724319010973,-0.002810834441334009,-0.012596655637025833,0.0028163848910480738,-0.011832838878035545
0.010603890754282475,-0.0012793244095519185,-0.0026514206547290087,-0.012451797723770142,0.003099269699305296,-0.012195844203233719
0.01099434681236744,-0.0011565327877178788,-0.0034519669134169817,-0.013227647170424461,0.003393185790628195,-0.012355676852166653
0.011295406147837639,-0.0009729748708195984,-0.0037096410524100065,-0.01286956574767828,0.003072390565648675,-0.012097408063709736
0.012442978098988533,-0.0009534695418551564,-0.00342365400865674,-0.01334434188902378,0.0030690962448716164,-0.012056950479745865
0.011290445923805237,-0.0009031563531607389,-0.002942159539088607,-0.013015772216022015,0.003497152356430888,-0.01249733567237854
0.011306854896247387,-0.000825783412437886,-0.002960261655971408,-0.013603243045508862,0.0038534491322934628,-0.012027029879391193
0.011090243235230446,-0.0008332980214618146,-0.003314976580440998,-0.013334851711988449,0.0034806577023118734,-0.012108607217669487
0.011472617276012897,-0.0007799808518029749,-0.003565572202205658,-0.013949701562523842,0.0031272987835109234,-0.012045352719724178
0.011663636192679405,-0.0007836639997549355,-0.0035096595529466867,-0.014005368575453758,0.0032669382635504007,-0.011983130127191544
0.009401506744325161,-0.0006967677036300302,-0.0031568408012390137,-0.014272243715822697,0.0031039072200655937,-0.012114414945244789
0.010503747500479221,-0.0006840681890025735,-0.0030181489419192076,-0.014302109368145466,0.0033234923612326384,-0.01221783459186554
0.010265693999826908,-0.0006457368726842105,-0.0034723863936960697,-0.01444433443248272,0.00359806208871305,-0.012336907908320427
0.009751033037900925,-0.0006662433152087033,-0.003917814232409,-0.014673275873064995,0.00373856327496469,-0.012123700231313705
0.010317421518266201,-0.0006127301603555679,-0.0034443913027644157,-0.014995275065302849,0.004168559797108173,-0.012348595075309277
0.010293729603290558,-0.0005646980716846883,-0.003178895218297839,-0.013896182179450989,0.004158780910074711,-0.012938319705426693
0.009941433556377888,-0.0005155683029443026,-0.0027898154221475124,-0.015517816878855228,0.0036875386722385883,-0.012396040372550488
0.010286226868629456,-0.0004624829161912203,-0.003211923409253359,-0.015396892093122005,0.0032340586185455322,-0.012303493916988373
0.010144759900867939,-0.0004193611384835094,-0.003871364751830697,-0.01600806601345539,0.003022473305463791,-0.012488109990954399
0.010144759900867939,-0.0004193611384835094,-0.003871364751830697,-0.01600806601345539,0.003022473305463791,-0.012488109990954399
0.009859832935035229,-0.00038360385224223137,-0.003966032061725855,-0.01521085761487484,0.0031765641178935766,-0.013021322898566723
0.010717741213738918,-0.00035346121876500547,-0.0030192402191460133,-0.015299166552722454,0.0031229706946760416,-0.012910150922834873
0.01089457981288433,-0.00030546364723704755,-0.003012804314494133,-0.016239888966083527,0.0031285607255995274,-0.012821093201637268
0.011075069196522236,-0.0002860433596652001,-0.0036980502773076296,-0.016502339392900467,0.003194421296939254,-0.012749258428812027
0.011075069196522236,-0.0002860433596652001,-0.0036980502773076296,-0.016502339392900467,0.003194421296939254,-0.012749258428812027
0.01081171166151762,-0.0002689440443646163,-0.0036052181385457516,-0.015998022630810738,0.003406844800338149,-0.012429768219590187
0.011191658675670624,-0.00025377620477229357,-0.003110992256551981,-0.01610942743718624,0.0037164122331887484,-0.012123932130634785
0.011005616746842861,-0.00024022636353038251,-0.0028214119374752045,-0.01599116623401642,0.0039483788423240185,-0.012412706390023232
0.010961014777421951,-0.00022805097978562117,-0.002786691300570965,-0.0170988067984581,0.003989001270383596,-0.012552756816148758
0.011530378833413124,-0.0002170513034798205,-0.0031748467590659857,-0.017514094710350037,0.003916255198419094,-0.012568364851176739
0.011455853469669819,-0.00019795390835497528,-0.003816773183643818,-0.01717885211110115,0.0041926950216293335,-0.01282931212335825
0.01261949259787798,-0.00018961189198307693,-0.0034072711132466793,-0.0165695957839489,0.0043330686166882515,-0.012869780883193016
0.011439955793321133,-0.00018194543372374028,-0.0031100723426789045,-0.017143838107585907,0.004351400304585695,-0.01301553100347519
0.011596804484724998,-0.00017487473087385297,-0.0028838389553129673,-0.016902364790439606,0.004278780426830053,-0.013790502212941647
0.011672566644847393,-0.00016833262634463608,-0.0032330506946891546,-0.017616715282201767,0.004265459254384041,-0.012757174670696259
0.011400456540286541,-0.00016226278967224061,-0.0035227632615715265,-0.018240904435515404,0.00429684529080987,-0.012637844309210777
0.012463944964110851,-0.0001289847568841651,-0.0034435768611729145,-0.018644096329808235,0.004114773590117693,-0.013604377396404743
0.011442983523011208,-0.0001211279522976838,-0.003189490642398596,-0.018519660457968712,0.003925030119717121,-0.012531254440546036
0.011300784535706043,-0.00011713941057678312,-0.002950333058834076,-0.018383579328656197,0.003926710691303015,-0.012153909541666508
0.011334110982716084,-0.00011344708764227107,-0.0032033247407525778,-0.018588993698358536,0.0039908005855977535,-0.012540741823613644
0.011165637522935867,-8.286649972433224e-05,-0.0036068931221961975,-0.019827745854854584,0.004020389635115862,-0.013083896599709988
0.011487171985208988,-8.004596747923642e-05,-0.003743583569303155,-0.01953054964542389,0.003977291285991669,-0.0132546192035079
0.011487454175949097,-7.773629477014765e-05,-0.003643893403932452,-0.018412379547953606,0.0035224391613155603,-0.013354174792766571
0.012159891426563263,-7.556078344350681e-05,-0.003033036831766367,-0.019395189359784126,0.0035680716391652822,-0.013132192194461823
0.01151052676141262,-7.350377563852817e-05,-0.0030274654272943735,-0.019013822078704834,0.004255065228790045,-0.013259578496217728
0.011736119166016579,-7.184111018432304e-05,-0.003576264251023531,-0.019226619973778725,0.004333870485424995,-0.013037572614848614
0.011949765495955944,5.719645560020581e-05,-0.003949247300624847,-0.020116711035370827,0.004295324441045523,-0.013232633471488953
0.012170560657978058,8.227603393606842e-05,-0.003493840806186199,-0.020538650453090668,0.0044087921269237995,-0.013414522632956505
0.012028118595480919,0.00013518410560209304,-0.003096969798207283,-0.0202949121594429,0.004410525318235159,-0.013449751771986485
0.012006467208266258,0.0036110063083469868,-0.0028244873974472284,-0.020166529342532158,0.0042816754430532455,-0.013417993672192097
0.012006467208266258,0.0036110063083469868,-0.0028244873974472284,-0.020166529342532158,0.0042816754430532455,-0.013417993672192097
0.012476571835577488,0.004197706934064627,-0.0033118673600256443,-0.020694661885499954,0.0040932828560471535,-0.013418348506093025
0.012101120315492153,0.003597941715270281,-0.0038006403483450413,-0.02065107598900795,0.004442020319402218,-0.013654845766723156
0.011839848011732101,0.002371296053752303,-0.0036492482759058475,-0.020888322964310646,0.004578115418553352,-0.01364052388817072
0.012384976260364056,0.0019147770944982767,-0.0032335291616618633,-0.021312741562724113,0.004420342389494181,-0.01373098511248827
0.011894101276993752,0.0016094688326120377,-0.002989670494571328,-0.021397482603788376,0.004494831897318363,-0.013566583395004272
0.01375050749629736,0.001374069252051413,-0.003237637924030423,-0.021169548854231834,0.004264767747372389,-0.013369652442634106
0.011977544054389,0.0010410454124212265,-0.003745367517694831,-0.02134113572537899,0.003994650673121214,-0.013621254824101925
0.011912046000361443,0.0011555845849215984,-0.0034134627785533667,-0.020805755630135536,0.004149277228862047,-0.013900356367230415
0.01226669829338789,0.003617116715759039,-0.0029881990049034357,-0.02131601795554161,0.004478480201214552,-0.013899466022849083
0.012797682546079159,0.003374282270669937,-0.0031720760744065046,-0.021244946867227554,0.004684910643845797,-0.013614434748888016
0.012210407294332981,0.0026569324545562267,-0.0035705706104636192,-0.022236285731196404,0.004980155732482672,-0.013983759097754955
0.012455017305910587,0.0023381062783300877,-0.00373885128647089,-0.023202642798423767,0.004405640065670013,-0.01402516383677721
0.012542636133730412,0.0022785509936511517,-0.003041083225980401,-0.02235199511051178,0.004259641747921705,-0.013700003735721111
0.01259306725114584,0.002215919317677617,-0.002736009657382965,-0.021802552044391632,0.004177713766694069,-0.013373259454965591
0.012884487397968769,0.0029122941195964813,-0.0028140456415712833,-0.021796811372041702,0.004131984431296587,-0.013793643563985825
0.012690690346062183,0.003564889542758465,-0.00339216529391706,-0.022641871124505997,0.004496437963098288,-0.013888116925954819
0.012964834459125996,0.0033921003341674805,-0.003806506050750613,-0.022717786952853203,0.004927653819322586,-0.014120234176516533
0.012506612576544285,0.0033056733664125204,-0.003712734906002879,-0.022882800549268723,0.0050377012230455875,-0.013960925862193108
0.012880899012088776,0.003142771776765585,-0.0035105589777231216,-0.022350331768393517,0.004980469588190317,-0.0141478031873703
0.012866581790149212,0.0029171921778470278,-0.0033801107201725245,-0.02261132001876831,0.0047674658708274364,-0.013981071300804615
0.012875615619122982,0.0032915507908910513,-0.00368921528570354,-0.023924950510263443,0.004556786268949509,-0.014133394695818424
0.013090912252664566,0.0036812133621424437,-0.0040656039491295815,-0.024425039067864418,0.004365234635770321,-0.014205132611095905
0.012736180797219276,0.0036646907683461905,-0.004018244333565235,-0.023356158286333084,0.004495672415941954,-0.01420775055885315
0.013038788922131062,0.0036081618163734674,-0.003533342620357871,-0.023262765258550644,0.004726894665509462,-0.014315009117126465
0.012699929997324944,0.003771090880036354,-0.003404141403734684,-0.023396426811814308,0.005158382002264261,-0.014134480617940426
0.012699929997324944,0.003771090880036354,-0.003404141403734684,-0.023396426811814308,0.005158382002264261,-0.014134480617940426
0.012961121276021004,0.004140242002904415,-0.0040784794837236404,-0.024448616430163383,0.003952080849558115,-0.013889237307012081
0.012961121276021004,0.004140242002904415,-0.0040784794837236404,-0.024448616430163383,0.003952080849558115,-0.013889237307012081
0.013425740413367748,0.004034056328237057,-0.004437390249222517,-0.024561114609241486,0.003954666201025248,-0.013682533986866474
0.013069668784737587,0.004437010269612074,-0.0036624569911509752,-0.02421879582107067,0.004184572957456112,-0.014317786321043968
0.013239296153187752,0.004610746633261442,-0.003132712794467807,-0.023531347513198853,0.004533383529633284,-0.014572320505976677
0.01339011825621128,0.004494510591030121,-0.003259337740018964,-0.023846827447414398,0.005101520102471113,-0.014755530282855034
0.013474829494953156,0.004969674628227949,-0.004269554279744625,-0.024590030312538147,0.005161131266504526,-0.01449995581060648
0.013486548326909542,0.00507768802344799,-0.0037968039978295565,-0.024158695712685585,0.004870669450610876,-0.01479338388890028
0.013737187720835209,0.005339483264833689,-0.0036590874660760164,-0.024248026311397552,0.005307074636220932,-0.014757628552615643
0.013570006936788559,0.00553131802007556,-0.003736822633072734,-0.024684453383088112,0.005411164369434118,-0.014398053288459778
0.014104001224040985,0.006269278936088085,-0.003892535110935569,-0.024975290521979332,0.00538569875061512,-0.014500199817121029
0.01373794861137867,0.005880514159798622,-0.0043714940547943115,-0.024859704077243805,0.005094580352306366,-0.014876851812005043
0.013972070068120956,0.005963438656181097,-0.00366370752453804,-0.025275293737649918,0.004778051283210516,-0.015227101743221283
0.013579974882304668,0.006245516240596771,-0.0034870824310928583,-0.025399992242455482,0.0048821186646819115,-0.015013684518635273
0.013953272253274918,0.006355892401188612,-0.0037347939796745777,-0.02534586377441883,0.0048151821829378605,-0.015082920901477337
0.013683238066732883,0.00708986259996891,-0.004076971206814051,-0.02655688300728798,0.004798003006726503,-0.014904971234500408
0.014369361102581024,0.007263218984007835,-0.004656173754483461,-0.025927267968654633,0.004962325561791658,-0.015073219314217567
0.013807511888444424,0.006675573997199535,-0.004262992646545172,-0.025416435673832893,0.005358812864869833,-0.014758940786123276
0.014180910773575306,0.006932702846825123,-0.0038598894607275724,-0.025494929403066635,0.0050969370640814304,-0.015076550655066967
0.013484637252986431,0.007317952811717987,-0.0033419395331293344,-0.025748563930392265,0.004807525780051947,-0.015150945633649826
0.013965016230940819,0.0076957447454333305,-0.003563220612704754,-0.026004401966929436,0.004537937231361866,-0.015635518357157707
0.014048853889107704,0.007492493838071823,-0.004332788288593292,-0.026152705773711205,0.004728182218968868,-0.015923546627163887
0.014192965812981129,0.007315065711736679,-0.004348899237811565,-0.026075061410665512,0.0046928441151976585,-0.01564841717481613
0.014145320281386375,0.007982558570802212,-0.004204957280308008,-0.026380421593785286,0.005034738220274448,-0.015110176056623459
0.01416580006480217,0.0079985111951828,-0.003937812056392431,-0.02595798298716545,0.005216342397034168,-0.0152702946215868
0.014117919839918613,0.0077144368551671505,-0.003596461610868573,-0.026617692783474922,0.004698893986642361,-0.015044932253658772
0.014578025788068771,0.008170250803232193,-0.0035016131587326527,-0.02701522782444954,0.004418831318616867,-0.014542076736688614
0.014556953683495522,0.008727657608687878,-0.0037239915691316128,-0.027403460815548897,0.004087803419679403,-0.014890644699335098
0.014556953683495522,0.008727657608687878,-0.0037239915691316128,-0.027403460815548897,0.004087803419679403,-0.014890644699335098
0.015155700966715813,0.008519845083355904,-0.00437598442658782,-0.026990801095962524,0.004403606988489628,-0.014989571645855904
0.014345796778798103,0.009023549035191536,-0.004155427683144808,-0.027492353692650795,0.004797573201358318,-0.015066425316035748
0.014849575236439705,0.009099436923861504,-0.0034956519957631826,-0.027920342981815338,0.005208814982324839,-0.01566789112985134
0.01445666141808033,0.009358281269669533,-0.003483531530946493,-0.02816190756857395,0.005451768171042204,-0.01568298600614071
0.014511500485241413,0.008867739699780941,-0.004147801548242569,-0.028127504512667656,0.004687870852649212,-0.01647895574569702
0.015152564272284508,0.009580595418810844,-0.00422779330983758,-0.02818821743130684,0.004633548203855753,-0.015216407366096973
0.014477028511464596,0.009607014246284962,-0.0036371469032019377,-0.028174759820103645,0.005072076804935932,-0.015580780804157257
0.015201174654066563,0.010646295733749866,-0.0035804633516818285,-0.028033819049596786,0.005464163143187761,-0.015892362222075462
0.01459506805986166,0.010013422928750515,-0.004226781893521547,-0.028209153562784195,0.0052522714249789715,-0.015723619610071182
0.014931734651327133,0.00965606328099966,-0.004640300292521715,-0.02862802892923355,0.005562762264162302,-0.015140349045395851
0.01509793009608984,0.010162942111492157,-0.004366049077361822,-0.028450913727283478,0.0049549005925655365,-0.015264784917235374
0.01542670652270317,0.010679615661501884,-0.00395808182656765,-0.028057442978024483,0.0054820384830236435,-0.014739475212991238
0.0148759875446558,0.010612601414322853,-0.003854908747598529,-0.028863579034805298,0.005396267399191856,-0.015159892849624157
0.01593136601150036,0.011602738872170448,-0.003940788097679615,-0.028981339186429977,0.005070834886282682,-0.015106870792806149
0.015616858378052711,0.01072816364467144,-0.0040313550271093845,-0.029365412890911102,0.005128295626491308,-0.015202248468995094
0.015389623120427132,0.010690259747207165,-0.004152932204306126,-0.028778400272130966,0.0054635279811918736,-0.015634972602128983
0.015580849722027779,0.012032534927129745,-0.0040418426506221294,-0.02711592987179756,0.005449399352073669,-0.01564369536936283
0.015093826688826084,0.011360803619027138,-0.0038590538315474987,-0.029486972838640213,0.005063110031187534,-0.015417064540088177
0.015484640374779701,0.011254671961069107,-0.004360567778348923,-0.029798422008752823,0.005200204439461231,-0.015114682726562023
0.01511318888515234,0.01139247789978981,-0.004196606110781431,-0.02947857417166233,0.004984918050467968,-0.015232494100928307
0.015746328979730606,0.011254919692873955,-0.004492544569075108,-0.030557861551642418,0.005220537073910236,-0.014945303089916706
0.016481172293424606,0.011805789545178413,-0.004747678525745869,-0.030639182776212692,0.005521525163203478,-0.01535466406494379
0.01749603822827339,0.011531051248311996,-0.004585890099406242,-0.029210340231657028,0.005194066558033228,-0.01574123464524746
0.01749603822827339,0.011531051248311996,-0.004585890099406242,-0.029210340231657028,0.005194066558033228,-0.01574123464524746
0.01647568680346012,0.012267319485545158,-0.004598866682499647,-0.03019784763455391,0.004907969385385513,-0.015259447507560253
0.016679709777235985,0.012406965717673302,-0.004978816024959087,-0.031125234439969063,0.004884873516857624,-0.015605514869093895
0.016679709777235985,0.012406965717673302,-0.004978816024959087,-0.031125234439969063,0.004884873516857624,-0.015605514869093895
0.01667911186814308,0.012657899409532547,-0.005304317455738783,-0.031162871047854424,0.004842190537601709,-0.015703324228525162
0.0172515157610178,0.012859361246228218,-0.005044586956501007,-0.03132890164852142,0.005080267786979675,-0.015911908820271492
0.016190269961953163,0.012536372058093548,-0.004796135239303112,-0.030641598626971245,0.005175288300961256,-0.015983644872903824
0.017342358827590942,0.012528397142887115,-0.005547043867409229,-0.03095603547990322,0.0053438846953213215,-0.01588776521384716
0.017110411077737808,0.013064701110124588,-0.005369963124394417,-0.03084626980125904,0.005895876791328192,-0.015686791390180588
0.01754545420408249,0.012228361330926418,-0.004726630635559559,-0.031926047056913376,0.005657996982336044,-0.015950258821249008
0.017422914505004883,0.013034448027610779,-0.004836637992411852,-0.03317226096987724,0.00585637241601944,-0.016042517498135567
0.017879251390695572,0.012605787254869938,-0.004828785080462694,-0.0328119620680809,0.0057739196345210075,-0.016418026760220528
0.017607010900974274,0.01337751466780901,-0.004986340645700693,-0.03160923346877098,0.00567886047065258,-0.016033677384257317
0.017141422256827354,0.012852773070335388,-0.005039953161031008,-0.0322478823363781,0.00521403132006526,-0.01630799099802971
0.017526481300592422,0.013142540119588375,-0.0051001072861254215,-0.03271585330367088,0.0053441571071743965,-0.015009698458015919
0.017576608806848526,0.013088046573102474,-0.004914852790534496,-0.03234678879380226,0.005716889631003141,-0.015446344390511513
0.017537398263812065,0.012993787415325642,-0.004556381609290838,-0.03323192521929741,0.005415443331003189,-0.015991155058145523
0.017541294917464256,0.013256479054689407,-0.004852626472711563,-0.03363105654716492,0.005572271998971701,-0.01627003401517868
0.01718451827764511,0.012943089939653873,-0.0048595452681183815,-0.03194519877433777,0.0054566515609622,-0.016508009284734726
0.01777261681854725,0.013409415259957314,-0.004988899454474449,-0.03131274878978729,0.0058114356361329556,-0.016578150913119316
0.01758701540529728,0.01318453997373581,-0.00521539943292737,-0.03260244429111481,0.005620972719043493,-0.01666123978793621
0.017518674954771996,0.013683156110346317,-0.004814104177057743,-0.03300461918115616,0.005799591075628996,-0.016062816604971886
0.017708338797092438,0.013627104461193085,-0.00461928267031908,-0.03271056339144707,0.005846349522471428,-0.015627507120370865
0.017973627895116806,0.013960183598101139,-0.004681457299739122,-0.032771699130535126,0.005818154662847519,-0.01587633416056633
0.018258212134242058,0.013374559581279755,-0.005215002223849297,-0.03276672959327698,0.005481143947690725,-0.015663648024201393
0.017967671155929565,0.01365739293396473,-0.005004803650081158,-0.03133456036448479,0.005629241932183504,-0.01608789712190628
0.01782694272696972,0.01233451534062624,-0.004588837269693613,-0.03259686753153801,0.0056134676560759544,-0.015833156183362007
0.018456177785992622,0.011381100863218307,-0.004499645903706551,-0.03301506116986275,0.005784106906503439,-0.0162962656468153
0.018116524443030357,0.011510991491377354,-0.00491409981623292,-0.03287820518016815,0.005472471006214619,-0.016297053545713425
0.018372826278209686,0.011827629059553146,-0.00501473993062973,-0.03347977250814438,0.005603157449513674,-0.01606435887515545
0.01804550178349018,0.012464855797588825,-0.0047135129570961,-0.033832382410764694,0.005665435455739498,-0.015929723158478737
0.01804550178349018,0.012464855797588825,-0.0047135129570961,-0.033832382410764694,0.005665435455739498,-0.015929723158478737
0.018712779507040977,0.01259876973927021,-0.004801174625754356,-0.034573402255773544,0.0060974000953137875,-0.016654394567012787
0.01899145171046257,0.012329626828432083,-0.004459426738321781,-0.03529740869998932,0.005541986785829067,-0.016914568841457367
0.01899145171046257,0.012329626828432083,-0.004459426738321781,-0.03529740869998932,0.005541986785829067,-0.016914568841457367
0.018967866897583008,0.01241308357566595,-0.004694874864071608,-0.03564105182886124,0.005552095826715231,-0.016244031488895416
0.01856403611600399,0.012645721435546875,-0.004947147332131863,-0.035726048052310944,0.005513472016900778,-0.016363922506570816
0.01812629960477352,0.012646530754864216,-0.004899117164313793,-0.03604509308934212,0.005733693949878216,-0.016014114022254944
0.01861399970948696,0.012324780225753784,-0.0043420372530817986,-0.03617611527442932,0.005904420744627714,-0.01611650548875332
0.018858741968870163,0.01265332754701376,-0.004471225198358297,-0.03618955612182617,0.0054237558506429195,-0.016346346586942673
0.01919913850724697,0.012652343139052391,-0.005101033486425877,-0.03646578639745712,0.005719450302422047,-0.016520991921424866
0.01895086094737053,0.012182292528450489,-0.005093590822070837,-0.03638968989253044,0.00547833601012826,-0.016971692442893982
0.018666936084628105,0.01269414834678173,-0.004843579139560461,-0.03651542589068413,0.0057152085937559605,-0.016736701130867004
0.01922101341187954,0.012284860014915466,-0.004743643570691347,-0.03656231611967087,0.005599230993539095,-0.01690707728266716
0.020467061549425125,0.012846478261053562,-0.005230586044490337,-0.036806605756282806,0.006209293846040964,-0.016128236427903175
0.020067453384399414,0.012348665855824947,-0.005736323073506355,-0.03755950927734375,0.005827799905091524,-0.01644711196422577
0.018855195492506027,0.014016452245414257,-0.005525644868612289,-0.03734687343239784,0.006030460353940725,-0.016993282362818718
0.019925029948353767,0.012380744330585003,-0.0046545350924134254,-0.03782779350876808,0.005742101464420557,-0.017245151102542877
0.01958593912422657,0.012294694781303406,-0.004502139985561371,-0.03860459849238396,0.005843870807439089,-0.017261436209082603
0.01934954524040222,0.012905764393508434,-0.004932836629450321,-0.03850506991147995,0.006015795283019543,-0.017134293913841248
0.020107954740524292,0.012951907701790333,-0.005089629907160997,-0.037820592522621155,0.005983961746096611,-0.016957061365246773
0.0205363892018795,0.013467351906001568,-0.0052590761333703995,-0.03811631724238396,0.0062756165862083435,-0.01678788848221302
0.020371925085783005,0.013354490511119366,-0.0048713660798966885,-0.03944006562232971,0.006332006771117449,-0.01689262129366398
0.01983519271016121,0.013923019170761108,-0.004613799042999744,-0.03911283612251282,0.006173919886350632,-0.017394008114933968
0.02029680460691452,0.013343610800802708,-0.004416500683873892,-0.03757843002676964,0.00621531018987298,-0.017226526513695717
0.02059810981154442,0.01414294634014368,-0.004532956052571535,-0.03806333243846893,0.006289426703006029,-0.017394473776221275
0.02038053423166275,0.013879282400012016,-0.00507009495049715,-0.0388866551220417,0.006168305408209562,-0.017547542229294777
0.021085375919938087,0.014184038154780865,-0.005586492363363504,-0.03948352858424187,0.006431045010685921,-0.017435388639569283
0.021280713379383087,0.01358803827315569,-0.0054282331839203835,-0.0402892604470253,0.006394641008228064,-0.017465848475694656
0.021280713379383087,0.01358803827315569,-0.0054282331839203835,-0.0402892604470253,0.006394641008228064,-0.017465848475694656
0.02048361487686634,0.014187503606081009,-0.004931858275085688,-0.038865771144628525,0.006232734303921461,-0.017321543768048286
0.020948607474565506,0.014098875224590302,-0.0046943919733166695,-0.038231052458286285,0.006163187325000763,-0.017514370381832123
0.02159285731613636,0.014812813140451908,-0.005115830805152655,-0.03971455991268158,0.006233923602849245,-0.017587091773748398
0.02169114351272583,0.014637184329330921,-0.005550867412239313,-0.04016149044036865,0.006294597405940294,-0.017607539892196655
0.021152878180146217,0.01511926855891943,-0.005683419294655323,-0.03995819762349129,0.006257010158151388,-0.01758664846420288
0.021688776090741158,0.014210980385541916,-0.005066066514700651,-0.03762125223875046,0.006087351590394974,-0.0177109707146883
0.022302430123090744,0.015307246707379818,-0.0050737811252474785,-0.0405721552670002,0.005854317452758551,-0.01819942519068718
0.021741092205047607,0.014997657388448715,-0.005714207421988249,-0.039818476885557175,0.006526085548102856,-0.017702355980873108
0.02205643057823181,0.015524926595389843,-0.005807120818644762,-0.0411238819360733,0.0063673993572592735,-0.017912529408931732
0.022748956456780434,0.01523587480187416,-0.005434189923107624,-0.040739428251981735,0.006272561382502317,-0.017776111140847206
0.022157931700348854,0.014670317992568016,-0.005288802087306976,-0.0388622023165226,0.006326447706669569,-0.019030334427952766
0.02220160886645317,0.01594329997897148,-0.005046195350587368,-0.039823077619075775,0.006944241002202034,-0.017760539427399635
0.021890725940465927,0.015607069246470928,-0.005989410914480686,-0.040151823312044144,0.006625815760344267,-0.017567379400134087
0.022604238241910934,0.015498007647693157,-0.006209112703800201,-0.04104335606098175,0.006387542933225632,-0.018099570646882057
0.02240338921546936,0.01547714788466692,-0.0058657643385231495,-0.04126547649502754,0.0062038167379796505,-0.018260834738612175
0.0222191009670496,0.015767481178045273,-0.005445555783808231,-0.03995157405734062,0.006220686715096235,-0.018292756751179695
0.021933775395154953,0.016151223331689835,-0.0055505260825157166,-0.039823032915592194,0.006195397581905127,-0.018441863358020782
0.022410236299037933,0.015642113983631134,-0.005479874089360237,-0.04207312688231468,0.006555501371622086,-0.01848285086452961
0.022885682061314583,0.01629348285496235,-0.006072029005736113,-0.04195476323366165,0.006054116878658533,-0.01830483414232731
0.022711951285600662,0.015360360033810139,-0.006045693997293711,-0.041860777884721756,0.006014673504978418,-0.01827263832092285
0.022837288677692413,0.016286715865135193,-0.005238938611000776,-0.04216615855693817,0.006636286620050669,-0.01799548789858818
0.02273550070822239,0.01606683060526848,-0.005122484173625708,-0.04268510267138481,0.006779249291867018,-0.018173947930336
0.02291617915034294,0.016215551644563675,-0.005408141296356916,-0.04288208857178688,0.006294256541877985,-0.018359826877713203
0.02288503758609295,0.01642005704343319,-0.005392166785895824,-0.04317700117826462,0.006203376222401857,-0.018019700422883034
0.02322467975318432,0.01649150624871254,-0.00601289514452219,-0.04373229295015335,0.006446001585572958,-0.018301546573638916
0.023644329980015755,0.016651690006256104,-0.005595923867076635,-0.04356019198894501,0.006362100597470999,-0.018564367666840553
0.02345362678170204,0.016466394066810608,-0.005471851676702499,-0.04391937330365181,0.006783446297049522,-0.018285775557160378
0.02345362678170204,0.016466394066810608,-0.005471851676702499,-0.04391937330365181,0.006783446297049522,-0.018285775557160378
0.023230846971273422,0.016844142228364944,-0.005755020305514336,-0.04388263449072838,0.006886207964271307,-0.018154317513108253
0.02307351678609848,0.016451016068458557,-0.005862553138285875,-0.04400498792529106,0.0068144360557198524,-0.01803690567612648
0.02302156761288643,0.01660197600722313,-0.006107847206294537,-0.04440685734152794,0.006713865790516138,-0.018334394320845604
0.023313675075769424,0.017123371362686157,-0.005970650818198919,-0.04455114156007767,0.007078374270349741,-0.018495306372642517
0.02381397783756256,0.016905836760997772,-0.0059510692954063416,-0.04466617852449417,0.007451828569173813,-0.018316976726055145
0.023531710729002953,0.01691485196352005,-0.0060551967471838,-0.04577033221721649,0.006852535530924797,-0.018650876358151436
0.023926574736833572,0.017240524291992188,-0.006349985022097826,-0.04558023437857628,0.00702889496460557,-0.018798794597387314
0.02390088140964508,0.01752004586160183,-0.006213890388607979,-0.044665396213531494,0.007169663906097412,-0.01881159096956253
0.024958593770861626,0.017111245542764664,-0.005939170252531767,-0.04483130946755409,0.0069897836074233055,-0.020463280379772186
0.022892270237207413,0.01784910261631012,-0.006199078168720007,-0.0453474298119545,0.006714542396366596,-0.018655244261026382
0.02294795773923397,0.017430568113923073,-0.005880826618522406,-0.04611991345882416,0.006489067804068327,-0.018062395974993706
0.023671574890613556,0.017906876280903816,-0.0067418464459478855,-0.04584817588329315,0.006530456244945526,-0.01847141608595848
0.024482930079102516,0.018184751272201538,-0.006432180758565664,-0.04615549370646477,0.006833910942077637,-0.017984330654144287
0.024390142410993576,0.01764155924320221,-0.005610545165836811,-0.04794446378946304,0.006843430455774069,-0.0185750350356102
0.02388339675962925,0.018557753413915634,-0.005787595175206661,-0.04628094658255577,0.00690035056322813,-0.018697913736104965
0.023901857435703278,0.018409105017781258,-0.00628326553851366,-0.04510749131441116,0.006999404169619083,-0.019449695944786072
0.023979319259524345,0.017795950174331665,-0.006467650644481182,-0.046152662485837936,0.006854699458926916,-0.01934041641652584
0.02459276281297207,0.018096692860126495,-0.007286255247890949,-0.047338712960481644,0.006672583986073732,-0.0186987966299057
0.02437528595328331,0.01800878718495369,-0.005607547704130411,-0.04827510565519333,0.006852718070149422,-0.018774785101413727
0.024026740342378616,0.018515434116125107,-0.005944942124187946,-0.04524281620979309,0.006738376338034868,-0.019595984369516373
0.024317076429724693,0.018521593883633614,-0.006610353011637926,-0.04572918266057968,0.006963948253542185,-0.019823994487524033
0.024499833583831787,0.017971789464354515,-0.007229226175695658,-0.04663347452878952,0.0070306286215782166,-0.01891803741455078
0.02469548210501671,0.018591661006212234,-0.006314299069344997,-0.0471840463578701,0.006893049459904432,-0.01888274773955345
0.024549659341573715,0.01837514527142048,-0.006287356372922659,-0.04654712975025177,0.006817056331783533,-0.018373027443885803
0.024916470050811768,0.018369566649198532,-0.006630663760006428,-0.04625600948929787,0.0070271799340844154,-0.01894032582640648
0.02524498663842678,0.018953779712319374,-0.006960946600884199,-0.04688793420791626,0.007936771027743816,-0.019572388380765915
0.02524498663842678,0.018953779712319374,-0.006960946600884199,-0.04688793420791626,0.007936771027743816,-0.019572388380765915
0.024925125762820244,0.01870701089501381,-0.006670659873634577,-0.04630791395902634,0.007061116863042116,-0.019927501678466797
0.02484131045639515,0.018705321475863457,-0.00642766710370779,-0.04796536639332771,0.006543630268424749,-0.019719209522008896
0.024810951203107834,0.021047867834568024,-0.00646015303209424,-0.049492135643959045,0.0065865423530340195,-0.01928691193461418
0.02485083043575287,0.018556196242570877,-0.007328190375119448,-0.04767763614654541,0.006679629907011986,-0.019119396805763245
0.02509954385459423,0.018860163167119026,-0.00701521011069417,-0.04810939356684685,0.007049834355711937,-0.01909809559583664
0.025520507246255875,0.020084673538804054,-0.006650812923908234,-0.04955468326807022,0.007425286807119846,-0.019278602674603462
0.02537538670003414,0.019753871485590935,-0.006443054880946875,-0.051518287509679794,0.007022205740213394,-0.019125422462821007
0.02539086528122425,0.019653795287013054,-0.006585781462490559,-0.04995179548859596,0.006938418373465538,-0.019422369077801704
0.02540181577205658,0.01980474591255188,-0.007531637791544199,-0.048861030489206314,0.007136417552828789,-0.01991322636604309
0.025162769481539726,0.019917499274015427,-0.006108946166932583,-0.05111841484904289,0.007217944134026766,-0.018800385296344757
0.025279071182012558,0.02082364447414875,-0.006618391256779432,-0.050904881209135056,0.006971791852265596,-0.019430244341492653
0.026199722662568092,0.02141793631017208,-0.006925522815436125,-0.051538702100515366,0.007264917250722647,-0.01955423876643181
0.026667330414056778,0.020529666915535927,-0.007518242113292217,-0.05185503885149956,0.00744975870475173,-0.01921265386044979
0.026521343737840652,0.02021666243672371,-0.006751137785613537,-0.05316749960184097,0.007460951805114746,-0.019475679844617844
0.025704119354486465,0.02078104205429554,-0.006092848721891642,-0.052567530423402786,0.007369133643805981,-0.019724097102880478
0.025810394436120987,0.02093026414513588,-0.00626262417063117,-0.0515572763979435,0.00807358417659998,-0.019561856985092163
0.02618139609694481,0.021391889080405235,-0.007407738361507654,-0.052367787808179855,0.007247705478221178,-0.019522586837410927
0.026597904041409492,0.021058283746242523,-0.007019198965281248,-0.052906766533851624,0.007335740607231855,-0.01998300850391388
0.02573021873831749,0.02130689099431038,-0.006268895696848631,-0.05281930789351463,0.007772141136229038,-0.020124005153775215
0.0264247078448534,0.021632080897688866,-0.006464171689003706,-0.05283963680267334,0.007554045878350735,-0.02025839313864708
0.027203567326068878,0.02190730907022953,-0.006806815508753061,-0.05296173691749573,0.0073617142625153065,-0.02036646008491516
0.02668546698987484,0.021814469248056412,-0.006759225856512785,-0.052618082612752914,0.007135545834898949,-0.020088300108909607
0.026314562186598778,0.022015029564499855,-0.006536012049764395,-0.05284978821873665,0.007068607956171036,-0.019603252410888672
0.02584570087492466,0.02121388353407383,-0.006711625959724188,-0.052388984709978104,0.007110474165529013,-0.019885383546352386
0.026434915140271187,0.021150881424546242,-0.006501627620309591,-0.052850913256406784,0.007279716897755861,-0.019828805699944496
0.02624611370265484,0.021682536229491234,-0.007388553582131863,-0.05313178896903992,0.00763787841424346,-0.02055683545768261
0.02738240733742714,0.022621922194957733,-0.0069348751567304134,-0.05295764282345772,0.007659699767827988,-0.020303234457969666
0.02756522037088871,0.022798355668783188,-0.00631326949223876,-0.05451468378305435,0.007315102033317089,-0.019970733672380447
0.026806198060512543,0.022290559485554695,-0.006527066230773926,-0.052967846393585205,0.006906125694513321,-0.02010035514831543
0.026708627119660378,0.022269945591688156,-0.006783546879887581,-0.0525217242538929,0.007288294844329357,-0.02052900567650795
0.02699943259358406,0.022576041519641876,-0.0072113811038434505,-0.05320710316300392,0.007988117635250092,-0.020934881642460823
0.02699943259358406,0.022576041519641876,-0.0072113811038434505,-0.05320710316300392,0.007988117635250092,-0.020934881642460823
0.0272465031594038,0.022861024364829063,-0.006582247093319893,-0.055322907865047455,0.007797046564519405,-0.019971271976828575
0.02741113118827343,0.02279842458665371,-0.006280934438109398,-0.05417922884225845,0.007993197999894619,-0.020791752263903618
0.02760767750442028,0.022380301728844643,-0.00661146454513073,-0.05381857976317406,0.007933116517961025,-0.01974708028137684
0.02717350237071514,0.022544780746102333,-0.00684215547516942,-0.055477455258369446,0.008252951316535473,-0.019833829253911972
0.027087626978754997,0.022538209334015846,-0.00740206241607666,-0.05542336404323578,0.007850518450140953,-0.020578086376190186
0.027807926759123802,0.022552749142050743,-0.006348824594169855,-0.05634399875998497,0.008375145494937897,-0.021158255636692047
0.02741977944970131,0.022384867072105408,-0.006971366703510284,-0.056023579090833664,0.00797833688557148,-0.020661858841776848
0.027489488944411278,0.022859852761030197,-0.007091546431183815,-0.05603409931063652,0.008089237846434116,-0.02089788019657135
0.027743611484766006,0.02292577177286148,-0.007107540965080261,-0.05776172876358032,0.007998315617442131,-0.021438265219330788
0.027735313400626183,0.022971469908952713,-0.006368602626025677,-0.05699498578906059,0.008230271749198437,-0.021179551258683205
0.02806646190583706,0.0229983888566494,-0.006415954791009426,-0.05488134175539017,0.0077900816686451435,-0.021248463541269302
0.028255142271518707,0.023200785741209984,-0.007039607036858797,-0.0564001090824604,0.007557719014585018,-0.021080786362290382
0.028540106490254402,0.02307041548192501,-0.007341091986745596,-0.05861742049455643,0.008034772239625454,-0.021306529641151428
0.028560984879732132,0.023406023159623146,-0.0068205599673092365,-0.05966635420918465,0.008336814120411873,-0.021369079127907753
0.02871379256248474,0.025094570592045784,-0.006142372731119394,-0.05745954439043999,0.008355485275387764,-0.021366553381085396
0.028322093188762665,0.022012006491422653,-0.006454511545598507,-0.0579708069562912,0.007934093475341797,-0.02165275253355503
0.028438100591301918,0.02244744822382927,-0.007109694182872772,-0.05928613990545273,0.00822464656084776,-0.021797973662614822
0.028410550206899643,0.023708319291472435,-0.006521209608763456,-0.0590471550822258,0.008057693019509315,-0.02153400331735611
0.02876647189259529,0.024230265989899635,-0.0062687755562365055,-0.058902040123939514,0.008006172254681587,-0.02194320037961006
0.02908892184495926,0.024288266897201538,-0.006390471942722797,-0.05787898600101471,0.008104284293949604,-0.021735554561018944
0.02906022220849991,0.023413201794028282,-0.007124939002096653,-0.05819832533597946,0.008421543054282665,-0.02181648276746273
0.028006061911582947,0.022889269515872,-0.007055340800434351,-0.058540716767311096,0.00838516652584076,-0.021831272169947624
0.028337858617305756,0.0233270525932312,-0.007042864337563515,-0.05869302526116371,0.008226990699768066,-0.022001193836331367
0.029178433120250702,0.024046873673796654,-0.007119653280824423,-0.05832511559128761,0.008613546378910542,-0.022028222680091858
0.028702745214104652,0.023954851552844048,-0.007572344038635492,-0.05775081366300583,0.00904642790555954,-0.022974293678998947
0.02921943925321102,0.02393791265785694,-0.00741304736584425,-0.05922596901655197,0.008573820814490318,-0.022048259153962135
0.029319871217012405,0.02396373078227043,-0.007278773467987776,-0.057246699929237366,0.008713461458683014,-0.021455727517604828
0.029319871217012405,0.02396373078227043,-0.007278773467987776,-0.057246699929237366,0.008713461458683014,-0.021455727517604828
0.029667507857084274,0.02424769662320614,-0.007412992417812347,-0.057362109422683716,0.008771039545536041,-0.02167373150587082
0.029329637065529823,0.02402441017329693,-0.007840901613235474,-0.05762014910578728,0.00852371659129858,-0.02239031158387661
0.029706886038184166,0.02404429018497467,-0.007344384677708149,-0.0604604110121727,0.008438480086624622,-0.021894648671150208
0.029706886038184166,0.02404429018497467,-0.007344384677708149,-0.0604604110121727,0.008438480086624622,-0.021894648671150208
0.02970610186457634,0.024662155658006668,-0.0076984865590929985,-0.05901910737156868,0.008551836013793945,-0.022176504135131836
0.029788965359330177,0.024794595316052437,-0.0075792428106069565,-0.05864978954195976,0.008475309237837791,-0.022691499441862106
0.030043011531233788,0.024550775066018105,-0.006880158092826605,-0.060328759253025055,0.008545280434191227,-0.022524941712617874
0.029957346618175507,0.024504050612449646,-0.006788864731788635,-0.06172751262784004,0.008602680638432503,-0.022690484300255775
0.030078932642936707,0.02461291290819645,-0.006956709548830986,-0.059180960059165955,0.008972188457846642,-0.02255980297923088
0.030277304351329803,0.024555020034313202,-0.007089146412909031,-0.060275182127952576,0.008466344326734543,-0.02263234369456768
0.03051508590579033,0.02462771348655224,-0.006898369640111923,-0.060791533440351486,0.008527909405529499,-0.022540470585227013
0.030831463634967804,0.024888725951313972,-0.006916023325175047,-0.06163496896624565,0.008892307989299297,-0.0223615150898695
0.030795060098171234,0.024687130004167557,-0.007487841881811619,-0.06127201393246651,0.00873401015996933,-0.022320818156003952
0.03105413354933262,0.024575402960181236,-0.007169182877987623,-0.061551958322525024,0.009028111584484577,-0.022610215470194817
0.031232932582497597,0.025067199021577835,-0.00724725192412734,-0.06190789118409157,0.008704506792128086,-0.022588927298784256
0.03081637993454933,0.024749798700213432,-0.006883824709802866,-0.06186388060450554,0.008854938670992851,-0.022232217714190483
0.031041104346513748,0.025073954835534096,-0.006897259503602982,-0.06369416415691376,0.009091042913496494,-0.022327706217765808
0.031491685658693314,0.02532273530960083,-0.00736989313736558,-0.06316684931516647,0.008674262091517448,-0.0227589663118124
0.03133874014019966,0.025091804563999176,-0.007191621232777834,-0.06146448850631714,0.008703023195266724,-0.023219844326376915
0.0309598371386528,0.024766314774751663,-0.006894640624523163,-0.06176997721195221,0.00884550716727972,-0.023098822683095932
0.031608905643224716,0.02514602616429329,-0.007062946446239948,-0.06424520909786224,0.009263413958251476,-0.022639581933617592
0.03141425922513008,0.025356637313961983,-0.008862204849720001,-0.06146823614835739,0.00881201308220625,-0.02342328429222107
0.031592853367328644,0.025395086035132408,-0.007852911949157715,-0.06190589815378189,0.008469691500067711,-0.022543737664818764
0.03292657807469368,0.025657957419753075,-0.007447512820363045,-0.06246011704206467,0.008882060647010803,-0.022986413910984993
0.03292657807469368,0.025657957419753075,-0.007447512820363045,-0.06246011704206467,0.008882060647010803,-0.022986413910984993
0.03288876637816429,0.027249176055192947,-0.007848343811929226,-0.062591053545475,0.008588857017457485,-0.022787565365433693
0.03174205869436264,0.025300858542323112,-0.008478295989334583,-0.06149023026227951,0.008338039740920067,-0.022377949208021164
0.03128286078572273,0.024784617125988007,-0.007876161485910416,-0.061141885817050934,0.008656227961182594,-0.021849241107702255
0.03303788974881172,0.025220219045877457,-0.007498742546886206,-0.06152299791574478,0.008834294974803925,-0.02204333245754242
0.0321323424577713,0.025467554107308388,-0.008045871742069721,-0.06139427423477173,0.008904129266738892,-0.02303757704794407
0.032535310834646225,0.025778166949748993,-0.00840796809643507,-0.061663419008255005,0.008882682770490646,-0.02354341931641102
0.03295810520648956,0.025442341342568398,-0.008300780318677425,-0.061655785888433456,0.009016194380819798,-0.023076314479112625
0.033208925276994705,0.02565637417137623,-0.007917651906609535,-0.06236221641302109,0.009088166989386082,-0.022922955453395844
0.032049864530563354,0.0262245312333107,-0.008047382347285748,-0.0635761171579361,0.009343638084828854,-0.02368476614356041
0.03331337496638298,0.026069533079862595,-0.007823017425835133,-0.0640350878238678,0.009298245422542095,-0.023040195927023888
0.03323207423090935,0.026823589578270912,-0.007744659669697285,-0.06323383003473282,0.009256956167519093,-0.02273411862552166
0.03304346650838852,0.027530457824468613,-0.008614012971520424,-0.06581031531095505,0.00955231674015522,-0.022487645968794823
0.03267904371023178,0.02745051495730877,-0.007915141992270947,-0.06317654252052307,0.009311509318649769,-0.02344866469502449
0.03329182043671608,0.02674003131687641,-0.007484817411750555,-0.0627409890294075,0.009109643287956715,-0.023910876363515854
0.0331120528280735,0.02620367892086506,-0.008079536259174347,-0.06503261625766754,0.009023789316415787,-0.023500924929976463
0.03323106840252876,0.02644413523375988,-0.008225113153457642,-0.06683095544576645,0.009830813854932785,-0.023420926183462143
0.03317265957593918,0.027025172486901283,-0.007752670906484127,-0.06383199244737625,0.009006495587527752,-0.023293273523449898
0.033539675176143646,0.026359444484114647,-0.007718795444816351,-0.06560858339071274,0.008640770800411701,-0.02316429652273655
0.03374755382537842,0.026964396238327026,-0.007692672312259674,-0.06683170795440674,0.00899378303438425,-0.023341689258813858
0.03323015943169594,0.027962807565927505,-0.008000646717846394,-0.06647808104753494,0.009131429716944695,-0.023226581513881683
0.03362879529595375,0.027475031092762947,-0.008146386593580246,-0.06609173119068146,0.009034469723701477,-0.023648733273148537
0.033656999468803406,0.027897769585251808,-0.007719251327216625,-0.06644286960363388,0.009131981991231441,-0.02361752651631832
0.03366362676024437,0.027726225554943085,-0.0076959095895290375,-0.06736095249652863,0.009246005676686764,-0.02340393327176571
0.03366830572485924,0.02715068683028221,-0.007904833182692528,-0.06580701470375061,0.009233590215444565,-0.022466545924544334
0.03375285118818283,0.028015324845910072,-0.008064882829785347,-0.06711877137422562,0.009146132506430149,-0.02310388907790184
0.034161120653152466,0.02805226854979992,-0.007660579401999712,-0.06628337502479553,0.009395242668688297,-0.023591751232743263
0.033989228308200836,0.02792324684560299,-0.008452052250504494,-0.06469208747148514,0.009214560501277447,-0.0244260486215353
0.033989228308200836,0.02792324684560299,-0.008452052250504494,-0.06469208747148514,0.009214560501277447,-0.0244260486215353
0.03412680700421333,0.02823876589536667,-0.007851003669202328,-0.06480809301137924,0.008998492732644081,-0.024193551391363144
0.03411960229277611,0.02817125990986824,-0.008188447915017605,-0.06674566119909286,0.008807460777461529,-0.023846352472901344
0.03420170769095421,0.028471002355217934,-0.007883607409894466,-0.06391879916191101,0.009122789837419987,-0.023575041443109512
0.033454980701208115,0.028413111343979836,-0.008460447192192078,-0.06486818939447403,0.009042692370712757,-0.023389769718050957
0.03516124188899994,0.028556209057569504,-0.007879302836954594,-0.06592500954866409,0.009134617634117603,-0.023787595331668854
0.03507537767291069,0.028158579021692276,-0.00829265732318163,-0.06591273844242096,0.009370312094688416,-0.0244329571723938
0.03502919524908066,0.028429048135876656,-0.008619409054517746,-0.0668606087565422,0.008883535861968994,-0.023909181356430054
0.03357288986444473,0.028631115332245827,-0.00826275534927845,-0.06584127992391586,0.009346254169940948,-0.024063024669885635
0.0343007855117321,0.03063926100730896,-0.007590050809085369,-0.06558632850646973,0.009256664663553238,-0.02466791681945324
0.035204287618398666,0.028840500861406326,-0.007819727063179016,-0.06644029915332794,0.009459485299885273,-0.025185206905007362
0.035670775920152664,0.028933726251125336,-0.008269451558589935,-0.06583196669816971,0.009432303719222546,-0.023569008335471153
0.035003531724214554,0.02919864095747471,-0.0076468512415885925,-0.06611974537372589,0.009511659853160381,-0.023521646857261658
0.034902505576610565,0.02936864085495472,-0.008145353756844997,-0.06661232560873032,0.009438283741474152,-0.024143410846590996
0.03459297865629196,0.02916494756937027,-0.008693238720297813,-0.06593900918960571,0.009089932776987553,-0.024740485474467278
0.03524642810225487,0.029545588418841362,-0.008324033580720425,-0.06774604320526123,0.009573494084179401,-0.024826517328619957
0.03517105430364609,0.02931610494852066,-0.008041535504162312,-0.06777150928974152,0.009699348360300064,-0.02458891086280346
0.03500565141439438,0.029889244586229324,-0.009256785735487938,-0.06696436554193497,0.009559706784784794,-0.0244656503200531
0.03543715178966522,0.030773214995861053,-0.008603256195783615,-0.0701206624507904,0.009671072475612164,-0.024633068591356277
0.03511935472488403,0.03066726215183735,-0.007719556801021099,-0.0687795951962471,0.010778876952826977,-0.024152029305696487
0.034785158932209015,0.02978626638650894,-0.008545195683836937,-0.06669049710035324,0.009205030277371407,-0.023969678208231926
0.034988611936569214,0.029640788212418556,-0.00929455365985632,-0.06839116662740707,0.00842295866459608,-0.024518555030226707
0.03440224006772041,0.0302348043769598,-0.008233852684497833,-0.0682888850569725,0.009026915766298771,-0.024502243846654892
0.03507493808865547,0.030480748042464256,-0.008025974035263062,-0.06852532178163528,0.00908755511045456,-0.023724792525172234
0.0350482240319252,0.03010009601712227,-0.008919515646994114,-0.06835027039051056,0.00983855128288269,-0.024501515552401543
0.03440764918923378,0.031029412522912025,-0.008696319535374641,-0.06750358641147614,0.01003429014235735,-0.02449168637394905
0.03480147942900658,0.03032035194337368,-0.008594906888902187,-0.06784481555223465,0.00961808767169714,-0.0246905405074358
0.03577619791030884,0.02992098405957222,-0.009214344434440136,-0.06702161580324173,0.008820600807666779,-0.024602465331554413
0.0356760174036026,0.02915336564183235,-0.008716492913663387,-0.06648243963718414,0.009097296744585037,-0.024727175012230873
0.03537323325872421,0.030160285532474518,-0.008946781978011131,-0.06933273375034332,0.009457366541028023,-0.024823816493153572
0.03498395159840584,0.030857259407639503,-0.009127536788582802,-0.06633354723453522,0.009879528544843197,-0.024923034012317657
0.03498395159840584,0.030857259407639503,-0.009127536788582802,-0.06633354723453522,0.009879528544843197,-0.024923034012317657
0.03679028898477554,0.030443795025348663,-0.00916787888854742,-0.06659875810146332,0.009844095446169376,-0.02454184927046299
0.037398964166641235,0.030679773539304733,-0.008576604537665844,-0.06971857696771622,0.009612617082893848,-0.024203669279813766
0.03506789728999138,0.030831389129161835,-0.008887583389878273,-0.06795798987150192,0.010108754970133305,-0.02457510679960251
0.03512360900640488,0.0311224814504385,-0.009860786609351635,-0.06886794418096542,0.010110639967024326,-0.024841932579874992
0.03661389648914337,0.031041407957673073,-0.009582625702023506,-0.07015084475278854,0.010054408572614193,-0.025352369993925095
