davideferrari95/blind_handover_controller/data/Test 270 - [2024-02-08 -- 12-53-30]/joint_states_data.csv
shoulder_pan_joint,shoulder_lift_joint,elbow_joint,wrist_1_joint,wrist_2_joint,wrist_3_joint
0.00649351067841053,0.005767324008047581,-0.013000485487282276,0.006865592207759619,-0.0,0.006887228228151798
0.006339075975120068,0.006144596263766289,-0.012188694439828396,0.006246401462703943,-0.0,0.006356319412589073
0.006339075975120068,0.006144596263766289,-0.012188694439828396,0.006246401462703943,-0.0,0.006356319412589073
0.007263058330863714,0.0054188985377550125,-0.012129751965403557,0.006003874354064465,-0.0,0.00625578360632062
0.0066285510547459126,0.005437440238893032,-0.01250447053462267,0.0056129139848053455,-0.0,0.006430179812014103
0.006464813835918903,0.00522450590506196,-0.012090721167623997,0.00600855890661478,-0.0,0.006292395759373903
0.007070912513881922,0.005787634756416082,-0.012419353239238262,0.005589255131781101,-1.2187258107587695e-05,0.006501669995486736
0.007140927016735077,0.005782384891062975,-0.011986450292170048,0.005663509480655193,-7.957408456604753e-07,0.006288487929850817
0.006767310667783022,0.006125836167484522,-0.012253103777766228,0.005966986529529095,-5.1956192237412324e-08,0.0068923779763281345
0.006335883401334286,0.0055265286937355995,-0.012266909703612328,0.005497739650309086,-3.3923679421121733e-09,0.006571672391146421
0.00650550052523613,0.005560749676078558,-0.011267605237662792,0.006149877328425646,-1.446219619755107e-11,0.006762080825865269
0.006522012408822775,0.005509089212864637,-0.012399361468851566,0.006141622085124254,-9.442781842908254e-13,0.006315217353403568
0.006422435864806175,0.005424981005489826,-0.013018714264035225,0.006095726974308491,-6.165461343505749e-14,0.006215294357389212
0.006272181402891874,0.005622441880404949,-0.011471068486571312,0.005872603505849838,-4.025606244021946e-15,0.006430919282138348
0.0068779801949858665,0.005193278193473816,-0.011610176414251328,0.006463499274104834,-2.6284332325807397e-16,0.0066170478239655495
0.006901403423398733,0.005381617695093155,-0.011542285792529583,0.006387138273566961,-1.7161790792601033e-17,0.006396472919732332
0.006654893979430199,0.0057544526644051075,-0.01153599377721548,0.006169917527586222,-1.1205421813489138e-18,0.006254124920815229
0.005996761377900839,0.006133314222097397,-0.01272016204893589,0.0058374651707708836,-7.316339493493078e-20,0.006243759300559759
0.006314328406006098,0.005500464234501123,-0.011937287636101246,0.0058356826193630695,-4.777046797366512e-21,0.0061366381123661995
0.006598300766199827,0.005413687322288752,-0.011801671236753464,0.0064962636679410934,-3.1190701911773926e-22,0.006367213558405638
0.0062772128731012344,0.005464253015816212,-0.011978117749094963,0.006546942517161369,-2.036529939350168e-23,0.006142467726022005
0.006095372140407562,0.005336524453014135,-0.012030865997076035,0.0063248504884541035,-1.3297085763983557e-24,0.006116111297160387
0.006214546505361795,0.005305937025696039,-0.012519325129687786,0.005995823536068201,-8.68204781587174e-26,0.006253923289477825
0.0071667516604065895,0.005334611516445875,-0.010932503268122673,0.006219950038939714,-5.668756776034124e-27,0.006684733554720879
0.006472036242485046,0.005447399336844683,-0.011755676940083504,0.006028079893440008,-3.701292852393465e-28,0.007088662590831518
0.006476188078522682,0.005434643942862749,-0.011600201949477196,0.005927449557930231,-2.4166796141719162e-29,0.006400154437869787
0.006476188078522682,0.005434643942862749,-0.011600201949477196,0.005927449557930231,-2.4166796141719162e-29,0.006400154437869787
0.0062749627977609634,0.005482846405357122,-0.011506534181535244,0.006077214144170284,-1.5779191054138656e-30,0.0064123100601136684
0.007050907704979181,0.005219838581979275,-0.01189383678138256,0.005895069334656,-1.0302683714476883e-31,0.007126144133508205
0.0066686272621154785,0.005100691225379705,-0.0113053098320961,0.006180102471262217,-6.72691629811027e-33,0.006951009389013052
0.006489798426628113,0.0049240849912166595,-0.011928936466574669,0.006529234349727631,-4.392195152584129e-34,0.00608363002538681
0.006623165216296911,0.005137222819030285,-0.011732497252523899,0.006305359303951263,-2.8677900864144156e-35,0.005793256219476461
0.005843096412718296,0.0055098156444728374,-0.011338789016008377,0.0062328907661139965,-1.8724619122930185e-36,0.005997346248477697
0.006146141793578863,0.005300672724843025,-0.011775110848248005,0.006412371527403593,-1.222583808625213e-37,0.006627658847719431
0.006789626087993383,0.005384509917348623,-0.011065628379583359,0.006294251885265112,-7.982598996814216e-39,0.006809771526604891
0.006748415529727936,0.005516634322702885,-0.011923328042030334,0.006220223847776651,-5.212073586117584e-40,0.006735305767506361
0.00611709151417017,0.0052063656039536,-0.01146429032087326,0.0063373674638569355,-3.4030533206128183e-41,0.0067092496901750565
0.0063065835274755955,0.005720574874430895,-0.011407789774239063,0.005792601965367794,-2.22245936441916e-42,0.006552213337272406
0.006874312646687031,0.005453463643789291,-0.01161002367734909,0.0058259014040231705,-1.4573504028978098e-43,0.006779116578400135
0.0065259067341685295,0.005409869831055403,-0.011673369444906712,0.006337448954582214,-0.0,0.006189631763845682
0.006412580609321594,0.0053137303330004215,-0.01121647097170353,0.005946068093180656,-0.0,0.00631631538271904
0.006173261906951666,0.005145706236362457,-0.010755637660622597,0.006009240169078112,-0.0,0.006582789123058319
0.006501213181763887,0.005422267131507397,-0.011893659830093384,0.006166883744299412,-0.0,0.006842132657766342
0.00670738285407424,0.005681213922798634,-0.011577176861464977,0.006244060583412647,-0.0,0.006748671177774668
0.006185593083500862,0.005402668379247189,-0.010758846066892147,0.00635893177241087,-0.0,0.006590607576072216
0.0059987083077430725,0.005368262063711882,-0.011736204847693443,0.00637798011302948,-0.0,0.006213040556758642
0.006518254987895489,0.004989375360310078,-0.01142688188701868,0.0058631980791687965,-0.0,0.006513791624456644
0.00658204173669219,0.00545525411143899,-0.011528342962265015,0.005869563203305006,-0.0,0.006881129462271929
0.007186079863458872,0.005285667721182108,-0.011189536191523075,0.006382602266967297,-0.0,0.006466570310294628
0.006419817451387644,0.005546472501009703,-0.010303258895874023,0.006289403419941664,-0.0,0.006247666664421558
0.006284658331423998,0.0056297918781638145,-0.01174057088792324,0.006411669310182333,-0.0,0.006220194511115551
0.006643232889473438,0.005413786042481661,-0.010529235005378723,0.005852797068655491,-0.0,0.006739329546689987
0.0065453434363007545,0.005473323166370392,-0.010596567764878273,0.005645535420626402,-0.0,0.007216029800474644
0.006334963254630566,0.005309009458869696,-0.01101883128285408,0.005346728954464197,-0.0,0.006903616711497307
0.006334963254630566,0.005309009458869696,-0.01101883128285408,0.005346728954464197,-0.0,0.006903616711497307
0.00651612738147378,0.005934151820838451,-0.010275717824697495,0.005224716383963823,-0.0,0.006739386357367039
0.007131111342459917,0.0056914715096354485,-0.010916356928646564,0.0059320456348359585,-0.0,0.006655559875071049
0.007057494483888149,0.005653160624206066,-0.010905107483267784,0.006040060892701149,-0.0,0.00654494296759367
0.006768341176211834,0.005403154995292425,-0.010227672755718231,0.006049046292901039,-0.0,0.0063042002730071545
0.0060984184965491295,0.005888823885470629,-0.011079476214945316,0.006240375339984894,-0.0,0.006221486255526543
0.0064827497117221355,0.0055975099094212055,-0.010707679204642773,0.006276637781411409,-0.0,0.0061895400285720825
0.006910719908773899,0.005885500926524401,-0.010707568377256393,0.00623308727517724,-0.0,0.006669356022030115
0.006650284398347139,0.005293063819408417,-0.010970736853778362,0.006106360349804163,-0.0,0.0071893539279699326
0.006586953066289425,0.005184712819755077,-0.010510909371078014,0.0060543883591890335,-0.0,0.0069863866083323956
0.006411008536815643,0.005435446742922068,-0.011118801310658455,0.006179220508784056,-0.0,0.006655230186879635
0.0065832859836518764,0.005617949180305004,-0.011161794885993004,0.006482155527919531,-0.0,0.006845957133919001
0.007208148017525673,0.0056350501254200935,-0.010520298033952713,0.005906865932047367,-0.0,0.006662142928689718
0.006610512267798185,0.005280436482280493,-0.010634973645210266,0.00510783726349473,-0.0,0.006763724610209465
0.006610512267798185,0.005280436482280493,-0.010634973645210266,0.00510783726349473,-0.0,0.006763724610209465
0.006975624710321426,0.005361166782677174,-0.011036052368581295,0.005710303317755461,-0.0,0.006840710528194904
0.006608773488551378,0.006061486899852753,-0.010531428270041943,0.005694239400327206,-0.0,0.006442290730774403
0.006384532433003187,0.005779063329100609,-0.010895375162363052,0.005625637248158455,-0.0,0.0066679068841040134
0.006483267527073622,0.005860105622559786,-0.011300723999738693,0.005624036770313978,-0.0,0.007253017742186785
0.006849966943264008,0.005378277972340584,-0.0106547512114048,0.005721138324588537,-0.0,0.007742167916148901
0.007097278721630573,0.005745901260524988,-0.0112654659897089,0.006336255930364132,-0.0,0.007077483925968409
0.006952294148504734,0.005421227775514126,-0.011055871844291687,0.00664304755628109,-0.0,0.006564144045114517
0.006673079449683428,0.005863633938133717,-0.01099434308707714,0.006608565803617239,-0.0,0.006394080817699432
0.007448289077728987,0.0056731258518993855,-0.011417023837566376,0.006279226392507553,-0.0,0.0069574578665196896
0.006971172988414764,0.005535876378417015,-0.01086607575416565,0.006538123358041048,-0.0,0.007072434760630131
0.006983804050832987,0.005469287279993296,-0.011959734372794628,0.006559131667017937,-0.0,0.0066679492592811584
0.006765067111700773,0.005669614300131798,-0.011246881447732449,0.006077565252780914,-0.0,0.006486698053777218
0.006861161440610886,0.005283169448375702,-0.011277027428150177,0.005736461374908686,-0.0,0.006605572998523712
0.006861161440610886,0.005283169448375702,-0.011277027428150177,0.005736461374908686,-0.0,0.006605572998523712
0.006481073331087828,0.005422042217105627,-0.011482961475849152,0.0061989715322852135,-0.0,0.006787572987377644
0.006481073331087828,0.005422042217105627,-0.011482961475849152,0.0061989715322852135,-0.0,0.006787572987377644
0.007103225216269493,0.005412768106907606,-0.011531437747180462,0.006185323931276798,-0.0,0.0067460183054208755
0.006900180596858263,0.00563860172405839,-0.010912084020674229,0.00608745776116848,-0.0,0.006594874896109104
0.007026593200862408,0.006158418022096157,-0.010840761475265026,0.006054397206753492,-0.0,0.006617771461606026
0.007354487664997578,0.005911376792937517,-0.012001734226942062,0.006135530769824982,-0.0,0.006846165284514427
0.007290075533092022,0.005735292099416256,-0.01107051596045494,0.006095592863857746,-0.0,0.006685969885438681
0.006875106133520603,0.0052015697583556175,-0.011206383816897869,0.006278731860220432,-0.0,0.0066948384046554565
0.006754184607416391,0.005854657851159573,-0.011436921544373035,0.006334034726023674,-0.0,0.006729796528816223
0.007257155142724514,0.005540341604501009,-0.011071703396737576,0.006203741300851107,-0.0,0.007132700178772211
0.007277852389961481,0.005902469623833895,-0.011592737399041653,0.006229972932487726,-0.0,0.007397786248475313
0.006896725855767727,0.005722146015614271,-0.010963469743728638,0.006540376227349043,-0.0,0.007062342017889023
0.007182505913078785,0.005543802864849567,-0.011623004451394081,0.0062677315436303616,-0.0,0.006864883005619049
0.007441675290465355,0.005500882398337126,-0.011532778851687908,0.006048853043466806,-0.0,0.007191821932792664
0.007534347008913755,0.005809783469885588,-0.011452868580818176,0.005897548981010914,-0.0,0.006797059439122677
0.006967769004404545,0.005998578853905201,-0.011084127239882946,0.006248360965400934,-0.0,0.006671622395515442
0.0072816722095012665,0.0058003016747534275,-0.010907460935413837,0.00633909460157156,-0.0,0.0072844563983380795
0.008056937716901302,0.005792165640741587,-0.011524689383804798,0.00640294561162591,-0.0,0.007090386934578419
0.007149155717343092,0.0056517766788601875,-0.010941879823803902,0.006498787552118301,-0.0,0.007371983490884304
0.007389597594738007,0.005936868488788605,-0.011685023084282875,0.006574430037289858,-0.0,0.006770659238100052
0.00750741409137845,0.0060907211154699326,-0.011105647310614586,0.00684417923912406,-0.0,0.007111430633813143
0.00806690938770771,0.005771111696958542,-0.010819612070918083,0.006868355441838503,-0.0,0.007043628487735987
0.00711657153442502,0.005945038050413132,-0.01126657985150814,0.006092894356697798,-0.0,0.0066399467177689075
0.007230646442621946,0.005580188240855932,-0.010885979048907757,0.006342434789985418,-0.0,0.006557136308401823
0.007442600559443235,0.006064798682928085,-0.011942310258746147,0.0065588755533099174,-0.0,0.007918727584183216
0.008043420501053333,0.006352107040584087,-0.011340035125613213,0.0063603646121919155,-0.0,0.006982441991567612
0.007209276780486107,0.005592366214841604,-0.011140387505292892,0.006426910869777203,-0.0,0.006287841591984034
0.007235412020236254,0.006014440208673477,-0.01151364017277956,0.006303062662482262,-0.0,0.006867412477731705
0.007235412020236254,0.006014440208673477,-0.01151364017277956,0.006303062662482262,-0.0,0.006867412477731705
0.007466413080692291,0.005989682395011187,-0.011083205230534077,0.006053464021533728,-0.0,0.007113199215382338
0.008076038211584091,0.006359839346259832,-0.011067266575992107,0.006487988401204348,-0.0,0.007708365563303232
0.007665551733225584,0.005998514126986265,-0.011587138287723064,0.006413057912141085,-0.0,0.007444101385772228
0.007733521983027458,0.005763898603618145,-0.011126584373414516,0.0056877704337239265,-0.0,0.007047160062938929
0.007787108421325684,0.005579535849392414,-0.011275678873062134,0.005269842687994242,-0.0,0.006902857683598995
0.0077697355300188065,0.005774304270744324,-0.010813740082085133,0.005522267427295446,-0.0,0.0067537399008870125
0.007694469764828682,0.00650392472743988,-0.010537946596741676,0.006031619384884834,-0.0,0.007104253862053156
0.007704187650233507,0.006860759574919939,-0.011500844731926918,0.005834145005792379,-0.0,0.008031003177165985
0.007642699871212244,0.005748852621763945,-0.011382023803889751,0.005838585551828146,-0.0,0.007737684529274702
0.0075332121923565865,0.005849114619195461,-0.010727658867835999,0.005693513434380293,-0.0,0.007559142541140318
0.0073131658136844635,0.005481174681335688,-0.011372266337275505,0.006014164537191391,-0.0,0.0074141561053693295
0.007446730509400368,0.005943302996456623,-0.010798068717122078,0.006475074682384729,-0.0,0.007899564690887928
0.007773979101330042,0.006340105552226305,-0.011275378987193108,0.007081086281687021,-0.0,0.007908153347671032
0.007601139601320028,0.005916272290050983,-0.012033594772219658,0.006771071348339319,-0.0,0.007836803793907166
0.007672235369682312,0.005434104241430759,-0.011370298452675343,0.006948287598788738,-0.0,0.00786470528692007
0.008175509050488472,0.00610478688031435,-0.01080253068357706,0.007055872585624456,-0.0,0.007655112072825432
0.008352166041731834,0.006328411400318146,-0.01091191079467535,0.006819550879299641,-0.0,0.00785798579454422
0.007855519652366638,0.006094291806221008,-0.011194980703294277,0.006427071988582611,-0.0,0.007557464297860861
0.008193586021661758,0.005590463522821665,-0.010640675202012062,0.0065572927705943584,-0.0,0.007446015253663063
0.007867500185966492,0.0056779650039970875,-0.011278143152594566,0.00689508905634284,-0.0,0.007048364263027906
0.007726436946541071,0.006076997611671686,-0.010809616185724735,0.0065153236500918865,-0.0,0.007599380798637867
0.0076751732267439365,0.006287877913564444,-0.010656945407390594,0.006296321749687195,-0.0,0.007746502291411161
0.00808695051819086,0.006053632590919733,-0.011393440887331963,0.006208370439708233,-0.0,0.007537997793406248
0.0081069590523839,0.006101245991885662,-0.01106269285082817,0.006596033927053213,-0.0,0.007379555609077215
0.007582196034491062,0.005577450152486563,-0.011331742629408836,0.006197821348905563,-0.0,0.007893465459346771
0.008192559704184532,0.006446814630180597,-0.011499708518385887,0.006016998086124659,-0.0,0.008170122280716896
0.008311591111123562,0.006760940887033939,-0.011053301393985748,0.005907078739255667,-0.0,0.00772767374292016
0.008078819140791893,0.006245001684874296,-0.011703676544129848,0.005895397625863552,-0.0,0.007596146780997515
0.008177608251571655,0.006049639545381069,-0.011158379726111889,0.006200764328241348,-0.0,0.00766265532001853
0.008094106800854206,0.0058898222632706165,-0.011260395869612694,0.00672804843634367,-0.0,0.007779680658131838
0.008206292986869812,0.006363315042108297,-0.01102796383202076,0.006317875348031521,-0.0,0.0074503375217318535
0.008083486929535866,0.006499072071164846,-0.010961142368614674,0.005981790367513895,-0.0,0.00733899837359786
0.008814770728349686,0.006380216218531132,-0.01146028097718954,0.006015579216182232,-0.0,0.007661207113415003
0.008814770728349686,0.006380216218531132,-0.01146028097718954,0.006015579216182232,-0.0,0.007661207113415003
0.008158296346664429,0.005769039504230022,-0.011389786377549171,0.006177601870149374,-0.0,0.007510933559387922
0.008272386156022549,0.005626277066767216,-0.011371929198503494,0.006166290491819382,-0.0,0.007341345772147179
0.00809397455304861,0.007323214318603277,-0.01200839038938284,0.006194505374878645,-0.0,0.007378567475825548
0.008930105715990067,0.005738875828683376,-0.011367454193532467,0.005701588001102209,-0.0,0.00783737376332283
0.008271416649222374,0.005930589511990547,-0.011493770405650139,0.005772762931883335,-0.0,0.008421674370765686
0.008287285454571247,0.006784628611057997,-0.011383245699107647,0.006047952454537153,-0.0,0.00790359452366829
0.008009543642401695,0.00637214258313179,-0.011200716719031334,0.006184195633977652,-0.0,0.0077735986560583115
0.008732633665204048,0.006469074636697769,-0.011547910049557686,0.006069923285394907,-0.0,0.007761789485812187
0.008175921626389027,0.0057852622121572495,-0.011534393765032291,0.006346122361719608,-0.0,0.007886948995292187
0.008887170813977718,0.00513133080676198,-0.011605453677475452,0.0066520292311906815,-0.0,0.00794908870011568
0.008718954399228096,0.00483348174020648,-0.011294241063296795,0.006562537048012018,-0.0,0.00790319312363863
0.008709333837032318,0.004995913244783878,-0.01153856422752142,0.006359386723488569,-0.0,0.007644426543265581
0.008612667210400105,0.005466424394398928,-0.010835224762558937,0.0063719176687300205,-0.0,0.00747755728662014
0.008164236322045326,0.005481340456753969,-0.011398806236684322,0.0071522328071296215,-0.0,0.008134696632623672
0.008622344583272934,0.0054403627291321754,-0.011347226798534393,0.0076630739495158195,-0.0,0.008596702478826046
0.008516986854374409,0.00501967640593648,-0.010809539817273617,0.0069355592131614685,-0.0,0.008500903844833374
0.008652963675558567,0.005232530180364847,-0.011643742211163044,0.006697072647511959,-0.0,0.008425621315836906
0.008320674300193787,0.005541282240301371,-0.011664487421512604,0.006776197347790003,-0.0,0.008180842734873295
0.008426629938185215,0.005248300731182098,-0.011711166240274906,0.007068243343383074,-0.0,0.008159719407558441
0.008289400488138199,0.005270260851830244,-0.011242845095694065,0.006678812671452761,-0.0,0.007760790176689625
0.008718984201550484,0.005087363999336958,-0.011102999560534954,0.006218453403562307,-0.0,0.007957172580063343
0.009327041916549206,0.004960058722645044,-0.012106836773455143,0.006160946097224951,-0.0,0.007826830260455608
0.00867464393377304,0.005604830104857683,-0.01195098739117384,0.00609191507101059,-0.0,0.007735523860901594
0.008360964246094227,0.005206814035773277,-0.012061760760843754,0.006525700446218252,-0.0,0.008115950971841812
0.008360964246094227,0.005206814035773277,-0.012061760760843754,0.006525700446218252,-0.0,0.008115950971841812
0.00836208276450634,0.004905605223029852,-0.01172655075788498,0.0069142491556704044,-0.0,0.008480551652610302
0.008353037759661674,0.00472517404705286,-0.011272698640823364,0.006660403683781624,-0.0,0.008010877296328545
0.008696869015693665,0.004862796049565077,-0.012339888140559196,0.0062978207133710384,-0.0,0.00797057431191206
0.008851289749145508,0.004906866233795881,-0.011869098991155624,0.006468364503234625,-0.0,0.008307995274662971
0.008959326893091202,0.0056263236328959465,-0.012123393826186657,0.0066967010498046875,-0.0,0.009241199120879173
0.008264586329460144,0.005359986796975136,-0.01241323072463274,0.006554209161549807,-0.0,0.008333004079759121
0.00861855037510395,0.005435132887214422,-0.012208960950374603,0.006294786464422941,-0.0,0.007293520495295525
0.00917364563792944,0.005009898915886879,-0.01232836302369833,0.00667030131444335,-0.0,0.007973972707986832
0.008702372200787067,0.004886793438345194,-0.01181462500244379,0.007117129862308502,-0.0,0.008294870145618916
0.008884972892701626,0.005207331385463476,-0.011913991533219814,0.006793667562305927,-0.0,0.008361604064702988
0.009232423268258572,0.005008034408092499,-0.01216218713670969,0.006509546656161547,-0.0,0.008549909107387066
0.008487355895340443,0.005091593600809574,-0.011834869161248207,0.006789444480091333,-0.0,0.007788689807057381
0.009471488185226917,0.004943251144140959,-0.01174904778599739,0.006865930277854204,-0.0,0.007907761260867119
0.008663550019264221,0.005209186114370823,-0.012952452525496483,0.006523178890347481,-0.0,0.00847047008574009
0.008296228013932705,0.004951640032231808,-0.012162074446678162,0.006477993447333574,-0.0,0.008951669558882713
0.009402924217283726,0.005050711799412966,-0.012593821622431278,0.0068701389245688915,-0.0,0.008848442696034908
0.009515785612165928,0.0050596753135323524,-0.011821451596915722,0.0072011747397482395,-0.0,0.008495267480611801
0.008966926485300064,0.004842287395149469,-0.011605650186538696,0.007102363742887974,-0.0,0.008554722182452679
0.009325522929430008,0.00506389606744051,-0.012051945552229881,0.006708361674100161,-0.0,0.008423673920333385
0.009251542389392853,0.005543746519833803,-0.012170623987913132,0.006921377498656511,-0.0,0.008643809705972672
0.009034890681505203,0.005204491317272186,-0.012598933652043343,0.006836035288870335,-0.0,0.00854245014488697
0.009507700800895691,0.005864406004548073,-0.01239139586687088,0.006581000052392483,-0.0,0.008746879175305367
0.009227430447936058,0.005406971555203199,-0.01204609777778387,0.0062967161647975445,-0.0,0.008610147051513195
0.008819766342639923,0.005073046777397394,-0.011656681075692177,0.006616474594920874,-0.0,0.008587722666561604
0.009434293024241924,0.005135628394782543,-0.010897415690124035,0.007071446627378464,-0.0,0.008491579443216324
0.009525937959551811,0.005242126528173685,-0.0112521443516016,0.007262274157255888,-0.0,0.008746958337724209
0.009525937959551811,0.005242126528173685,-0.0112521443516016,0.007262274157255888,-0.0,0.008746958337724209
0.009447062388062477,0.005664142780005932,-0.012361741624772549,0.006827817298471928,-0.0,0.008548901416361332
0.00976021308451891,0.005280803889036179,-0.012400542385876179,0.006231939420104027,-0.0,0.008861836045980453
0.009692932479083538,0.00479115592315793,-0.012023912742733955,0.006656950805336237,-1.1699102287821006e-05,0.008536309003829956
0.00982745923101902,0.004687182605266571,-0.011611166410148144,0.00694970553740859,-7.638677743670996e-07,0.008653108030557632
0.009688601829111576,0.0052086953073740005,-0.011902125552296638,0.006793378386646509,-4.987510493492664e-08,0.009308661334216595
0.009176775813102722,0.005079680122435093,-0.011570720002055168,0.006419453304260969,-2.1262537563959683e-10,0.008737758733332157
0.009176775813102722,0.005079680122435093,-0.011570720002055168,0.006419453304260969,-2.1262537563959683e-10,0.008737758733332157
0.009274744428694248,0.005462027620524168,-0.01201185304671526,0.0064420453272759914,-1.3882916517771182e-11,0.008603783324360847
0.009659727104008198,0.004899600520730019,-0.01145344227552414,0.006387629080563784,-9.06455303612691e-13,0.008846433833241463
0.009493788704276085,0.00472567742690444,-0.011858325451612473,0.006464880425482988,-5.918505838415147e-14,0.008773469366133213
0.009867193177342415,0.0051940809935331345,-0.012403917498886585,0.007382772862911224,-2.5231520664951545e-16,0.00903091300278902
0.009715167805552483,0.005373619496822357,-0.01135971862822771,0.007449749857187271,-1.6474380542512315e-17,0.008650255389511585
0.009833358228206635,0.005107438657432795,-0.01162157952785492,0.007255770266056061,-1.0756593613117865e-18,0.008495689369738102
0.010585802607238293,0.004788303282111883,-0.012314055114984512,0.007008246146142483,-7.02328749704144e-20,0.008748340420424938
0.009782875888049603,0.004995931871235371,-0.012167351320385933,0.0073684039525687695,-4.585705139060722e-21,0.009500409476459026
0.009703549556434155,0.005050288513302803,-0.012083101086318493,0.0075493380427360535,-2.9941375954199444e-22,0.009057116694748402
0.010297898203134537,0.004528140649199486,-0.011876950971782207,0.007368940394371748,-1.9549577774457892e-23,0.008540019392967224
0.0098539087921381,0.004966906271874905,-0.012051510624587536,0.007137675303965807,-1.2764476463062275e-24,0.008765432983636856
0.009804923087358475,0.0054495069198310375,-0.011892273090779781,0.007328951731324196,-8.334291428054284e-26,0.009131214581429958
0.009903868660330772,0.004737678449600935,-0.011493883095681667,0.007752046920359135,-5.44169618375268e-27,0.009230464696884155
0.009781756438314915,0.00448986142873764,-0.012239649891853333,0.007662738673388958,-3.5530390986169105e-28,0.008961024694144726
0.010264769196510315,0.005057500209659338,-0.01189856231212616,0.007221378851681948,-2.3198808705342447e-29,0.00895854365080595
0.009927846491336823,0.005023918580263853,-0.01248607225716114,0.007352313958108425,-1.5147163476729777e-30,0.008750525303184986
0.009916107170283794,0.004596573766320944,-0.012100297957658768,0.007207874674350023,-9.89001466767721e-32,0.009024976752698421
0.009901785291731358,0.005076712928712368,-0.011702241376042366,0.007223219145089388,-6.457473156434632e-33,0.009169639088213444
0.01037068385630846,0.005522021558135748,-0.012093059718608856,0.007286963053047657,-4.21626864765915e-34,0.008801781572401524
0.01037068385630846,0.005522021558135748,-0.012093059718608856,0.007286963053047657,-4.21626864765915e-34,0.008801781572401524
0.010211246088147163,0.004710854962468147,-0.012371620163321495,0.007616405840963125,-1.7974611898906924e-36,0.009869415313005447
0.010211246088147163,0.004710854962468147,-0.012371620163321495,0.007616405840963125,-1.7974611898906924e-36,0.009869415313005447
0.011074479669332504,0.004822727292776108,-0.012208012863993645,0.007411621510982513,-1.1736136961792865e-37,0.009422915987670422
0.010174672119319439,0.004798305686563253,-0.011887099593877792,0.007411432918161154,-7.662859121015365e-39,0.009299266152083874
0.010200079530477524,0.00485919788479805,-0.012328418903052807,0.00793092418462038,-5.00329412791783e-40,0.00947282463312149
0.01035639550536871,0.005036292597651482,-0.011675197631120682,0.007612650748342276,-3.266847109880446e-41,0.00930782314389944
0.010114282369613647,0.004915372934192419,-0.012129019945859909,0.006931480020284653,-2.1327762627023716e-42,0.008959298953413963
0.011013100855052471,0.0042966268956661224,-0.011953138746321201,0.006653994787484407,-1.3872854796815689e-43,0.010303430259227753
0.010411866009235382,0.004329568240791559,-0.012087137438356876,0.00667464267462492,-8.407790785948902e-45,0.009186563082039356
0.0098661407828331,0.004691394045948982,-0.012589751742780209,0.006787273101508617,-0.0,0.008737470954656601
0.010504856705665588,0.005108414217829704,-0.01204795204102993,0.006673596799373627,-0.0,0.009832380339503288
0.010131909511983395,0.005008012987673283,-0.01140642911195755,0.0073569961823523045,-0.0,0.00966991949826479
0.01042721327394247,0.004813907667994499,-0.011888056993484497,0.007454366888850927,-0.0,0.009465386159718037
0.010064249858260155,0.00477895513176918,-0.011850783601403236,0.0070243277586996555,-0.0,0.009291333146393299
0.010425431653857231,0.004732252564281225,-0.011735409498214722,0.006785430945456028,-0.0,0.009313403628766537
0.010912962257862091,0.005329074338078499,-0.012396851554512978,0.007037443574517965,-0.0,0.009714432060718536
0.009729554876685143,0.005226926412433386,-0.012015532702207565,0.007529612630605698,-0.0,0.009565616957843304
0.010294824838638306,0.005044225603342056,-0.012445825152099133,0.007151986006647348,-0.0,0.009375398978590965
0.010236801579594612,0.005002256017178297,-0.012108148075640202,0.007258783560246229,-1.493382478656713e-05,0.009896120056509972
0.009911714121699333,0.004875880666077137,-0.011799892410635948,0.007631252519786358,-9.4693670689594e-05,0.009254821576178074
0.01025459822267294,0.004781875293701887,-0.011724906042218208,0.007728251628577709,-9.785879956325516e-05,0.0095071354880929
0.010198757983744144,0.005201046820729971,-0.011927885934710503,0.00794994831085205,-9.611000859877095e-05,0.0106044951826334
0.01048070378601551,0.005475224927067757,-0.01250888779759407,0.0072214496321976185,-9.412205690750852e-05,0.010024907998740673
0.010136845521628857,0.005587774328887463,-0.012250380590558052,0.0073183197528123856,-9.219496132573113e-05,0.009345968253910542
0.010136845521628857,0.005587774328887463,-0.012250380590558052,0.0073183197528123856,-9.219496132573113e-05,0.009345968253910542
0.00988193042576313,0.0048521715216338634,-0.012161701917648315,0.007459515240043402,-0.00010597481741569936,0.010267275385558605
0.010573180392384529,0.0053633167408406734,-0.012037280946969986,0.007362710312008858,-0.00010420798935228959,0.009867261163890362
0.010573180392384529,0.0053633167408406734,-0.012037280946969986,0.007362710312008858,-0.00010420798935228959,0.009867261163890362
0.010228690691292286,0.005398980341851711,-0.011778631247580051,0.00786047987639904,-0.00010225291043752804,0.010140432976186275
0.010232122614979744,0.00593863008543849,-0.011463531292974949,0.007920915260910988,-0.00010035381274065003,0.009858233854174614
0.01033415924757719,0.005291858687996864,-0.01227088738232851,0.007115375716239214,-9.852286166278645e-05,0.009619610384106636
0.010480456985533237,0.005184566602110863,-0.01219378225505352,0.0074110738933086395,-9.675750334281474e-05,0.0100515466183424
0.01042291708290577,0.004929560236632824,-0.012712640687823296,0.007714976090937853,-9.505432535661384e-05,0.010392970405519009
0.01064547710120678,0.004925867076963186,-0.012527817860245705,0.0077049885876476765,-0.0001010742416838184,0.009731024503707886
0.010371297597885132,0.005394132807850838,-0.012273648753762245,0.008059115149080753,-0.00010660921543603763,0.009944806806743145
0.010923261754214764,0.005631392356008291,-0.012270037084817886,0.007790399249643087,-0.00010530047438805923,0.010238167829811573
0.01107704546302557,0.004876879043877125,-0.011698918417096138,0.007711315993219614,-0.00010359973384765908,0.009930681437253952
0.011001663282513618,0.004917680751532316,-0.01243031769990921,0.007724026683717966,-0.00010192562331212685,0.010034168139100075
0.010717574506998062,0.005121760535985231,-0.01278664544224739,0.0073090167716145515,-0.00010567759454715997,0.010110796429216862
0.01069081574678421,0.005337895825505257,-0.0132776889950037,0.007314255926758051,-0.00011062712292186916,0.009931406937539577
0.01094741653650999,0.005399810150265694,-0.012691185809671879,0.008019545115530491,-0.00010937597107840702,0.00975444633513689
0.011854410171508789,0.005580171011388302,-0.01282527670264244,0.007984637282788754,-0.0001077668130164966,0.009874988347291946
0.011659463867545128,0.005248016677796841,-0.012352126650512218,0.007420982234179974,-0.00010617942461976781,0.010676542297005653
0.01125335693359375,0.0049955276772379875,-0.01310740876942873,0.0074266716837882996,-0.00010463652870384976,0.010846447199583054
0.010730019770562649,0.005606993101537228,-0.012463897466659546,0.008129362016916275,-0.00010313755046809092,0.010173505172133446
0.011231456883251667,0.005555673036724329,-0.01306317001581192,0.0077092209830880165,-0.00015884646563790739,0.010138577781617641
0.010542578995227814,0.005676951725035906,-0.0129072405397892,0.007452100049704313,-0.0001612498890608549,0.010305105708539486
0.010760928504168987,0.005320086143910885,-0.013011905364692211,0.008150704205036163,-0.0001561817480251193,0.01021096482872963
0.010875572450459003,0.005306206177920103,-0.013121947646141052,0.008077681995928288,-0.00015097580035217106,0.010023807175457478
0.01067988108843565,0.00545875309035182,-0.012966353446245193,0.007957138121128082,-0.00014607683988288045,0.010200655087828636
0.011131598614156246,0.006098572630435228,-0.012620121240615845,0.007608169224113226,-0.00016603678523097187,0.010106629692018032
0.011246909387409687,0.0054156542755663395,-0.011973069049417973,0.00790366530418396,-0.00016435999714303762,0.010103716515004635
0.01102664414793253,0.005312261171638966,-0.012881212867796421,0.007719139102846384,-0.00015971920220181346,0.01039764191955328
0.01102664414793253,0.005312261171638966,-0.012881212867796421,0.007719139102846384,-0.00015971920220181346,0.01039764191955328
0.01131005585193634,0.005212391726672649,-0.01264802273362875,0.00740056810900569,-0.00015514425467699766,0.010441595688462257
0.012060954235494137,0.005128685384988785,-0.012885337695479393,0.007292274385690689,-0.00015081203309819102,0.010450494475662708
0.012332232668995857,0.005766184534877539,-0.013045203872025013,0.008013713173568249,-0.0001664284209255129,0.010732460767030716
0.012332232668995857,0.005766184534877539,-0.013045203872025013,0.008013713173568249,-0.0001664284209255129,0.010732460767030716
0.011968695558607578,0.005558523815125227,-0.012984495609998703,0.007585635408759117,-0.00016233081987593323,0.010093122720718384
0.012713211588561535,0.0052050817757844925,-0.012348947115242481,0.007924886420369148,-0.0001778978039510548,0.0105668306350708
0.012301798909902573,0.005303685553371906,-0.012985510751605034,0.007820398546755314,-0.00017624835891183466,0.010949566960334778
0.012607123702764511,0.005516775883734226,-0.012306001037359238,0.007916579023003578,-0.00017220932932104915,0.010509482584893703
0.012946628965437412,0.006055820267647505,-0.013195373117923737,0.007681842893362045,-0.00016866465739440173,0.010731014423072338
0.012672982178628445,0.0051040081307291985,-0.012690807692706585,0.008070619776844978,-0.0002502174465917051,0.01122954674065113
0.013897661119699478,0.004873733967542648,-0.012478608638048172,0.007988549768924713,-0.0002306180977029726,0.010085384361445904
0.013067632913589478,0.004998472053557634,-0.012642048299312592,0.007153355050832033,-0.0002193969557993114,0.010399051010608673
0.011964400298893452,0.0052712964825332165,-0.01227476540952921,0.007864992134273052,-0.0002481695846654475,0.010214284062385559
0.012728236615657806,0.0055002919398248196,-0.01222980860620737,0.00788794830441475,-0.00023969380708876997,0.01081592496484518
0.012805595993995667,0.004847400356084108,-0.012820525094866753,0.007827959023416042,-0.00022966331744100899,0.01094273291528225
0.013271390460431576,0.00483665568754077,-0.01246744953095913,0.00740518793463707,-0.00022030241962056607,0.010598468594253063
0.012653590179979801,0.004850958473980427,-0.012899808585643768,0.007553488947451115,-0.00021166719670873135,0.010733281262218952
0.012943231500685215,0.005123330745846033,-0.012635675258934498,0.00791831873357296,-0.00020368167315609753,0.01080190110951662
0.013061954639852047,0.005535204894840717,-0.012692829594016075,0.007463918067514896,-0.0002267731906613335,0.010869092307984829
0.012588328681886196,0.005160870961844921,-0.01248517632484436,0.007375758606940508,-0.00022081269707996398,0.01109321042895317
0.012883606366813183,0.004882692825049162,-0.012019962072372437,0.008218156173825264,-0.00021345994900912046,0.011109020560979843
0.012111572548747063,0.0050527602434158325,-0.012713722884654999,0.007899545133113861,-0.00022093416191637516,0.011183900758624077
0.01281125470995903,0.0049574114382267,-0.0124140540137887,0.008058913052082062,-0.00022749777417629957,0.011080238036811352
0.01281125470995903,0.0049574114382267,-0.0124140540137887,0.008058913052082062,-0.00022749777417629957,0.011080238036811352
0.013061968609690666,0.0051178233698010445,-0.012213485315442085,0.00837758369743824,-0.00021483845193870366,0.011078638955950737
0.013061968609690666,0.0051178233698010445,-0.012213485315442085,0.00837758369743824,-0.00021483845193870366,0.011078638955950737
0.012816407717764378,0.005244032479822636,-0.012604736723005772,0.008387341164052486,-0.00020861761004198343,0.011071278713643551
0.012906383723020554,0.004987678956240416,-0.012539440765976906,0.007999375462532043,-0.0002027425798587501,0.01112871989607811
0.013425292447209358,0.004753389395773411,-0.012472912669181824,0.008193029090762138,-0.00021063171152491122,0.01135877426713705
0.01291506364941597,0.004728902596980333,-0.012661769054830074,0.008085238747298717,-0.0002135400427505374,0.011070383712649345
0.013246805407106876,0.004684821702539921,-0.01197640597820282,0.007537150755524635,-0.00020466954447329044,0.011259689927101135
0.012604418210685253,0.004757882095873356,-0.012997979298233986,0.007559432182461023,-0.00019581723609007895,0.01144616212695837
0.013269059360027313,0.004700689110904932,-0.012534212321043015,0.008229718543589115,-0.00018765272398013622,0.011152173392474651
0.012789473868906498,0.004596332088112831,-0.012639778666198254,0.008655552752315998,-0.00018014021043200046,0.011374653317034245
0.012939153239130974,0.0045623211190104485,-0.012350049801170826,0.008061454631388187,-0.0001732052769511938,0.011721400544047356
0.01277976669371128,0.005120366346091032,-0.012734471820294857,0.008096043020486832,-0.00019242089183535427,0.01185410562902689
0.012882774695754051,0.004928497597575188,-0.012360582128167152,0.007928268052637577,-0.00018629030091688037,0.011506566777825356
0.012882774695754051,0.004928497597575188,-0.012360582128167152,0.007928268052637577,-0.00018629030091688037,0.011506566777825356
0.013104677200317383,0.005008419509977102,-0.012289023958146572,0.007942797616124153,-0.00017429784929845482,0.011505953036248684
0.012764045968651772,0.004758565220981836,-0.01235968992114067,0.008413036353886127,-0.00018968289077747613,0.011554015800356865
0.013282781466841698,0.00510746194049716,-0.012324786745011806,0.008117754943668842,-0.00019053809228353202,0.011911144480109215
0.012867564335465431,0.005081644281744957,-0.012669652700424194,0.0075459787622094154,-0.00018536251445766538,0.011889899149537086
0.013174494728446007,0.004692905582487583,-0.012400714680552483,0.008287802338600159,-0.00018009149061981589,0.011711565777659416
0.013080270029604435,0.004928074777126312,-0.012115090154111385,0.00862038042396307,-0.00017508788732811809,0.011313452385365963
0.013573098927736282,0.004851727280765772,-0.012605331838130951,0.007846272550523281,-0.00018838528194464743,0.011620855890214443
0.013095121830701828,0.004796149209141731,-0.01244062278419733,0.007759204134345055,-0.00018915168766397983,0.013005712069571018
0.012921183370053768,0.004632025491446257,-0.012593656778335571,0.008606167510151863,-0.00018467320478521287,0.011316219344735146
0.013287176378071308,0.004849146120250225,-0.012289362028241158,0.008373084478080273,-0.00018007840844802558,0.011979912407696247
0.013086623512208462,0.0051489584147930145,-0.012602061033248901,0.008231609128415585,-0.00017568595649208874,0.011554923839867115
0.013086623512208462,0.0051489584147930145,-0.012602061033248901,0.008231609128415585,-0.00017568595649208874,0.011554923839867115
0.01359574869275093,0.004959190264344215,-0.012530989944934845,0.008421581238508224,-0.00018625201482791454,0.011747360229492188
0.012939183041453362,0.004989228677004576,-0.012302905321121216,0.008650056086480618,-0.00019266062008682638,0.011922490783035755
0.01345908921211958,0.004885335452854633,-0.012786745093762875,0.008773129433393478,-0.00018565161735750735,0.012401162646710873
0.013031914830207825,0.004799097776412964,-0.012728946283459663,0.008574461564421654,-0.00019581231754273176,0.012247170321643353
0.01340636145323515,0.004812467377632856,-0.01277332566678524,0.008534987457096577,-0.00020467913418542594,0.011996274814009666
0.013089081272482872,0.00507326889783144,-0.01227815542370081,0.009412666782736778,-0.00019822952162940055,0.012581421993672848
0.013319095596671104,0.0050865900702774525,-0.01264908630400896,0.009326850064098835,-0.00019127680570818484,0.012702311389148235
0.013365758582949638,0.00520471902564168,-0.01324024610221386,0.009398085996508598,-0.00018473633099347353,0.012610615231096745
0.013526183553040028,0.005222479347139597,-0.012672122567892075,0.008987375535070896,-0.00020638556452468038,0.012571359984576702
0.01334361545741558,0.004885808099061251,-0.013234063982963562,0.00842459499835968,-0.00020159172709099948,0.01232927106320858
0.013448120094835758,0.004973405506461859,-0.012763726525008678,0.009030060842633247,-0.00019545476243365556,0.012096191756427288
0.013653017580509186,0.005382345989346504,-0.013289893977344036,0.008806603960692883,-0.00021484030003193766,0.012330527417361736
0.013825963251292706,0.005185983143746853,-0.013176162727177143,0.00904674269258976,-0.00020435555779840797,0.012592490762472153
0.0137492585927248,0.005020545329898596,-0.011982060968875885,0.008984839543700218,-0.00028654313064180315,0.01272572297602892
0.013821063563227654,0.005162985995411873,-0.013340483419597149,0.0085032032802701,-0.000296243088087067,0.01294233463704586
0.013250788673758507,0.00531411450356245,-0.013588711619377136,0.008703021332621574,-0.00027969523216597736,0.012886526994407177
0.01372858602553606,0.0047955866903066635,-0.013433638028800488,0.008847761899232864,-0.0003124711220152676,0.012688867747783661
0.013599162921309471,0.005056858528405428,-0.013158446177840233,0.009337669238448143,-0.0002984044549521059,0.012352771125733852
0.01369843352586031,0.005395910702645779,-0.013595184311270714,0.00846146047115326,-0.0003237934142816812,0.012840161100029945
0.013506874442100525,0.004884160589426756,-0.013978411443531513,0.008810093626379967,-0.0003132922574877739,0.01242563035339117
0.01405671052634716,0.004853653255850077,-0.013401125557720661,0.009069552645087242,-0.00029879502835683525,0.012596571817994118
0.013587184250354767,0.004767660051584244,-0.013603812083601952,0.008485489524900913,-0.0003205902175977826,0.012703048065304756
0.013526421040296555,0.004779665265232325,-0.013021258637309074,0.008848780766129494,-0.0003115577274002135,0.012672792188823223
0.01347516942769289,0.005238850601017475,-0.013360169716179371,0.009042497724294662,-0.00029893679311499,0.01271035335958004
0.01398035790771246,0.005302343051880598,-0.012951238080859184,0.009114098735153675,-0.00028703760472126305,0.012546288780868053
0.013847105205059052,0.004677779506891966,-0.01383541151881218,0.008570605888962746,-0.00031705127912573516,0.012604037299752235
0.013388189487159252,0.005084086675196886,-0.013480163179337978,0.009133841842412949,-0.00033268079278059304,0.012234827503561974
0.013388189487159252,0.005084086675196886,-0.013480163179337978,0.009133841842412949,-0.00033268079278059304,0.012234827503561974
0.013923670165240765,0.0055108945816755295,-0.01397837046533823,0.009246423840522766,-0.0003121563058812171,0.01229158602654934
0.014084729366004467,0.0051854695193469524,-0.01342634204775095,0.00881400890648365,-0.00029205207829363644,0.012604675255715847
0.013778215274214745,0.005510303657501936,-0.013708097860217094,0.009552014991641045,-0.00027425424195826054,0.012921640649437904
0.013910836540162563,0.0051144496537745,-0.013470196165144444,0.00910785049200058,-0.0002584947505965829,0.01299248356372118
0.014356017112731934,0.00472637452185154,-0.01364794559776783,0.008681107312440872,-0.00024444612790830433,0.012918387539684772
0.013996043242514133,0.004759693518280983,-0.013357451185584068,0.009294895455241203,-0.00023184750170912594,0.012994657270610332
0.014592568390071392,0.0052631632424890995,-0.013666405342519283,0.009587668813765049,-0.00022048370738048106,0.012757825665175915
0.014094265177845955,0.0052767591550946236,-0.01410724874585867,0.009308240376412868,-0.00021018279949203134,0.013599444180727005
0.01414877362549305,0.00583000760525465,-0.01347618643194437,0.009086755104362965,-0.00020080141257494688,0.012280953116714954
0.01416244637221098,0.005367772188037634,-0.013506945222616196,0.009440116584300995,-0.00019222219998482615,0.012820413336157799
0.014777449890971184,0.005219696555286646,-0.013221868313848972,0.008994338102638721,-0.0001843457721406594,0.012681396678090096
0.014341125264763832,0.00465007359161973,-0.012611858546733856,0.009374146349728107,-0.0002041522675426677,0.013438180088996887
0.014562170952558517,0.004883577115833759,-0.013872730545699596,0.009037253446877003,-0.00019698012329172343,0.013779645785689354
0.015282521955668926,0.004874498583376408,-0.013474672101438046,0.008935278281569481,-0.0001900639763334766,0.013874898664653301
0.01525635551661253,0.004888282623142004,-0.013738129287958145,0.009811878204345703,-0.00018360200920142233,0.013336490839719772
0.013550235889852047,0.004711235407739878,-0.013097352348268032,0.01017871592193842,-0.00017756444867700338,0.013382001779973507
0.015786906704306602,0.0047342367470264435,-0.013904165476560593,0.009676878340542316,-0.00017191065126098692,0.013303508050739765
0.015594699420034885,0.004760249517858028,-0.013436133041977882,0.0103430962190032,-0.0001802276965463534,0.013702217489480972
0.014934556558728218,0.004857239779084921,-0.013406326062977314,0.009685264900326729,-0.00018763191474135965,0.013244491070508957
0.014781142584979534,0.0053047011606395245,-0.013052752241492271,0.009032675996422768,-0.00018301565432921052,0.01362460944801569
0.01531212404370308,0.0054742321372032166,-0.013370632193982601,0.009510369971394539,-0.00017790183483157307,0.013327359221875668
0.015184871852397919,0.004925592802464962,-0.013695770874619484,0.009268062189221382,-0.00018515498959459364,0.013980028219521046
0.01537417434155941,0.00492303678765893,-0.013451844453811646,0.008916988037526608,-0.0001916293695103377,0.013714194297790527
0.015207342803478241,0.004964765161275864,-0.01399272307753563,0.009438818320631981,-0.00018738654034677893,0.013622788712382317
0.01582598127424717,0.0048148129135370255,-0.013588955625891685,0.009219488129019737,-0.00018268078565597534,0.013191444799304008
0.015445376746356487,0.005272151902318001,-0.013858811929821968,0.008876582607626915,-0.00017816308536566794,0.013511891476809978
0.01597365364432335,0.004970256704837084,-0.013094036839902401,0.009914281778037548,-0.00017386108811479062,0.013717303983867168
0.01597365364432335,0.004970256704837084,-0.013094036839902401,0.009914281778037548,-0.00017386108811479062,0.013717303983867168
0.015572075732052326,0.004770983010530472,-0.013979961164295673,0.009304077364504337,-0.000169761769939214,0.01390712521970272
0.015861988067626953,0.004644738510251045,-0.013684402219951153,0.009300473146140575,-0.0001660654816078022,0.013867559842765331
0.016243265941739082,0.004910778719931841,-0.013953748159110546,0.009276189841330051,-0.00014118262333795428,0.014015854336321354
0.015831233933568,0.004915622062981129,-0.013759305700659752,0.010069181211292744,-0.00013564019172918051,0.013923078775405884
0.016131706535816193,0.005310647189617157,-0.014204815961420536,0.010086430236697197,-0.00013158933143131435,0.01375201903283596
0.015916552394628525,0.005067512392997742,-0.013891265727579594,0.010096091777086258,-0.0001467859256081283,0.013880451209843159
0.016329560428857803,0.0048310477286577225,-0.014149396680295467,0.00992097333073616,-0.00014874254702590406,0.014291166327893734
0.01571469195187092,0.004724659491330385,-0.0137026971206069,0.009751249104738235,-0.0001451366115361452,0.014272701926529408
0.01614861749112606,0.005155832506716251,-0.01424308679997921,0.010070465505123138,-0.00015882265870459378,0.014607155695557594
0.015841485932469368,0.004934233147650957,-0.013702874071896076,0.01033092476427555,-0.0001603191194590181,0.01432693749666214
0.01621314324438572,0.004855841398239136,-0.01434533204883337,0.009605824016034603,-0.00015669329150114208,0.014156756922602654
0.016345730051398277,0.004908030387014151,-0.013644657097756863,0.01033711712807417,-0.0001529134315205738,0.014415847137570381
0.016818702220916748,0.0045611122623085976,-0.013838850893080235,0.009599635377526283,-0.0001666121679591015,0.014117809943854809
0.016270333901047707,0.004566872026771307,-0.014370887540280819,0.009846202097833157,-0.00033632005215622485,0.014106585644185543
0.016867728903889656,0.00456774840131402,-0.013925174251198769,0.009881382808089256,-0.00032402199576608837,0.01571539416909218
0.016566962003707886,0.005024700425565243,-0.014202938415110111,0.009649006649851799,-0.000332420488120988,0.01403549313545227
0.016992371529340744,0.00467431265860796,-0.014047464355826378,0.010221599601209164,-0.00033864733995869756,0.01417861133813858
0.016907496377825737,0.004560629837214947,-0.014608061872422695,0.0101062236353755,-0.00032032516901381314,0.014398015104234219
0.016401255503296852,0.004464960191398859,-0.014474833384156227,0.009756163693964481,-0.0003270570596214384,0.014522615820169449
0.01704467460513115,0.004615337122231722,-0.01411629468202591,0.01042904518544674,-0.0003324996505398303,0.014353369362652302
0.016747334972023964,0.0046466197818517685,-0.01391944196075201,0.010074064135551453,-0.00031723774736747146,0.015180627815425396
0.017006106674671173,0.004631245508790016,-0.014257565140724182,0.009855677373707294,-0.00034231701283715665,0.01499977707862854
0.016693735495209694,0.005062162410467863,-0.014364960603415966,0.009770502336323261,-0.0003292874898761511,0.015550962649285793
0.016819775104522705,0.004957863129675388,-0.015174968168139458,0.00914725475013256,-0.0004026435490231961,0.015281974337995052
0.017131224274635315,0.004332707729190588,-0.014451608993113041,0.008997216820716858,-0.0003818771510850638,0.014626947231590748
0.01666702888906002,0.0042312731966376305,-0.014642649330198765,0.009349793195724487,-0.00041836503078229725,0.014701083302497864
0.017375631257891655,0.004528263583779335,-0.014616278931498528,0.009333839640021324,-0.00039229344110935926,0.01511757168918848
0.0169552993029356,0.004245819989591837,-0.014687450602650642,0.009214695543050766,-0.0004186700389254838,0.015095977112650871
0.0169552993029356,0.004245819989591837,-0.014687450602650642,0.009214695543050766,-0.0004186700389254838,0.015095977112650871
0.017272844910621643,0.004866783041507006,-0.014479530043900013,0.009942194446921349,-0.0003993311256635934,0.015081210061907768
0.017300663515925407,0.004611169453710318,-0.014440828934311867,0.00990433432161808,-0.00040211115265265107,0.015367741696536541
0.017314327880740166,0.004453577101230621,-0.01455021183937788,0.009394858032464981,-0.00040369710768572986,0.015402843244373798
0.017941711470484734,0.004522189497947693,-0.015005545690655708,0.01022265013307333,-0.0003841829893644899,0.0163002647459507
0.017743617296218872,0.004254984203726053,-0.014907046221196651,0.009605595842003822,-0.00045885168947279453,0.015901928767561913
0.017876500263810158,0.004590184427797794,-0.015092065557837486,0.009474175050854683,-0.00048517793766222894,0.015771126374602318
0.017402296885848045,0.004635525867342949,-0.014692306518554688,0.010404192842543125,-0.0004631649353541434,0.01549866609275341
0.01687372662127018,0.004421303980052471,-0.015347307547926903,0.010908262804150581,-0.00048006506403908134,0.015729941427707672
0.017881231382489204,0.0044130790047347546,-0.015105546452105045,0.01012961845844984,-0.00046122336061671376,0.015438101254403591
0.01789802685379982,0.00420078169554472,-0.015774698927998543,0.01023242250084877,-0.0004759989387821406,0.01572386547923088
0.017808590084314346,0.004332841839641333,-0.015206752344965935,0.010270614176988602,-0.0004597663937602192,0.015778930857777596
0.017694059759378433,0.004758218303322792,-0.014982694759964943,0.010819320566952229,-0.0005078261019662023,0.015837280079722404
0.01786809414625168,0.00434616394340992,-0.016067344695329666,0.010348881594836712,-0.0005043890560045838,0.015536543913185596
0.017883142456412315,0.004434967879205942,-0.015153331682085991,0.010638975538313389,-0.0004980178782716393,0.015543906949460506
0.01781570166349411,0.004545701202005148,-0.015388191677629948,0.010901526547968388,-0.00045834991033189,0.015416414476931095
0.018584392964839935,0.004081201273947954,-0.01530672051012516,0.01089655514806509,-0.000488063640659675,0.015493187122046947
0.018259147182106972,0.0038546849973499775,-0.015595103614032269,0.011231809854507446,-0.0004569262091536075,0.015433629974722862
0.017812678590416908,0.004403421655297279,-0.015988323837518692,0.010926165618002415,-0.0004788810620084405,0.015652619302272797
0.01814362034201622,0.004210160579532385,-0.01578807644546032,0.010207084938883781,-0.0004557536740321666,0.016298195347189903
0.018146174028515816,0.00449155131354928,-0.01587614044547081,0.010682429186999798,-0.0004576429782900959,0.015479317866265774
0.018587058410048485,0.004360499791800976,-0.015192328952252865,0.01067301630973816,-0.0004421493213158101,0.01507066935300827
0.019164519384503365,0.00448529003188014,-0.015830321237444878,0.01062191091477871,-0.00040431873640045524,0.015482213348150253
0.01846037060022354,0.004411591216921806,-0.015322014689445496,0.01029770914465189,-0.0004350683302618563,0.015928177163004875
0.0186026431620121,0.004470888990908861,-0.015492708422243595,0.010388979688286781,-0.0004106798442080617,0.015804473310709
0.01888500154018402,0.0043719979003071785,-0.01495933998376131,0.01104922965168953,-0.00041308245272375643,0.015908725559711456
0.018826456740498543,0.004471693653613329,-0.015762152150273323,0.010578597895801067,-0.000414274720242247,0.015642352402210236
0.018826456740498543,0.004471693653613329,-0.015762152150273323,0.010578597895801067,-0.000414274720242247,0.015642352402210236
0.01911568082869053,0.004338331054896116,-0.015233440324664116,0.010330574586987495,-0.0004315293626859784,0.015874085947871208
0.01917096972465515,0.004405935760587454,-0.01551208645105362,0.010482382029294968,-0.00041934309410862625,0.01569552533328533
0.019030829891562462,0.004671080969274044,-0.01542029157280922,0.010393218137323856,-0.00044262054143473506,0.016226891428232193
0.01936185732483864,0.004285924602299929,-0.015770597383379936,0.010096840560436249,-0.00044326327042654157,0.01612820476293564
0.01911373808979988,0.004356028977781534,-0.015778684988617897,0.010833599604666233,-0.00044536893256008625,0.01642601750791073
0.0186399407684803,0.004284423775970936,-0.015557602979242802,0.01039369497448206,-0.0004444405494723469,0.01629365049302578
0.019294731318950653,0.004012670833617449,-0.01588248461484909,0.010531474836170673,-0.0004127886495552957,0.015984144061803818
0.01930183358490467,0.004300464875996113,-0.015586410649120808,0.01110480073839426,-0.00044304103357717395,0.016629107296466827
0.019692225381731987,0.00435604015365243,-0.015859143808484077,0.010562070645391941,-0.00041754788253456354,0.01698160730302334
0.019767839461565018,0.0043062553741037846,-0.015110833570361137,0.010636528953909874,-0.00044021374196745455,0.016904978081583977
0.019795825704932213,0.004365517292171717,-0.01560667809098959,0.011077305302023888,-0.0004210874903947115,0.016644541174173355
0.019716830924153328,0.004092392511665821,-0.01499742828309536,0.010415992699563503,-0.0003982218913733959,0.016942132264375687
0.019914528355002403,0.00429414352402091,-0.016036203131079674,0.01041958574205637,-0.0004233781364746392,0.017183829098939896
0.019956471398472786,0.004224694799631834,-0.015918871387839317,0.010688021779060364,-0.00040229130536317825,0.016939938068389893
0.01967141032218933,0.004225000739097595,-0.015460831113159657,0.010778550058603287,-0.00041024788515642285,0.017054608091711998
0.020160967484116554,0.004283968359231949,-0.016120119020342827,0.010883694514632225,-0.00038153986679390073,0.017006544396281242
0.02015853486955166,0.004048856440931559,-0.016148151829838753,0.010991242714226246,-0.0004116056952625513,0.016931965947151184
0.01983594335615635,0.004355203825980425,-0.015768319368362427,0.011312657035887241,-0.00038973463233560324,0.01698690466582775
0.020168526098132133,0.004188369959592819,-0.01620958372950554,0.010520908050239086,-0.00036724391975440085,0.01754545420408249
0.020329251885414124,0.004449700005352497,-0.015338129363954067,0.01077489834278822,-0.000347020395565778,0.017363017424941063
0.020079217851161957,0.00409120274707675,-0.016189033165574074,0.011496673338115215,-0.00032889912836253643,0.017346017062664032
0.020336275920271873,0.004362637642771006,-0.015751203522086143,0.01138419471681118,-0.00031257409136742353,0.01749742217361927
0.02037857472896576,0.004498049151152372,-0.015678158029913902,0.011714749038219452,-0.0002977954572997987,0.01735144481062889
0.019640518352389336,0.004248848184943199,-0.015631411224603653,0.01149060670286417,-0.0003221945953555405,0.017553163692355156
0.02001362293958664,0.0043434323742985725,-0.01584835723042488,0.011476226150989532,-0.0003107536176685244,0.01871136762201786
0.02001362293958664,0.0043434323742985725,-0.01584835723042488,0.011476226150989532,-0.0003107536176685244,0.01871136762201786
0.021335743367671967,0.003986425697803497,-0.015796039253473282,0.011279084719717503,-0.00028620901866815984,0.017000989988446236
0.020300503820180893,0.003907309379428625,-0.01607610285282135,0.011442995630204678,-0.0002752655709628016,0.017509348690509796
0.020663047209382057,0.0038804400246590376,-0.015361226163804531,0.01094216201454401,-0.000265128182945773,0.01784106343984604
0.020663047209382057,0.0038804400246590376,-0.015361226163804531,0.01094216201454401,-0.000265128182945773,0.01784106343984604
0.018419642001390457,0.004082886967808008,-0.015294079668819904,0.01183047704398632,-0.00023403273371513933,0.017924819141626358
0.018419642001390457,0.004082886967808008,-0.015294079668819904,0.01183047704398632,-0.00023403273371513933,0.017924819141626358
0.021262619644403458,0.004340481478720903,-0.016012247651815414,0.01128096878528595,-0.00022188400907907635,0.01814018376171589
0.021461425349116325,0.004215081222355366,-0.015696676447987556,0.011842524632811546,-0.0002114168310072273,0.017899848520755768
0.021033385768532753,0.004028977360576391,-0.015910018235445023,0.011191407218575478,-0.00020192527153994888,0.018173793330788612
0.020787108689546585,0.004179593175649643,-0.01574295572936535,0.011082476936280727,-0.00021215052402112633,0.017692038789391518
0.02130209654569626,0.004640025086700916,-0.015750840306282043,0.01179488655179739,-0.00022106074902694672,0.017401359975337982
0.02110189013183117,0.004778770729899406,-0.015949370339512825,0.011187966912984848,-0.00021347134315874428,0.01796017214655876
0.02126786671578884,0.004679227247834206,-0.0155875775963068,0.0112240519374609,-0.00023074369528330863,0.018012840300798416
0.021090172231197357,0.004392324481159449,-0.015709033235907555,0.011211231350898743,-0.0002462220727466047,0.01822591945528984
0.020960742607712746,0.004546168260276318,-0.016110649332404137,0.011640731245279312,-0.0002453017223160714,0.01757938228547573
0.02100283093750477,0.004146106541156769,-0.01568269543349743,0.011640099808573723,-0.0003565133083611727,0.018062395974993706
0.021204259246587753,0.004357975907623768,-0.01600591465830803,0.011846626177430153,-0.0003464550245553255,0.018141744658350945
0.02178584784269333,0.004687041509896517,-0.015885811299085617,0.01178856659680605,-0.00035406273673288524,0.01872144266963005
0.02189514972269535,0.004424859303981066,-0.016391601413488388,0.011662372387945652,-0.0003592638240661472,0.01908506453037262
0.021609630435705185,0.004197067115455866,-0.017111370339989662,0.011901309713721275,-0.000338609708705917,0.018354780972003937
0.02143537811934948,0.004136515315622091,-0.016239536926150322,0.01160055585205555,-0.0003681750094983727,0.017750632017850876
0.021600477397441864,0.004525691736489534,-0.01661287434399128,0.011950707994401455,-0.00035089507582597435,0.017836449667811394
0.022010331973433495,0.00463565019890666,-0.01609121449291706,0.011893157847225666,-0.00037369714118540287,0.017985140904784203
0.022011471912264824,0.0043820710852742195,-0.016624735668301582,0.012024481780827045,-0.00036061982973478734,0.018049011006951332
0.02179514802992344,0.00457721808925271,-0.01616651564836502,0.012328133918344975,-0.0004021095228381455,0.018869765102863312
0.02185365930199623,0.004422440193593502,-0.016355745494365692,0.011828151531517506,-0.00041972706094384193,0.018739892169833183
0.022271975874900818,0.004173154477030039,-0.016831809654831886,0.012001510709524155,-0.00045916461385786533,0.01888992264866829
0.022518856450915337,0.004419631324708462,-0.016733428463339806,0.011950474232435226,-0.0004800681199412793,0.018752090632915497
0.022316712886095047,0.004678662400692701,-0.016634134575724602,0.011709452606737614,-0.00046145851956680417,0.018681799992918968
0.02245926298201084,0.004415892530232668,-0.0163121335208416,0.01170717179775238,-0.00047624119906686246,0.01884395070374012
0.022857680916786194,0.00454909959807992,-0.016714587807655334,0.011491687968373299,-0.00046153852599672973,0.01872771792113781
0.022663015872240067,0.004487135447561741,-0.01655983179807663,0.011824450455605984,-0.0006059344159439206,0.018878748640418053
0.022025275975465775,0.004181197378784418,-0.01691371761262417,0.011842786334455013,-0.0006472513196058571,0.01818367838859558
0.022025275975465775,0.004181197378784418,-0.01691371761262417,0.011842786334455013,-0.0006472513196058571,0.01818367838859558
0.022296207025647163,0.003955973777920008,-0.01695631630718708,0.012392988428473473,-0.0006684246473014355,0.018366117030382156
0.02248683013021946,0.004289391916245222,-0.01638438180088997,0.012561826035380363,-0.0006906772032380104,0.018855206668376923
0.022585339844226837,0.00464191660284996,-0.017205338925123215,0.012308170087635517,-0.000640263082459569,0.01909000799059868
0.022769294679164886,0.004712152294814587,-0.016286222264170647,0.012802748009562492,-0.0007388533558696508,0.018934132531285286
0.02292882837355137,0.00450367433950305,-0.016426527872681618,0.012203995138406754,-0.0006564607610926032,0.019039873033761978
0.022708062082529068,0.004352109041064978,-0.016665605828166008,0.012078424915671349,-0.0006804282311350107,0.01937493495643139
0.02289614826440811,0.0044247182086110115,-0.016808034852147102,0.011747971177101135,-0.0006104453350417316,0.01896667294204235
0.02316891960799694,0.00414755754172802,-0.01752026565372944,0.012492368929088116,-0.000633586139883846,0.01910313218832016
0.02339293621480465,0.004821224603801966,-0.016703886911273003,0.012829295359551907,-0.0006051670061424375,0.019750164821743965
0.022889506071805954,0.004708990454673767,-0.0165700763463974,0.01328185759484768,-0.0005816490738652647,0.019728658720850945
0.02348131313920021,0.004853756632655859,-0.016993502154946327,0.01283137034624815,-0.0006211373256519437,0.02001292072236538
0.02384205535054207,0.0046500153839588165,-0.01737826131284237,0.013059847056865692,-0.0006504022749140859,0.019997457042336464
0.023698674514889717,0.00427794037386775,-0.016733985394239426,0.012538407929241657,-0.0006739949458278716,0.020163634791970253
0.02374137192964554,0.004347692709416151,-0.016882939264178276,0.01303852628916502,-0.0009476864361204207,0.020284757018089294
0.02361828088760376,0.004288087598979473,-0.01680520549416542,0.01316747348755598,-0.0009792119963094592,0.020222360268235207
0.02431163191795349,0.004543588496744633,-0.0171522106975317,0.013464261777698994,-0.0008399974904023111,0.020335154607892036
0.02442222088575363,0.005079829599708319,-0.017562836408615112,0.013674586080014706,-0.0008394604665227234,0.020656075328588486
0.02429022267460823,0.005019327159970999,-0.016679201275110245,0.013125047087669373,-0.0007982623064890504,0.020417312160134315
0.024393782019615173,0.004704129416495562,-0.01718258112668991,0.012995081022381783,-0.0007600353565067053,0.01962362788617611
0.023859281092882156,0.004615660756826401,-0.01684262417256832,0.012429898604750633,-0.0006901292945258319,0.019267629832029343
0.0229847002774477,0.004275490064173937,-0.017072157934308052,0.013017120771110058,-0.0006020907312631607,0.019553881138563156
0.023750457912683487,0.004549515433609486,-0.01743045076727867,0.012687566690146923,-0.0005767531110905111,0.019715378060936928
0.024509282782673836,0.004753659479320049,-0.01680876687169075,0.012804376892745495,-0.0005614134133793414,0.02033340372145176
0.0242120660841465,0.0047812978737056255,-0.017248447984457016,0.012675032950937748,-0.0005845281993970275,0.02019546926021576
0.024050546810030937,0.0049324254505336285,-0.016590667888522148,0.012998807244002819,-0.000544154376257211,0.01996263675391674
0.02423364482820034,0.0044813635759055614,-0.017070848494768143,0.01305395271629095,-0.0005014669150114059,0.01995818130671978
0.024959716945886612,0.004426510073244572,-0.016929367557168007,0.013378658331930637,-0.0005261892220005393,0.020557984709739685
0.02400137670338154,0.004380438476800919,-0.016821440309286118,0.013664528727531433,-0.0005466847796924412,0.02067708410322666
0.02432022988796234,0.004521558061242104,-0.017389236018061638,0.013385212048888206,-0.0005330106359906495,0.019956259056925774
0.02432022988796234,0.004521558061242104,-0.017389236018061638,0.013385212048888206,-0.0005330106359906495,0.019956259056925774
0.024638190865516663,0.004624675493687391,-0.016556045040488243,0.013257494196295738,-0.0004795015265699476,0.0198726374655962
0.02434486709535122,0.004621981177479029,-0.016681158915162086,0.012906506657600403,-0.0004334700934123248,0.019754860550165176
0.025000860914587975,0.0045905220322310925,-0.01623854786157608,0.013142405077815056,-0.00046348563046194613,0.0198991596698761
0.024825379252433777,0.0043880268931388855,-0.016727691516280174,0.013014422729611397,-0.00043535910663194954,0.019391516223549843
0.024546727538108826,0.00418072659522295,-0.017308300361037254,0.013511444441974163,-0.0004034169833175838,0.020048169419169426
0.024548444896936417,0.004452965687960386,-0.016910310834646225,0.013137701898813248,-0.00037539194454438984,0.02065206691622734
0.025360679253935814,0.00489213690161705,-0.017140688374638557,0.013760406523942947,-0.0003825112944468856,0.02071603387594223
0.025164861232042313,0.004580439534038305,-0.017571937292814255,0.013825509697198868,-0.0003622229560278356,0.02076096087694168
0.025202671065926552,0.0042634764686226845,-0.01840112917125225,0.013958492316305637,-0.00034262696863152087,0.02062002569437027
0.02550157532095909,0.003920900169759989,-0.017516233026981354,0.013917693868279457,-0.00036513968370854855,0.021031267940998077
0.025038208812475204,0.003824772546067834,-0.01811508648097515,0.013619555160403252,-0.00035274968831799924,0.020958783105015755
0.02431066706776619,0.003978094086050987,-0.017769034951925278,0.013441557064652443,-0.0003366138262208551,0.02097797952592373
0.0251124557107687,0.004430900793522596,-0.017392095178365707,0.013332394883036613,-0.0003084273193962872,0.02085418440401554
0.024980634450912476,0.0047274003736674786,-0.01805245317518711,0.012954006902873516,-0.00027864036383107305,0.02127872407436371
0.025241198018193245,0.004780060611665249,-0.017669569700956345,0.013075404800474644,-0.0002872120530810207,0.02139727957546711
0.025342745706439018,0.004297219682484865,-0.018467947840690613,0.01272596325725317,-0.000294994271825999,0.021374117583036423
0.023915721103549004,0.004140842240303755,-0.018544429913163185,0.013435031287372112,-0.0002811671874951571,0.021182328462600708
0.025873737409710884,0.004008117131888866,-0.017406120896339417,0.013260019943118095,-0.00030884044826962054,0.02129840850830078
0.02595377527177334,0.0038862070068717003,-0.018214784562587738,0.013638253323733807,-0.000333761447109282,0.021775778383016586
0.025773683562874794,0.0038605465088039637,-0.018397649750113487,0.013419033028185368,-0.0003239578509237617,0.022157561033964157
0.02510143257677555,0.004757442511618137,-0.01844479702413082,0.013578330166637897,-0.0005237307632341981,0.021717948839068413
0.025747032836079597,0.0051135774701833725,-0.018127888441085815,0.013454368337988853,-0.000497271423228085,0.0216264296323061
0.025496652349829674,0.004395897034555674,-0.018061785027384758,0.013403442688286304,-0.0005330188432708383,0.021668391302227974
0.026256630197167397,0.003906475845724344,-0.018888236954808235,0.01367163099348545,-0.0004901742213405669,0.02156062237918377
0.026705056428909302,0.0038747170474380255,-0.01810287870466709,0.013438117690384388,-0.0005143005400896072,0.021515535190701485
0.026705056428909302,0.0038747170474380255,-0.01810287870466709,0.013438117690384388,-0.0005143005400896072,0.021515535190701485
0.02656756341457367,0.0041530742309987545,-0.017480578273534775,0.013649718835949898,-0.0004836153530050069,0.021863942965865135
0.026171039789915085,0.004460216034203768,-0.018341179937124252,0.013358845375478268,-0.0004808248486369848,0.022137736901640892
0.025023257359862328,0.004593489691615105,-0.018754590302705765,0.013715164735913277,-0.0004775121051352471,0.02205260843038559
0.02607008069753647,0.004470170941203833,-0.018245143815875053,0.01359556894749403,-0.00048244939534924924,0.021833455190062523
0.026487238705158234,0.0045639569871127605,-0.018229365348815918,0.013939246535301208,-0.000466083234641701,0.02189144678413868
0.02598029561340809,0.004118886310607195,-0.017919739708304405,0.013507352210581303,-0.00048642331967130303,0.02209930680692196
0.026290850713849068,0.004164768848568201,-0.01813606359064579,0.0137155931442976,-0.000463918229797855,0.02228124998509884
0.026768164709210396,0.004156908951699734,-0.018513377755880356,0.013226700015366077,-0.0004899525665678084,0.022016094997525215
0.026929039508104324,0.004326611291617155,-0.017935432493686676,0.01360713504254818,-0.000511042948346585,0.022218873724341393
0.026239654049277306,0.004743688274174929,-0.01878741756081581,0.013724472373723984,-0.0006867229822091758,0.022213393822312355
0.026404010131955147,0.004684903658926487,-0.017986470833420753,0.01356655266135931,-0.0007160404929891229,0.022484099492430687
0.02737797051668167,0.004916049540042877,-0.018360784277319908,0.013813127763569355,-0.0006890268414281309,0.022325964644551277
0.02785205841064453,0.004510736092925072,-0.018151002004742622,0.013835316523909569,-0.0007008079555816948,0.022466225549578667
0.02720370702445507,0.004567594267427921,-0.01817208155989647,0.013836391270160675,-0.0007552633178420365,0.022683488205075264
0.027277957648038864,0.004394913092255592,-0.018761830404400826,0.013977725990116596,-0.0007358019356615841,0.023051034659147263
0.026998696848750114,0.004916486330330372,-0.018399078398942947,0.014888548292219639,-0.0007473603473044932,0.021992716938257217
0.02718217298388481,0.00497889518737793,-0.017968127503991127,0.014603521674871445,-0.000669680186547339,0.02191902883350849
0.027381589636206627,0.004816209431737661,-0.018305620178580284,0.014349468983709812,-0.0006886919727548957,0.0231889970600605
0.025819184258580208,0.004253890365362167,-0.017955832183361053,0.014229433611035347,-0.0006262335227802396,0.02388138324022293
0.02796132303774357,0.004259440116584301,-0.01866043359041214,0.013997255824506283,-0.0006295357015915215,0.0232401080429554
0.027309944853186607,0.00455202953889966,-0.018610652536153793,0.013655582442879677,-0.0005958423134870827,0.021758396178483963
0.027917960658669472,0.004761653486639261,-0.018308887258172035,0.013996096327900887,-0.000550352968275547,0.022340670228004456
0.028062952682375908,0.004912304226309061,-0.01866404339671135,0.014695936813950539,-0.0004926377441734076,0.023685691878199577
0.027702493593096733,0.004501516930758953,-0.018492024391889572,0.015085102058947086,-0.0005205428460612893,0.02363153174519539
0.0277686920017004,0.00438967440277338,-0.018016794696450233,0.015178795903921127,-0.0005232358817011118,0.022673413157463074
0.0277686920017004,0.00438967440277338,-0.018016794696450233,0.015178795903921127,-0.0005232358817011118,0.022673413157463074
0.028472580015659332,0.004334977827966213,-0.018594635650515556,0.014333955943584442,-0.0005454501369968057,0.024327581748366356
0.028472580015659332,0.004334977827966213,-0.018594635650515556,0.014333955943584442,-0.0005454501369968057,0.024327581748366356
0.028262993320822716,0.004545092117041349,-0.01849508471786976,0.0146553386002779,-0.0005906905862502754,0.02412729524075985
0.028169143944978714,0.004568715114146471,-0.01864159293472767,0.014796375297009945,-0.0005937924142926931,0.023203320801258087
0.028468968346714973,0.004417013842612505,-0.018207520246505737,0.0147471334785223,-0.0006201154319569468,0.02244674600660801
0.028435563668608665,0.004315660335123539,-0.018764764070510864,0.014416154474020004,-0.0006130633992142975,0.02278004214167595
0.028866777196526527,0.004213040228933096,-0.018877524882555008,0.014534116722643375,-0.0005967320175841451,0.024016771465539932
0.028970971703529358,0.004401323851197958,-0.018083874136209488,0.013958710245788097,-0.0006149999098852277,0.024453455582261086
0.028824487701058388,0.004585286136716604,-0.01862039417028427,0.014032782055437565,-0.0006545076612383127,0.02436407282948494
0.029294520616531372,0.0046394201926887035,-0.01870734803378582,0.014464078471064568,-0.0007322734454646707,0.024250797927379608
0.029269764199852943,0.004613073542714119,-0.01849500462412834,0.015063229016959667,-0.0006741978577338159,0.02397116646170616
0.029653459787368774,0.004723787307739258,-0.01906677335500717,0.014539633877575397,-0.0006012077210471034,0.0239743422716856
0.029561076313257217,0.0047804866917431355,-0.018607866019010544,0.015121703036129475,-0.0005705958465114236,0.024053696542978287
0.029561076313257217,0.0047804866917431355,-0.018607866019010544,0.015121703036129475,-0.0005705958465114236,0.024053696542978287
0.03022058494389057,0.004697717726230621,-0.01913832128047943,0.015038922429084778,-0.0005495960940606892,0.024308031424880028
0.030805476009845734,0.004782849457114935,-0.018952229991555214,0.01515166088938713,-0.0005145120085217059,0.02403217740356922
0.03032587096095085,0.004763140343129635,-0.019114326685667038,0.014773394912481308,-0.0004878356121480465,0.024350445717573166
0.0286248866468668,0.004632588010281324,-0.01929403841495514,0.014869540929794312,-0.0005072745261713862,0.02438552863895893
0.030352899804711342,0.004630142357200384,-0.019180534407496452,0.014256789349019527,-0.00048207861254923046,0.02424287237226963
0.031173408031463623,0.005174111109226942,-0.02006310224533081,0.01499263383448124,-0.0005124600720591843,0.024667158722877502
0.03023417852818966,0.004726520739495754,-0.019827265292406082,0.014827405102550983,-0.0005371010047383606,0.025034058839082718
0.031127003952860832,0.0046344054862856865,-0.018797438591718674,0.015125114470720291,-0.0005118095432408154,0.024991506710648537
0.031711652874946594,0.004920067265629768,-0.019089439883828163,0.014547024853527546,-0.0006543806521221995,0.025078410282731056
0.03145923838019371,0.004750931169837713,-0.019778432324528694,0.014640996232628822,-0.0006919350707903504,0.025010108947753906
0.029876084998250008,0.004460528958588839,-0.01903528906404972,0.0146079296246171,-0.0007092092419043183,0.02462782710790634
0.03063441440463066,0.004536793567240238,-0.019756853580474854,0.014971119351685047,-0.0006932970136404037,0.024763073772192
0.031589556485414505,0.004899339750409126,-0.0197638850659132,0.014776072464883327,-0.0006697556236758828,0.024448908865451813
0.03111063688993454,0.004832952283322811,-0.019172541797161102,0.015082116238772869,-0.0007084187818691134,0.024827271699905396
0.03111063688993454,0.004832952283322811,-0.019172541797161102,0.015082116238772869,-0.0007084187818691134,0.024827271699905396
0.031081577762961388,0.004904063418507576,-0.0198071151971817,0.014564219862222672,-0.0006464614998549223,0.025863666087388992
0.030572794377803802,0.004726765677332878,-0.01973646692931652,0.014213469810783863,-0.0006479021976701915,0.025238122791051865
0.030572794377803802,0.004726765677332878,-0.01973646692931652,0.014213469810783863,-0.0006479021976701915,0.025238122791051865
0.030886441469192505,0.004910759627819061,-0.019983438774943352,0.014434165321290493,-0.0006714804330840707,0.02457547001540661
0.03111668862402439,0.00474311038851738,-0.019900500774383545,0.014250318519771099,-0.0006526694050990045,0.024341532960534096
0.031165724620223045,0.004860094282776117,-0.018953334540128708,0.01506077405065298,-0.0006950721726752818,0.02531701698899269
0.03131064772605896,0.004853344056755304,-0.020891737192869186,0.015581395477056503,-0.0007228039903566241,0.025451406836509705
0.03167979046702385,0.004795454442501068,-0.019488370046019554,0.015850316733121872,-0.0006509489612653852,0.025828421115875244
0.0316062793135643,0.004271775018423796,-0.019698282703757286,0.015620999038219452,-0.0006715836934745312,0.0263663399964571
0.03148210048675537,0.0043979790061712265,-0.0204156581312418,0.015558622777462006,-0.0006933692493475974,0.02617807686328888
0.03193533420562744,0.004969098139554262,-0.020012658089399338,0.01628146693110466,-0.0006408936460502446,0.026012428104877472
0.03124716691672802,0.004904078785330057,-0.01976107619702816,0.01580335944890976,-0.000672359368763864,0.025065690279006958
0.03058464266359806,0.004449008964002132,-0.01973390206694603,0.01623515412211418,-0.0005921440315432847,0.024854077026247978
0.033094387501478195,0.004709274508059025,-0.020245924592018127,0.01555689238011837,-0.0006074043922126293,0.02647387608885765
0.032934680581092834,0.004796077497303486,-0.01973048597574234,0.015347336418926716,-0.000591336633078754,0.026462752372026443
0.031521666795015335,0.004451752174645662,-0.02009757235646248,0.015734462067484856,-0.0005430110031738877,0.02592802792787552
0.0315876230597496,0.004535596817731857,-0.020026447251439095,0.015668291598558426,-0.0005616713897325099,0.025941424071788788
0.03266088664531708,0.0044406382367014885,-0.019787441939115524,0.015699367970228195,-0.0005287997191771865,0.026036182418465614
0.032399002462625504,0.004371402319520712,-0.020479027181863785,0.015659930184483528,-0.0004993680049665272,0.026416609063744545
0.032134760171175,0.004854429978877306,-0.020355716347694397,0.015304186381399632,-0.0004561545210890472,0.026537975296378136
0.0328943133354187,0.004418406635522842,-0.019732698798179626,0.015580885112285614,-0.0004859775071963668,0.026402082294225693
0.033221323043107986,0.004470977000892162,-0.020030731335282326,0.01563272625207901,-0.0005104158190079033,0.026397954672574997
0.0323534831404686,0.00440660584717989,-0.020136084407567978,0.015756087377667427,-0.0005400712252594531,0.026397133246064186
0.032035861164331436,0.004266679752618074,-0.01993509568274021,0.01551009900867939,-0.0005183026660233736,0.026561075821518898
0.032762639224529266,0.004352395422756672,-0.019738050177693367,0.015967169776558876,-0.0006869581993669271,0.026404187083244324
0.03326452895998955,0.004533464554697275,-0.02006901614367962,0.015901336446404457,-0.0007391218096017838,0.026389919221401215
0.03303505480289459,0.004602523520588875,-0.020248224958777428,0.016240430995821953,-0.0006585131632164121,0.026978936046361923
0.032771557569503784,0.004438101779669523,-0.019581705331802368,0.016291484236717224,-0.0006715210038237274,0.02606287971138954
0.03249453380703926,0.004669210873544216,-0.02025190182030201,0.01651707850396633,-0.0006170995766296983,0.026492955163121223
0.03249453380703926,0.004669210873544216,-0.02025190182030201,0.01651707850396633,-0.0006170995766296983,0.026492955163121223
0.03355684131383896,0.004900413565337658,-0.01988590881228447,0.016675081104040146,-0.0005899543175473809,0.02692200429737568
0.03355684131383896,0.004900413565337658,-0.01988590881228447,0.016675081104040146,-0.0005899543175473809,0.02692200429737568
0.033477697521448135,0.004550437908619642,-0.019826924428343773,0.01708219014108181,-0.0005771789001300931,0.02697192132472992
0.0334198921918869,0.004902909509837627,-0.01999974437057972,0.017327463254332542,-0.0005178852006793022,0.026959581300616264
0.033651649951934814,0.0047194091603159904,-0.020399676635861397,0.017543785274028778,-0.0005509739858098328,0.02700200118124485
0.0340300127863884,0.004259033128619194,-0.020122265443205833,0.01735788956284523,-0.0005050519248470664,0.02691599354147911
0.033021774142980576,0.003574531525373459,-0.02015211619436741,0.01650703139603138,-0.0005336771719157696,0.02694564312696457
0.0344705805182457,0.004164518788456917,-0.02059894986450672,0.016533827409148216,-0.0005306624807417393,0.026961226016283035
0.03446045145392418,0.004531988874077797,-0.020186129957437515,0.016187313944101334,-0.000523685768712312,0.0271527748554945
0.03368677943944931,0.00436254171654582,-0.02022901363670826,0.016821090131998062,-0.0004915238241665065,0.02712121605873108
0.03377700597047806,0.004313725046813488,-0.02016991376876831,0.016923369839787483,-0.0005185858462937176,0.027165407314896584
0.03449574485421181,0.004047946073114872,-0.020188668742775917,0.016892235726118088,-0.0005385841941460967,0.027539163827896118
0.034498393535614014,0.0036488340701907873,-0.020398229360580444,0.01610257476568222,-0.00053363514598459,0.02784322015941143
0.03454654663801193,0.003845908911898732,-0.020498113706707954,0.016458071768283844,-0.0005004241247661412,0.028182553127408028
0.034513961523771286,0.004408668726682663,-0.020629478618502617,0.016430998221039772,-0.0005213783006183803,0.028094954788684845
0.034877341240644455,0.00416139792650938,-0.02051464654505253,0.017505496740341187,-0.0005676752189174294,0.027179736644029617
0.035619139671325684,0.004347437527030706,-0.020147748291492462,0.017507370561361313,-0.000569733849260956,0.0270124189555645
0.03528590872883797,0.004297023173421621,-0.019612522795796394,0.016884759068489075,-0.0006045065238140523,0.02773110382258892
0.03513525426387787,0.004003393929451704,-0.020711954683065414,0.0170047115534544,-0.0006282546673901379,0.028451379388570786
0.0346469022333622,0.004290693439543247,-0.020529767498373985,0.015673834830522537,-0.0006422318401746452,0.027908455580472946
0.03636549413204193,0.004119026008993387,-0.02040955051779747,0.015708863735198975,-0.0006104367785155773,0.028874659910798073
0.036798976361751556,0.00392901711165905,-0.02047843672335148,0.015834512189030647,-0.0007311629015021026,0.02892669104039669
0.03442322835326195,0.004031858406960964,-0.02083083987236023,0.01661098562180996,-0.0007512638112530112,0.028202099725604057
0.034599386155605316,0.004015129990875721,-0.02093440853059292,0.017064308747649193,-0.000673208327498287,0.027277681976556778
0.036277227103710175,0.0045046559534966946,-0.02073444426059723,0.01766866445541382,-0.0006919523584656417,0.028311172500252724
0.03611825779080391,0.004211348481476307,-0.021045463159680367,0.016684480011463165,-0.0006946237990632653,0.029217060655355453
0.03611825779080391,0.004211348481476307,-0.021045463159680367,0.016684480011463165,-0.0006946237990632653,0.029217060655355453
0.03676209971308708,0.004410112742334604,-0.021417072042822838,0.016687041148543358,-0.0006522757466882467,0.029152516275644302
0.03584593906998634,0.004206305835396051,-0.021095039322972298,0.017389625310897827,-0.0006368840113282204,0.02842012420296669
0.03562699630856514,0.004006464499980211,-0.020648004487156868,0.01752226985991001,-0.0006557030137628317,0.028348544612526894
0.03523194044828415,0.0038733817636966705,-0.02102823555469513,0.017055731266736984,-0.0006824441952630877,0.028099872171878815
0.03656502440571785,0.004134646616876125,-0.020739756524562836,0.0173972025513649,-0.0007045434322208166,0.028201859444379807
0.03508509695529938,0.0042681824415922165,-0.02050374075770378,0.016879813745617867,-0.0006618776242248714,0.028030721470713615
0.03661561757326126,0.0043675098568201065,-0.02068060263991356,0.017051495611667633,-0.0008012553444132209,0.028340183198451996
0.036969318985939026,0.00402172701433301,-0.02069319784641266,0.01708821952342987,-0.0008283211500383914,0.028485048562288284
0.03612462431192398,0.003772562136873603,-0.02118059992790222,0.016794443130493164,-0.00082287477562204,0.02847256511449814
0.036524903029203415,0.004321397747844458,-0.021104397252202034,0.0170694999396801,-0.0008311729179695249,0.02855854295194149
0.03622673824429512,0.004472178872674704,-0.02083858661353588,0.017444780096411705,-0.0008926672744564712,0.028732767328619957
0.03622673824429512,0.004472178872674704,-0.02083858661353588,0.017444780096411705,-0.0008926672744564712,0.028732767328619957
0.037112459540367126,0.0043442812748253345,-0.020561493933200836,0.017235394567251205,-0.000813776976428926,0.029166558757424355
0.036938395351171494,0.004149348940700293,-0.02085794322192669,0.017384182661771774,-0.000819807464722544,0.029084110632538795
0.03642309457063675,0.00407097302377224,-0.02120319753885269,0.01691964641213417,-0.0008690054528415203,0.029663128778338432
0.03725026920437813,0.0041121249087154865,-0.02099454216659069,0.017387185245752335,-0.0009007265325635672,0.029246682301163673
0.038397740572690964,0.004491283558309078,-0.020847612991929054,0.01749883033335209,-0.0009023651364259422,0.02914113737642765
0.03631352260708809,0.004622424487024546,-0.021099666133522987,0.017483126372098923,-0.0008585238247178495,0.028854748234152794
0.03669077903032303,0.004814759828150272,-0.021040642634034157,0.01796926185488701,-0.0008115039672702551,0.029315056279301643
0.03793279826641083,0.004496143199503422,-0.020713461562991142,0.017139002680778503,-0.0008175605325959623,0.030715053901076317
0.03707177937030792,0.004378864075988531,-0.020998569205403328,0.017015399411320686,-0.0008092726930044591,0.030619129538536072
0.03788486868143082,0.004617794882506132,-0.021306093782186508,0.017080849036574364,-0.0007898100884631276,0.02948852628469467
0.038050223141908646,0.004746141843497753,-0.020983822643756866,0.017103128135204315,-0.0007494190940633416,0.028528720140457153
0.036787692457437515,0.00478718476369977,-0.020702652633190155,0.017427779734134674,-0.0007429890101775527,0.029456214979290962
0.036787692457437515,0.00478718476369977,-0.020702652633190155,0.017427779734134674,-0.0007429890101775527,0.029456214979290962
0.03686017543077469,0.00444507971405983,-0.02099214866757393,0.017034338787198067,-0.0006931686657480896,0.029826302081346512
0.03801746666431427,0.004620959982275963,-0.020930014550685883,0.017730291932821274,-0.0006770303589291871,0.029560929164290428
0.037993643432855606,0.004985693842172623,-0.02048044465482235,0.017655210569500923,-0.0006991249974817038,0.03032858483493328
0.03790486603975296,0.00440569082275033,-0.020702898502349854,0.017336880788207054,-0.0006822098512202501,0.030759679153561592
0.03756720945239067,0.0044474974274635315,-0.021338269114494324,0.017877286300063133,-0.0006570732221007347,0.029885221272706985
0.038136839866638184,0.004434830509126186,-0.021427100524306297,0.01788388378918171,-0.0006712282192893326,0.02923017181456089
0.03795723244547844,0.00445560785010457,-0.02080634795129299,0.017984462901949883,-0.0006976136355660856,0.029196536168456078
0.03790634125471115,0.004883835092186928,-0.02106895111501217,0.01779010146856308,-0.0006695571355521679,0.030725602060556412
0.03819222375750542,0.005063372198492289,-0.021619221195578575,0.01766989566385746,-0.0006956927827559412,0.03104444034397602
0.038277044892311096,0.005088603124022484,-0.022401202470064163,0.01816854067146778,-0.0007119642104953527,0.030425038188695908
0.039140209555625916,0.004927339032292366,-0.021547377109527588,0.018402375280857086,-0.0007309598149731755,0.030604153871536255
0.03897133097052574,0.0048216828145086765,-0.02153719961643219,0.018482403829693794,-0.000769352016504854,0.03045569732785225
0.038831163197755814,0.004680971149355173,-0.021709507331252098,0.018666118383407593,-0.0008637838182039559,0.03056032583117485
0.037302546203136444,0.0054171462543308735,-0.022120317444205284,0.017288213595747948,-0.0008849560399539769,0.031148556619882584
0.037302546203136444,0.0054171462543308735,-0.022120317444205284,0.017288213595747948,-0.0008849560399539769,0.031148556619882584
0.03962230682373047,0.0043694074265658855,-0.022231189534068108,0.01798146590590477,-0.0010347102070227265,0.031167006120085716
0.03973131254315376,0.00482178432866931,-0.02249785140156746,0.01884566992521286,-0.0009484522743150592,0.031314667314291
0.038653500378131866,0.0050790756940841675,-0.022394463419914246,0.018426500260829926,-0.0008774248999543488,0.030981436371803284
0.03934260830283165,0.004533178638666868,-0.022527802735567093,0.017700009047985077,-0.0008683158666826785,0.03154401853680611
0.03962594270706177,0.004947448614984751,-0.02256123349070549,0.017932729795575142,-0.0007865229272283614,0.031206564977765083
0.03952494263648987,0.004860464949160814,-0.022774308919906616,0.017594585195183754,-0.0007414650171995163,0.031046239659190178
0.0394621379673481,0.004667213652282953,-0.022185582667589188,0.01817452162504196,-0.0007019867771305144,0.0315951444208622
0.039560262113809586,0.004368473310023546,-0.02208940126001835,0.01828789710998535,-0.0007138137007132173,0.031234122812747955
0.03911115601658821,0.004426741506904364,-0.022234972566366196,0.017461759969592094,-0.0007386762299574912,0.03147086873650551
0.04101359471678734,0.004627123475074768,-0.023325031623244286,0.01779351569712162,-0.0008477145456708968,0.03148607537150383
0.04061252251267433,0.004671609494835138,-0.023171013221144676,0.01711614802479744,-0.0008756866445764899,0.031662072986364365
0.038702141493558884,0.004782014060765505,-0.02265106327831745,0.017281021922826767,-0.0008802866796031594,0.03039921447634697
0.038702141493558884,0.004782014060765505,-0.02265106327831745,0.017281021922826767,-0.0008802866796031594,0.03039921447634697
0.03943386301398277,0.004545329138636589,-0.022705381736159325,0.017911797389388084,-0.0009581299382261932,0.03239070624113083
0.040897056460380554,0.0045476993545889854,-0.022595155984163284,0.01892181485891342,-0.0009654432651586831,0.032439202070236206
0.040897056460380554,0.0045476993545889854,-0.022595155984163284,0.01892181485891342,-0.0009654432651586831,0.032439202070236206
0.04136534407734871,0.004645147360861301,-0.02267134003341198,0.019121618941426277,-0.0009468254866078496,0.03337012231349945
0.039495907723903656,0.004740455187857151,-0.02282802388072014,0.018579069525003433,-0.000894506520126015,0.03227081522345543
0.03898783400654793,0.005184101406484842,-0.022476838901638985,0.01897049881517887,-0.0008415090851485729,0.031202085316181183
0.04102187976241112,0.004978706128895283,-0.022690661251544952,0.018747864291071892,-0.0007748336647637188,0.03150421008467674
0.04071606695652008,0.00480513833463192,-0.022849658504128456,0.018299661576747894,-0.0007859612815082073,0.03271625190973282
0.04038212075829506,0.004358593840152025,-0.02277257852256298,0.018672019243240356,-0.0008002809481695294,0.03209182992577553
0.04045141860842705,0.00493307551369071,-0.02246471866965294,0.01849820464849472,-0.0008117256802506745,0.03337961062788963
0.04054132476449013,0.005041653756052256,-0.022629855200648308,0.018538538366556168,-0.0009694211767055094,0.03313693404197693
0.04089665785431862,0.004847637377679348,-0.022855659946799278,0.01921934261918068,-0.0010628362651914358,0.03246365115046501
0.04068247601389885,0.004858138505369425,-0.02292364463210106,0.019150899723172188,-0.0009779873071238399,0.03156808391213417
0.04054819419980049,0.005026009865105152,-0.022926082834601402,0.01914198137819767,-0.0009549980168230832,0.03211706131696701
0.04036581888794899,0.004621651954948902,-0.022369500249624252,0.019114257767796516,-0.00092764274450019,0.03360747918486595
0.04176122322678566,0.0047963885590434074,-0.022583574056625366,0.018931608647108078,-0.0008904814603738487,0.03313998505473137
0.04093920439481735,0.004805322270840406,-0.022712498903274536,0.019325383007526398,-0.000889648450538516,0.03299345821142197
0.03979058936238289,0.004842509049922228,-0.02258046716451645,0.018960442394018173,-0.0008402086095884442,0.03258352726697922
0.04065119847655296,0.004483967088162899,-0.022382427006959915,0.018886007368564606,-0.0008742680656723678,0.03310609981417656
0.04065225273370743,0.004426114726811647,-0.022233298048377037,0.019397743046283722,-0.0008801679941825569,0.033160582184791565
0.04226743057370186,0.004520787857472897,-0.022941624745726585,0.019246205687522888,-0.000866241694893688,0.033034443855285645
0.0413646399974823,0.004647248424589634,-0.023077229037880898,0.018985172733664513,-0.0008694152347743511,0.032826755195856094
0.03889872878789902,0.004739506635814905,-0.022029701620340347,0.019011788070201874,-0.0008007078431546688,0.03307245671749115
0.041160233318805695,0.0048059746623039246,-0.022268207743763924,0.018631260842084885,-0.0008072049240581691,0.03345264121890068
0.04165022447705269,0.004947740118950605,-0.023058168590068817,0.018756184726953506,-0.0008205815101973712,0.0319388173520565
0.041431915014982224,0.0047820331528782845,-0.02375097945332527,0.01932050660252571,-0.00088830990716815,0.03355270251631737
0.04087303951382637,0.00486656092107296,-0.02344236895442009,0.01908477209508419,-0.0008481761324219406,0.03387989476323128
0.041004203259944916,0.004447869025170803,-0.02267957292497158,0.019354164600372314,-0.0009268091525882483,0.0336608849465847
0.0416385643184185,0.004524610936641693,-0.022292155772447586,0.019840292632579803,-0.0009264455875381827,0.033734992146492004
0.0416385643184185,0.004524610936641693,-0.022292155772447586,0.019840292632579803,-0.0009264455875381827,0.033734992146492004
0.04175550118088722,0.0049322317354381084,-0.022958341985940933,0.019547609612345695,-0.0009134613792411983,0.03384311497211456
0.04148890823125839,0.005372358951717615,-0.023673472926020622,0.019278034567832947,-0.0008959671249613166,0.03378840163350105
0.04135481268167496,0.004988952074199915,-0.023659098893404007,0.01978367008268833,-0.000829779717605561,0.03373720496892929
0.04190005734562874,0.005090736318379641,-0.022596515715122223,0.019574347883462906,-0.0008375365287065506,0.03556390479207039
0.042032789438962936,0.004626962821930647,-0.023312676697969437,0.01918625831604004,-0.0008793344022706151,0.035713307559490204
0.04212968796491623,0.00503750704228878,-0.024216216057538986,0.019538339227437973,-0.0008556022658012807,0.03387240320444107
0.042782217264175415,0.005046744830906391,-0.023214060813188553,0.019356047734618187,-0.0009507766226306558,0.03305153176188469
0.04278840124607086,0.0051988111808896065,-0.02303934097290039,0.01939460262656212,-0.0010564408730715513,0.034231457859277725
0.04254273697733879,0.004938432946801186,-0.023100225254893303,0.019890500232577324,-0.0010482985526323318,0.03455635905265808
0.0426824651658535,0.004689767025411129,-0.022962216287851334,0.0206595528870821,-0.0010189891327172518,0.03581877425312996
0.043031539767980576,0.004669764079153538,-0.02283039502799511,0.0201746616512537,-0.0009061586461029947,0.03534520044922829
0.04370701685547829,0.0050263600423932076,-0.024172214791178703,0.019720178097486496,-0.0008657854050397873,0.03356451913714409
0.04354856535792351,0.005042992066591978,-0.023781336843967438,0.019232507795095444,-0.000870131014380604,0.03477760776877403
0.04348202794790268,0.004818554501980543,-0.02284676767885685,0.019919604063034058,-0.0008592937374487519,0.035132262855768204
0.04425271600484848,0.004622678738087416,-0.02348676137626171,0.019709551706910133,-0.0007977344794198871,0.03455497324466705
0.043857648968696594,0.004412607755511999,-0.024299178272485733,0.01978738233447075,-0.0008648244547657669,0.03585229441523552
0.044145550578832626,0.004344447981566191,-0.02412732131779194,0.019734062254428864,-0.0008736102026887238,0.035641469061374664
0.04545968025922775,0.004239921923726797,-0.023631760850548744,0.020288405939936638,-0.0008210851810872555,0.03522526100277901
0.044295474886894226,0.0041847736574709415,-0.022711817175149918,0.020210955291986465,-0.0008264451171271503,0.03519633039832115
0.04279615357518196,0.004437674302607775,-0.022788871079683304,0.020908502861857414,-0.0008215492707677186,0.03514448553323746
0.04489658400416374,0.004316328559070826,-0.02343420311808586,0.020787078887224197,-0.0008673747652210295,0.035382356494665146
0.04467810317873955,0.004026710521429777,-0.023837696760892868,0.020514611154794693,-0.00084189377957955,0.035808015614748
0.04600198566913605,0.003893319284543395,-0.02427784353494644,0.019046934321522713,-0.0007929021376185119,0.03583398461341858
0.04420250281691551,0.004126641433686018,-0.023781288415193558,0.019657976925373077,-0.0008011345053091645,0.03594488650560379
0.0431525781750679,0.0040917773731052876,-0.023918883875012398,0.020556043833494186,-0.0008228636579588056,0.03586071729660034
0.04503072425723076,0.004317474085837603,-0.024122213944792747,0.020731156691908836,-0.0008512964122928679,0.03628667816519737
0.04503072425723076,0.004317474085837603,-0.024122213944792747,0.020731156691908836,-0.0008512964122928679,0.03628667816519737
0.04505036026239395,0.00408960273489356,-0.024105867370963097,0.02114320732653141,-0.000859153748024255,0.036085646599531174
0.04472600296139717,0.0038735568523406982,-0.02433076687157154,0.02104991488158703,-0.0008642141474410892,0.03600163385272026
0.04483215883374214,0.004310205578804016,-0.024229587987065315,0.02098872885107994,-0.0009318709489889443,0.03609616309404373
0.04521213844418526,0.004147891420871019,-0.02413156069815159,0.020820409059524536,-0.0009598822798579931,0.036867473274469376
0.04503028839826584,0.004291765857487917,-0.024595996364951134,0.02109687402844429,-0.0009528141818009317,0.03672756999731064
0.044802047312259674,0.004284880589693785,-0.024073105305433273,0.021291786804795265,-0.000945834384765476,0.036016128957271576
0.04550177603960037,0.004002491477876902,-0.024027040228247643,0.02084122598171234,-0.0009805321460589767,0.03790726885199547
0.04653192311525345,0.004058508668094873,-0.024559540674090385,0.020463310182094574,-0.0010845718206837773,0.038778193295001984
0.04361730068922043,0.004160807467997074,-0.024866489693522453,0.021002603694796562,-0.001063325209543109,0.03630424663424492
0.04509364068508148,0.004472973756492138,-0.024935590103268623,0.021310683339834213,-0.0009880930883809924,0.035698071122169495
0.046653393656015396,0.004339140839874744,-0.02443680167198181,0.021135712042450905,-0.000994739355519414,0.037433329969644547
0.046409353613853455,0.004500404000282288,-0.024495769292116165,0.021110162138938904,-0.0009749206365086138,0.03890064358711243
0.044194296002388,0.004200264811515808,-0.024775726720690727,0.021066924557089806,-0.0009559680474922061,0.038376353681087494
0.046040184795856476,0.0043344018049538136,-0.025210004299879074,0.020924214273691177,-0.0009022498270496726,0.0367828905582428
0.04656093940138817,0.004511525854468346,-0.025364823639392853,0.02103882096707821,-0.0009049113723449409,0.036536600440740585
0.0457797534763813,0.004093192983418703,-0.0251436959952116,0.021030599251389503,-0.0009134246502071619,0.037939004600048065
0.04617016389966011,0.00443669781088829,-0.024536747485399246,0.021064287051558495,-0.000912209099624306,0.03807971999049187
0.04598785936832428,0.004572066478431225,-0.024631192907691002,0.02085324004292488,-0.0010129284346476197,0.03805752843618393
0.04638444259762764,0.004388584289699793,-0.02596413902938366,0.02138003520667553,-0.00109499366953969,0.036874473094940186
0.04636434093117714,0.004311031196266413,-0.02370595745742321,0.02139817550778389,-0.0010708074551075697,0.037968188524246216
0.045988015830516815,0.0042047277092933655,-0.024992553517222404,0.02190122939646244,-0.0010900910710915923,0.03867636248469353
0.04640107974410057,0.004363118205219507,-0.026876822113990784,0.02150341123342514,-0.0011100299889221787,0.03896946460008621
0.04667578637599945,0.004560538101941347,-0.025745760649442673,0.021430209279060364,-0.0010978042846545577,0.03846311941742897
0.04680946096777916,0.0045937285758554935,-0.025308994576334953,0.02166033908724785,-0.0010819790186360478,0.0384463295340538
0.04684378206729889,0.004453771281987429,-0.025289911776781082,0.02139664813876152,-0.0012617349857464433,0.03879716247320175
