davideferrari95/blind_handover_controller/data/Test 109 - [2024-02-07 -- 16-25-01]/joint_states_data.csv
shoulder_pan_joint,shoulder_lift_joint,elbow_joint,wrist_1_joint,wrist_2_joint,wrist_3_joint
0.008016317151486874,0.007564940024167299,-0.013288119807839394,0.008332590572535992,-0.0,0.007091786712408066
0.008016317151486874,0.007564940024167299,-0.013288119807839394,0.008332590572535992,-0.0,0.007091786712408066
0.008053985424339771,0.007366153411567211,-0.012453724630177021,0.0069247158244252205,-0.0,0.007120185997337103
0.008104073815047741,0.006798476912081242,-0.01225260179489851,0.0070784687995910645,-0.0,0.0069474210031330585
0.009068924933671951,0.007235213182866573,-0.012316708452999592,0.0071866754442453384,-0.0,0.007277431897819042
0.008365069516003132,0.007911426946520805,-0.011798752471804619,0.006660165265202522,-0.0,0.007011916488409042
0.008383970707654953,0.006998402066528797,-0.012839841656386852,0.006218637339770794,-0.0,0.0071183242835104465
0.008383970707654953,0.006998402066528797,-0.012839841656386852,0.006218637339770794,-0.0,0.0071183242835104465
0.00923244096338749,0.006800033617764711,-0.012287507764995098,0.006079902872443199,-0.0,0.00752234598621726
0.008687044493854046,0.006647579837590456,-0.01265775691717863,0.006322718691080809,-0.0,0.007178038824349642
0.008270950056612492,0.0069815670140087605,-0.012066135182976723,0.0058044022880494595,-0.0,0.007237881887704134
0.008390046656131744,0.007410522550344467,-0.012504549697041512,0.0058999378234148026,-0.0,0.006935641169548035
0.008706930093467236,0.00730237178504467,-0.012663845904171467,0.005651847925037146,-0.0,0.006758850533515215
0.008625367656350136,0.006903173867613077,-0.012180035933852196,0.005768762901425362,-0.0,0.006822627503424883
0.00826550554484129,0.006455570925027132,-0.012749173678457737,0.0060816071927547455,-0.0,0.007019983604550362
0.007836518809199333,0.007171681150794029,-0.012225344777107239,0.005511051509529352,-0.0,0.006928039249032736
0.007602285593748093,0.00710101705044508,-0.012810226529836655,0.00526168430224061,-0.0,0.007238615769892931
0.007515141274780035,0.00656401040032506,-0.012104321271181107,0.005516439210623503,-0.0,0.0076930648647248745
0.008036715909838676,0.006343116983771324,-0.012012152001261711,0.00558255473151803,-0.0,0.007769416086375713
0.007814108394086361,0.006557760760188103,-0.012288704514503479,0.005838712211698294,-0.0,0.007113617844879627
0.007881124503910542,0.006729437503963709,-0.01189714390784502,0.005964998155832291,-0.0,0.006798672955483198
0.007636004593223333,0.006458619609475136,-0.012667820788919926,0.005695822648704052,-0.0,0.006785916164517403
0.007906350307166576,0.00605236180126667,-0.012667929753661156,0.005649508908390999,-0.0,0.007001809775829315
0.008147014304995537,0.006279332097619772,-0.012206434272229671,0.005987243261188269,-0.0,0.007178395055234432
0.008191807195544243,0.006681199185550213,-0.011552562937140465,0.005820519756525755,-0.0,0.007200547959655523
0.007925601676106453,0.0061302632093429565,-0.0120523227378726,0.0057291304692626,-0.0,0.007094547152519226
0.007571687921881676,0.005957671906799078,-0.01203899085521698,0.0055676852352917194,-0.0,0.0071344031020998955
0.007684038486331701,0.006576275918632746,-0.012808909639716148,0.005337507463991642,-0.0,0.006909387651830912
0.007522428408265114,0.0068634734489023685,-0.012396966107189655,0.005290125496685505,-0.0,0.0067219664342701435
0.007650013081729412,0.006364998873323202,-0.011480633169412613,0.005346970167011023,-0.0,0.0068770055659115314
0.007798133883625269,0.006293765269219875,-0.0122193843126297,0.00524779362604022,-0.0,0.007239099126309156
0.007572269532829523,0.006312946788966656,-0.012182783335447311,0.005190766882151365,-0.0,0.007256416603922844
0.007572269532829523,0.006312946788966656,-0.012182783335447311,0.005190766882151365,-0.0,0.007256416603922844
0.00728642800822854,0.006150996778160334,-0.011252779513597488,0.00524695310741663,-0.0,0.0072253611870110035
0.00728642800822854,0.006150996778160334,-0.011252779513597488,0.00524695310741663,-0.0,0.0072253611870110035
0.0077158063650131226,0.006157526280730963,-0.011852352879941463,0.005823844578117132,-0.0,0.007284802384674549
0.0073308018036186695,0.007063740398734808,-0.011899230070412159,0.005878161638975143,-0.0,0.007091915234923363
0.006806784775108099,0.0064463005401194096,-0.011375379748642445,0.005624362733215094,-0.0,0.0068955374881625175
0.007351037114858627,0.0065552303567528725,-0.01164277084171772,0.005399197805672884,-0.0,0.006662327330559492
0.007871481589972973,0.0068932524882256985,-0.01146085187792778,0.005663210991770029,-0.0,0.006906500551849604
0.007574649062007666,0.006878385320305824,-0.011780550703406334,0.005917382892221212,-0.0,0.006843688432127237
0.007181021384894848,0.006359466351568699,-0.011517240665853024,0.005913273431360722,-0.0,0.0068526603281497955
0.008237987756729126,0.006389431655406952,-0.01100919023156166,0.006063885986804962,-0.0,0.006947487127035856
0.008468755520880222,0.006293514743447304,-0.012339525856077671,0.005490133073180914,-0.0,0.007408488541841507
0.0072425296530127525,0.00617271289229393,-0.011409031227231026,0.005823408253490925,-0.0,0.007182540372014046
0.007227235473692417,0.006178664043545723,-0.01148347556591034,0.00562716368585825,-0.0,0.007186835166066885
0.007794007193297148,0.006589063908904791,-0.011688080616295338,0.005165911745280027,-0.0,0.006681725382804871
0.007730773184448481,0.006882577668875456,-0.011353855952620506,0.005848275497555733,-0.0,0.00698490533977747
0.0075453766621649265,0.006326346192508936,-0.011957099661231041,0.005964954383671284,-0.0,0.006934484001249075
0.007583880331367254,0.006245752330869436,-0.011527273803949356,0.00554107129573822,-0.0,0.007128968834877014
0.007803907617926598,0.006592977326363325,-0.011648411862552166,0.00588559964671731,-0.0,0.007087348494678736
0.008275782689452171,0.006254881154745817,-0.011709966696798801,0.005626593716442585,-0.0,0.007257972843945026
0.007314692717045546,0.006558082066476345,-0.011350329965353012,0.0055957636795938015,-0.0,0.007042937912046909
0.007600916549563408,0.006682099774479866,-0.011499454267323017,0.005061235744506121,-0.0,0.0068896738812327385
0.008220311254262924,0.006245909724384546,-0.01139797456562519,0.004940588492900133,-0.0,0.007087692152708769
0.007299970835447311,0.006609386298805475,-0.011310562491416931,0.004965390078723431,-0.0,0.007343819830566645
0.007224272005259991,0.006441584788262844,-0.010716558434069157,0.005134193692356348,-0.0,0.0068105109967291355
0.0076166922226548195,0.0061153750866651535,-0.011534290388226509,0.004929205868393183,-0.0,0.006758916657418013
0.008133060298860073,0.0061576273292303085,-0.011044704355299473,0.005083163268864155,-0.0,0.006651543080806732
0.007644347846508026,0.006309949327260256,-0.0108198756352067,0.004876118618994951,-0.0,0.0071858689188957214
0.007307305000722408,0.007126396056264639,-0.011191319674253464,0.004900151398032904,-0.0,0.007000192068517208
0.0075280494056642056,0.0065349009819328785,-0.010788329876959324,0.005059068091213703,-0.0,0.006708590313792229
0.007783565204590559,0.006233106832951307,-0.011691520921885967,0.005317114759236574,-0.0,0.006619059015065432
0.007305264472961426,0.006308012176305056,-0.011091608554124832,0.005281515419483185,-0.0,0.006918799597769976
0.007305264472961426,0.006308012176305056,-0.011091608554124832,0.005281515419483185,-0.0,0.006918799597769976
0.007321239914745092,0.006302854977548122,-0.010782670229673386,0.005479524843394756,-0.0,0.006880934350192547
0.007505427580326796,0.006736558396369219,-0.011766256764531136,0.005312304478138685,-0.0,0.007267598528414965
0.007523104548454285,0.006541099399328232,-0.011111317202448845,0.005465246271342039,-0.0,0.007071758154779673
0.007450933568179607,0.006297986023128033,-0.011295467615127563,0.005813166499137878,-0.0,0.006910864729434252
0.007092650979757309,0.006135320756584406,-0.01123014185577631,0.006113006267696619,-0.0,0.007280312012881041
0.007753253448754549,0.006475384812802076,-0.011118399910628796,0.005557613912969828,-0.0,0.0066874041222035885
0.007771896664053202,0.00673277210444212,-0.011377940885722637,0.005079061724245548,-0.0,0.0068175531923770905
0.0072874221950769424,0.006270792800933123,-0.010856007225811481,0.005174959544092417,-0.0,0.006861233618110418
0.007235551718622446,0.006213578395545483,-0.010755163617432117,0.005515052005648613,-0.0,0.007316584698855877
0.007871140725910664,0.006630312651395798,-0.011078556068241596,0.0057205213233828545,-0.0,0.007487566210329533
0.007712458726018667,0.00676279840990901,-0.010820049792528152,0.005247452296316624,-0.0,0.007491234689950943
0.007974174804985523,0.006833201739937067,-0.011214418336749077,0.005165391601622105,-0.0,0.006761254742741585
0.007641796953976154,0.006756859831511974,-0.0109759122133255,0.0050119804218411446,-0.0,0.0066276537254452705
0.008102751336991787,0.0063597168773412704,-0.010665501467883587,0.00499586621299386,-0.0,0.006922327447682619
0.0075462982058525085,0.00694932509213686,-0.010993888601660728,0.005450856406241655,-0.0,0.006887284107506275
0.007563491351902485,0.006420383229851723,-0.010477854870259762,0.005143107380717993,-0.0,0.007177307270467281
0.007964981719851494,0.0060313548892736435,-0.01101711392402649,0.005231188144534826,-0.0,0.006888025905936956
0.008010138757526875,0.006290141958743334,-0.010789556428790092,0.004880916327238083,-0.0,0.006845275871455669
0.007579393219202757,0.0069363908842206,-0.010926677845418453,0.0047390959225595,-0.0,0.006809581536799669
0.008773759938776493,0.006230511236935854,-0.011324494145810604,0.005388412158936262,-0.0,0.007114659529179335
0.008107708767056465,0.0059330640360713005,-0.010719197802245617,0.005364983342587948,-0.0,0.007115302607417107
0.007904622703790665,0.006022230722010136,-0.01118957158178091,0.005664327181875706,-0.0,0.006893510930240154
0.007824390195310116,0.007092081476002932,-0.010584243573248386,0.005214194301515818,-0.0,0.006392630748450756
0.008095094934105873,0.006630212999880314,-0.01102125272154808,0.004879308864474297,-0.0,0.0061972844414412975
0.008095094934105873,0.006630212999880314,-0.01102125272154808,0.004879308864474297,-0.0,0.0061972844414412975
0.007984394207596779,0.006823552306741476,-0.01147380005568266,0.005377891473472118,-0.0,0.006811841856688261
0.008313670754432678,0.006899630185216665,-0.011964996345341206,0.00514923594892025,-0.0,0.006319263018667698
0.008313670754432678,0.006899630185216665,-0.011964996345341206,0.00514923594892025,-0.0,0.006319263018667698
0.008175562135875225,0.0064884028397500515,-0.011400536634027958,0.005230948328971863,-0.0,0.0064651803113520145
0.0077694677747786045,0.006365780718624592,-0.010928758420050144,0.005113537888973951,-0.0,0.006630869582295418
0.007806635927408934,0.006194894667714834,-0.011276875622570515,0.004951617680490017,-0.0,0.006744551006704569
0.008562891744077206,0.007118375971913338,-0.010932741686701775,0.00495817931368947,-0.0,0.006651272997260094
0.007864338345825672,0.006589842494577169,-0.011340352706611156,0.005337430629879236,-0.0,0.0063615236431360245
0.008174487389624119,0.006650941912084818,-0.010987172834575176,0.005575987510383129,-0.0,0.0065245297737419605
0.00781586579978466,0.006685631815344095,-0.010611005127429962,0.0053140162490308285,-0.0,0.006623828783631325
0.008183167316019535,0.006758983712643385,-0.011672601103782654,0.005201378837227821,-0.0,0.007229118142277002
0.0078690554946661,0.006769601721316576,-0.011296981945633888,0.005400527734309435,-0.0,0.0066142636351287365
0.00775819830596447,0.006899090018123388,-0.011941508390009403,0.005518844351172447,-0.0,0.006414078176021576
0.0075846328400075436,0.00692196236923337,-0.011363375000655651,0.005703725386410952,-0.0,0.006369500886648893
0.008941258303821087,0.006580067798495293,-0.011313402093946934,0.0055341701954603195,-0.0,0.00658525200560689
0.008118201978504658,0.006448212079703808,-0.010620527900755405,0.005574159789830446,-0.0,0.006733200512826443
0.007950728759169579,0.007689130958169699,-0.011415857821702957,0.0056355660781264305,-0.0,0.006520375143736601
0.008068161085247993,0.006614673882722855,-0.01132251974195242,0.00538206472992897,-0.0,0.006093119736760855
0.007988424971699715,0.006615451071411371,-0.010688085108995438,0.005406814161688089,-0.0,0.00599948363378644
0.007989907637238503,0.006793688051402569,-0.010872125625610352,0.005566790699958801,-0.0,0.006422184407711029
0.008353720419108868,0.007338241674005985,-0.011100386269390583,0.00553313922137022,-0.0,0.006806417368352413
0.008306276984512806,0.006890933029353619,-0.010655516758561134,0.005041163880378008,-0.0,0.006388933397829533
0.00809761043637991,0.006536012981086969,-0.011201654560863972,0.00488330377265811,-0.0,0.006331489887088537
0.008218364790081978,0.006627378053963184,-0.010784441605210304,0.00536044966429472,-0.0,0.006542570888996124
0.008447317406535149,0.006877030245959759,-0.010744414292275906,0.005557306110858917,-0.0,0.006281754933297634
0.008010118268430233,0.007057244423776865,-0.01085625309497118,0.005520069971680641,-0.0,0.006322451867163181
0.007813641801476479,0.006954217795282602,-0.010454763658344746,0.005244583357125521,-0.0,0.006241313181817532
0.008146936073899269,0.006906334776431322,-0.010896306484937668,0.005038782488554716,-0.0,0.006398244760930538
0.008781025186181068,0.006646022200584412,-0.0108346464112401,0.005688264966011047,-0.0,0.006197798531502485
0.008433068171143532,0.007265096064656973,-0.01056132186204195,0.005566420964896679,-0.0,0.006315072067081928
0.008433068171143532,0.007265096064656973,-0.01056132186204195,0.005566420964896679,-0.0,0.006315072067081928
0.009017203003168106,0.006859790999442339,-0.011285257525742054,0.005730884615331888,-0.0,0.006100901402533054
0.00816182792186737,0.006405475549399853,-0.011046865954995155,0.005446752533316612,-0.0,0.005988757591694593
0.008028394542634487,0.00627915421500802,-0.01066973153501749,0.005304232239723206,-0.0,0.006621707230806351
0.008123267441987991,0.007114077918231487,-0.011112337931990623,0.005208996124565601,-0.0,0.006845722906291485
0.007971411570906639,0.006759251467883587,-0.010313965380191803,0.005179611966013908,-0.0,0.006422429345548153
0.008417905308306217,0.006537905894219875,-0.011084808968007565,0.005185400135815144,-0.0,0.006207774393260479
0.008368199691176414,0.006609790492802858,-0.011168381199240685,0.00487442035228014,-0.0,0.00649290019646287
0.008408199064433575,0.006875650491565466,-0.010632669553160667,0.004710730165243149,-0.0,0.006398017983883619
0.008013704791665077,0.007282842416316271,-0.011399389244616032,0.00459638936445117,-0.0,0.006193083710968494
0.008030413649976254,0.0068225865252316,-0.010934785008430481,0.005017829593271017,-0.0,0.005890647880733013
0.008230271749198437,0.006379833444952965,-0.010695261880755424,0.00520350132137537,-0.0,0.005768151022493839
0.008328428491950035,0.006395776756107807,-0.011106549762189388,0.0052772583439946175,-0.0,0.006059390027076006
0.008494319394230843,0.007180687040090561,-0.010619728825986385,0.005096652545034885,-0.0,0.0060716914013028145
0.008474781177937984,0.00718494551256299,-0.01103568822145462,0.004952806513756514,-0.0,0.006453924812376499
0.008598193526268005,0.006975294556468725,-0.010987719520926476,0.005222543608397245,-0.0,0.0064419531263411045
0.008551550097763538,0.007450971752405167,-0.011143604293465614,0.005206630565226078,-0.0,0.005768307484686375
0.008231405168771744,0.007080444600433111,-0.010761480778455734,0.00502670556306839,-0.0,0.005908430088311434
0.008114172145724297,0.00728357071056962,-0.0108710378408432,0.004838499240577221,-0.0,0.006146376021206379
0.008371289819478989,0.006791851948946714,-0.011663561686873436,0.004765009041875601,-0.0,0.006156334653496742
0.008699684403836727,0.007089060265570879,-0.010673518292605877,0.005031647626310587,-0.0,0.00566698657348752
0.008533462882041931,0.007297039497643709,-0.01079340185970068,0.005267112050205469,-0.0,0.005927044432610273
0.008637427352368832,0.006993383634835482,-0.011308522894978523,0.00560864107683301,-0.0,0.00559696601703763
0.008564050309360027,0.006711054593324661,-0.01051653828471899,0.0053002797067165375,-0.0,0.005817023105919361
0.008264667354524136,0.007238973863422871,-0.011548811569809914,0.004834268242120743,-0.0,0.005793653894215822
0.008458984084427357,0.007419306319206953,-0.01109673734754324,0.004701334051787853,-0.0,0.006052606273442507
0.008654806762933731,0.007249446120113134,-0.011003534309566021,0.005069294013082981,-0.0,0.005935674998909235
0.008654806762933731,0.007249446120113134,-0.011003534309566021,0.005069294013082981,-0.0,0.005935674998909235
0.008440108969807625,0.006316176149994135,-0.012014247477054596,0.005142694804817438,-0.0,0.005973714869469404
0.008362025022506714,0.008252676576375961,-0.011549835093319416,0.005442350171506405,-0.0,0.005982410628348589
0.008836017921566963,0.006545795127749443,-0.01150907389819622,0.005178230348974466,-0.0,0.006010735407471657
0.008599624037742615,0.006601010914891958,-0.011230772361159325,0.004902368877083063,-0.0,0.006052223965525627
0.008728732354938984,0.007378025446087122,-0.011072848923504353,0.005162208341062069,-0.0,0.005643373820930719
0.008518961258232594,0.007326396182179451,-0.011189919896423817,0.005127151496708393,-0.0,0.005791633389890194
0.008838191628456116,0.007160830777138472,-0.010823518969118595,0.005142006557434797,-0.0,0.0055870795622467995
0.009324092417955399,0.007164293434470892,-0.011182413436472416,0.005535580217838287,-0.0,0.005685140378773212
0.008261279202997684,0.0070433905348181725,-0.011111891828477383,0.0054142833687365055,-0.0,0.005534803494811058
0.00872199796140194,0.006523504853248596,-0.010843392461538315,0.005249718204140663,-0.0,0.005498254671692848
0.009236862882971764,0.00730918301269412,-0.011389264836907387,0.005025432910770178,-0.0,0.0054465592838823795
0.008394293487071991,0.007369081489741802,-0.010867095552384853,0.004865105263888836,-0.0,0.0056969053111970425
0.008693201467394829,0.007158022839576006,-0.01068204827606678,0.005586105864495039,-0.0,0.00552816828712821
0.008973482996225357,0.00674217427149415,-0.011060270480811596,0.005784790031611919,-0.0,0.005900276824831963
0.008505485951900482,0.007254642900079489,-0.010792004875838757,0.0053161028772592545,-0.0,0.005703826900571585
0.008708052337169647,0.006970854476094246,-0.011200535111129284,0.004805606324225664,-0.0,0.005847382824867964
0.008756509982049465,0.007408477831631899,-0.01095794327557087,0.005213536322116852,-0.0,0.00572957145050168
0.00893400702625513,0.007428871467709541,-0.011448494158685207,0.005364696495234966,-0.0,0.005635998211801052
0.008791429921984673,0.005991191603243351,-0.011636770330369473,0.005746480077505112,-0.0,0.005246882326900959
0.008930185809731483,0.005844357423484325,-0.011461647227406502,0.0053748139180243015,-0.0,0.0050025940872728825
0.008572024293243885,0.006522661540657282,-0.010971277952194214,0.005009000655263662,-0.0,0.005173559300601482
0.00888480432331562,0.006736845709383488,-0.01076357439160347,0.005033884197473526,-0.0,0.0051208846271038055
0.009052162058651447,0.00671945046633482,-0.011224562302231789,0.005131476558744907,-0.0,0.005107133649289608
0.008640293031930923,0.006154696457087994,-0.011002919636666775,0.005732411984354258,-0.0,0.005397726781666279
0.008805373683571815,0.006098071113228798,-0.011054383590817451,0.005733663681894541,-0.0,0.005325632635504007
0.009000142104923725,0.0060415142215788364,-0.011428913101553917,0.0056632086634635925,-0.0,0.005236887838691473
0.009154918603599072,0.006479200907051563,-0.010935542173683643,0.005172885488718748,-0.0,0.0054484023712575436
0.008532237261533737,0.00673684012144804,-0.011139992624521255,0.00495979143306613,-0.0,0.005597725976258516
0.008563796058297157,0.006557464133948088,-0.011022625491023064,0.005589062813669443,-0.0,0.005245736800134182
0.008563796058297157,0.006557464133948088,-0.011022625491023064,0.005589062813669443,-0.0,0.005245736800134182
0.008898833766579628,0.005841321777552366,-0.010825740173459053,0.005304461810737848,-0.0,0.005357210524380207
0.008554710075259209,0.00584438955411315,-0.011865286156535149,0.005415636580437422,-0.0,0.005527714267373085
0.008812587708234787,0.006345367059111595,-0.011939428746700287,0.0052245501428842545,-0.0,0.00521657383069396
0.009049015119671822,0.005990174133330584,-0.01160592120140791,0.004993641283363104,-0.0,0.005268721841275692
0.008583515882492065,0.006029683165252209,-0.011276457458734512,0.005210101138800383,-0.0,0.005146634299308062
0.008380349725484848,0.0058687785640358925,-0.010972741059958935,0.005175416823476553,-0.0,0.005000866949558258
0.008912752382457256,0.006410013884305954,-0.011598123237490654,0.0057165795005857944,-0.0,0.005269660614430904
0.008877363987267017,0.006671422626823187,-0.011495497077703476,0.005423740483820438,-0.0,0.005216942168772221
0.009061681106686592,0.006118683144450188,-0.011706329882144928,0.005256967153400183,-0.0,0.005070648621767759
0.008955898694694042,0.006183262914419174,-0.011614138260483742,0.0053146155551075935,-0.0,0.005277963355183601
0.009003528393805027,0.006025855895131826,-0.01114149484783411,0.0051023466512560844,-0.0,0.0050218552350997925
0.008566539734601974,0.006056470330804586,-0.011737368069589138,0.00542369345203042,-0.0,0.005093791522085667
0.008703775703907013,0.006579849403351545,-0.011854294687509537,0.0052596344612538815,-0.0,0.0048583815805613995
0.009100914001464844,0.005768076051026583,-0.011404244229197502,0.005334112793207169,-0.0,0.004845220595598221
0.008801715448498726,0.005730335135012865,-0.0115995267406106,0.005114614497870207,-0.0,0.0047931610606610775
0.00904136523604393,0.00600302591919899,-0.012787497602403164,0.005544497165828943,-0.0,0.004729454405605793
0.009513122960925102,0.0063960314728319645,-0.011731408536434174,0.005776188336312771,-0.0,0.004696003161370754
0.008922949433326721,0.005628526676446199,-0.01185771357268095,0.006122078746557236,-0.0,0.004721249453723431
0.008932913653552532,0.005730888806283474,-0.011752577498555183,0.005774961784482002,-0.0,0.004668706562370062
0.008836396969854832,0.005865736864507198,-0.010897474363446236,0.0056998999789357185,-0.0,0.004280494060367346
0.008723320439457893,0.0061831665225327015,-0.011712564155459404,0.005826480221003294,-0.0,0.0042230975814163685
0.00889305304735899,0.006620164029300213,-0.012069213204085827,0.005912986118346453,-0.0,0.005134834907948971
0.008899524807929993,0.005790326744318008,-0.011739986948668957,0.005966463126242161,-0.0,0.005428954027593136
0.00927754957228899,0.005867903120815754,-0.011936926282942295,0.005424931645393372,-0.0,0.005160183180123568
0.009029507637023926,0.00583631731569767,-0.011270338669419289,0.005237550474703312,-0.0,0.004464259371161461
0.009656074456870556,0.0062049804255366325,-0.011919526383280754,0.005565074272453785,-0.0,0.003911111503839493
0.009073358029127121,0.006721729878336191,-0.011812509037554264,0.006062222644686699,-0.0,0.004159310832619667
0.009482482448220253,0.0057881916873157024,-0.011471106670796871,0.005843714810907841,-0.0,0.004106774926185608
0.009482482448220253,0.0057881916873157024,-0.011471106670796871,0.005843714810907841,-0.0,0.004106774926185608
0.00956354197114706,0.005854551214724779,-0.011287858709692955,0.005553797818720341,-0.0,0.004306486342102289
0.009121027775108814,0.005496406927704811,-0.011203739792108536,0.0051392242312431335,-0.0,0.00433765584602952
0.009148809127509594,0.0060201482847332954,-0.011540510691702366,0.005143568851053715,-0.0,0.004566519055515528
0.009487473405897617,0.005859236232936382,-0.012206846848130226,0.005089232232421637,-0.0,0.004479909315705299
0.00936370063573122,0.005771222524344921,-0.011959066614508629,0.004977713339030743,-0.0,0.004229240585118532
0.008767523802816868,0.005566595587879419,-0.012206017039716244,0.005135335493832827,-0.0,0.004331083968281746
0.01031166035681963,0.005468445830047131,-0.011307480745017529,0.005372123327106237,-0.0,0.004083842039108276
0.009219907224178314,0.0055893766693770885,-0.011653055436909199,0.005024360958486795,-0.0,0.003930238075554371
0.009609367698431015,0.006340470630675554,-0.01147333811968565,0.00490880012512207,-0.0,0.004308059345930815
0.009153570048511028,0.006369414273649454,-0.011685038916766644,0.005312356166541576,-0.0,0.004631568677723408
0.009655039757490158,0.005441797431558371,-0.012161611579358578,0.005413778126239777,-0.0,0.004649072419852018
0.009429468773305416,0.005312705412507057,-0.011898220516741276,0.005575359333306551,-0.0,0.004522616975009441
0.009416892193257809,0.005663109477609396,-0.01160905696451664,0.005385298747569323,-0.0,0.0037619529757648706
0.009244059212505817,0.0061050462536513805,-0.011487744748592377,0.005299185868352652,-0.0,0.0034669782035052776
0.009172665886580944,0.00597379868850112,-0.011549698188900948,0.005832373630255461,-0.0,0.004217472393065691
0.009505968540906906,0.00545482337474823,-0.011357104405760765,0.005848644766956568,-0.0,0.004717703443020582
0.0100691644474864,0.0058378856629133224,-0.012029007077217102,0.006191135849803686,-0.0,0.004605257883667946
0.009327339939773083,0.005913959816098213,-0.011333632282912731,0.005785678513348103,-0.0,0.004398573189973831
0.009539604187011719,0.006087642628699541,-0.011140071786940098,0.005904543679207563,-0.0,0.004083192907273769
0.009416863322257996,0.0058592623099684715,-0.011489392258226871,0.006141567137092352,-0.0,0.003936531487852335
0.009577694348990917,0.0055899000726640224,-0.01098555140197277,0.0055924165062606335,-0.0,0.003710844088345766
0.010225038975477219,0.005999207962304354,-0.011566050350666046,0.005423123482614756,-0.0,0.003539837198331952
0.009662161581218243,0.005686938297003508,-0.011496102437376976,0.005486677400767803,-0.0,0.0036144156474620104
0.009315554052591324,0.006072699557989836,-0.011519961059093475,0.005249424837529659,-0.0,0.00421919533982873
0.009957993403077126,0.0062898327596485615,-0.012281042523682117,0.005979970563203096,-0.0,0.004218130372464657
0.009719932451844215,0.005635941866785288,-0.011422395706176758,0.006187139078974724,-0.0,0.004176653455942869
0.009719932451844215,0.005635941866785288,-0.011422395706176758,0.006187139078974724,-0.0,0.004176653455942869
0.010634507052600384,0.0057016341015696526,-0.011263804510235786,0.006094349082559347,-0.0,0.003628926118835807
0.010634507052600384,0.0057016341015696526,-0.011263804510235786,0.006094349082559347,-0.0,0.003628926118835807
0.010020566172897816,0.006502869538962841,-0.011648565530776978,0.006163814105093479,-0.0,0.0035247316118329763
0.009469812735915184,0.0064302245154976845,-0.011867739260196686,0.0058062938041985035,-0.0,0.0036894974764436483
0.010486239567399025,0.006039426662027836,-0.011404981836676598,0.005838068202137947,-0.0,0.0039181518368422985
0.00932193174958229,0.006372080650180578,-0.012044323608279228,0.005815691780298948,-0.0,0.004051309544593096
0.009607920423150063,0.006407503038644791,-0.011567754670977592,0.0060873753391206264,-0.0,0.003998321481049061
0.009635522961616516,0.006346231792122126,-0.011263864114880562,0.006464805919677019,-0.0,0.003983666654676199
0.009558815509080887,0.0061862231232225895,-0.011666770093142986,0.006437391974031925,-0.0,0.003992377780377865
0.010139103047549725,0.006248036865144968,-0.01114683412015438,0.006346194539219141,-0.0,0.003947578836232424
0.009899141266942024,0.006066315807402134,-0.012068307027220726,0.00569938076660037,-0.0,0.0035077668726444244
0.009537099860608578,0.006294219754636288,-0.01191973127424717,0.005475375335663557,-0.0,0.0035610056947916746
0.010157136246562004,0.006805280689150095,-0.011359176598489285,0.004992381203919649,-0.0,0.0038985172286629677
0.009902529418468475,0.00617747800424695,-0.011686802841722965,0.005455499980598688,-0.0,0.00409552501514554
0.010360732674598694,0.006488916929811239,-0.011411047540605068,0.005936355795711279,-0.0,0.003588364226743579
0.010559091344475746,0.006781018804758787,-0.011311297304928303,0.005794349126517773,-0.0,0.0035797222517430782
0.010384232737123966,0.006350854877382517,-0.011280336417257786,0.005369137041270733,-0.0,0.003635306842625141
0.009705983102321625,0.006321833468973637,-0.012094797566533089,0.0055198948830366135,-0.0,0.003714468330144882
0.009657169692218304,0.006711428519338369,-0.011989898048341274,0.006208929233253002,-0.0,0.003272423055022955
0.009592819027602673,0.00693718995898962,-0.011613438837230206,0.006739985663443804,-0.0,0.0030951513908803463
0.009593220427632332,0.00658055767416954,-0.011155891232192516,0.006810931488871574,-0.0,0.0029447167180478573
0.010064284317195415,0.0062734815292060375,-0.011216303333640099,0.006577882915735245,-0.0,0.0029444056563079357
0.01034565269947052,0.00618931045755744,-0.012006617151200771,0.006408778950572014,-0.0,0.0029952519107609987
0.009941342286765575,0.006237669847905636,-0.011840893886983395,0.006466447841376066,-0.0,0.002914470387622714
0.01012829877436161,0.0066093266941607,-0.012379513122141361,0.006176291033625603,-0.0,0.0028149669524282217
0.009968911297619343,0.006582554429769516,-0.011387170292437077,0.006077366415411234,-0.0,0.0027353346813470125
0.009968911297619343,0.006582554429769516,-0.011387170292437077,0.006077366415411234,-0.0,0.0027353346813470125
0.010289173573255539,0.006304665002971888,-0.011617789976298809,0.0064827087335288525,-0.0,0.0025680481921881437
0.010130627080798149,0.007048847619444132,-0.012152363546192646,0.0062394579872488976,-0.0,0.0025706852320581675
0.009942200966179371,0.00650813477113843,-0.011617211624979973,0.0059985932894051075,-0.0,0.002279644599184394
0.010262317024171352,0.006608190946280956,-0.012621362693607807,0.006071378476917744,-0.0,0.0021961445454508066
0.011150823906064034,0.006787249818444252,-0.011891189962625504,0.005976913962513208,-0.0,0.002289751311764121
0.010902965441346169,0.006097582168877125,-0.011614715680480003,0.00616756547242403,-0.0,0.002334118587896228
0.011150732636451721,0.0060057686641812325,-0.011841588653624058,0.005868684500455856,-0.0,0.0026997618842869997
0.011015016585588455,0.006786240730434656,-0.011708347126841545,0.005847682245075703,-0.0,0.002704591490328312
0.011039831675589085,0.007120419293642044,-0.012461157515645027,0.005991922691464424,-0.0,0.002559266984462738
0.011412328109145164,0.0062721590511500835,-0.011815758422017097,0.005971820093691349,-0.0,0.0024344678968191147
0.010910638608038425,0.0061250850558280945,-0.012143182568252087,0.006125448737293482,-0.0,0.002284453948959708
0.012069392949342728,0.006445066537708044,-0.01218985766172409,0.006279907189309597,-0.0,0.0023754555732011795
0.01135573722422123,0.006725900340825319,-0.011715153232216835,0.0063843028619885445,-0.0,0.0023408597335219383
0.011166004464030266,0.006442931480705738,-0.012303797528147697,0.006256068591028452,-0.0,0.0022581431549042463
0.011354000307619572,0.005981232970952988,-0.01205951627343893,0.006468679755926132,-0.0,0.0024057321716099977
0.011115406639873981,0.00558446254581213,-0.012509660795331001,0.006634484510868788,-0.0,0.0024757087230682373
0.011178914457559586,0.00636262958869338,-0.01242606807500124,0.006267906632274389,-0.0,0.002085339277982712
0.010902192443609238,0.006152383051812649,-0.012698695994913578,0.0067296698689460754,-0.0,0.0019848812371492386
0.011579894460737705,0.006164310034364462,-0.01204574666917324,0.006788247264921665,-0.0,0.0019916275050491095
0.012013347819447517,0.0057025025598704815,-0.01295379363000393,0.006372394971549511,-0.0,0.0019888326060026884
0.011746437288820744,0.00582799781113863,-0.012617474421858788,0.006317201070487499,-0.0,0.0023770311381667852
0.011442979797720909,0.006582412403076887,-0.012673744931817055,0.006425493396818638,-0.0,0.0024351219180971384
0.011212711222469807,0.006067544687539339,-0.011801052838563919,0.006309523247182369,-0.0,0.002328325994312763
0.011635811068117619,0.005839780904352665,-0.012194725684821606,0.006450805347412825,-0.0,0.0021404174622148275
0.011820665560662746,0.005696223583072424,-0.012830809690058231,0.006740528624504805,-0.0,0.002134680049493909
0.01239824015647173,0.005822613835334778,-0.012477648444473743,0.006633539218455553,-0.0,0.001970757497474551
0.011591658927500248,0.006306278984993696,-0.012813741341233253,0.006340726278722286,-0.0,0.001998106949031353
0.011235624551773071,0.006034372840076685,-0.012201128527522087,0.006572552025318146,-0.0,0.002003861591219902
0.011789675801992416,0.005595394875854254,-0.012533890083432198,0.006919132545590401,-0.0,0.001967082731425762
0.01211387850344181,0.005669670645147562,-0.012720730155706406,0.007169760297983885,-0.0,0.001899360097013414
0.01211387850344181,0.005669670645147562,-0.012720730155706406,0.007169760297983885,-0.0,0.001899360097013414
0.011928138323128223,0.005966901779174805,-0.012704112567007542,0.006292326841503382,-0.0,0.001752185053192079
0.011488879099488258,0.005989862605929375,-0.012215685099363327,0.00681676622480154,-0.0,0.001471437164582312
0.011488879099488258,0.005989862605929375,-0.012215685099363327,0.00681676622480154,-0.0,0.001471437164582312
0.012287069112062454,0.005714623257517815,-0.012293209321796894,0.006988231558352709,-0.0,0.0014678443549200892
0.011649719439446926,0.005736913997679949,-0.011882653459906578,0.00656528864055872,-0.0,0.001407196861691773
0.011590074747800827,0.0053275031968951225,-0.012745357118546963,0.006264158524572849,-0.0,0.0016382380854338408
0.012105822563171387,0.005849750712513924,-0.012763245031237602,0.006402662489563227,-0.0,0.001981643959879875
0.011856023222208023,0.006217168178409338,-0.012782282195985317,0.006850268691778183,-0.0,0.0020242168102413416
0.01218999270349741,0.005554130766540766,-0.012141651473939419,0.007334346882998943,-0.0,0.0019975851755589247
0.011664316989481449,0.005961662624031305,-0.011968531645834446,0.006855840794742107,-0.0,0.0018047955818474293
0.012363540939986706,0.005508630070835352,-0.012716011144220829,0.0063293068669736385,-0.0,0.0016757119446992874
0.012105434201657772,0.005450123455375433,-0.012175753712654114,0.00651288079097867,-0.0,0.001532997121103108
0.012166058644652367,0.005811008624732494,-0.012624583207070827,0.006879817694425583,-0.0,0.001553440117277205
0.011953204870223999,0.005657068453729153,-0.012405836023390293,0.006493475288152695,-0.0,0.0017009761650115252
0.012811845168471336,0.005513092502951622,-0.012067764066159725,0.0064952620305120945,-0.0,0.0015880654100328684
0.012132903560996056,0.005552470218390226,-0.012145917862653732,0.007030559703707695,-7.736219345133577e-07,0.0014899420784786344
0.012667161412537098,0.006290705408900976,-0.012803436256945133,0.007133849896490574,-5.051198570527049e-08,0.0013379050651565194
0.012368176132440567,0.0063368589617311954,-0.011894152499735355,0.006971655413508415,-3.2980718156494504e-09,0.0012566361110657454
0.012842588126659393,0.00587967736646533,-0.012586626224219799,0.006905452813953161,-2.153405231908323e-10,0.0010701095452532172
0.012831700965762138,0.005676322150975466,-0.012583741918206215,0.006745824124664068,-1.406019745076037e-11,0.0011094014625996351
0.012219679541885853,0.005651622079312801,-0.012689498253166676,0.007084068842232227,-9.180304086364721e-13,0.0011167066404595971
0.012979282066226006,0.006336009595543146,-0.012851910665631294,0.0068486398085951805,-5.99408286135368e-14,0.0012325206771492958
0.012552257627248764,0.006297296844422817,-0.012297278270125389,0.0066214329563081264,-3.9137081094919694e-15,0.0012307928409427404
0.012401493266224861,0.005861333105713129,-0.012695162557065487,0.006663602311164141,-2.555371876319728e-16,0.0011728008976206183
0.012760171666741371,0.00556901004165411,-0.01203844603151083,0.007333173416554928,-1.6684750770258026e-17,0.0011294189607724547
0.012760171666741371,0.00556901004165411,-0.01203844603151083,0.007333173416554928,-1.6684750770258026e-17,0.0011294189607724547
0.012866395525634289,0.005748607683926821,-0.012412941083312035,0.006949927657842636,-1.0893950055759592e-18,0.0009928211802616715
0.012989422306418419,0.006125474348664284,-0.012240883894264698,0.00680288951843977,-7.112971323783234e-20,0.0008358670165762305
0.012707812711596489,0.006172646768391132,-0.012583850882947445,0.006727064959704876,-4.6442624986254436e-21,0.0007060060743242502
0.013396858237683773,0.005488792899996042,-0.013092431239783764,0.007108012214303017,-3.032371727120962e-22,0.0007228768081404269
0.012890024110674858,0.0059027341194450855,-0.012522782199084759,0.007060193922370672,-1.9799217541080513e-23,0.0007360680610872805
0.012821922078728676,0.005838555283844471,-0.012895622290670872,0.0068711875937879086,-1.2927474847603567e-24,0.000753035768866539
0.012532700784504414,0.006330360192805529,-0.011852155439555645,0.007329925894737244,-8.440718008632331e-26,0.0008232704130932689
0.01341528631746769,0.005828669294714928,-0.012504174374043941,0.0076104141771793365,-5.511185276890127e-27,0.0008756277966313064
0.013189324177801609,0.00570384506136179,-0.012259764596819878,0.007411041297018528,-3.598410156246785e-28,0.0008815483888611197
0.013351494446396828,0.005998040549457073,-0.012608310207724571,0.007305262144654989,-2.3495048328077354e-29,0.0008098483085632324
0.013044237159192562,0.005885733291506767,-0.012408399023115635,0.006856072228401899,-1.5340585899982441e-30,0.0008926692535169423
0.01319520641118288,0.006254684645682573,-0.011988495476543903,0.007427162956446409,-1.0016306254246505e-31,0.000794514431618154
0.01386741828173399,0.006237218156456947,-0.012281143106520176,0.007189000956714153,-6.539932615776877e-33,0.0006782908458262682
0.012863242998719215,0.00544730294495821,-0.012009608559310436,0.006693373899906874,-4.270108584814215e-34,0.0006984566571190953
0.013467132113873959,0.005851586349308491,-0.012532616965472698,0.006462237797677517,-1.8204143242116804e-36,0.0006051145028322935
0.01356117706745863,0.006319252774119377,-0.012529137544333935,0.007133333943784237,-1.1886004150994247e-37,0.0005889424937777221
0.012994292192161083,0.0064157540909945965,-0.012410597875714302,0.006909048184752464,-7.760711792779167e-39,0.0005409777513705194
0.01368526928126812,0.005667604971677065,-0.012043695896863937,0.006924544461071491,-5.067193337891041e-40,0.0005597317940555513
0.013500605709850788,0.005976435728371143,-0.012200964614748955,0.006792560685425997,-0.00013236569066066295,0.0005271055269986391
0.013922778889536858,0.00591928418725729,-0.011945866048336029,0.007356013171374798,-0.00014547570026479661,0.0004916416946798563
0.013437265530228615,0.006120513193309307,-0.012364395894110203,0.007475066930055618,-0.00014202026068232954,0.00046023272443562746
0.013841954059898853,0.0057921637780964375,-0.01224929466843605,0.007385461591184139,-0.00013774716353509575,0.0004325707268435508
0.013919150456786156,0.005748199298977852,-0.012806879356503487,0.007544414605945349,-0.0001568603765917942,0.00040804329910315573
0.014039565809071064,0.006196598056703806,-0.012510515749454498,0.00785267073661089,-0.000155535017256625,0.00038615104858763516
0.013628062792122364,0.005528382956981659,-0.012130691669881344,0.007604430429637432,-0.0001513830793555826,0.00036648986861109734
0.013945527374744415,0.006022204179316759,-0.012535660527646542,0.007943722419440746,-0.0001472679723519832,0.0003487325448077172
0.014047070406377316,0.00554901547729969,-0.012536122463643551,0.007834972813725471,-0.00016564925317652524,0.00033261769567616284
0.014173009432852268,0.00582725228741765,-0.01230782363563776,0.007834826596081257,-0.00016282169963233173,0.00031792777008377016
0.014165149070322514,0.005427724216133356,-0.011945163831114769,0.007038034498691559,-0.00015881218132562935,0.0003044799086637795
0.014165149070322514,0.005427724216133356,-0.011945163831114769,0.007038034498691559,-0.00015881218132562935,0.0003044799086637795
0.014276672154664993,0.005861575249582529,-0.013156798668205738,0.00692002335563302,-0.00015491298108827323,0.00029212390654720366
0.0142656359821558,0.0059411125257611275,-0.012780592776834965,0.006705795880407095,-0.0001511952723376453,0.0002807311248034239
0.01445796713232994,0.006165219936519861,-0.011955969035625458,0.007235069293528795,-0.00016329114441759884,0.00027019428671337664
0.014391985721886158,0.005565989296883345,-0.012820104137063026,0.007247023284435272,-0.00016452446288894862,0.0002604208420962095
0.01442517526447773,0.005822980310767889,-0.01300467737019062,0.007080574985593557,-0.00016116572078317404,0.00025132924201898277
0.01409592479467392,0.00555697176605463,-0.013012819923460484,0.007289511151611805,-0.000157707734615542,0.00024285042309202254
0.014184951782226562,0.0060549089685082436,-0.0126107856631279,0.007574260234832764,-0.00024686698452569544,0.0002349263522773981
0.014661390334367752,0.00613110838457942,-0.012963901273906231,0.007678835652768612,-0.00024008860054891557,0.00022750231437385082
0.014812947250902653,0.0055921063758432865,-0.012720653787255287,0.0074869063682854176,-0.0002678599557839334,0.000220533533138223
0.014424377121031284,0.005620933603495359,-0.012751562520861626,0.007422259543091059,-0.0002603841421660036,0.00021397889940999448
0.014359524473547935,0.00533690769225359,-0.013095269910991192,0.007736715953797102,-0.00024874243536032736,0.00020780241175089031
0.014469103887677193,0.0058977664448320866,-0.012835724279284477,0.0077300057746469975,-0.00027214939473196864,0.00020197310368530452
0.014664213173091412,0.005711427889764309,-0.012704501859843731,0.007406885270029306,-0.0002549602941144258,0.00017352780560031533
0.014792309142649174,0.005352422595024109,-0.013427668251097202,0.008562073111534119,-0.0002776909968815744,0.00016341179434675723
0.01474244985729456,0.0059784273616969585,-0.012812187895178795,0.008457228541374207,-0.00035972901969216764,0.00015892232477199286
0.014902490191161633,0.005437709391117096,-0.013959943316876888,0.00770250428467989,-0.0004115549963898957,0.00015498856373596936
0.014719178900122643,0.006107842084020376,-0.01321023516356945,0.007588638924062252,-0.00043824277236126363,0.00015126574726309627
0.015174968168139458,0.005569030065089464,-0.01346181333065033,0.00826616957783699,-0.0004217305686324835,0.00014784667291678488
0.014811581932008266,0.0058882273733615875,-0.01342497393488884,0.007935638539493084,-0.0004486914549488574,5.227513611316681e-05
0.01507826242595911,0.005479227285832167,-0.013319246470928192,0.007819939404726028,-0.0004709371132776141,4.4981978135183454e-05
0.014681701548397541,0.005905866622924805,-0.013445155695080757,0.008044960908591747,-0.00045627119834534824,2.3220245566335507e-05
0.014809077605605125,0.005422001238912344,-0.01304464042186737,0.008444407023489475,-0.0006114242714829743,5.585042345046531e-06
0.014699702151119709,0.005414650775492191,-0.013213279657065868,0.008412640541791916,-0.0006530227256007493,3.6466335018303653e-07
0.015339523553848267,0.0055333347991108894,-0.012879913672804832,0.008344120346009731,-0.0006365004228428006,2.3809912264027844e-08
0.015032608062028885,0.005025834310799837,-0.013410121202468872,0.008687698282301426,-0.0006169676780700684,1.5546171017177812e-09
0.015530233271420002,0.005005182698369026,-0.012866668403148651,0.008064379915595055,-0.0005644492339342833,1.0150539436759587e-10
0.0150464978069067,0.005319179501384497,-0.013392915949225426,0.008068620227277279,-0.0005181599408388138,6.627576959461479e-12
0.0150464978069067,0.005319179501384497,-0.013392915949225426,0.008068620227277279,-0.0005181599408388138,6.627576959461479e-12
0.015646997839212418,0.005439728032797575,-0.012669479474425316,0.008495708927512169,-0.0004788125224877149,-0.0008074525976553559
0.015379955060780048,0.005087630357593298,-0.013281150721013546,0.008136597461998463,-0.00047463251394219697,-0.0010159958619624376
0.015379955060780048,0.005087630357593298,-0.013281150721013546,0.008136597461998463,-0.00047463251394219697,-0.0010159958619624376
0.01530996523797512,0.005039020907133818,-0.01316804625093937,0.00796460546553135,-0.0004538639623206109,-0.0008584806928411126
0.015270362608134747,0.0054617091082036495,-0.01373747643083334,0.007948856800794601,-0.00041711493395268917,-0.0007406306685879827
0.016115592792630196,0.005219066049903631,-0.013349737040698528,0.007949898019433022,-0.0004478284390643239,-0.0006511087412945926
0.015614289790391922,0.00567235704511404,-0.013475649058818817,0.007944377139210701,-0.00042180417221970856,-0.0006515885470435023
0.015788119286298752,0.0053201038390398026,-0.012981056235730648,0.008179211057722569,-0.0004234898660797626,-0.0006740407552570105
0.015772465616464615,0.005235661286860704,-0.013317292556166649,0.008656289428472519,-0.00042403038241900504,-0.0006323769339360297
0.015537765808403492,0.005106995813548565,-0.012313432060182095,0.008485314436256886,-0.00039905207813717425,-0.0007173959165811539
0.013263402506709099,0.00542020658031106,-0.013233812525868416,0.007829783484339714,-0.0003753533528652042,-0.0014964451547712088
0.01634787954390049,0.005591872148215771,-0.012891121208667755,0.008052678778767586,-0.000354245537891984,-0.0017498669913038611
0.016296885907649994,0.005505440756678581,-0.013633480295538902,0.008503569290041924,-0.00037072045961394906,-0.001611362094990909
0.0159683208912611,0.00517955981194973,-0.01332372147589922,0.008589562959969044,-0.0003630908904597163,-0.001372333848848939
0.01568061113357544,0.005137612111866474,-0.013713112100958824,0.008647048845887184,-0.00034637533826753497,-0.0012189733097329736
0.0158967524766922,0.005287229549139738,-0.013380443677306175,0.008759942837059498,-0.00033840499236248434,-0.0011107049649581313
0.016033677384257317,0.005041463766247034,-0.013103409670293331,0.008243123069405556,-0.00037398136919364333,-0.0009827648755162954
0.015818197280168533,0.005074037704616785,-0.013055126182734966,0.008425715379416943,-0.0003820214478764683,-0.0010682756546884775
0.015863029286265373,0.004893397446721792,-0.013429459184408188,0.008769725449383259,-0.00038524135015904903,-0.0014626058982685208
0.01628323271870613,0.004746212158352137,-0.012790435925126076,0.008385904133319855,-0.0004030316194985062,-0.001837405376136303
0.015874356031417847,0.005134190432727337,-0.013403918594121933,0.007945100776851177,-0.00039317391929216683,-0.0016912879655137658
0.01621704362332821,0.0049108886159956455,-0.013032838702201843,0.008309151977300644,-0.0003753392957150936,-0.0016520656645298004
0.015473061241209507,0.004844228737056255,-0.013752651400864124,0.008339057676494122,-0.0005283640930429101,-0.0014804999809712172
0.015889829024672508,0.004875577986240387,-0.013004300184547901,0.00820852629840374,-0.00048434556811116636,-0.001467246562242508
0.016119085252285004,0.005112449638545513,-0.013480923138558865,0.008725306019186974,-0.0005134426173754036,-0.001770798466168344
0.016110960394144058,0.0045657409355044365,-0.013776315376162529,0.008706038817763329,-0.0004782440373674035,-0.0029018125496804714
0.01649334467947483,0.0045304992236196995,-0.013622444123029709,0.008428155444562435,-0.0004936561454087496,-0.003534073941409588
0.01592365838587284,0.005015007220208645,-0.01342539768666029,0.008649375289678574,-0.00047331617679446936,-0.003646932542324066
0.01634138822555542,0.005154221784323454,-0.013656791299581528,0.009265536442399025,-0.00048759335186332464,-0.003227320732548833
0.01634138822555542,0.005154221784323454,-0.013656791299581528,0.009265536442399025,-0.00048759335186332464,-0.003227320732548833
0.016273079439997673,0.005099162459373474,-0.013418993912637234,0.009205350652337074,-0.0004702294245362282,-0.0026863361708819866
0.0167599655687809,0.005137123633176088,-0.013405530713498592,0.0084690535441041,-0.00044501927914097905,-0.002288196701556444
0.016660811379551888,0.004863953683525324,-0.01364117581397295,0.009130657650530338,-0.0004499106726143509,-0.0020427152048796415
0.01655588671565056,0.0047322665341198444,-0.013234363868832588,0.008655494078993797,-0.0004517137131188065,-0.0020666238851845264
0.016787881031632423,0.00464963773265481,-0.01345399022102356,0.008086629211902618,-0.0004502772353589535,-0.0027730877045542
0.01639493927359581,0.0050737992860376835,-0.012915217317640781,0.008374445140361786,-0.00041779279126785696,-0.0030632722191512585
0.016828428953886032,0.004986166954040527,-0.0140745984390378,0.008917074650526047,-0.0004480057687032968,-0.0034320170525461435
0.016647541895508766,0.004908851347863674,-0.01344752311706543,0.008946320973336697,-0.0004219292604830116,-0.0032844198867678642
0.01660727709531784,0.005118723027408123,-0.013826411217451096,0.00888273399323225,-0.0004231290949974209,-0.0030409630853682756
0.016767006367444992,0.004858780186623335,-0.013351776637136936,0.00934792123734951,-0.00042358454084023833,-0.0026180201675742865
0.016727188602089882,0.004942915868014097,-0.014216492883861065,0.009122487157583237,-0.0004016096063423902,-0.0028306872118264437
0.016978342086076736,0.005380464717745781,-0.013482518494129181,0.008270522579550743,-0.0003804873558692634,-0.0028363941237330437
0.01670536957681179,0.005007201340049505,-0.014279657043516636,0.0088889691978693,-0.0003613895969465375,-0.0033479093108326197
0.0173716489225626,0.004546848125755787,-0.013520586304366589,0.009657039307057858,-0.00036670686677098274,-0.003492381889373064
0.017336871474981308,0.0048625776544213295,-0.014024579897522926,0.009478709660470486,-0.0003471177478786558,-0.0031484218779951334
0.017080072313547134,0.0050714584067463875,-0.013897400349378586,0.009128477424383163,-0.00032277527498081326,-0.0028897623997181654
0.017272036522626877,0.004874547477811575,-0.013984177261590958,0.00960530061274767,-0.00035720737650990486,-0.003102930262684822
0.01746871881186962,0.005256646778434515,-0.014163737185299397,0.009730774909257889,-0.00039674178697168827,-0.004132542293518782
0.01734025962650776,0.004943872801959515,-0.013985206373035908,0.009270747192203999,-0.000399451149860397,-0.004378137178719044
0.017481809481978416,0.004975993651896715,-0.01469426415860653,0.009001956321299076,-0.0003799822588916868,-0.004500696435570717
0.01786510832607746,0.0052086166106164455,-0.014073534868657589,0.009079220704734325,-0.0005123917944729328,-0.003957902081310749
0.01771567389369011,0.004622600041329861,-0.014414130710065365,0.009673737920820713,-0.00048068485921248794,-0.0035910673905164003
0.017885833978652954,0.005126959178596735,-0.014297078363597393,0.009477582760155201,-0.00043561001075431705,-0.003652079962193966
0.01799350418150425,0.005529667250812054,-0.014223534613847733,0.009128103964030743,-0.0004709657223429531,-0.004196761641651392
0.017496613785624504,0.004822240211069584,-0.014120684005320072,0.00940738432109356,-0.00047291419468820095,-0.004202522337436676
0.018105516210198402,0.004567548632621765,-0.014096726663410664,0.009280333295464516,-0.0004701114958152175,-0.004238624591380358
0.0182334017008543,0.004932776093482971,-0.014589871279895306,0.00875216443091631,-0.00048560480354353786,-0.004206474870443344
0.018029265105724335,0.0050040376372635365,-0.014381005428731441,0.009107954800128937,-0.0004685095918830484,-0.00438073230907321
0.018029265105724335,0.0050040376372635365,-0.014381005428731441,0.009107954800128937,-0.0004685095918830484,-0.00438073230907321
0.018257735297083855,0.005270665045827627,-0.014898175373673439,0.009207255207002163,-0.0005107336328364909,-0.004056595265865326
0.017841540277004242,0.0050683836452662945,-0.015302901156246662,0.009502816013991833,-0.0004695016541518271,-0.003893848042935133
0.018403345718979836,0.004776260815560818,-0.014541003853082657,0.010297015309333801,-0.0005048427847214043,-0.003952981438487768
0.018664509057998657,0.0045654382556676865,-0.014755350537598133,0.009570524096488953,-0.0004664114967454225,-0.004498651716858149
0.017979474738240242,0.005178459919989109,-0.014657997526228428,0.008990729227662086,-0.0004296138940844685,-0.004723971243947744
0.018586257472634315,0.005237353965640068,-0.015082219615578651,0.009802250191569328,-0.0004595836508087814,-0.0047265104949474335
0.018373718485236168,0.004884578287601471,-0.01547998283058405,0.009575155563652515,-0.0004320810839999467,-0.004695936106145382
0.018095606938004494,0.004816561006009579,-0.015134697780013084,0.009179038926959038,-0.0004045825044158846,-0.004640830680727959
0.017120713368058205,0.00466271722689271,-0.01459550391882658,0.009156608022749424,-0.0004307088383939117,-0.004190167412161827
0.018422318622469902,0.004660494159907103,-0.015092333778738976,0.009613541886210442,-0.00040950029506348073,-0.0044778394512832165
0.019093092530965805,0.0046526966616511345,-0.014038266614079475,0.009441684000194073,-0.0004159380332566798,-0.004645951557904482
0.01903681643307209,0.004949405789375305,-0.015060457400977612,0.009635334834456444,-0.00039045364246703684,-0.0050493585877120495
0.019020814448595047,0.004925230517983437,-0.014599072746932507,0.009807403199374676,-0.0004127219144720584,-0.00531379459425807
0.01863156259059906,0.005299306940287352,-0.015528785064816475,0.00936266127973795,-0.00039866624865680933,-0.005074326880276203
0.019064869731664658,0.0055131386034190655,-0.015201854519546032,0.009470774792134762,-0.000372245762264356,-0.004756516311317682
0.018916267901659012,0.004838327877223492,-0.01569901779294014,0.009827292524278164,-0.00040229150908999145,-0.004785482306033373
0.018575267866253853,0.0048218779265880585,-0.015060252510011196,0.009600247256457806,-0.0003814498195424676,-0.004691560752689838
0.018407078459858894,0.005410098936408758,-0.015402177348732948,0.009612427093088627,-0.00038492472958751023,-0.005107334349304438
0.019427724182605743,0.005351315718144178,-0.015395218506455421,0.008879480883479118,-0.0003690107841975987,-0.0055481502786278725
0.019100243225693703,0.004985057283192873,-0.01543373428285122,0.009924306534230709,-0.00035110954195261,-0.004969671368598938
0.01858963444828987,0.0047411262057721615,-0.015680039301514626,0.009432817809283733,-0.00033607074874453247,-0.004790669772773981
0.019311079755425453,0.004993770271539688,-0.015407208353281021,0.009471067227423191,-0.0003581022028811276,-0.005382169503718615
0.019753916189074516,0.00507549149915576,-0.015532069839537144,0.009147904813289642,-0.0003346570592839271,-0.0055031199008226395
0.019268600270152092,0.004935510456562042,-0.01605398766696453,0.00968706514686346,-0.0003116721345577389,-0.005837613251060247
0.01913078874349594,0.005247412249445915,-0.015529457479715347,0.009704241529107094,-0.00029148461180739105,-0.0054135192185640335
0.019234541803598404,0.005001061595976353,-0.01592792198061943,0.009132719598710537,-0.00027374413912184536,-0.005183427594602108
0.019081836566329002,0.004700127057731152,-0.015005885623395443,0.009823909029364586,-0.0002831774763762951,-0.005381984170526266
0.019275734201073647,0.004807579796761274,-0.01538974978029728,0.009892729111015797,-0.00029112069751136005,-0.005910748150199652
0.019275734201073647,0.004807579796761274,-0.01538974978029728,0.009892729111015797,-0.00029112069751136005,-0.005910748150199652
0.0194767564535141,0.005239222198724747,-0.015021664090454578,0.009760650806128979,-0.00027766605489887297,-0.006011962890625
0.01942974515259266,0.005190567579120398,-0.01579776220023632,0.010061560198664665,-0.0002641777682583779,-0.005824016872793436
0.01969650201499462,0.005267700180411339,-0.01477569155395031,0.009855055250227451,-0.00025185878621414304,-0.005627091508358717
0.01996627263724804,0.005088229198008776,-0.015321489423513412,0.009740166366100311,-0.00024063394812401384,-0.00565335014835
0.019723834469914436,0.00504278065636754,-0.015419316478073597,0.010280941613018513,-0.00023036604397930205,-0.005643999204039574
0.019813556224107742,0.004856763407588005,-0.015889476984739304,0.010137258097529411,-0.00025525360251776874,-0.006062178872525692
0.01993035338819027,0.005068666767328978,-0.015343555249273777,0.010772903449833393,-0.0002474646607879549,-0.005938634276390076
0.01983388140797615,0.005599580239504576,-0.015601047314703465,0.010699260048568249,-0.00023825050448067486,-0.005978489760309458
0.019897334277629852,0.005278814118355513,-0.015888523310422897,0.010753074660897255,-0.00022957668988965452,-0.0061067743226885796
0.02019202895462513,0.0052613765001297,-0.015466388314962387,0.01163098681718111,-0.00023700835299678147,-0.005939742550253868
0.01992938481271267,0.005004838574677706,-0.015765855088829994,0.011250142008066177,-0.00024349485465791076,-0.005551324225962162
0.019459277391433716,0.004833191633224487,-0.015400798991322517,0.010181492194533348,-0.0002364457177463919,-0.005928768776357174
0.02025594376027584,0.004693809896707535,-0.015681331977248192,0.010873054154217243,-0.00022898688621353358,-0.006653898861259222
0.019779911264777184,0.005085145588964224,-0.015083055943250656,0.010356714017689228,-0.00022193207405507565,-0.006323958281427622
0.019689472392201424,0.005501663777977228,-0.015893759205937386,0.010702725499868393,-0.00021529500372707844,-0.006412102375179529
0.020381608977913857,0.005447217728942633,-0.015104301273822784,0.01074306108057499,-0.00019937958859372884,-0.005883960518985987
0.0198820848017931,0.004937227815389633,-0.015708308666944504,0.01023324765264988,-0.00018842668214347214,-0.005927587393671274
0.019754130393266678,0.0047067576088011265,-0.015276958234608173,0.01086189690977335,-0.00018068862846121192,-0.006153678055852652
0.02015308104455471,0.004954902455210686,-0.015181419439613819,0.010762379504740238,-0.00017370129353366792,-0.005870807450264692
0.019220275804400444,0.005363397300243378,-0.0158272385597229,0.01119260024279356,-0.0001932098821271211,-0.006662816274911165
0.020707502961158752,0.005195256322622299,-0.015811197459697723,0.010485202074050903,-0.00018678625929169357,-0.006380582228302956
0.02135894075036049,0.0048462748527526855,-0.015413875691592693,0.010451890528202057,-0.00018055728287436068,-0.0064965346828103065
0.02085772529244423,0.004791094921529293,-0.015676643699407578,0.011195702478289604,-0.000196272085304372,-0.006339343264698982
0.020809374749660492,0.005023914389312267,-0.015423827804625034,0.010355096310377121,-0.00019695203809533268,-0.006939643528312445
0.020800437778234482,0.005062970798462629,-0.01590702123939991,0.010186943225562572,-0.00021166611986700445,-0.0066031478345394135
0.021187366917729378,0.00523467268794775,-0.015104254707694054,0.010789448395371437,-0.00021187620586715639,-0.006536700762808323
0.020598648115992546,0.005209487397223711,-0.01566052995622158,0.01035357266664505,-0.00034311445779167116,-0.006851669400930405
0.0204587671905756,0.004510127007961273,-0.015282395295798779,0.010698542930185795,-0.0003869521024171263,-0.007124407682567835
0.021609138697385788,0.004449109546840191,-0.015958664938807487,0.010844975709915161,-0.0003767094749491662,-0.006964686326682568
0.02218763343989849,0.004560838453471661,-0.015832215547561646,0.010180343873798847,-0.0004079182690475136,-0.007351229898631573
0.02218763343989849,0.004560838453471661,-0.015832215547561646,0.010180343873798847,-0.0004079182690475136,-0.007351229898631573
0.021319784224033356,0.004781350493431091,-0.01613393798470497,0.010817532427608967,-0.00041340829920955,-0.007378191687166691
0.02117713913321495,0.005164498928934336,-0.015728307887911797,0.010793345980346203,-0.0004146019055042416,-0.006890449207276106
0.020860468968749046,0.005026171915233135,-0.015418666414916515,0.010434465482831001,-0.00039357057539746165,-0.007191430777311325
0.021268533542752266,0.004817107692360878,-0.015865875408053398,0.01043463684618473,-0.0005640798481181264,-0.007071721833199263
0.021394826471805573,0.004708559717983007,-0.0157246645539999,0.010316942818462849,-0.00052680290536955,-0.006987906992435455
0.02163742482662201,0.004746044985949993,-0.016183480620384216,0.010280740447342396,-0.0005546089960262179,-0.007276361342519522
0.0213883426040411,0.005691101774573326,-0.015581484884023666,0.010950625874102116,-0.0005130270728841424,-0.007497849408537149
0.0214652381837368,0.005443571601063013,-0.01619276963174343,0.011031893081963062,-0.0005365315591916442,-0.007084561046212912
0.021659517660737038,0.004815555643290281,-0.016002504155039787,0.011196325533092022,-0.000502889568451792,-0.0072374120354652405
0.022235745564103127,0.0046184672974050045,-0.01618632860481739,0.01129856426268816,-0.0004985431442037225,-0.0075585865415632725
0.02221817709505558,0.004722594749182463,-0.01659557595849037,0.011076990514993668,-0.0004939108621329069,-0.0075932578183710575
0.0225299634039402,0.005249958951026201,-0.016160573810338974,0.011566360481083393,-0.0004671461647376418,-0.007711071986705065
0.021861547604203224,0.005447094794362783,-0.016765199601650238,0.011532040312886238,-0.0004634737560991198,-0.0077317203395068645
0.022003235295414925,0.005105175543576479,-0.01631566323339939,0.011545424349606037,-0.00046360091073438525,-0.007513119839131832
0.02292591519653797,0.004707891959697008,-0.015445020981132984,0.011255240999162197,-0.0004615155921783298,-0.007901858538389206
0.022976666688919067,0.004744274076074362,-0.01598156988620758,0.0117060337215662,-0.0004594511410687119,-0.008661932311952114
0.02210470661520958,0.005015951115638018,-0.016255272552371025,0.01172459963709116,-0.00043013732647523284,-0.00817637424916029
0.022466422989964485,0.004968435503542423,-0.01713431440293789,0.011613056994974613,-0.00044510679435916245,-0.008314610458910465
0.02309599705040455,0.0051188054494559765,-0.016929753124713898,0.011395018547773361,-0.0004316425183787942,-0.008753756061196327
0.022824188694357872,0.004979563411325216,-0.015893807634711266,0.011680664494633675,-0.0004080353246536106,-0.008650042116641998
0.022874973714351654,0.004739220719784498,-0.016626756638288498,0.011757832951843739,-0.0003861975856125355,-0.008536847308278084
0.022620392963290215,0.004682931583374739,-0.016223208978772163,0.011511710472404957,-0.00036653393181040883,-0.008364370092749596
0.021539079025387764,0.004699811339378357,-0.01713142730295658,0.011463132686913013,-0.00037094453000463545,-0.008591645397245884
0.023167572915554047,0.0049985419027507305,-0.016595683991909027,0.011832383461296558,-0.0003471604723017663,-0.008678648620843887
0.02371504344046116,0.00499810790643096,-0.0165533609688282,0.011151968501508236,-0.00032257288694381714,-0.008738482370972633
0.02320948988199234,0.0047894613817334175,-0.016777509823441505,0.011805485002696514,-0.0003302514087408781,-0.00852850079536438
0.02320948988199234,0.0047894613817334175,-0.016777509823441505,0.011805485002696514,-0.0003302514087408781,-0.00852850079536438
0.023066414520144463,0.005213541444391012,-0.016257641837000847,0.011819419451057911,-0.0003365263401065022,-0.007791705429553986
0.02334810048341751,0.004603798501193523,-0.01663609780371189,0.011888709850609303,-0.00034915906144306064,-0.0078092413023114204
0.02368866093456745,0.004967125132679939,-0.016992265358567238,0.011498741805553436,-0.0003323058772366494,-0.008131025359034538
0.02368866093456745,0.004967125132679939,-0.016992265358567238,0.011498741805553436,-0.0003323058772366494,-0.008131025359034538
0.023615989834070206,0.005390569567680359,-0.017129728570580482,0.011995131149888039,-0.00035480051883496344,-0.00864172913134098
0.02373124286532402,0.0051133050583302975,-0.016682831570506096,0.01174783706665039,-0.0003432404191698879,-0.008237564004957676
0.023851625621318817,0.004776963032782078,-0.0171528197824955,0.011632472276687622,-0.00037485870416276157,-0.007996877655386925
0.023556804284453392,0.004625495057553053,-0.016415107995271683,0.011822152882814407,-0.00038826584932394326,-0.008125283755362034
0.024024514481425285,0.004626792389899492,-0.01692265272140503,0.011470181867480278,-0.0003950633108615875,-0.008809325285255909
0.024306315928697586,0.004674569703638554,-0.01692667417228222,0.012026914395391941,-0.0003979475295636803,-0.008223935030400753
0.024525711312890053,0.0052575841546058655,-0.016732342541217804,0.012308036908507347,-0.00037257440271787345,-0.008267619647085667
0.023910582065582275,0.0052192858420312405,-0.016980798915028572,0.011863854713737965,-0.00034864258486777544,-0.008280778303742409
0.02427908405661583,0.004954588133841753,-0.016768215224146843,0.011916887946426868,-0.0003782847779802978,-0.008611747995018959
0.024365372955799103,0.004823740106076002,-0.0173303484916687,0.011569292284548283,-0.00035997480154037476,-0.008598077110946178
0.02410910837352276,0.0047986158169806,-0.017001425847411156,0.012205259874463081,-0.00037660737871192396,-0.008994529023766518
0.025042077526450157,0.005143329501152039,-0.01720300130546093,0.012222523801028728,-0.0003685866540763527,-0.008811799809336662
0.02472333423793316,0.0051117450930178165,-0.01641395315527916,0.012346701696515083,-0.00036886954330839217,-0.009100206196308136
0.024797216057777405,0.005552011076360941,-0.01704372838139534,0.012277108617126942,-0.00037085736403241754,-0.009204454720020294
0.025213973596692085,0.005332620814442635,-0.016673214733600616,0.012438076548278332,-0.00040406209882348776,-0.009449209086596966
0.024878913536667824,0.004973338916897774,-0.017026912420988083,0.012161479331552982,-0.0003835931420326233,-0.009236229583621025
0.02520420216023922,0.0051517002284526825,-0.017025090754032135,0.012402069754898548,-0.0004102938692085445,-0.009428239427506924
0.025277918204665184,0.005156226456165314,-0.016684764996170998,0.012312267906963825,-0.00039185237255878747,-0.009500252082943916
0.025993654504418373,0.005095876753330231,-0.01716606132686138,0.012845157645642757,-0.0003693333128467202,-0.009332059882581234
0.02591027319431305,0.004944483283907175,-0.0166357159614563,0.012746823951601982,-0.00037319102557376027,-0.009441203437745571
0.025274578481912613,0.005142290610820055,-0.016855502501130104,0.012998581863939762,-0.00037614619941450655,-0.00947536900639534
0.024537499994039536,0.005576695315539837,-0.016867730766534805,0.013224235735833645,-0.00041849439730867743,-0.0096444021910429
0.02582385577261448,0.005342544987797737,-0.017205888405442238,0.012901474721729755,-0.0004355238052085042,-0.00981557834893465
0.026211759075522423,0.004929692484438419,-0.017224574461579323,0.013145926408469677,-0.000439215189544484,-0.010151439346373081
0.02540932036936283,0.004682468716055155,-0.016562363132834435,0.0122899254783988,-0.00043886530329473317,-0.010293420404195786
0.02540932036936283,0.004682468716055155,-0.016562363132834435,0.0122899254783988,-0.00043886530329473317,-0.010293420404195786
0.025958716869354248,0.005176500882953405,-0.017208371311426163,0.012861679308116436,-0.000457966816611588,-0.010364257730543613
0.026440460234880447,0.005055373068898916,-0.016872333362698555,0.012784025631844997,-0.0004415317962411791,-0.01031632162630558
0.026931172236800194,0.0049243285320699215,-0.017177574336528778,0.01346638984978199,-0.0004135578346904367,-0.010084319859743118
0.026449697092175484,0.0053570163436234,-0.017010968178510666,0.013679374940693378,-0.0004360741004347801,-0.010465595871210098
0.025086525827646255,0.00511900382116437,-0.016973596066236496,0.013655721209943295,-0.00041734290425665677,-0.010252265259623528
0.02549264393746853,0.0046386681497097015,-0.0173619594424963,0.013371576555073261,-0.00039487500907853246,-0.010301575995981693
0.026531413197517395,0.004584138281643391,-0.01779187098145485,0.013312938623130322,-0.00040735266520641744,-0.01028649415820837
0.026190534234046936,0.004521482158452272,-0.01782444678246975,0.013440131209790707,-0.0004028581897728145,-0.010366653092205524
0.025936631485819817,0.004322925582528114,-0.017854118719697,0.013232181780040264,-0.00037165911635383964,-0.010700872167944908
0.025740934535861015,0.004460133612155914,-0.017212824895977974,0.013814269565045834,-0.000393845810322091,-0.010880292393267155
0.02594519592821598,0.004547164775431156,-0.01729425974190235,0.013297351077198982,-0.00038167258026078343,-0.0102283526211977
0.026035545393824577,0.004479031078517437,-0.017193473875522614,0.013229402713477612,-0.00040125721716322005,-0.010603942908346653
0.026564912870526314,0.004256314132362604,-0.01823447458446026,0.012801676988601685,-0.00039013888454064727,-0.010865345597267151
0.02680506557226181,0.0043701487593352795,-0.018277741968631744,0.013594209216535091,-0.0003682267270050943,-0.011040090583264828
0.026542583480477333,0.0043436074629426,-0.017504384741187096,0.013163129799067974,-0.00038458252674899995,-0.011193951591849327
0.0265748742967844,0.0040433029644191265,-0.018097205087542534,0.013311822898685932,-0.00042789860162883997,-0.009964349679648876
0.026650184765458107,0.004115820396691561,-0.018208418041467667,0.013173294253647327,-0.00043982666102238,-0.010551771149039268
0.02676742896437645,0.004390224348753691,-0.01891813613474369,0.012809271924197674,-0.00043992549763061106,-0.010731108486652374
0.02667069621384144,0.004205831326544285,-0.018084941431879997,0.013286890462040901,-0.0004089442081749439,-0.011072158813476562
0.027068480849266052,0.00400710990652442,-0.01785411313176155,0.01343903411179781,-0.0004392098053358495,-0.011390416882932186
0.02689892053604126,0.003882251214236021,-0.018767954781651497,0.013271761126816273,-0.00041417666943743825,-0.011172833852469921
0.026418456807732582,0.0038939809892326593,-0.018001368269324303,0.013227772898972034,-0.00044053737656213343,-0.011517282575368881
0.02578694559633732,0.003859432879835367,-0.01763523928821087,0.012925408780574799,-0.0004986560670658946,-0.011550740338861942
0.027638785541057587,0.0043708765879273415,-0.018087243661284447,0.013401863165199757,-0.0005195143166929483,-0.01189269870519638
0.02788589894771576,0.0046213711611926556,-0.01822003163397312,0.01333044096827507,-0.0005575965624302626,-0.012022720649838448
0.02848045900464058,0.0042083002626895905,-0.018702438101172447,0.014125560410320759,-0.0005842017708346248,-0.01210998184978962
0.027707736939191818,0.003917759284377098,-0.018372468650341034,0.013885370455682278,-0.000581682485062629,-0.012039276771247387
0.02689485251903534,0.0040394640527665615,-0.017804792150855064,0.014149490743875504,-0.0007164772832766175,-0.011602012440562248
0.02689485251903534,0.0040394640527665615,-0.017804792150855064,0.014149490743875504,-0.0007164772832766175,-0.011602012440562248
0.02759578637778759,0.00407957611605525,-0.018360430374741554,0.013867099769413471,-0.0008487487211823463,-0.011859249323606491
0.02844678796827793,0.004370621405541897,-0.01803610287606716,0.014000151306390762,-0.0008798533817753196,-0.012035783380270004
0.028422705829143524,0.004724110476672649,-0.01789124123752117,0.01380966603755951,-0.0008839485235512257,-0.011695800349116325
0.028133660554885864,0.004472524859011173,-0.018427038565278053,0.014134085737168789,-0.0009315279312431812,-0.011633276008069515
0.028921324759721756,0.004510069265961647,-0.017918944358825684,0.013798126019537449,-0.0010116415796801448,-0.011175623163580894
0.028613945469260216,0.0042103128507733345,-0.018256038427352905,0.014082759618759155,-0.0010186255676671863,-0.011431295424699783
0.028999287635087967,0.003992711193859577,-0.018347887322306633,0.013945775106549263,-0.0010215605143457651,-0.011711240746080875
0.02797747775912285,0.004291270859539509,-0.017560286447405815,0.013836348429322243,-0.001264306833036244,-0.011568163521587849
0.028157023712992668,0.0045148031786084175,-0.018011312931776047,0.013713588938117027,-0.001209777663461864,-0.01147940382361412
0.028990771621465683,0.00453713396564126,-0.017502039670944214,0.013702064752578735,-0.0011216213461011648,-0.0116312550380826
0.028768960386514664,0.0043875426054000854,-0.017278321087360382,0.013791561126708984,-0.0010261106071993709,-0.011546390131115913
0.028955381363630295,0.004530192818492651,-0.017672520130872726,0.013654845766723156,-0.0009091251413337886,-0.011789083480834961
0.029142336919903755,0.004518798086792231,-0.017425136640667915,0.013875541277229786,-0.0007672862848266959,-0.011955403722822666
0.028918370604515076,0.0043467688374221325,-0.01793830469250679,0.0132521353662014,-0.0007680693524889648,-0.011758464388549328
0.02871689945459366,0.004814456216990948,-0.017933744937181473,0.013389639556407928,-0.0007401994080282748,-0.011624190025031567
0.028926877304911613,0.004617948550730944,-0.018529275432229042,0.013877984136343002,-0.0007273895898833871,-0.011842439882457256
0.029359782114624977,0.0045608896762132645,-0.017871910706162453,0.013970141299068928,-0.0007135153282433748,-0.011485817842185497
0.029330411925911903,0.004542701877653599,-0.017943648621439934,0.01441852655261755,-0.0007364354678429663,-0.011978399939835072
0.029299797490239143,0.004235358908772469,-0.018386734649538994,0.013810529373586178,-0.0007344457553699613,-0.011492535471916199
0.029845086857676506,0.0044477093033492565,-0.017877871170639992,0.01425358559936285,-0.0006798945250920951,-0.011569743044674397
0.030013933777809143,0.004562271758913994,-0.018337631598114967,0.013847964815795422,-0.0006573930731974542,-0.011902261525392532
0.02943611703813076,0.004306457936763763,-0.018343612551689148,0.014090086333453655,-0.0006374664953909814,-0.012031074613332748
0.030202461406588554,0.005025135353207588,-0.018326181918382645,0.013344095088541508,-0.0005900507676415145,-0.012506397441029549
0.029933955520391464,0.004948734305799007,-0.018611077219247818,0.013689978048205376,-0.0005746767274104059,-0.012373079545795918
0.029646093025803566,0.004611481446772814,-0.018062053248286247,0.013723374344408512,-0.0005130123463459313,-0.012301015667617321
0.029646093025803566,0.004611481446772814,-0.018062053248286247,0.013723374344408512,-0.0005130123463459313,-0.012301015667617321
0.029905565083026886,0.00439711706712842,-0.018558505922555923,0.013922580517828465,-0.0004898094339296222,-0.011722574010491371
0.029905565083026886,0.00439711706712842,-0.018558505922555923,0.013922580517828465,-0.0004898094339296222,-0.011722574010491371
0.03011213429272175,0.004647725261747837,-0.018286162987351418,0.014069672673940659,-0.0004580140521284193,-0.011833004653453827
0.030028708279132843,0.004774513188749552,-0.0187040027230978,0.01370163168758154,-0.0004227658500894904,-0.011916323564946651
0.03022223711013794,0.004437036346644163,-0.01870819926261902,0.01353059709072113,-0.00039208761882036924,-0.012213234789669514
0.030487079173326492,0.00455349450930953,-0.018375176936388016,0.013966470956802368,-0.0004181598487775773,-0.012392438016831875
0.030233044177293777,0.004276882857084274,-0.018892118707299232,0.0144017543643713,-0.0003988600510638207,-0.012110410258173943
0.03025827743113041,0.004346099216490984,-0.018672754988074303,0.014759400859475136,-0.0003755430516321212,-0.011348934844136238
0.030420832335948944,0.004298655316233635,-0.0181441567838192,0.015431812033057213,-0.0003544363717082888,-0.011313882656395435
0.030853120610117912,0.004346239846199751,-0.018617339432239532,0.014815561473369598,-0.00038018226041458547,-0.011898293159902096
0.030660511925816536,0.0045807091519236565,-0.018918992951512337,0.014990939758718014,-0.0003638746275100857,-0.012507527135312557
0.03050711192190647,0.004683581180870533,-0.01856837421655655,0.014131933450698853,-0.0003465469344519079,-0.01237443182617426
0.031056640669703484,0.004276347812265158,-0.01862451620399952,0.014019371010363102,-0.000306552043184638,-0.01199332531541586
0.031810421496629715,0.004380055703222752,-0.01890014111995697,0.013773538172245026,-0.00031215755734592676,-0.012059510685503483
0.031628817319869995,0.00444387923926115,-0.01897214911878109,0.014262341894209385,-0.00031899000168778,-0.012328858487308025
0.030432328581809998,0.004592489916831255,-0.020095093175768852,0.014794006012380123,-0.0003497420693747699,-0.012455923482775688
0.030237065628170967,0.004607998300343752,-0.01940939389169216,0.01548080611974001,-0.0003757155791390687,-0.012553730979561806
0.03153235465288162,0.004740217700600624,-0.018783850595355034,0.015171833336353302,-0.0006741946563124657,-0.012622463516891003
0.031154815107584,0.00450991652905941,-0.01925637759268284,0.014736555516719818,-0.000875005847774446,-0.012708017602562904
0.031604357063770294,0.004536293912678957,-0.019182799383997917,0.015153647400438786,-0.0010401445906609297,-0.012556545436382294
0.030872784554958344,0.004503929987549782,-0.019814258441329002,0.014605063945055008,-0.0011846283450722694,-0.012668858282268047
0.030842408537864685,0.004406360909342766,-0.01934628188610077,0.01553216204047203,-0.0011551600182428956,-0.01267431303858757
0.030491139739751816,0.004877097439020872,-0.018489185720682144,0.015220126137137413,-0.001116353552788496,-0.013037487864494324
0.03146606311202049,0.005050588399171829,-0.019291315227746964,0.015307785011827946,-0.0009856417309492826,-0.012716333381831646
0.03167856112122536,0.004765633959323168,-0.019006485119462013,0.014530595391988754,-0.0008887330186553299,-0.012856700457632542
0.03068447671830654,0.004643525928258896,-0.01955018937587738,0.015160659328103065,-0.0008177277632057667,-0.012453857809305191
0.032308559864759445,0.004709241911768913,-0.01981216110289097,0.014609853737056255,-0.0007637445814907551,-0.012569328770041466
0.03163512423634529,0.004801625851541758,-0.019489580765366554,0.014994706027209759,-0.0007762853056192398,-0.012854314409196377
0.030848978087306023,0.004547656048089266,-0.018830785527825356,0.014594110660254955,-0.0007451203418895602,-0.012983564287424088
0.031201353296637535,0.005035232286900282,-0.019914351403713226,0.014909354969859123,-0.0007144624250940979,-0.013004745356738567
0.031692229211330414,0.004926467314362526,-0.01903967186808586,0.014941180124878883,-0.0006588656106032431,-0.012577956542372704
0.031692229211330414,0.004926467314362526,-0.01903967186808586,0.014941180124878883,-0.0006588656106032431,-0.012577956542372704
0.03149060532450676,0.00453880475834012,-0.020228924229741096,0.015215937048196793,-0.0005787374102510512,-0.013074999675154686
0.03149060532450676,0.00453880475834012,-0.020228924229741096,0.015215937048196793,-0.0005787374102510512,-0.013074999675154686
0.032011814415454865,0.004853402730077505,-0.01986994408071041,0.015198858454823494,-0.0005430292803794146,-0.013305362313985825
0.032071955502033234,0.004881604574620724,-0.019416339695453644,0.01520378515124321,-0.000555082515347749,-0.013398470357060432
0.031891100108623505,0.004826477263122797,-0.020102525129914284,0.01500785630196333,-0.000527330266777426,-0.012857535853981972
0.031488705426454544,0.0048118336126208305,-0.019875705242156982,0.015326401218771935,-0.000538863183464855,-0.013854182325303555
0.031798552721738815,0.004983166232705116,-0.018986515700817108,0.01500177662819624,-0.0005165489856153727,-0.01355771254748106
0.033253517001867294,0.0049814400263130665,-0.019739678129553795,0.015171968378126621,-0.000557568680960685,-0.013296196237206459
0.03235940262675285,0.004670494236052036,-0.020198695361614227,0.014848544262349606,-0.0005953505751676857,-0.013030375353991985
0.031126631423830986,0.004936994519084692,-0.019841907545924187,0.015308856964111328,-0.0006259256624616683,-0.012986811809241772
0.03240564465522766,0.004901283420622349,-0.02001550793647766,0.015159085392951965,-0.000652445072773844,-0.012958179228007793
0.03295506164431572,0.0049955518916249275,-0.020273355767130852,0.015421588905155659,-0.001050796010531485,-0.01357269287109375
0.0325571745634079,0.004787843208760023,-0.019652578979730606,0.014883622527122498,-0.0010092101292684674,-0.013714894652366638
0.03373754397034645,0.00492496881633997,-0.019374536350369453,0.015380816534161568,-0.000992052722722292,-0.01418190635740757
0.03329687938094139,0.0050486973486840725,-0.020069854333996773,0.014660004526376724,-0.0009246834670193493,-0.014022312127053738
0.03255737945437431,0.004692253656685352,-0.0199439637362957,0.01472851075232029,-0.0009166483068838716,-0.013988981954753399
0.033183056861162186,0.0053741601295769215,-0.02022859826683998,0.014884068630635738,-0.0007955367909744382,-0.014283540658652782
0.03372061625123024,0.004714142065495253,-0.020102571696043015,0.014787567779421806,-0.0006942436448298395,-0.014241404831409454
0.03354928642511368,0.00453168386593461,-0.019633987918496132,0.015654554590582848,-0.0006150677218101919,-0.0145778339356184
0.03355846181511879,0.004534970037639141,-0.02010519988834858,0.016092559322714806,-0.0006373967044055462,-0.01464222650974989
0.03314116597175598,0.005016789771616459,-0.019863121211528778,0.016678232699632645,-0.0005838358774781227,-0.014758440665900707
0.03337487578392029,0.004871423821896315,-0.019564298912882805,0.016579946503043175,-0.0006055290577933192,-0.014338022097945213
0.03318212926387787,0.005019673611968756,-0.020412340760231018,0.015901044011116028,-0.0005681345937773585,-0.014561462216079235
0.03377346321940422,0.004755610134452581,-0.020523494109511375,0.016365835443139076,-0.00047086976701393723,-0.014430874958634377
0.03358975425362587,0.004648398142307997,-0.01987084373831749,0.015836026519536972,-0.0004969110013917089,-0.014304635114967823
0.03375297784805298,0.004572936799377203,-0.01999768242239952,0.01585371233522892,-0.00046393292723223567,-0.014337264932692051
0.03375297784805298,0.004572936799377203,-0.01999768242239952,0.01585371233522892,-0.00046393292723223567,-0.014337264932692051
0.033550698310136795,0.0050513301976025105,-0.020058587193489075,0.015464844182133675,-0.00048011954640969634,-0.014707637019455433
0.03434127941727638,0.0049834721721708775,-0.019759410992264748,0.01569414883852005,-0.0004612290649674833,-0.014854027889668941
0.034199588000774384,0.004815592430531979,-0.019903352484107018,0.015835771337151527,-0.0004839056928176433,-0.014918243512511253
0.03413901850581169,0.004973290022462606,-0.0205563735216856,0.015925519168376923,-0.0005432674661278725,-0.014637736603617668
0.034487687051296234,0.004799964372068644,-0.021264007315039635,0.016173383221030235,-0.0006115870201028883,-0.014763243496418
0.03412910923361778,0.0048861876130104065,-0.020064223557710648,0.016391057521104813,-0.0005972893559373915,-0.014803639613091946
0.03394041955471039,0.0046447343192994595,-0.02019331231713295,0.01684303767979145,-0.0006245496915653348,-0.0149839511141181
0.03502298891544342,0.004818414803594351,-0.02009369432926178,0.01647966541349888,-0.0006494275876320899,-0.014814161695539951
0.03515828773379326,0.004873030818998814,-0.019984975457191467,0.016544900834560394,-0.0008078403188847005,-0.014972497709095478
0.0347917415201664,0.00490511953830719,-0.020485740154981613,0.01595775969326496,-0.0007454786100424826,-0.014976992271840572
0.0346800722181797,0.005089621525257826,-0.020994072780013084,0.015909409150481224,-0.0007534415344707668,-0.015164433978497982
0.034981321543455124,0.004852257203310728,-0.020974915474653244,0.01634077914059162,-0.0006743266712874174,-0.014818137511610985
0.03485490009188652,0.0047703757882118225,-0.01986238732933998,0.016503913328051567,-0.0006731966277584434,-0.014659544453024864
0.03543417900800705,0.0045182532630860806,-0.020592262968420982,0.016957459971308708,-0.0006717397482134402,-0.014583412557840347
0.0353250615298748,0.0050276811234653,-0.021483164280653,0.016689427196979523,-0.0006514654378406703,-0.014867226593196392
0.03508120775222778,0.00540621904656291,-0.021335577592253685,0.01710982620716095,-0.0006025121547281742,-0.015150627121329308
0.034809183329343796,0.004922529216855764,-0.020425520837306976,0.017014482989907265,-0.0006261672824621201,-0.015415668487548828
0.03632200136780739,0.004758457187563181,-0.020813338458538055,0.01723681204020977,-0.0006028827046975493,-0.015266278758645058
0.03632200136780739,0.004758457187563181,-0.020813338458538055,0.01723681204020977,-0.0006028827046975493,-0.015266278758645058
0.03435574099421501,0.004763342440128326,-0.020826948806643486,0.0177606251090765,-0.000736367714125663,-0.01520194299519062
0.034735389053821564,0.00528190890327096,-0.021790096536278725,0.017805006355047226,-0.0007799885934218764,-0.015869544818997383
0.03577939048409462,0.005050736479461193,-0.021457158029079437,0.0173606239259243,-0.0007675608503632247,-0.015723371878266335
0.03590567782521248,0.004509700462222099,-0.020652562379837036,0.01743730902671814,-0.0007309213397093117,-0.015909267589449883
0.036879390478134155,0.00449721934273839,-0.02099025435745716,0.016710985451936722,-0.0007266064640134573,-0.01560579426586628
0.036488063633441925,0.004594404716044664,-0.021248430013656616,0.017001451924443245,-0.0006793129723519087,-0.015838943421840668
0.035376958549022675,0.005009385757148266,-0.021076438948512077,0.016548356041312218,-0.000698686228133738,-0.01567411608994007
0.0351911261677742,0.004905581474304199,-0.020567478612065315,0.016615383327007294,-0.000731544045265764,-0.016313586384058
0.03648660331964493,0.00496824411675334,-0.0215921588242054,0.016628162935376167,-0.0007521918159909546,-0.014773637987673283
0.03617163375020027,0.004802217707037926,-0.02152232639491558,0.016223503276705742,-0.0007615695940330625,-0.014696085825562477
0.03653601557016373,0.004890872165560722,-0.020547689869999886,0.01687813363969326,-0.00070612458512187,-0.015335210599005222
0.03671926632523537,0.004686624277383089,-0.02085365168750286,0.016965096816420555,-0.0007758805877529085,-0.01590782403945923
0.036018677055835724,0.004907975904643536,-0.021320587024092674,0.01808420568704605,-0.0007967448909766972,-0.016193384304642677
0.036018677055835724,0.004907975904643536,-0.021320587024092674,0.01808420568704605,-0.0007967448909766972,-0.016193384304642677
0.03639611601829529,0.0048687644302845,-0.021002449095249176,0.018075870350003242,-0.0008022798574529588,-0.016177251935005188
0.03665979206562042,0.004945067223161459,-0.02098987065255642,0.0172069501131773,-0.000799563538748771,-0.01628800667822361
0.03605341166257858,0.004740450065582991,-0.021408654749393463,0.017286434769630432,-0.000741204246878624,-0.01628057099878788
0.035907644778490067,0.00466011930257082,-0.021091800183057785,0.016305210068821907,-0.0007408651290461421,-0.016262752935290337
0.036193571984767914,0.004012993071228266,-0.02082800678908825,0.0165595393627882,-0.0007590671884827316,-0.016516905277967453
0.0363093726336956,0.003742567729204893,-0.020683402195572853,0.016997400671243668,-0.0007842494524084032,-0.01675983890891075
0.037116408348083496,0.0038698292337358,-0.02117219567298889,0.017198147252202034,-0.0007976432098075747,-0.016876254230737686
0.036466486752033234,0.004497187677770853,-0.02133612334728241,0.01781260035932064,-0.0008936142548918724,-0.0165256317704916
0.035412367433309555,0.004905978683382273,-0.020876316353678703,0.017703289166092873,-0.0007985209231264889,-0.016234494745731354
0.03644043952226639,0.004507029894739389,-0.02076169289648533,0.01708891987800598,-0.0008072475320659578,-0.016265258193016052
0.035918302834033966,0.004012349992990494,-0.021344318985939026,0.017121216282248497,-0.0007954374887049198,-0.01666693389415741
0.03622157499194145,0.00382339209318161,-0.021478787064552307,0.01739637367427349,-0.0007298634736798704,-0.016837960109114647
0.03782155364751816,0.004049063194543123,-0.020795105025172234,0.01769924722611904,-0.000736093323212117,-0.01687176339328289
0.03626042231917381,0.004052579402923584,-0.020443176850676537,0.017612332478165627,-0.0006962385959923267,-0.017145860940217972
0.03676615655422211,0.004353745374828577,-0.020621158182621002,0.017865389585494995,-0.000747686717659235,-0.01664024591445923
0.03734560310840607,0.004126009531319141,-0.02033287286758423,0.01744001917541027,-0.0007650861516594887,-0.01623915135860443
0.03708069771528244,0.003541809506714344,-0.02056548185646534,0.017262006178498268,-0.0008626055787317455,-0.016383901238441467
0.03675626590847969,0.003440425032749772,-0.021120388060808182,0.017092321068048477,-0.0008536226232536137,-0.01678183488547802
0.036935750395059586,0.004214350134134293,-0.02056693844497204,0.01769767329096794,-0.0008598132408224046,-0.017128970474004745
0.03675369545817375,0.004229177255183458,-0.02035675384104252,0.01809597760438919,-0.0008566218893975019,-0.017431015148758888
0.03720527142286301,0.0038973907940089703,-0.021015450358390808,0.017609156668186188,-0.0008470534230582416,-0.016773181036114693
0.037550389766693115,0.0037143032532185316,-0.021575776860117912,0.018003230914473534,-0.0007809950620867312,-0.01654605194926262
0.03757181391119957,0.0037188937421888113,-0.021627498790621758,0.01797240413725376,-0.0008056367514654994,-0.016698485240340233
0.03747652471065521,0.004281759727746248,-0.02133835479617119,0.018072301521897316,-0.0008512372151017189,-0.016711773350834846
0.037338294088840485,0.004139892756938934,-0.021433982998132706,0.01860111951828003,-0.0008740134653635323,-0.016841590404510498
0.0382319837808609,0.00403963029384613,-0.021558398380875587,0.018481800332665443,-0.0012381364358589053,-0.016797540709376335
0.038039494305849075,0.004034664481878281,-0.020533043891191483,0.01842518337070942,-0.0012655355967581272,-0.0174863263964653
0.038039494305849075,0.004034664481878281,-0.020533043891191483,0.01842518337070942,-0.0012655355967581272,-0.0174863263964653
0.03800123557448387,0.0040640817023813725,-0.02095833420753479,0.01857950910925865,-0.0011692468542605639,-0.01785687729716301
0.03854095935821533,0.0039939843118190765,-0.021772630512714386,0.01741953007876873,-0.0010635902872309089,-0.017612440511584282
0.03838903084397316,0.003897845046594739,-0.021905357018113136,0.017764225602149963,-0.0009546402143314481,-0.017588704824447632
0.03811630979180336,0.00436791218817234,-0.020568182691931725,0.017815565690398216,-0.0008770943968556821,-0.017512822523713112
0.03850456699728966,0.004254326224327087,-0.02135767787694931,0.017607947811484337,-0.0008761381614021957,-0.017566444352269173
0.038888491690158844,0.004040020052343607,-0.02187722735106945,0.01811346411705017,-0.0008226663339883089,-0.017468411475419998
0.038284335285425186,0.003934650216251612,-0.021821169182658195,0.017851322889328003,-0.000827820273116231,-0.017052792012691498
0.0387418158352375,0.004074110649526119,-0.020963197574019432,0.01827474683523178,-0.000816197250969708,-0.01701979711651802
0.03887632489204407,0.004176669288426638,-0.021047335118055344,0.01827189326286316,-0.0009008884080685675,-0.01668163388967514
0.03867487981915474,0.004419247154146433,-0.021184291690587997,0.017656514421105385,-0.0009056677808985114,-0.016965443268418312
0.03933272510766983,0.004072332289069891,-0.0212134700268507,0.018143318593502045,-0.0008540183189325035,-0.01713189296424389
0.03920139744877815,0.004242392256855965,-0.020877838134765625,0.01816839724779129,-0.00091468048049137,-0.01735852286219597
0.03974013775587082,0.004402221646159887,-0.02187461219727993,0.018558520823717117,-0.0008187125204131007,-0.017448974773287773
0.04084628075361252,0.004326522350311279,-0.02106284536421299,0.018613282591104507,-0.0008249005186371505,-0.017594505101442337
0.03983254358172417,0.004428692627698183,-0.021091224625706673,0.018952496349811554,-0.0008261901093646884,-0.017690878361463547
0.0384211502969265,0.004622532520443201,-0.021620552986860275,0.019563429057598114,-0.0007886769017204642,-0.017752211540937424
0.04002408683300018,0.0046593183651566505,-0.021625887602567673,0.01886345073580742,-0.0007083312957547605,-0.017940398305654526
0.04025358706712723,0.004371454939246178,-0.02136930823326111,0.018725447356700897,-0.0007278732373379171,-0.01824505254626274
0.04023277759552002,0.004536663182079792,-0.021597791463136673,0.018302980810403824,-0.0007407381781376898,-0.017880244180560112
0.04191190004348755,0.004582224879413843,-0.02199615351855755,0.017753152176737785,-0.0007207313319668174,-0.018023736774921417
0.03929337114095688,0.004681293852627277,-0.02198910526931286,0.018456637859344482,-0.0006937209982424974,-0.018030080944299698
0.03987520933151245,0.004650583490729332,-0.02125205658376217,0.018826190382242203,-0.0007949273567646742,-0.01810772903263569
0.041201911866664886,0.004701464436948299,-0.021513575688004494,0.018907612189650536,-0.0008219970623031259,-0.018216023221611977
0.04027297720313072,0.004592467099428177,-0.021907750517129898,0.018621183931827545,-0.0007790835225023329,-0.018233591690659523
0.04027492180466652,0.004585088696330786,-0.021834732964634895,0.018618803471326828,-0.0007889167754910886,-0.01823657564818859
0.04034186899662018,0.004591952543705702,-0.021721908822655678,0.01847381331026554,-0.0008868997101671994,-0.01835971139371395
0.04035783186554909,0.0047595626674592495,-0.022420253604650497,0.019577814266085625,-0.0009291577734984457,-0.01835876703262329
0.04073271527886391,0.004533957224339247,-0.02260737307369709,0.01943720132112503,-0.0009367334423586726,-0.01845882646739483
0.04073271527886391,0.004533957224339247,-0.02260737307369709,0.01943720132112503,-0.0009367334423586726,-0.01845882646739483
0.04033397510647774,0.005021295975893736,-0.022732416167855263,0.01828176900744438,-0.0009405398741364479,-0.01769283413887024
0.04041774570941925,0.004926149733364582,-0.02257770113646984,0.01887117698788643,-0.0011187035124748945,-0.01793355494737625
0.04217998683452606,0.004643276799470186,-0.021968267858028412,0.01835421286523342,-0.0011326224775984883,-0.018299313262104988
0.041076432913541794,0.004423981998115778,-0.022054841741919518,0.01806565374135971,-0.0010638452367857099,-0.018526757135987282
0.03946548327803612,0.004699781537055969,-0.022555595263838768,0.01839170791208744,-0.0009806128218770027,-0.018576975911855698
0.0414089672267437,0.004840449430048466,-0.02292144112288952,0.018665574491024017,-0.000909471302293241,-0.018394410610198975
0.04137078672647476,0.004843259695917368,-0.022717541083693504,0.019100932404398918,-0.0008984001469798386,-0.01856761984527111
0.042105987668037415,0.005104214418679476,-0.0221913680434227,0.019109908491373062,-0.0008481180411763489,-0.018644772469997406
0.0419401116669178,0.00486521003767848,-0.02288883924484253,0.018618715927004814,-0.0008514480432495475,-0.018499085679650307
0.03999387100338936,0.004720595199614763,-0.023380815982818604,0.01876397803425789,-0.0008127795299515128,-0.018534880131483078
0.040577635169029236,0.004475243389606476,-0.02298068068921566,0.01871807500720024,-0.0008773898589424789,-0.01883433386683464
0.04216127097606659,0.004710599780082703,-0.022760901600122452,0.01854274794459343,-0.0008843143587000668,-0.018892502412199974
0.04134414345026016,0.0049014585092663765,-0.02304442599415779,0.018959810957312584,-0.0008298368193209171,-0.019187601283192635
0.041469648480415344,0.0047884052619338036,-0.023945661261677742,0.019277090206742287,-0.0008713144925422966,-0.019550975412130356
0.04138018935918808,0.004445221275091171,-0.023366626352071762,0.019507599994540215,-0.000983523903414607,-0.01912446692585945
0.04147409647703171,0.004495472181588411,-0.02241654507815838,0.01958964765071869,-0.0010114525211974978,-0.018659740686416626
0.04150008782744408,0.004704670514911413,-0.022849133238196373,0.01938667707145214,-0.0011901238467544317,-0.018102552741765976
0.04141848161816597,0.0046522594057023525,-0.023598985746502876,0.01959231123328209,-0.0013568820431828499,-0.018884096294641495
0.0416085310280323,0.004864113871008158,-0.023214207962155342,0.01958964392542839,-0.0013096140464767814,-0.01950175128877163
0.04224439337849617,0.0048234425485134125,-0.02355455607175827,0.01993846707046032,-0.0013981466181576252,-0.01980271376669407
0.0420253649353981,0.004735969007015228,-0.023851361125707626,0.02027587592601776,-0.0013135246699675918,-0.019284091889858246
0.04224418103694916,0.004502604249864817,-0.02395830675959587,0.020439298823475838,-0.0012385912705212831,-0.01910156011581421
0.042154401540756226,0.004626076202839613,-0.02296232245862484,0.020023450255393982,-0.0011190789518877864,-0.019293149933218956
0.041943054646253586,0.004745639860630035,-0.023481467738747597,0.01973719336092472,-0.0009745648712851107,-0.020079877227544785
0.04207121208310127,0.004856565501540899,-0.02409764565527439,0.01963682845234871,-0.0009442543960176408,-0.019898034632205963
0.04224289953708649,0.004838865716010332,-0.023337671533226967,0.019678063690662384,-0.0009363060817122459,-0.019007723778486252
0.04224289953708649,0.004838865716010332,-0.023337671533226967,0.019678063690662384,-0.0009363060817122459,-0.019007723778486252
0.042407214641571045,0.0051266043446958065,-0.023305557668209076,0.01928802765905857,-0.0009159313049167395,-0.01875065267086029
0.042895957827568054,0.004469398874789476,-0.024066030979156494,0.019391849637031555,-0.0008366816327907145,-0.019094420596957207
0.04297071322798729,0.004488902632147074,-0.02414281852543354,0.019456934183835983,-0.0007818641024641693,-0.019368620589375496
0.04320358857512474,0.005179184954613447,-0.02404371276497841,0.019238337874412537,-0.0007891224231570959,-0.021011266857385635
0.04402255639433861,0.004956990946084261,-0.023817772045731544,0.020066723227500916,-0.0008028872543945909,-0.019326459616422653
0.042403340339660645,0.00493073184043169,-0.024099480360746384,0.020210960879921913,-0.0007746981573291123,-0.01919599249958992
0.04273318126797676,0.005237247794866562,-0.023665031418204308,0.01968836598098278,-0.0007403863128274679,-0.019367344677448273
0.042870983481407166,0.004873672500252724,-0.02387329190969467,0.019873663783073425,-0.0008515702211298048,-0.020026948302984238
0.04308309778571129,0.004878227598965168,-0.02406691573560238,0.020334329456090927,-0.0009070446249097586,-0.019872495904564857
0.044483643025159836,0.004667408298701048,-0.02424190379679203,0.02029256336390972,-0.0009094145498238504,-0.019777335226535797
0.042796362191438675,0.004948799032717943,-0.024391861632466316,0.020313087850809097,-0.0011019028024747968,-0.02001422643661499
0.042212314903736115,0.005456943530589342,-0.024389609694480896,0.020606594160199165,-0.0012314129853621125,-0.01957271806895733
0.04332743585109711,0.005354469176381826,-0.024417461827397346,0.02017589658498764,-0.001224118866957724,-0.019595777615904808
0.043748024851083755,0.005246459972113371,-0.024101238697767258,0.01949334144592285,-0.0011657248251140118,-0.01995898224413395
0.04380271956324577,0.004848598036915064,-0.024561211466789246,0.02024434320628643,-0.0010606112191453576,-0.02028297632932663
0.04255787655711174,0.005200701300054789,-0.024710001423954964,0.02060876414179802,-0.0010332433739677072,-0.02073933742940426
0.044291358441114426,0.005184730514883995,-0.02467764914035797,0.02075769193470478,-0.0010045908857136965,-0.020909594371914864
0.04446776211261749,0.005048493389040232,-0.02456006407737732,0.020656747743487358,-0.0009980309987440705,-0.020527033135294914
0.04398589953780174,0.004996472503989935,-0.024348005652427673,0.020764922723174095,-0.000983038218691945,-0.020551089197397232
0.044240497052669525,0.004888341762125492,-0.024170542135834694,0.019969996064901352,-0.00088005285942927,-0.02040329948067665
0.044169992208480835,0.004272568505257368,-0.024416452273726463,0.020842764526605606,-0.0008763203513808548,-0.020405681803822517
0.04364698752760887,0.003959568217396736,-0.024657361209392548,0.021129706874489784,-0.000871327705681324,-0.020445728674530983
0.045114997774362564,0.004218642134219408,-0.02485346980392933,0.020595910027623177,-0.0009536427678540349,-0.02048969455063343
0.04501746967434883,0.00498088588938117,-0.024921266362071037,0.020728176459670067,-0.0009513210970908403,-0.020226256921887398
0.04274153336882591,0.004998271353542805,-0.024504316970705986,0.02124209888279438,-0.0010434883879497647,-0.020329881459474564
0.04447532072663307,0.004398247227072716,-0.024680163711309433,0.02106441557407379,-0.0011127719189971685,-0.020385604351758957
0.045090433210134506,0.004264050628989935,-0.024463361129164696,0.020633315667510033,-0.0010814274428412318,-0.0203358493745327
0.045090433210134506,0.004264050628989935,-0.024463361129164696,0.020633315667510033,-0.0010814274428412318,-0.0203358493745327
0.04518745094537735,0.00487700616940856,-0.024755097925662994,0.019857412204146385,-0.0009454464889131486,-0.020539594814181328
0.04518745094537735,0.00487700616940856,-0.024755097925662994,0.019857412204146385,-0.0009454464889131486,-0.020539594814181328
0.04339245706796646,0.005088246893137693,-0.02535180002450943,0.02021363191306591,-0.000872169912327081,-0.020434407517313957
0.045072294771671295,0.004845036659389734,-0.025617685168981552,0.020763978362083435,-0.0008666067733429372,-0.02033180370926857
0.045537687838077545,0.004692201968282461,-0.02533211186528206,0.02157953381538391,-0.0008793430170044303,-0.020479587838053703
0.04488521069288254,0.004283403046429157,-0.02443215809762478,0.02137223817408085,-0.0008823413518257439,-0.02032284066081047
