davideferrari95/blind_handover_controller/data/Test 35 - [2024-02-07 -- 14-47-56]/joint_states_data.csv
shoulder_pan_joint,shoulder_lift_joint,elbow_joint,wrist_1_joint,wrist_2_joint,wrist_3_joint
0.009307047352194786,-0.008871832862496376,-0.013857666403055191,0.01740969903767109,0.0008368657436221838,0.008719831705093384
0.009307047352194786,-0.008871832862496376,-0.013857666403055191,0.01740969903767109,0.0008368657436221838,0.008719831705093384
0.009628741070628166,-0.008510603569447994,-0.01361133810132742,0.017873898148536682,0.0008368561393581331,0.008905649185180664
0.009628741070628166,-0.008510603569447994,-0.01361133810132742,0.017873898148536682,0.0008368561393581331,0.008905649185180664
0.009715529158711433,-0.008931450545787811,-0.013332839123904705,0.02011760137975216,0.0006447702180594206,0.008839080110192299
0.009681032039225101,-0.008443249389529228,-0.01366455014795065,0.018162839114665985,0.0006584131042473018,0.008665809407830238
0.009514419361948967,-0.008098645135760307,-0.013227858580648899,0.017698461189866066,0.0006061731837689877,0.00855245441198349
0.009395991452038288,-0.00834611989557743,-0.013629011809825897,0.017913103103637695,0.0005535832606256008,0.008914677426218987
0.009106606245040894,-0.008030644617974758,-0.012330780737102032,0.01883014850318432,0.0005622058524750173,0.008905609138309956
0.009322564117610455,-0.00789455696940422,-0.012825884856283665,0.018381167203187943,0.0005368055426515639,0.008825828321278095
0.009143274277448654,-0.008095089346170425,-0.012729767709970474,0.018374549224972725,0.0005008445004932582,0.008547576144337654
0.009968206286430359,-0.008521012030541897,-0.013418540358543396,0.01846979185938835,0.0003941104223486036,0.00859504658728838
0.009269502013921738,-0.008482415229082108,-0.01300038956105709,0.018252382054924965,0.00042033594218082726,0.008369823917746544
0.009456649422645569,-0.007651699706912041,-0.013138390146195889,0.018679369240999222,0.00044626882299780846,0.008269180543720722
0.008975994773209095,-0.007960435003042221,-0.012965202331542969,0.018899278715252876,0.0004614003701135516,0.008745835162699223
0.009468337520956993,-0.008182086981832981,-0.012383053079247475,0.01866042986512184,0.0004626403097063303,0.008501085452735424
0.009266616776585579,-0.008335270918905735,-0.013001827523112297,0.019284212961792946,0.0007526029366999865,0.00875123217701912
0.00900888442993164,-0.007802741136401892,-0.01255179662257433,0.018817324191331863,0.0007887915708124638,0.008662604726850986
0.008831126615405083,-0.008058189414441586,-0.013628390617668629,0.01837274804711342,0.000696539122145623,0.008576111868023872
0.009539047256112099,-0.00821891613304615,-0.012963708490133286,0.018605923280119896,0.0007057285984046757,0.00930474791675806
0.008754299022257328,-0.00790337286889553,-0.013056481257081032,0.01867370866239071,0.0006453411770053208,0.008748975582420826
0.008754299022257328,-0.00790337286889553,-0.013056481257081032,0.01867370866239071,0.0006453411770053208,0.008748975582420826
0.009725145995616913,-0.007903411984443665,-0.012864014133810997,0.018508749082684517,0.0005860270466655493,0.009124323725700378
0.008273626677691936,-0.008390367962419987,-0.012950852513313293,0.018062973394989967,0.0004940645303577185,0.009262200444936752
0.008273626677691936,-0.008390367962419987,-0.012950852513313293,0.018062973394989967,0.0004940645303577185,0.009262200444936752
0.008505422621965408,-0.0077016702853143215,-0.012800676748156548,0.017979145050048828,0.0004898544866591692,0.009078744798898697
0.009191116318106651,-0.00762789836153388,-0.013307490386068821,0.018080083653330803,0.0004858383326791227,0.008730671368539333
0.008968248032033443,-0.008093641139566898,-0.01264613214880228,0.01744799315929413,0.0004568988224491477,0.008838888257741928
0.008816731162369251,-0.007611965294927359,-0.013169094920158386,0.017798222601413727,0.0003911167150363326,0.008817095309495926
0.009020286612212658,-0.00546660739928484,-0.01360994391143322,0.01769397221505642,0.0003240843943785876,0.008659804239869118
0.008404861204326153,-0.006081224884837866,-0.012964865192770958,0.018247168511152267,0.0003544823848642409,0.008673379197716713
0.009172012098133564,-0.00680685555562377,-0.012923702597618103,0.01836593635380268,0.0003393246734049171,0.009045816026628017
0.008827712386846542,-0.006284764036536217,-0.012508602812886238,0.018716806545853615,0.00036577711580321193,0.009353485889732838
0.008810735307633877,-0.006427939515560865,-0.012754537165164948,0.01876370795071125,0.000351684691850096,0.00926181674003601
0.009188378229737282,-0.006582560949027538,-0.013421495445072651,0.018454644829034805,0.0003686139243654907,0.009058558382093906
0.008817889727652073,-0.00640490697696805,-0.013169368728995323,0.018635345622897148,0.0003611630527302623,0.00942722987383604
0.008747205138206482,-0.006395384203642607,-0.013634811155498028,0.01879114843904972,0.0004423689970280975,0.009183552116155624
0.008505976758897305,-0.0059693194925785065,-0.012444226071238518,0.018253766000270844,0.00043306167935952544,0.009393591433763504
0.00890468992292881,-0.0059994966723024845,-0.012954575009644032,0.01873789355158806,0.00039700765046291053,0.009224798530340195
0.009072942659258842,-0.006240553222596645,-0.01230489183217287,0.018956009298563004,0.0004327254428062588,0.00914605613797903
0.008157650008797646,-0.006626426707953215,-0.013215143233537674,0.018487529829144478,0.00040470625390298665,0.00855460949242115
0.00869669858366251,-0.0066480254754424095,-0.013022101484239101,0.018854722380638123,0.0004351293609943241,0.008627315983176231
0.009057695977389812,-0.006109572481364012,-0.013096186332404613,0.018632259219884872,0.00041058502392843366,0.00897178053855896
0.008472402580082417,-0.006175068207085133,-0.012939023785293102,0.018275629729032516,0.0004333257384132594,0.00962606631219387
0.008252792060375214,-0.006465967744588852,-0.01216618251055479,0.018390053883194923,0.00041487577254883945,0.0087087731808424
0.009149827994406223,-0.006394258700311184,-0.012541206553578377,0.018397293984889984,0.0004718319105450064,0.008709283545613289
0.008370772004127502,-0.006029915530234575,-0.012367628514766693,0.018802467733621597,0.0004386237123981118,0.009204738773405552
0.00794764794409275,-0.006074158474802971,-0.013123251497745514,0.019334616139531136,0.00045906283776275814,0.009518139064311981
0.00883709080517292,-0.0060663665644824505,-0.01241130568087101,0.01852509379386902,0.0004398429882712662,0.009525395929813385
0.00883709080517292,-0.0060663665644824505,-0.01241130568087101,0.01852509379386902,0.0004398429882712662,0.009525395929813385
0.008671168237924576,-0.0062770419754087925,-0.013256458565592766,0.017955278977751732,0.00045772059820592403,0.008739770390093327
0.008242711424827576,-0.006246368866413832,-0.012712111696600914,0.01865503564476967,0.0004412392736412585,0.008967292495071888
0.008216421119868755,-0.00574007723480463,-0.012389590963721275,0.01758868806064129,0.00041329904343001544,0.008867600001394749
0.009108118712902069,-0.005673177540302277,-0.012451142072677612,0.017715925350785255,0.00043946408550255,0.008972578682005405
0.008619409054517746,-0.005970601458102465,-0.01201037410646677,0.018153930082917213,0.00041734767728485167,0.009060369804501534
0.008511521853506565,-0.0066696228459477425,-0.012461556121706963,0.018590273335576057,0.0004230864578858018,0.009384200908243656
0.008610452525317669,-0.005984319373965263,-0.01326478086411953,0.018156129866838455,0.00044466156396083534,0.009672659449279308
0.008539062924683094,-0.006252775900065899,-0.013418705202639103,0.01834099367260933,0.00042714335722848773,0.009590896777808666
0.008378231897950172,-0.006680332589894533,-0.013281424529850483,0.019275786355137825,0.0003968880046159029,0.009283469058573246
0.008450685068964958,-0.007078683003783226,-0.012627261690795422,0.01900731399655342,0.000427075254265219,0.009039522148668766
0.008679029531776905,-0.006323358975350857,-0.012662953697144985,0.01854674145579338,0.0004034564190078527,0.009167224168777466
0.008429527282714844,-0.006095436401665211,-0.013010025955736637,0.01829513907432556,0.00037939331377856433,0.009111052379012108
0.008707930333912373,-0.006872551050037146,-0.012503216043114662,0.017528126016259193,0.00035784943611361086,0.00925217755138874
0.00900162011384964,-0.0071729435585439205,-0.013743436895310879,0.017986267805099487,0.0003836433752439916,0.009528689086437225
0.008899835869669914,-0.007018546108156443,-0.012782763689756393,0.018528489395976067,0.0003670192963909358,0.009154774248600006
0.009465567767620087,-0.006763185374438763,-0.013204721733927727,0.018437594175338745,0.00034939515171572566,0.008803036995232105
0.009394165128469467,-0.006456817500293255,-0.012979237362742424,0.01909950003027916,0.0003462973400019109,0.009661267511546612
0.009036332368850708,-0.006581121124327183,-0.01336079090833664,0.018742181360721588,0.00033429681207053363,0.009029208682477474
0.008977511897683144,-0.006883411668241024,-0.012971043586730957,0.01831807941198349,0.0003120051114819944,0.009072749875485897
0.009259644895792007,-0.00698329322040081,-0.012713732197880745,0.018387867137789726,0.00029181866557337344,0.009082609787583351
0.00942118652164936,-0.006813100539147854,-0.013109183870255947,0.01805688627064228,0.0003250391746405512,0.009072491899132729
0.009887585416436195,-0.007781013380736113,-0.012924997135996819,0.01820240542292595,0.00030971673550084233,0.008943907916545868
0.009186987765133381,-0.006743457168340683,-0.013266796246170998,0.018369995057582855,0.0003353928914293647,0.00911558698862791
0.009456297382712364,-0.006235724780708551,-0.0128795700147748,0.018072908744215965,0.0003239423967897892,0.008922809734940529
0.009307904168963432,-0.006497240159660578,-0.012948551215231419,0.018570493906736374,0.0003084572381339967,0.008706108666956425
0.009197589010000229,-0.007251131813973188,-0.012495720759034157,0.01878901943564415,0.0002940791309811175,0.008917930535972118
0.009208731353282928,-0.006817696150392294,-0.013180569745600224,0.01848597079515457,0.00031573569867759943,0.009304032661020756
0.009208731353282928,-0.006817696150392294,-0.013180569745600224,0.01848597079515457,0.00031573569867759943,0.009304032661020756
0.009110840037465096,-0.006389842368662357,-0.013349740765988827,0.01797839254140854,0.00030703810625709593,0.009288017638027668
0.009530619718134403,-0.006541064474731684,-0.01314488984644413,0.01784927397966385,0.0002947770117316395,0.008829670026898384
0.009453995153307915,-0.006566674914211035,-0.012898958288133144,0.018158582970499992,0.00031148045673035085,0.009400887414813042
0.008996518328785896,-0.007380713243037462,-0.01299876905977726,0.018534613773226738,0.00031707657035440207,0.00942700169980526
0.010071289725601673,-0.00676328781992197,-0.01231225673109293,0.018214315176010132,0.0002794913307297975,0.009279759600758553
0.00878811813890934,-0.0063503943383693695,-0.013034331612288952,0.018288182094693184,0.00030192179838195443,0.009067107923328876
0.00924118421971798,-0.006875005085021257,-0.012854905799031258,0.01792762614786625,0.0002974190574605018,0.008981880731880665
0.009239616803824902,-0.00691110547631979,-0.013421289622783661,0.01819843053817749,0.00028264158754609525,0.009153212420642376
0.009807547554373741,-0.007415121886879206,-0.012789641506969929,0.018002871423959732,0.00026862899539992213,0.009221071377396584
0.00924733467400074,-0.0066303168423473835,-0.013549868017435074,0.018067393451929092,0.0002873836492653936,0.009438005276024342
0.009539507329463959,-0.006474221125245094,-0.012737203389406204,0.018747491762042046,0.0002843085094355047,0.009301851503551006
0.009354421868920326,-0.006794967222958803,-0.013014174066483974,0.018601376563310623,0.00027264843811281025,0.009296775795519352
0.009294804185628891,-0.006636197213083506,-0.012876993045210838,0.018548041582107544,0.00026137736858800054,0.00914002489298582
0.00936188455671072,-0.006390917580574751,-0.01277955062687397,0.01846885308623314,0.0002509660553187132,0.009197072125971317
0.009172090329229832,-0.006099787075072527,-0.013195648789405823,0.018162770196795464,0.000258229294558987,0.009295398369431496
0.008837131783366203,-0.006758697330951691,-0.012249095365405083,0.01993347890675068,0.00026450035511516035,0.009010056033730507
0.009401381947100163,-0.006980189122259617,-0.01299362163990736,0.018817301839590073,0.00025612139143049717,0.009059137664735317
0.009398517198860645,-0.006708294618874788,-0.012276801280677319,0.018335189670324326,0.00024738660431466997,0.00926629826426506
0.009113902226090431,-0.006141419988125563,-0.01278173178434372,0.01841483637690544,0.00023917260114103556,0.009022395126521587
0.009675228036940098,-0.006353949196636677,-0.012773482128977776,0.018107403069734573,0.0002314820740139112,0.009037603624165058
0.009549581445753574,-0.006839932408183813,-0.012663270346820354,0.01772826537489891,0.00022427173098549247,0.009083217941224575
0.0090003227815032,-0.007367331068962812,-0.012881367467343807,0.018349861726164818,0.0002174957626266405,0.009322777390480042
0.009434186853468418,-0.007033882196992636,-0.012498894706368446,0.018346920609474182,0.00021111792011652142,0.009910361841320992
0.009625508449971676,-0.006297336891293526,-0.012904415838420391,0.01842581480741501,0.0002033416531048715,0.009382469579577446
0.009625508449971676,-0.006297336891293526,-0.012904415838420391,0.01842581480741501,0.0002033416531048715,0.009382469579577446
0.009348510764539242,-0.006575427483767271,-0.01232708990573883,0.018941013142466545,0.00019457841699477285,0.009489594958722591
0.009383668191730976,-0.00694336649030447,-0.012690287083387375,0.01884506270289421,0.00018651355640031397,0.009455259889364243
0.009286636486649513,-0.006918291561305523,-0.012713137082755566,0.01836162433028221,0.00017908980953507125,0.010343440808355808
0.00931669119745493,-0.006352802272886038,-0.013082010671496391,0.01844494417309761,0.00017223370377905667,0.009312686510384083
0.008959570899605751,-0.006399085745215416,-0.01286572776734829,0.018258702009916306,0.00016588388825766742,0.00863309670239687
0.009106462821364403,-0.006136226002126932,-0.012679796665906906,0.018189750611782074,0.00015449177590198815,0.009855318814516068
0.008930843323469162,-0.0061976294964551926,-0.01189352571964264,0.018034182488918304,0.00014936346269678324,0.009696903638541698
0.009391873143613338,-0.006246039178222418,-0.01272503100335598,0.018839355558156967,0.0001715267135296017,0.009346899576485157
0.009573034942150116,-0.005969759076833725,-0.01222222764045,0.018895544111728668,0.0001679499982856214,0.00999599602073431
0.008963451720774174,-0.006380182690918446,-0.01276109367609024,0.018340306356549263,0.00016299495473504066,0.00926937535405159
0.009442324750125408,-0.0066800666972994804,-0.01235890481621027,0.018316728994250298,0.00015822627756278962,0.00944406446069479
0.009209350682795048,-0.006190039217472076,-0.01229854580014944,0.017843695357441902,0.00015372187772300094,0.009649282321333885
0.009239147417247295,-0.0057509830221533775,-0.012722864747047424,0.01818353682756424,0.0001494671596447006,0.009281530044972897
0.009487882256507874,-0.0056797112338244915,-0.011877856217324734,0.018169723451137543,0.00014544103760272264,0.00926100742071867
0.00928402692079544,-0.006276583299040794,-0.012929421849548817,0.017665740102529526,0.00015322004037443548,0.009349357336759567
0.008981889113783836,-0.005954613909125328,-0.012251554057002068,0.018445415422320366,0.00016022346972022206,0.009237953461706638
0.009134861640632153,-0.005926069803535938,-0.01273849792778492,0.018327416852116585,0.00015694391913712025,0.009350033476948738
0.009898297488689423,-0.005844039376825094,-0.011862330138683319,0.017404090613126755,0.00015317450743168592,0.009825150482356548
0.009539327584207058,-0.005642869044095278,-0.011654840782284737,0.01772470958530903,0.0001495412871008739,0.009635289199650288
0.009610366076231003,-0.005663926713168621,-0.011874597519636154,0.01773774065077305,0.00014607403136324137,0.00949371699243784
0.00952144619077444,-0.005862196907401085,-0.011515088379383087,0.018778368830680847,0.00014276395086199045,0.010120724327862263
0.009068910032510757,-0.006116325501352549,-0.012249470688402653,0.018855052068829536,0.00013960030628368258,0.009749793447554111
0.00913969799876213,-0.006218048743903637,-0.011961397714912891,0.018106799572706223,0.00013657391536980867,0.009542570449411869
0.00913969799876213,-0.006218048743903637,-0.011961397714912891,0.018106799572706223,0.00013657391536980867,0.009542570449411869
0.009800969623029232,-0.005651482380926609,-0.01200679037719965,0.018357615917921066,0.00014784029917791486,0.009282132610678673
0.00912746973335743,-0.006404425948858261,-0.01205236092209816,0.017858630046248436,0.00014927620941307396,0.009254083037376404
0.009498445317149162,-0.006888880394399166,-0.011733364313840866,0.017894715070724487,0.00014653200923930854,0.00991748832166195
0.009789553470909595,-0.006035784725099802,-0.012170618399977684,0.018446646630764008,0.00014362813089974225,0.009979791007936
0.009568492881953716,-0.005784306209534407,-0.01162730436772108,0.01876913011074066,0.00014082019333727658,0.009819453582167625
0.009008223190903664,-0.005937526933848858,-0.012283503077924252,0.01883726753294468,0.000138118804898113,0.009826740249991417
0.00945942010730505,-0.00617065979167819,-0.012450656853616238,0.019118141382932663,0.00013551903248298913,0.010743738152086735
0.010248273611068726,-0.005976465530693531,-0.012280682101845741,0.019786672666668892,0.0001306026242673397,0.009677856229245663
0.010213790461421013,-0.005659850314259529,-0.011770591139793396,0.018956443294882774,0.00012827583122998476,0.01017792522907257
0.010041567496955395,-0.005687174387276173,-0.012528596445918083,0.0179889015853405,0.00012603038339875638,0.009762817062437534
0.010214392095804214,-0.006251438986510038,-0.01268672663718462,0.018100207671523094,0.00012386226444505155,0.00946785043925047
0.010186752304434776,-0.006361519917845726,-0.01258703414350748,0.01794617623090744,0.00012176737800473347,0.009750303812325
0.010730259120464325,-0.005703000817447901,-0.012466253712773323,0.0177370123565197,0.00011974234803346917,0.00970609299838543
0.0101527851074934,-0.00579188484698534,-0.01242839451879263,0.018521016463637352,0.00011778336192946881,0.009885458275675774
0.010220350697636604,-0.0055291540920734406,-0.012770726345479488,0.018808458000421524,0.00011588777124416083,0.010437840595841408
0.010196181014180183,-0.006384082138538361,-0.011164028197526932,0.018542712554335594,0.00011405201075831428,0.00979921966791153
0.011555478908121586,-0.005847817752510309,-0.013520590960979462,0.018834372982382774,0.00011227346112718806,0.009265909902751446
0.009956128895282745,-0.005801125429570675,-0.012757888063788414,0.018425682559609413,0.00011054960486944765,0.009819435887038708
0.009529833681881428,-0.005374159663915634,-0.012856506742537022,0.01838134042918682,0.00010887787357205525,0.010275769047439098
0.010172132402658463,-0.005324321333318949,-0.012260807678103447,0.019197577610611916,0.00010725601168815047,0.009907955303788185
0.01060139574110508,-0.005586883053183556,-0.012976199388504028,0.0189870223402977,0.00010568169091129676,0.01009642519056797
0.010674816556274891,-0.006007094401866198,-0.013263322412967682,0.018463803455233574,0.00010415291762910783,0.009850976057350636
0.01123177632689476,-0.006396505981683731,-0.012494121678173542,0.01844533160328865,0.00010266782192047685,0.009655006229877472
0.010509383864700794,-0.005618321243673563,-0.012929677963256836,0.01797732710838318,0.00010122438834514469,0.010361025109887123
0.009966066107153893,-0.0059684705920517445,-0.012561351992189884,0.01817406341433525,9.982101619243622e-05,0.010104493238031864
0.010457157157361507,-0.005563145037740469,-0.012983780354261398,0.018382640555500984,9.845607564784586e-05,0.009570244699716568
0.010395141318440437,-0.00594097888097167,-0.012510854750871658,0.017644185572862625,9.712790051707998e-05,0.009619162417948246
0.010395141318440437,-0.00594097888097167,-0.012510854750871658,0.017644185572862625,9.712790051707998e-05,0.009619162417948246
0.01026851125061512,-0.005823493003845215,-0.012707129120826721,0.01777331717312336,9.583515929989517e-05,0.009905192069709301
0.009992580860853195,-0.005650644656270742,-0.012439901009202003,0.017471162602305412,9.457628766540438e-05,0.010545456781983376
0.010450157336890697,-0.005427825730293989,-0.012450747191905975,0.017665166407823563,9.335009235655889e-05,0.010305823758244514
0.010142412967979908,-0.005666438955813646,-0.012929786927998066,0.01823810115456581,9.215527097694576e-05,0.009720396250486374
0.010511613450944424,-0.005615378264337778,-0.012362761422991753,0.0183444581925869,9.099063754547387e-05,0.010604551061987877
0.01056655589491129,-0.005618699826300144,-0.012371333315968513,0.01854722574353218,8.874759078025818e-05,0.009205793030560017
0.010751467198133469,-0.0054306043311953545,-0.012897677719593048,0.017541583627462387,8.766701648710296e-05,0.009394642896950245
0.011027553118765354,-0.0051934546791017056,-0.01259576715528965,0.017375780269503593,8.661242463858798e-05,0.010135455057024956
0.010464075952768326,-0.005715026520192623,-0.012772869318723679,0.01685504987835884,8.558292029192671e-05,0.01026003435254097
0.010668681003153324,-0.005647228565067053,-0.013161024078726768,0.01721314713358879,8.45776085043326e-05,0.010124355554580688
0.01056445948779583,-0.005674225278198719,-0.01239113137125969,0.018005523830652237,8.359564526472241e-05,0.00984252244234085
0.010766365565359592,-0.0051336088217794895,-0.012926261872053146,0.017911667004227638,8.263622294180095e-05,0.009652292355895042
0.01022891141474247,-0.004876410588622093,-0.012195929884910583,0.017866579815745354,8.169851207640022e-05,0.009947226382791996
0.010670936666429043,-0.005637753754854202,-0.012918926775455475,0.01789613999426365,8.078192331595346e-05,0.009981178678572178
0.010808506049215794,-0.005840112455189228,-0.012170002795755863,0.01792600192129612,7.988566358108073e-05,0.010118644684553146
0.01004443783313036,-0.005701946560293436,-0.012692010961472988,0.01843208447098732,2.0300130927353166e-05,0.010303129442036152
0.010648868978023529,-0.005099219270050526,-0.012590528465807438,0.018246112391352654,1.3254532404971542e-06,0.010634729638695717
0.011192713864147663,-0.004976870492100716,-0.012411239556968212,0.018268825486302376,8.654262728668982e-08,0.0102439159527421
0.010190765373408794,-0.0050353542901575565,-0.01245053205639124,0.01855107769370079,5.650615086949529e-09,0.010467538610100746
0.010524140670895576,-0.005814429372549057,-0.01239220891147852,0.017331469804048538,3.6894479138460667e-10,0.010951823554933071
0.010735481046140194,-0.0053998976945877075,-0.012870164588093758,0.018053114414215088,2.408945785903338e-11,0.010294054634869099
0.010608305223286152,-0.005417738109827042,-0.01216849498450756,0.017313184216618538,1.5728695472796983e-12,0.010259341448545456
0.010871662758290768,-0.0054571605287492275,-0.012728513218462467,0.016951605677604675,1.0269714088460488e-13,0.010224568657577038
0.010491307824850082,-0.004948610905557871,-0.012383334338665009,0.01762164570391178,6.705388943205846e-15,0.010174443945288658
0.010341322980821133,-0.00551950978115201,-0.012986921705305576,0.017460504546761513,4.3781396626032913e-16,0.010056894272565842
0.010341322980821133,-0.00551950978115201,-0.012986921705305576,0.017460504546761513,4.3781396626032913e-16,0.010056894272565842
0.010795505717396736,-0.00537419319152832,-0.012606593780219555,0.017838094383478165,2.8586121198913807e-17,0.010519358329474926
0.01036101020872593,-0.005277284886687994,-0.01207217387855053,0.01798636093735695,1.8664695661138935e-18,0.010111788287758827
0.010912732221186161,-0.005282130558043718,-0.012810577638447285,0.01774919591844082,1.2186712378015388e-19,0.010305083356797695
0.011085662059485912,-0.004893455654382706,-0.012602773495018482,0.0175526961684227,7.957051785550346e-21,0.010331524536013603
0.01074946764856577,-0.005408690311014652,-0.012554802931845188,0.017727933824062347,3.3922158039650647e-23,0.010383839718997478
0.010929279029369354,-0.005166695918887854,-0.012717274948954582,0.017773117870092392,2.214874508397267e-24,0.010533620603382587
0.01049739494919777,-0.005142551846802235,-0.012575331144034863,0.017193064093589783,1.4461546025931317e-25,0.01004599966108799
0.010674879886209965,-0.004964423831552267,-0.01215989887714386,0.017401834949851036,9.44235688670441e-27,0.010149677284061909
0.010795404203236103,-0.0047770156525075436,-0.0126464469358325,0.017096221446990967,6.165183900720395e-28,0.010520083829760551
0.010590587742626667,-0.004943320993334055,-0.012383347377181053,0.01760098524391651,4.0254246953626494e-29,0.009904335252940655
0.010857163928449154,-0.005368758458644152,-0.012775113806128502,0.01758766360580921,2.6283149023933956e-30,0.010185900144279003
0.010372514836490154,-0.005575845018029213,-0.01222908217459917,0.017396094277501106,1.7161017342273208e-31,0.010360008105635643
0.010863839648663998,-0.0051675173453986645,-0.012920022010803223,0.017974359914660454,1.1204917946529619e-32,0.010437028482556343
0.010616954416036606,-0.005162415094673634,-0.012665076181292534,0.017811160534620285,7.31601097575654e-34,0.010388955473899841
0.01017345767468214,-0.004977615550160408,-0.012843550182878971,0.017632296308875084,4.7768319422356777e-35,0.010499191470444202
0.010850857011973858,-0.00494432682171464,-0.012502013705670834,0.01776190847158432,3.118929676151938e-36,0.011134003289043903
0.010755003429949284,-0.005110073834657669,-0.012051917612552643,0.01745808869600296,2.0364384506304433e-37,0.010620256885886192
0.010925844311714172,-0.005251926835626364,-0.013158741407096386,0.01781519316136837,1.3296488126752713e-38,0.010531331412494183
0.011569157242774963,-0.004891957156360149,-0.012952583841979504,0.01772444136440754,8.681660557816545e-40,0.010835448279976845
0.010592260397970676,-0.0049020289443433285,-0.013024099171161652,0.017378386110067368,5.66853254788675e-41,0.010317306965589523
0.010613614693284035,-0.004724742844700813,-0.012440602295100689,0.018003543838858604,3.700829244281842e-42,0.010082353837788105
0.010492575354874134,-0.004867612849920988,-0.012799263000488281,0.017591720446944237,2.4102333586386854e-43,0.010408065281808376
0.010400044731795788,-0.004934725351631641,-0.01259004045277834,0.01787726767361164,1.5414283107572988e-44,0.010832048952579498
0.010588545352220535,-0.005148915573954582,-0.0126554686576128,0.018097689375281334,1.401298464324817e-45,0.010323545895516872
0.010476487688720226,-0.00488249072805047,-0.012941946275532246,0.017554087564349174,0.0,0.010160915553569794
0.010381655767560005,-0.00464576855301857,-0.012359884567558765,0.017826030030846596,0.0,0.010163586586713791
0.0108243552967906,-0.0044874041341245174,-0.013019672594964504,0.017698369920253754,0.0,0.010231207124888897
0.0108243552967906,-0.0044874041341245174,-0.013019672594964504,0.017698369920253754,0.0,0.010231207124888897
0.01096523366868496,-0.004659771919250488,-0.012299028225243092,0.0173856932669878,0.0,0.011045346967875957
0.011171757243573666,-0.0047333724796772,-0.012539434246718884,0.017911380156874657,0.0,0.010596733540296555
0.0111357681453228,-0.005395979154855013,-0.013015936128795147,0.01761670783162117,0.0,0.010313255712389946
0.011256389319896698,-0.004747121594846249,-0.012991941533982754,0.017803465947508812,0.0,0.010946366004645824
0.011623188853263855,-0.004529215395450592,-0.012878078036010265,0.017355291172862053,0.0,0.01136960368603468
0.010888765566051006,-0.004968354012817144,-0.013393647968769073,0.017806945368647575,0.0,0.01113459188491106
0.011271198280155659,-0.004947300534695387,-0.012444576248526573,0.01757901906967163,0.0,0.010859507136046886
0.010835736989974976,-0.004839600529521704,-0.013361193239688873,0.01757827214896679,0.0,0.010889595374464989
0.010693143121898174,-0.004926783964037895,-0.012899806722998619,0.01784551702439785,0.0,0.01086504478007555
0.011812890879809856,-0.00515133747830987,-0.01298297755420208,0.016170812770724297,0.0,0.010934901423752308
0.01070700865238905,-0.0045853485353291035,-0.012844509445130825,0.016330527141690254,0.0,0.011139283888041973
0.011551500298082829,-0.0045570023357868195,-0.012836473062634468,0.01605363003909588,0.0,0.011011562310159206
0.011202733032405376,-0.005123577546328306,-0.013244720175862312,0.016916850581765175,0.0,0.010813983157277107
0.010742444545030594,-0.005035375244915485,-0.013227798044681549,0.01746787130832672,0.0,0.010685882531106472
0.011767562478780746,-0.004904128611087799,-0.013488722033798695,0.017703818157315254,0.0,0.010776461102068424
0.011222045868635178,-0.00523179629817605,-0.01324734091758728,0.01830172725021839,0.0,0.01108512282371521
0.011625688523054123,-0.004914809484034777,-0.013310026377439499,0.01794959232211113,0.0,0.011092313565313816
0.011534515768289566,-0.004564863163977861,-0.012816076166927814,0.018191594630479813,0.0,0.011141135357320309
0.010990939103066921,-0.004966074135154486,-0.013705292716622353,0.017915943637490273,0.0,0.011344623751938343
0.011481726542115211,-0.005086835473775864,-0.013264584355056286,0.017711035907268524,0.0,0.010998454876244068
0.011147759854793549,-0.0048940135166049,-0.013952278532087803,0.018073154613375664,0.0,0.01156711857765913
0.012169505469501019,-0.004776091314852238,-0.013785573653876781,0.01759856939315796,0.0,0.01109282299876213
0.011867261491715908,-0.0046372427605092525,-0.014087996445596218,0.01742599718272686,0.0,0.01078247930854559
0.011321963742375374,-0.004591567441821098,-0.01357064489275217,0.01712900772690773,0.0,0.011522479355335236
0.011321963742375374,-0.004591567441821098,-0.01357064489275217,0.01712900772690773,0.0,0.011522479355335236
0.011612053029239178,-0.004692967515438795,-0.013940856792032719,0.016498008742928505,0.0,0.011193778365850449
0.011457844637334347,-0.005008378066122532,-0.013300704769790173,0.017064925283193588,0.0,0.010586370714008808
0.012205866165459156,-0.004918722901493311,-0.013637364841997623,0.017316166311502457,0.0,0.010544323362410069
0.011742662638425827,-0.004828101955354214,-0.013630315661430359,0.017777549102902412,0.0,0.010889588855206966
0.011723769828677177,-0.004852812737226486,-0.013529050163924694,0.01698840782046318,0.0,0.011355838738381863
0.011468899436295033,-0.004800884053111076,-0.013613374903798103,0.017595943063497543,0.0,0.011273164302110672
0.012268767692148685,-0.0050155348144471645,-0.013772920705378056,0.017584994435310364,0.0,0.011495507322251797
0.011459496803581715,-0.005237276665866375,-0.013581612147390842,0.017820145934820175,0.0,0.011343014426529408
0.011185354553163052,-0.005054131615906954,-0.013705586083233356,0.01784726232290268,1.9069446352659725e-05,0.011111995205283165
0.01178834680467844,-0.006142259109765291,-0.013203955255448818,0.0169285386800766,1.2450984741008142e-06,0.01078476570546627
0.012223697267472744,-0.004987860098481178,-0.01390991359949112,0.017516182735562325,8.129602946382875e-08,0.011041601188480854
0.011923042125999928,-0.0046800123527646065,-0.012822406366467476,0.01706869527697563,5.308049555452499e-09,0.011553111486136913
0.012043275870382786,-0.005585220642387867,-0.01334947720170021,0.01715453341603279,3.465777387301472e-10,0.011088274419307709
0.011551344767212868,-0.005427882075309753,-0.013065367937088013,0.017410457134246826,2.2629047941036262e-11,0.010799581184983253
0.012496564537286758,-0.005784694105386734,-0.013470279052853584,0.017398973926901817,1.477515158831988e-12,0.011682793498039246
0.012081222608685493,-0.005317462142556906,-0.012874025851488113,0.01771979220211506,9.647118444800623e-14,0.01197700947523117
0.012637137435376644,-0.00476683909073472,-0.01339748315513134,0.017500348389148712,6.2988787735771944e-15,0.011409412138164043
0.012113532982766628,-0.004745141137391329,-0.013332280330359936,0.017034605145454407,4.112717918114216e-16,0.011200841516256332
0.012084037065505981,-0.005355517379939556,-0.01361206267029047,0.01798993907868862,2.6853109986804985e-17,0.01140843890607357
0.012833883054554462,-0.005592116620391607,-0.013653256930410862,0.01836583763360977,1.7533162214003146e-18,0.011935170739889145
0.01192717719823122,-0.0055756033398211,-0.013067034073174,0.01798534393310547,1.144790308921658e-19,0.010602481663227081
0.01229692529886961,-0.0051117995753884315,-0.013158715330064297,0.017747383564710617,7.474662508970581e-21,0.010607879608869553
0.01209519524127245,-0.004777026828378439,-0.012646526098251343,0.01732718199491501,4.8804206449996115e-22,0.011339502409100533
0.012502536177635193,-0.005177880637347698,-0.01350506953895092,0.01807638257741928,3.1865657613168266e-23,0.01173919253051281
0.01282122079282999,-0.005254162475466728,-0.01302311010658741,0.017580579966306686,2.0805997327064303e-24,0.01208015438169241
0.012266038917005062,-0.0052905576303601265,-0.013718267902731895,0.017423009499907494,1.3584829435176809e-25,0.011560189537703991
0.012730513699352741,-0.00486892182379961,-0.013100778684020042,0.01759214885532856,8.86992351454188e-27,0.011805555783212185
0.012015745043754578,-0.004574591293931007,-0.013461921364068985,0.01747821271419525,5.791426380132941e-28,0.011622963473200798
0.012015745043754578,-0.004574591293931007,-0.013461921364068985,0.01747821271419525,5.791426380132941e-28,0.011622963473200798
0.012322677299380302,-0.00460949819535017,-0.013323820196092129,0.016726495698094368,3.7813871028438046e-29,0.012208261527121067
0.012211215682327747,-0.005139885935932398,-0.013486814685165882,0.016491562128067017,2.4689756087044058e-30,0.011891499161720276
0.01300125103443861,-0.0038812903221696615,-0.013800803571939468,0.01685609668493271,1.0525630617916128e-32,0.011612583883106709
0.01232452318072319,-0.003160045947879553,-0.013428136706352234,0.016709044575691223,6.87248455939931e-34,0.011717919260263443
0.01265642512589693,-0.0034472288098186255,-0.013032082468271255,0.017055049538612366,4.487241332482174e-35,0.011712503619492054
0.012355112470686436,-0.003792960662394762,-0.01377224363386631,0.016796456649899483,2.9298479229431782e-36,0.011929278261959553
0.012703510001301765,-0.004257299471646547,-0.01332977693527937,0.01693813130259514,1.912981141222621e-37,0.011996930465102196
0.012300265952944756,-0.004143968224525452,-0.013317800126969814,0.016986658796668053,1.2490399592940648e-38,0.012014332227408886
0.012598617002367973,-0.0035509909503161907,-0.012817705981433392,0.016858456656336784,8.155332854616143e-40,0.011437120847404003
0.012887909077107906,-0.00353643880225718,-0.013468180783092976,0.016673769801855087,5.324794034587872e-41,0.011516708880662918
0.012963250279426575,-0.0036624728236347437,-0.01318997424095869,0.016272572800517082,3.476621489989871e-42,0.011771162040531635
0.013085712678730488,-0.004254868719726801,-0.013792228884994984,0.017128275707364082,2.2701035122062037e-43,0.01168031059205532
0.012628009542822838,-0.004127566237002611,-0.013216339983046055,0.01696842908859253,1.5414283107572988e-44,0.01200209278613329
0.012827868573367596,-0.003519637044519186,-0.013429717160761356,0.016974980011582375,1.401298464324817e-45,0.011929374188184738
0.012616490013897419,-0.003593194531276822,-0.012743283063173294,0.017110629007220268,0.0,0.012077534571290016
0.013057831674814224,-0.0039682285860180855,-0.013227911666035652,0.016758615151047707,0.0,0.01186717115342617
0.012942156754434109,-0.0035346820950508118,-0.013496446423232555,0.016988787800073624,0.0,0.011636760085821152
0.013428364880383015,-0.003573034889996052,-0.013215587474405766,0.016597220674157143,0.0,0.011844882741570473
0.01312522403895855,-0.003682611510157585,-0.013092556037008762,0.016793565824627876,0.0,0.011629818938672543
0.01312961895018816,-0.0032966432627290487,-0.012583608739078045,0.017018718644976616,-0.00019434011483099312,0.01201197411864996
0.013392969034612179,-0.0033567105419933796,-0.013269325718283653,0.017397994175553322,-0.00027988324291072786,0.012122486717998981
0.01308639720082283,-0.003442242043092847,-0.012736545875668526,0.017444560304284096,-0.00030927665648050606,0.011945314705371857
0.013383139856159687,-0.0033946579787880182,-0.013451987877488136,0.017001943662762642,-0.00030467851320281625,0.01207934319972992
0.013915065675973892,-0.0034911343827843666,-0.013074765913188457,0.016819970682263374,-0.0003127030795440078,0.012130902148783207
0.013814302161335945,-0.00329666119068861,-0.013272665441036224,0.016833055764436722,-0.00031868848600424826,0.012426733039319515
0.012914974242448807,-0.003463811008259654,-0.012719525955617428,0.017301587387919426,-0.00030469856574200094,0.01186264120042324
0.013514946214854717,-0.0032180671114474535,-0.013318661600351334,0.017613446339964867,-0.0002907268062699586,0.01219410914927721
0.013203330338001251,-0.002986643463373184,-0.01312780100852251,0.016933852806687355,-0.00031230179592967033,0.012412458658218384
0.01353596244007349,-0.0029418179765343666,-0.012799909338355064,0.016890134662389755,-0.0003038381692022085,0.012371214106678963
0.013648629188537598,-0.0031869388185441494,-0.012770886532962322,0.01627197302877903,-0.00028047902742400765,0.01302500069141388
0.013566008768975735,-0.003111317055299878,-0.01364570576697588,0.01659279689192772,-0.0002699621836654842,0.012802631594240665
0.013566008768975735,-0.003111317055299878,-0.01364570576697588,0.01659279689192772,-0.0002699621836654842,0.012802631594240665
0.013629396446049213,-0.0029669611249119043,-0.013214786536991596,0.017062874510884285,-0.00026064852136187255,0.011887448839843273
0.013780918903648853,-0.0030743898823857307,-0.013614768162369728,0.018023429438471794,-0.0003154766745865345,0.011712208390235901
0.013812187127768993,-0.0032466643024235964,-0.012934490106999874,0.017672283574938774,-0.0002992772788275033,0.012169772759079933
0.013445505872368813,-0.0031282093841582537,-0.013441355898976326,0.017346631735563278,-0.0002809003053698689,0.012493280693888664
0.013439968228340149,-0.003133151214569807,-0.013496135361492634,0.017061837017536163,-0.0003136208688374609,0.013019125908613205
0.013746271841228008,-0.0032608434557914734,-0.013696533627808094,0.016505233943462372,-0.00029943574918434024,0.012341742403805256
0.013775451108813286,-0.0029601932037621737,-0.013366659171879292,0.016900712624192238,-0.00028389779618009925,0.012632976286113262
0.01474684290587902,-0.003068668767809868,-0.013712110929191113,0.016856836155056953,-0.0002697263553272933,0.012486114166676998
0.013988858088850975,-0.0030958913266658783,-0.01343094278126955,0.017099205404520035,-0.0002967717591673136,0.012307754717767239
0.014194418676197529,-0.0029590462800115347,-0.013786970637738705,0.017116012051701546,-0.0002859011001419276,0.012776530347764492
0.015494506806135178,-0.002749940613284707,-0.013670909218490124,0.01677335426211357,-0.0002736502792686224,0.012693719007074833
0.01406930573284626,-0.002825754228979349,-0.0134308822453022,0.016853680834174156,-0.000262267654761672,0.01276792585849762
0.013425840996205807,-0.0031612173188477755,-0.01387574803084135,0.016544856131076813,-0.0002853062469512224,0.012276552617549896
0.014369886368513107,-0.003164969151839614,-0.012785634025931358,0.016763199120759964,-0.00027653289726004004,0.012715927325189114
0.014232723973691463,-0.0030596402939409018,-0.013538338243961334,0.016773786395788193,-0.00026644140598364174,0.012644520029425621
0.014531496912240982,-0.0028581346850842237,-0.013138890266418457,0.01775844767689705,-0.00025694051873870194,0.012771927751600742
0.014174753800034523,-0.0029705024790018797,-0.013367263600230217,0.017350517213344574,-0.00026489500305615366,0.012521937489509583
0.014850947074592113,-0.003302164375782013,-0.012981017120182514,0.01626638136804104,-0.0002660690515767783,0.012322924099862576
0.014345667324960232,-0.003199293976649642,-0.013689836487174034,0.016788367182016373,-0.00027684439555741847,0.012720034457743168
0.014825117774307728,-0.0031093168072402477,-0.014028959907591343,0.016611015424132347,-0.00028502309578470886,0.012939125299453735
0.013881087303161621,-0.002920667640864849,-0.013997828587889671,0.017066672444343567,-0.0002721465134527534,0.013100805692374706
0.01489411760121584,-0.0029836439061909914,-0.01351978164166212,0.01706305518746376,-0.00029941313550807536,0.01267912145704031
0.014682454988360405,-0.003225211752578616,-0.014192622154951096,0.016960760578513145,-0.0002883367706090212,0.012841304764151573
0.01493048295378685,-0.003089980920776725,-0.013742411509156227,0.017224762588739395,-0.0002951470669358969,0.013054312206804752
0.01493048295378685,-0.003089980920776725,-0.013742411509156227,0.017224762588739395,-0.0002951470669358969,0.013054312206804752
0.014827012084424496,-0.0032848946284502745,-0.014104838483035564,0.01665649376809597,-0.00028982231742702425,0.01291563268750906
0.01462432462722063,-0.0030421242117881775,-0.013657542876899242,0.01612672582268715,-0.0002792221202980727,0.01264397706836462
0.014911307021975517,-0.0031190274748951197,-0.013768949545919895,0.015973832458257675,-0.0003961552865803242,0.012960857711732388
0.014514802955091,-0.0029871053993701935,-0.013227242045104504,0.01608758606016636,-0.0003726237337104976,0.012862058356404305
0.015159469097852707,-0.0031835061963647604,-0.013845148496329784,0.016186293214559555,-0.0003446699120104313,0.013057878240942955
0.014753089286386967,-0.003094814484938979,-0.01288376934826374,0.016601845622062683,-0.0003512443508952856,0.012823125347495079
0.015073965303599834,-0.0029611310455948114,-0.013670195825397968,0.016389966011047363,-0.00035651857615448534,0.013052786700427532
0.014470609836280346,-0.003078586421906948,-0.013142925687134266,0.016992395743727684,-0.0003361800336278975,0.012965657748281956
0.01473269797861576,-0.003225744003430009,-0.013725479133427143,0.016893897205591202,-0.00031658276566304266,0.012960844673216343
0.014937194995582104,-0.0031322648283094168,-0.013435576111078262,0.016842344775795937,-0.0002990511420648545,0.012845128774642944
0.01499025896191597,-0.0030609029345214367,-0.013997592963278294,0.017567437142133713,-0.00028335335082374513,0.012703383341431618
0.014888590201735497,-0.00291769253090024,-0.013633489608764648,0.016741637140512466,-0.00030807030270807445,0.013757528737187386
0.014697004109621048,-0.0030326349660754204,-0.014274004846811295,0.017406051978468895,-0.00029877887573093176,0.012710995972156525
0.01477023959159851,-0.0032345440704375505,-0.013903578743338585,0.017300957813858986,-0.0002855803177226335,0.012478336691856384
0.01478484459221363,-0.003164788940921426,-0.01369817927479744,0.01756996288895607,-0.00030958198476582766,0.012731749564409256
0.014857021160423756,-0.0030062031000852585,-0.013817738741636276,0.017755793407559395,-0.0002990922366734594,0.01339946873486042
0.014608011581003666,-0.0027074271347373724,-0.014257480390369892,0.01695561595261097,-0.000298316270345822,0.013474715873599052
0.014878193847835064,-0.0029503286350518465,-0.013945172540843487,0.01738656312227249,-0.0002837850188370794,0.0137870404869318
0.014640008099377155,-0.0030463875737041235,-0.013914266601204872,0.017058461904525757,-0.0002672061091288924,0.013631036505103111
0.015253759920597076,-0.003216066164895892,-0.013817116618156433,0.01717611774802208,-0.00028942516655661166,0.014000137336552143
0.015086906962096691,-0.0029371664859354496,-0.01387843769043684,0.017378948628902435,-0.0002857510116882622,0.014009559527039528
0.015201267786324024,-0.0029518527444452047,-0.01404561847448349,0.0167382825165987,-0.00030558029538951814,0.014092777855694294
0.014742275699973106,-0.0030850726179778576,-0.013886209577322006,0.016959337517619133,-0.0003015081456396729,0.01418235618621111
0.015305714681744576,-0.0030483556911349297,-0.013903183862566948,0.016781579703092575,-0.0002883933484554291,0.013761749491095543
0.015076981857419014,-0.0029431262519210577,-0.013521678745746613,0.017089782282710075,-0.00030994872213341296,0.013246026821434498
0.015489710494875908,-0.002829793142154813,-0.01397243794053793,0.017210254445672035,-0.0003016467671841383,0.013487591408193111
0.014854374341666698,-0.002947727683931589,-0.013494160026311874,0.017076680436730385,-0.0003558637690730393,0.013692755252122879
0.015293055213987827,-0.0031967314425855875,-0.014064275659620762,0.017484435811638832,-0.0003876610426232219,0.013599001802504063
0.015345894731581211,-0.0032939675729721785,-0.014316678047180176,0.01682216487824917,-0.0003665458061732352,0.01364952977746725
0.015345894731581211,-0.0032939675729721785,-0.014316678047180176,0.01682216487824917,-0.0003665458061732352,0.01364952977746725
0.015466933138668537,-0.0028836391866207123,-0.013859248720109463,0.017218895256519318,-0.00034896202851086855,0.013430573046207428
0.015466933138668537,-0.0028836391866207123,-0.013859248720109463,0.017218895256519318,-0.00034896202851086855,0.013430573046207428
0.015431174077093601,-0.003095037303864956,-0.013398818671703339,0.017666907981038094,-0.0003681356320157647,0.013967099599540234
0.01519340556114912,-0.0032628478948026896,-0.01419834140688181,0.01704610139131546,-0.00035969840246252716,0.013881763443350792
0.015546117909252644,-0.0035438635386526585,-0.013775967061519623,0.017046552151441574,-0.00034104345832020044,0.014183084480464458
0.015457237139344215,-0.0029112452175468206,-0.014041472226381302,0.01647522859275341,-0.00034612842136994004,0.014373034238815308
0.015844982117414474,-0.002690364606678486,-0.013380276039242744,0.0160527303814888,-0.0003501871833577752,0.014547593891620636
0.015447952784597874,-0.002775785280391574,-0.014186867512762547,0.016465160995721817,-0.0003358726971782744,0.01403756346553564
0.0159173384308815,-0.0031836610287427902,-0.013591956347227097,0.0164251159876585,-0.00036547897616401315,0.013963949866592884
0.015456577762961388,-0.0032516708597540855,-0.013971421867609024,0.017080286517739296,-0.00039165676571428776,0.013773842714726925
0.015376660041511059,-0.003442334709689021,-0.013685841113328934,0.016713714227080345,-0.00037992928992025554,0.013722644187510014
0.015264704823493958,-0.0032180093694478273,-0.013983969576656818,0.01715649478137493,-0.0003559112374205142,0.013796784915030003
0.01569480262696743,-0.003393439343199134,-0.01382314320653677,0.01719028316438198,-0.0003820781712420285,0.014208059757947922
0.01554026734083891,-0.002988423453643918,-0.014230864122509956,0.017118658870458603,-0.000366427528206259,0.014134779572486877
0.01595015823841095,-0.003058062866330147,-0.013961759395897388,0.017762387171387672,-0.00037082741619087756,0.014675606973469257
0.015839440748095512,-0.003011174499988556,-0.013325528241693974,0.017094165086746216,-0.0003739112871699035,0.014415428973734379
0.015397636219859123,-0.003005451988428831,-0.013632782734930515,0.01711585745215416,-0.0004281105939298868,0.014966079965233803
0.015525972470641136,-0.003024693112820387,-0.013809960335493088,0.01690836437046528,-0.00045317935291677713,0.013654584065079689
0.015504345297813416,-0.0030762641690671444,-0.014135410077869892,0.016544587910175323,-0.00047667769831605256,0.013349599204957485
0.015901761129498482,-0.0031266456935554743,-0.01418029423803091,0.01686575822532177,-0.0004555417108349502,0.013688484206795692
0.01554851047694683,-0.0030122611206024885,-0.014259764924645424,0.015413179993629456,-0.00048182025784626603,0.01395060308277607
0.015785668045282364,-0.0030044924933463335,-0.013904446735978127,0.016002077609300613,-0.0004553128674160689,0.014475911855697632
0.015469031408429146,-0.002825643867254257,-0.014266815967857838,0.01632792130112648,-0.0004815999127458781,0.01475741807371378
0.015898646786808968,-0.0028414034750312567,-0.013868643902242184,0.01669616810977459,-0.0004557594656944275,0.014888555742800236
0.015389636158943176,-0.0027119009755551815,-0.014157237485051155,0.016388745978474617,-0.0005443907575681806,0.014863288030028343
0.016057366505265236,-0.00264638545922935,-0.014789997600018978,0.016237914562225342,-0.0005330577841959894,0.015015491284430027
0.015689468011260033,-0.002902152482420206,-0.014188667759299278,0.016039583832025528,-0.0005458685918711126,0.014702310785651207
0.015689468011260033,-0.002902152482420206,-0.014188667759299278,0.016039583832025528,-0.0005458685918711126,0.014702310785651207
0.015792731195688248,-0.0030064259190112352,-0.014568147249519825,0.016645079478621483,-0.0005192951648496091,0.014478406868875027
0.015047545544803143,-0.0027956641279160976,-0.014308687299489975,0.01636117324233055,-0.0005312921130098403,0.014394257217645645
0.016735075041651726,-0.002563350833952427,-0.014664088375866413,0.016711777076125145,-0.0005094300140626729,0.014823644421994686
0.01626516506075859,-0.002535776002332568,-0.013855960220098495,0.016756277531385422,-0.000545968534424901,0.014889765530824661
0.01620308682322502,-0.0027291527949273586,-0.014630051329731941,0.016470208764076233,-0.0005097577814012766,0.014776354655623436
0.015989098697900772,-0.003130412893369794,-0.014580526389181614,0.01665923185646534,-0.0005383805255405605,0.014352069236338139
0.015959423035383224,-0.002941298531368375,-0.015192419290542603,0.01662537083029747,-0.0004993741167709231,0.014520050026476383
0.016460716724395752,-0.0027479836717247963,-0.014284632168710232,0.017021359875798225,-0.0005234814598225057,0.014471875503659248
0.01635480485856533,-0.0025224394630640745,-0.014674623496830463,0.01664670556783676,-0.0004916028119623661,0.014904973097145557
0.016471032053232193,-0.0023523904383182526,-0.01463079173117876,0.016744060441851616,-0.000512855825945735,0.014953665435314178
0.01620016060769558,-0.0026236805133521557,-0.015273429453372955,0.01722603105008602,-0.00048594162217341363,0.014828205108642578
0.016950154677033424,-0.0028740200214087963,-0.014220581389963627,0.017033400014042854,-0.00045567535562440753,0.014495296403765678
0.01672973297536373,-0.002713988069444895,-0.01421884261071682,0.01746908202767372,-0.00046840141294524074,0.014586550183594227
0.01659427583217621,-0.0027822914998978376,-0.014307943172752857,0.016657834872603416,-0.0004374194541014731,0.01442219503223896
0.016950931400060654,-0.0024991158861666918,-0.014687086455523968,0.01655845157802105,-0.0003995008592028171,0.014889179728925228
0.01644781604409218,-0.0023805820383131504,-0.01481014583259821,0.016148602589964867,-0.000366955588106066,0.014812693931162357
0.01694309152662754,-0.0023785573430359364,-0.014787687920033932,0.01603732444345951,-0.0004023291985504329,0.015308384783565998
0.016408149152994156,-0.002459853421896696,-0.014208678156137466,0.01676887832581997,-0.0003782467683777213,0.0151514308527112
0.017034122720360756,-0.0023496963549405336,-0.01442614197731018,0.016578832641243935,-0.00038238163688220084,0.015331176109611988
0.01683991216123104,-0.002168043050915003,-0.014418394304811954,0.017400691285729408,-0.0003853378293570131,0.014805405400693417
0.016888491809368134,-0.00209926743991673,-0.014767096377909184,0.016434602439403534,-0.0003647443081717938,0.014552716165781021
0.016952672973275185,-0.002130132168531418,-0.014459521509706974,0.016397537663578987,-0.0003688992583192885,0.014435631223022938
0.016602015122771263,-0.0021650565322488546,-0.014486842788755894,0.016171569004654884,-0.0003720467211678624,0.016562845557928085
0.01705135963857174,-0.0023535413201898336,-0.01424481812864542,0.015937821939587593,-0.0003551446134224534,0.015130691230297089
0.017136378213763237,-0.002461311174556613,-0.015008904039859772,0.016197679564356804,-0.0003276794159319252,0.01567065343260765
0.017098769545555115,-0.0025520995259284973,-0.014331142418086529,0.016948247328400612,-0.0003104551578871906,0.015550459735095501
0.017098769545555115,-0.0025520995259284973,-0.014331142418086529,0.016948247328400612,-0.0003104551578871906,0.015550459735095501
0.016818802803754807,-0.0026236854027956724,-0.014930498786270618,0.016461467370390892,-0.000290739320917055,0.015409894287586212
0.01720248907804489,-0.002472233260050416,-0.014669750817120075,0.01627216301858425,-0.0002731081622187048,0.015650266781449318
0.01720070280134678,-0.0025434501003473997,-0.014731626957654953,0.01645861566066742,-0.00030540450825355947,0.015788478776812553
0.01724093221127987,-0.0024633046705275774,-0.014589429832994938,0.0164897870272398,-0.00029201028519310057,0.016164178028702736
0.017552796751260757,-0.002380203455686569,-0.014706411398947239,0.017185863107442856,-0.0002772183215711266,0.01582045666873455
0.017254414036870003,-0.002420201664790511,-0.014363319613039494,0.016749445348978043,-0.0002636910940054804,0.015303312800824642
0.017386365681886673,-0.0021298339124768972,-0.014796441420912743,0.01696040853857994,-0.0002877051301766187,0.015674835070967674
0.017117232084274292,-0.0020362758077681065,-0.014647875912487507,0.016263779252767563,-0.00027989549562335014,0.015489842742681503
0.017140280455350876,-0.0021823933348059654,-0.014655926264822483,0.016563069075345993,-0.00030401593539863825,0.015264554880559444
0.01755206100642681,-0.0021619275212287903,-0.014471071772277355,0.01647927239537239,-0.0002944213047157973,0.015215370804071426
0.01727260649204254,-0.0024175471626222134,-0.014736436307430267,0.01589062251150608,-0.000364655046723783,0.015784459188580513
0.017642851918935776,-0.0023377772886306047,-0.014326428063213825,0.016112828627228737,-0.00039346126141026616,0.016206806525588036
0.017410453408956528,-0.00245919288136065,-0.014443004503846169,0.015900421887636185,-0.00038171280175447464,0.016277965158224106
0.01753327250480652,-0.0023408180568367243,-0.014571376144886017,0.016802823171019554,-0.0004013256693724543,0.016160979866981506
0.017814362421631813,-0.0022616423666477203,-0.0146257933229208,0.0165236946195364,-0.0003902020980603993,0.015958452597260475
0.01761074736714363,-0.0023359807673841715,-0.014484237879514694,0.01641871966421604,-0.0004070515569765121,0.01611168496310711
0.018051883205771446,-0.002428916050121188,-0.01462408248335123,0.01626812294125557,-0.0003968010423704982,0.01572219841182232
0.01787673868238926,-0.002354102674871683,-0.014388946816325188,0.016213057562708855,-0.0005448772571980953,0.01606881245970726
0.01783820241689682,-0.002507807919755578,-0.0146780451759696,0.01615392602980137,-0.0005578015116043389,0.01620296947658062
0.017497558146715164,-0.002193477237597108,-0.014410221949219704,0.015714528039097786,-0.000546828203368932,0.016559429466724396
0.017012223601341248,-0.001884170575067401,-0.014524247497320175,0.016033930703997612,-0.000499212124850601,0.016556035727262497
0.018191803246736526,-0.0018384760478511453,-0.014587931334972382,0.015827670693397522,-0.000527856987901032,0.01617543213069439
0.01842273771762848,-0.0017547772731631994,-0.014672876335680485,0.01654665917158127,-0.0004912958247587085,0.016209594905376434
0.018262024968862534,-0.001766977016814053,-0.014318808913230896,0.016769053414463997,-0.0005165718030184507,0.016274884343147278
0.0181608647108078,-0.0018997284350916743,-0.014593575149774551,0.016663411632180214,-0.0004872323770541698,0.016268154606223106
0.017804903909564018,-0.001922733266837895,-0.0144652733579278,0.016404608264565468,-0.0005143301677890122,0.01585339941084385
0.017804903909564018,-0.001922733266837895,-0.0144652733579278,0.016404608264565468,-0.0005143301677890122,0.01585339941084385
0.01861867867410183,-0.001141123240813613,-0.014561476185917854,0.01615993119776249,-0.0005303709185682237,0.016226379200816154
0.01861867867410183,-0.001141123240813613,-0.014561476185917854,0.01615993119776249,-0.0005303709185682237,0.016226379200816154
0.018771450966596603,-0.0009416791726835072,-0.014432559721171856,0.016511475667357445,-0.0004976086202077568,0.015550205484032631
0.01873178221285343,-0.0009185693925246596,-0.014686143025755882,0.01632738672196865,-0.0005101789138279855,0.0156769547611475
0.018002096563577652,-0.0008894419297575951,-0.014754025265574455,0.016322486102581024,-0.0004905175883322954,0.016183696687221527
0.018224535509943962,-0.0008262155461125076,-0.015104076825082302,0.01612565480172634,-0.0005122978473082185,0.016074692830443382
0.01862896792590618,-0.0006435528048314154,-0.014650632627308369,0.015935497358441353,-0.0005056951777078211,0.016422515735030174
0.018731428310275078,-0.000692671281285584,-0.01521292794495821,0.01682613231241703,-0.0005424776463769376,0.01603202521800995
0.01916949637234211,-0.0007210461189970374,-0.014544432982802391,0.016660064458847046,-0.0004981529200449586,0.01608310081064701
0.018847579136490822,-0.0010807032231241465,-0.014887183904647827,0.017150243744254112,-0.0004931643488816917,0.016214916482567787
0.018716678023338318,-0.001091329613700509,-0.014430372975766659,0.016930030658841133,-0.0004883777583017945,0.016470151022076607
0.019298193976283073,-0.0009139837929978967,-0.015021280385553837,0.016784410923719406,-0.0005157414125278592,0.016632679849863052
0.018724553287029266,-0.0009061195305548608,-0.01447993703186512,0.01695304550230503,-0.0005859393859282136,0.016647225245833397
0.018514908850193024,-0.0007964085671119392,-0.01484674122184515,0.016538023948669434,-0.0005502260755747557,0.016382960602641106
0.019079767167568207,-0.000707026687450707,-0.014463862404227257,0.016921933740377426,-0.0005770369898527861,0.016361728310585022
0.01901688426733017,-0.0007153765182010829,-0.015249929390847683,0.0163282360881567,-0.0005744515219703317,0.016880109906196594
0.01893964596092701,-0.0006597061292268336,-0.014857426285743713,0.016794804483652115,-0.0005624626064673066,0.016720712184906006
0.019178573042154312,-0.0005532086361199617,-0.015370502136647701,0.01680280640721321,-0.0005875519709661603,0.016494298353791237
0.01911136694252491,-0.00047230624477379024,-0.014340917579829693,0.016836954280734062,-0.0005483471904881299,0.016721531748771667
0.019117843359708786,-0.0005113044753670692,-0.015138055197894573,0.017216406762599945,-0.0006047445349395275,0.016866199672222137
0.019756795838475227,-0.0005366692785173655,-0.01436828076839447,0.016534732654690742,-0.000640800513792783,0.017087357118725777
0.019464289769530296,-0.0005024292622692883,-0.014940522611141205,0.016800865530967712,-0.0005791072035208344,0.01691318117082119
0.01906845159828663,-0.0005309412954375148,-0.0145284878090024,0.016536058858036995,-0.0006042895256541669,0.01687527447938919
0.019750744104385376,-0.0006424989551305771,-0.01507442258298397,0.016604959964752197,-0.0005562024307437241,0.017148325219750404
0.019739050418138504,-0.0006264825933612883,-0.014724798500537872,0.017413703724741936,-0.0005792254232801497,0.016965780407190323
0.019314680248498917,-0.0006561223417520523,-0.015509692952036858,0.016526363790035248,-0.0005401877569966018,0.017109405249357224
0.019794166088104248,-0.0006085805944167078,-0.015084167942404747,0.01603005640208721,-0.0005046557052992284,0.01726331189274788
0.019794166088104248,-0.0006085805944167078,-0.015084167942404747,0.01603005640208721,-0.0005046557052992284,0.01726331189274788
0.019794166088104248,-0.0006085805944167078,-0.015084167942404747,0.01603005640208721,-0.0005046557052992284,0.01726331189274788
0.019465677440166473,-0.0005637616850435734,-0.015013907104730606,0.01646563969552517,-0.0004599235253408551,0.017557183280587196
0.019936149939894676,-0.0005464611458592117,-0.01542688813060522,0.01616019941866398,-0.00045819859951734543,0.017301438376307487
0.019728632643818855,-0.0005080082337372005,-0.015453307889401913,0.016188956797122955,-0.00042265132651664317,0.01750868186354637
0.01994219794869423,-0.00047694353270344436,-0.015270545147359371,0.016227172687649727,-0.00044836156303063035,0.017752664163708687
0.02017676644027233,-0.0004434041038621217,-0.015256251208484173,0.016875408589839935,-0.0004257498658262193,0.01817193068563938
0.01967824622988701,-0.00040378334233537316,-0.01605214551091194,0.016371795907616615,-0.0004485623212531209,0.016708286479115486
0.019867340102791786,-0.000441516051068902,-0.014969653449952602,0.016340792179107666,-0.000428608589572832,0.016831809654831886
0.020332202315330505,-0.00045546339242719114,-0.016378561034798622,0.01619087904691696,-0.00045981950825080276,0.017169060185551643
0.019522828981280327,-0.00044505478581413627,-0.014447604306042194,0.016307620331645012,-0.00042560542351566255,0.017396628856658936
0.019737644121050835,-0.0004548143479041755,-0.014707875438034534,0.016471916809678078,-0.00046158721670508385,0.01783471181988716
0.020196808502078056,-0.0004456607566680759,-0.014721698127686977,0.016313940286636353,-0.0004296595579944551,0.01803993619978428
0.02102101407945156,-0.0005444352282211185,-0.015627332031726837,0.016924817115068436,-0.00045555178076028824,0.018139656633138657
0.020101720467209816,-0.0005006487481296062,-0.014682790264487267,0.01689540594816208,-0.0004320897860452533,0.01798323355615139
0.020418424159288406,-0.0005298491450957954,-0.015040422789752483,0.017319871112704277,-0.0004473853041417897,0.01786450296640396
0.020129166543483734,-0.0004914405290037394,-0.015069784596562386,0.0168242696672678,-0.0004337819409556687,0.01739516295492649
0.018476810306310654,-0.0004995425697416067,-0.01530043687671423,0.016610046848654747,-0.0004112760943826288,0.017164181917905807
0.021181832998991013,-0.0004848082608077675,-0.014884471893310547,0.016828013584017754,-0.0004575450730044395,0.017730427905917168
0.021404488012194633,-0.00045045604929327965,-0.015080085955560207,0.016591371968388557,-0.00048216801951639354,0.01787971518933773
0.020950155332684517,-0.00047795858699828386,-0.015062903054058552,0.016883255913853645,-0.00046048423973843455,0.018008053302764893
0.020319337025284767,-0.00045035683433525264,-0.01560330018401146,0.016271237283945084,-0.0004775046545546502,0.01801481284201145
0.021238965913653374,-0.00042387290159240365,-0.01596449315547943,0.016024500131607056,-0.0004908098489977419,0.017889510840177536
0.020963966846466064,-0.00042379318620078266,-0.015407398343086243,0.015982897952198982,-0.0004878057516179979,0.01793733239173889
0.02111000195145607,-0.0003905682824552059,-0.01542436983436346,0.01587653160095215,-0.000548834796063602,0.01823783479630947
0.021089738234877586,-0.00039137821295298636,-0.0158296637237072,0.01603345386683941,-0.0005571196088567376,0.01845668815076351
0.020704764872789383,-0.00037177131162025034,-0.015015277080237865,0.0165308378636837,-0.0005448771989904344,0.018145037814974785
0.020704764872789383,-0.00037177131162025034,-0.015015277080237865,0.0165308378636837,-0.0005448771989904344,0.018145037814974785
0.0205445047467947,-0.00034791117650456727,-0.015505174174904823,0.01655975729227066,-0.0004975671763531864,0.017654430121183395
0.021139487624168396,-0.00032685050973668694,-0.015257420018315315,0.01649361103773117,-0.0004557221254799515,0.017648786306381226
0.021748589351773262,-0.00034182218951173127,-0.016085287556052208,0.016236815601587296,-0.00047159887617453933,0.017865484580397606
0.021719127893447876,-0.0003399064880795777,-0.015355868265032768,0.016572199761867523,-0.0004535975167527795,0.01786970905959606
0.02140941470861435,-0.0003227153210900724,-0.01567033678293228,0.017168328166007996,-0.00042413390474393964,0.018633652478456497
0.021242571994662285,-0.000306991656543687,-0.015495294705033302,0.017268117517232895,-0.0004465000529307872,0.018468093127012253
0.021331369876861572,-0.00029272682149894536,-0.015425906516611576,0.01749209128320217,-0.0004267458280082792,0.018369728699326515
0.02173525094985962,-0.0003191283904016018,-0.015556472353637218,0.01647261157631874,-0.0004046571266371757,0.018482109531760216
0.02185826003551483,-0.00030608955421485007,-0.015467013232409954,0.016344435513019562,-0.0003726817958522588,0.018201086670160294
0.021622655913233757,-0.0002936140226665884,-0.0158303864300251,0.016019104048609734,-0.00034424877958372235,0.01841128244996071
0.02198086865246296,-0.000287964241579175,-0.015251485630869865,0.01584435999393463,-0.0003667447599582374,0.018550964072346687
0.02221064083278179,-0.00027165759820491076,-0.015324619598686695,0.016171682626008987,-0.00035714535624720156,0.01851978898048401
0.022000310942530632,-0.00025620314409025013,-0.014983712695538998,0.016374913975596428,-0.00033588235964998603,0.01815064065158367
0.021853020414710045,-0.000285108748357743,-0.015379693359136581,0.017303060740232468,-0.0003653111925814301,0.018455224111676216
0.02219247817993164,-0.00027593434788286686,-0.014978609047830105,0.016658511012792587,-0.00034831734956242144,0.018573660403490067
0.022477416321635246,-0.0002625877968966961,-0.01564260758459568,0.016833264380693436,-0.00033026159508153796,0.01892980933189392
0.022339729592204094,-0.00025041087064892054,-0.015275686979293823,0.0164928138256073,-0.0003555607399903238,0.018721332773566246
0.02200927771627903,-0.0002786389959510416,-0.015659242868423462,0.015899889171123505,-0.00034142579534091055,0.018753720447421074
0.02200927771627903,-0.0002786389959510416,-0.015659242868423462,0.015899889171123505,-0.00034142579534091055,0.018753720447421074
0.022633302956819534,-0.0002564654569141567,-0.015598837286233902,0.01623893901705742,-0.00035051285522058606,0.018620215356349945
0.022633302956819534,-0.0002564654569141567,-0.015598837286233902,0.01623893901705742,-0.00035051285522058606,0.018620215356349945
0.022578012198209763,-0.00023715604038443416,-0.015128408558666706,0.01619134098291397,-0.0003388207114767283,0.019079387187957764
0.022578012198209763,-0.00023715604038443416,-0.015128408558666706,0.01619134098291397,-0.0003388207114767283,0.019079387187957764
0.022812802344560623,-0.00022109538258519024,-0.01576402224600315,0.01666180044412613,-0.00035216601099818945,0.019258251413702965
0.022812802344560623,-0.00022109538258519024,-0.01576402224600315,0.01666180044412613,-0.00035216601099818945,0.019258251413702965
0.02252914384007454,-0.00012541908654384315,-0.016278406605124474,0.016384784132242203,-0.00035670818760991096,0.019358517602086067
0.02301827445626259,-0.00016348602366633713,-0.01571829430758953,0.015992801636457443,-0.00036772905150428414,0.019359037280082703
0.02280832827091217,-0.00015438598347827792,-0.015261170454323292,0.016805754974484444,-0.0005151698715053499,0.019174590706825256
0.02297179028391838,-0.00014603868476115167,-0.015604942105710506,0.01640278659760952,-0.0005426069255918264,0.018686946481466293
0.023136677220463753,-0.00013854405551683158,-0.015539232641458511,0.016537033021450043,-0.0005131797515787184,0.019196808338165283
0.023098422214388847,-0.00013178103836253285,-0.01598367840051651,0.015809088945388794,-0.0005426478455774486,0.020028183236718178
0.023051314055919647,-0.00012564822100102901,-0.015867454931139946,0.015982335433363914,-0.0005040584946982563,0.019718699157238007
0.023082809522747993,-0.00012006067845504731,-0.016272766515612602,0.016996214166283607,-0.0005245715728960931,0.0197516568005085
0.022161483764648438,-0.00011494884529383853,-0.01619986817240715,0.01689634658396244,-0.0004962696111761034,0.019171228632330894
0.023756591603159904,-0.00011025473213521764,-0.015372083522379398,0.017349500209093094,-0.0005160953151062131,0.01907767914235592
0.02396823652088642,-0.00010592889884719625,-0.01602969691157341,0.016722574830055237,-0.0005816256161779165,0.019404273480176926
0.023845143616199493,-0.00010192993795499206,-0.015864180400967598,0.016574613749980927,-0.0005486523732542992,0.01974443718791008
0.02314816042780876,-9.822162246564403e-05,-0.017458468675613403,0.01596052013337612,-0.0005768218543380499,0.02008780464529991
0.023865992203354836,-9.477369167143479e-05,-0.016803814098238945,0.015688501298427582,-0.0005889451131224632,0.019558047875761986
0.023243745788931847,-9.15599666768685e-05,-0.01630798727273941,0.01628793403506279,-0.0005624887999147177,0.019728979095816612
0.022796442732214928,-8.855696796672419e-05,-0.01678934134542942,0.016127726063132286,-0.0007734359242022038,0.019896309822797775
0.023637821897864342,-8.574456296628341e-05,-0.016026291996240616,0.016676373779773712,-0.0007422743365168571,0.020188581198453903
0.02423599176108837,-8.310534030897543e-05,-0.01639682613313198,0.01584126241505146,-0.0007507406990043819,0.020102573558688164
0.023133164271712303,-8.062372944550589e-05,-0.01582898385822773,0.015591651201248169,-0.000682343146763742,0.01979103498160839
0.023490896448493004,-7.828601519577205e-05,-0.0168093740940094,0.015359326265752316,-0.0006163452053442597,0.01921105571091175
0.024472977966070175,-7.60801340220496e-05,-0.017039915546774864,0.015792442485690117,-0.0006305039278231561,0.01976308785378933
0.024177389219403267,-7.399505557259545e-05,-0.017099466174840927,0.016097499057650566,-0.0005883400444872677,0.019527414813637733
0.024177389219403267,-7.399505557259545e-05,-0.017099466174840927,0.016097499057650566,-0.0005883400444872677,0.019527414813637733
0.0232960544526577,-7.202147389762104e-05,-0.016915006563067436,0.016520891338586807,-0.0005644832854159176,0.01916559599339962
0.023517005145549774,-7.015007577138022e-05,-0.016135530546307564,0.01727129891514778,-0.0005100544076412916,0.02010623924434185
0.023513227701187134,-6.837361434008926e-05,-0.0166750717908144,0.017315326258540154,-0.0005375214968807995,0.02041773684322834
0.023361923173069954,-6.66850246489048e-05,-0.01611056551337242,0.017755333334207535,-0.0004985879641026258,0.02011732943356037
0.023704173043370247,-6.50776710244827e-05,-0.016999423503875732,0.016940193250775337,-0.0005227232468314469,0.019968289881944656
0.023900970816612244,-6.208490231074393e-05,-0.016472365707159042,0.016742929816246033,-0.0005037898081354797,0.01993478089570999
0.023608805611729622,-6.068936636438593e-05,-0.01695740409195423,0.01669350080192089,-0.0004848289245273918,0.020154664292931557
0.024226557463407516,-5.935539229540154e-05,-0.016456926241517067,0.017621085047721863,-0.000511252204887569,0.020108994096517563
0.024326207116246223,-5.80785381316673e-05,-0.016377106308937073,0.017513249069452286,-0.00047739697038196027,0.020262619480490685
0.02389218844473362,-5.685555879608728e-05,-0.01582040823996067,0.01743101328611374,-0.0005072865751571953,0.020297612994909286
0.024251025170087814,-5.568307460634969e-05,-0.016755813732743263,0.017450807616114616,-0.0004730195796582848,0.0206240713596344
0.02403724379837513,-5.455788050312549e-05,-0.017117571085691452,0.01697543077170849,-0.0004355034907348454,0.02058221399784088
0.023634381592273712,-5.3477346227737144e-05,-0.016590416431427002,0.01713850535452366,-0.000465450226329267,0.020285163074731827
0.02391861379146576,-2.39159840020875e-06,-0.016533315181732178,0.01700441539287567,-0.00043720583198592067,0.02058434672653675
0.02431081235408783,2.2741187422070652e-05,-0.01625472493469715,0.01701243408024311,-0.0004374737909529358,0.020605720579624176
0.02405444160103798,2.25088788283756e-05,-0.016923626884818077,0.016778793185949326,-0.0004370433744043112,0.020775921642780304
0.023904403671622276,2.1964096958981827e-05,-0.01613612473011017,0.016873091459274292,-0.00041363859781995416,0.02083086408674717
0.024076640605926514,2.144091013178695e-05,-0.016259795054793358,0.017323220148682594,-0.00042475745431147516,0.02098107524216175
0.02384318970143795,2.0942023184034042e-05,-0.016674214974045753,0.016699552536010742,-0.0004317235143389553,0.02053331397473812
0.024191755801439285,2.04657935682917e-05,-0.016552671790122986,0.01695110835134983,-0.00043213492608629167,0.020529823377728462
0.02507305145263672,2.0010782463941723e-05,-0.017092265188694,0.01719198375940323,-0.0004514835018198937,0.020959457382559776
0.024601342156529427,1.957552376552485e-05,-0.01607465371489525,0.01676981709897518,-0.0004357087309472263,0.020852895453572273
0.024209801107645035,1.9158829672960564e-05,-0.01650923863053322,0.016918573528528214,-0.0004588932206388563,0.021162288263440132
0.024169500917196274,1.875949601526372e-05,-0.016197405755519867,0.01632196269929409,-0.00043792647193185985,0.021187584847211838
0.024405017495155334,1.8376449588686228e-05,-0.016553064808249474,0.016661372035741806,-0.0005615884438157082,0.021317802369594574
0.02409849315881729,1.8008777260547504e-05,-0.01682451367378235,0.016405273228883743,-0.0005956446984782815,0.021322887390851974
0.02409849315881729,1.8008777260547504e-05,-0.01682451367378235,0.016405273228883743,-0.0005956446984782815,0.021322887390851974
0.024889865890145302,1.7655502233537845e-05,-0.016307026147842407,0.016127048060297966,-0.0005588195635937154,0.021567439660429955
0.0255611352622509,1.7315805962425657e-05,-0.016734659671783447,0.016719603911042213,-0.0005807256093248725,0.020951809361577034
0.025397125631570816,1.6988944480544887e-05,-0.016047753393650055,0.016572749242186546,-0.000540839449968189,0.02149059809744358
0.02478927932679653,1.667420656303875e-05,-0.01669447496533394,0.017035240307450294,-0.0005601075245067477,0.02155555598437786
0.023725511506199837,1.6370917364838533e-05,-0.016270482912659645,0.016488851979374886,-0.0005292487912811339,0.02164662629365921
0.024755414575338364,1.607846024853643e-05,-0.016582736745476723,0.016507821157574654,-0.0005797112826257944,0.021795345470309258
0.025055047124624252,3.096151340287179e-05,-0.01664092019200325,0.016191182658076286,-0.0005703502101823688,0.021558517590165138
0.025153176859021187,6.0825637774541974e-05,-0.016884734854102135,0.01558703277260065,-0.0005072975181974471,0.021483251824975014
0.025764456018805504,6.0021706303814426e-05,-0.01606563851237297,0.01543753407895565,-0.0005304957157932222,0.02146265283226967
0.025899337604641914,5.904009594814852e-05,-0.016874928027391434,0.01630982756614685,-0.000559055304620415,0.021668873727321625
0.02568434178829193,5.8087640354642645e-05,-0.01647154800593853,0.016278674826025963,-0.000586136884521693,0.021839603781700134
0.02478284202516079,5.716519444831647e-05,-0.01638723351061344,0.01692790724337101,-0.0006542442133650184,0.022302787750959396
0.02510952204465866,0.0001575700007379055,-0.01655835658311844,0.016754647716879845,-0.0006586097879335284,0.021060636267066002
0.025060391053557396,0.00016475598386023194,-0.01666942611336708,0.016748623922467232,-0.0006817104294896126,0.02108602225780487
0.025699738413095474,0.00015910474758129567,-0.017072679474949837,0.016748175024986267,-0.000661732628941536,0.022018712013959885
0.025479614734649658,0.00015367340529337525,-0.016669096425175667,0.016694804653525352,-0.0007927404367364943,0.02247675321996212
0.025939414277672768,0.00016811862587928772,-0.01716974377632141,0.017168307676911354,-0.0008357223123311996,0.021967347711324692
0.02583213895559311,0.0001724816538626328,-0.016856765374541283,0.01674751192331314,-0.0007549671572633088,0.020873060449957848
0.025967808440327644,0.00016726968169678003,-0.01690574735403061,0.016632137820124626,-0.0006642709486186504,0.020789247006177902
0.025976119562983513,0.00016224531282205135,-0.017137816175818443,0.016104599460959435,-0.0006762242992408574,0.021825119853019714
0.025633765384554863,0.00015751298633404076,-0.01605253666639328,0.016308560967445374,-0.0006209779530763626,0.022571617737412453
0.024269798770546913,0.00017752949497662485,-0.0167168527841568,0.015998929738998413,-0.0006049118237569928,0.022131092846393585
0.026227135211229324,0.0001736217236611992,-0.016766991466283798,0.015786146745085716,-0.0005906940787099302,0.021710706874728203
0.026177918538451195,0.00016897798923309892,-0.017183942720294,0.01621793769299984,-0.00054802285740152,0.022148365154862404
0.026309363543987274,0.00016456475714221597,-0.017119569703936577,0.015961337834596634,-0.0004887876566499472,0.02356472611427307
0.026625581085681915,0.0001603753335075453,-0.01620364747941494,0.016555726528167725,-0.00043978122994303703,0.02341497503221035
0.02649504877626896,0.00017842873057816178,-0.017443401739001274,0.016538089141249657,-0.00047487064148299396,0.022358564659953117
0.026726286858320236,0.00017440275405533612,-0.016459060832858086,0.016597043722867966,-0.0004764995537698269,0.021708177402615547
0.026746075600385666,0.00026156543754041195,-0.017155414447188377,0.016354572027921677,-0.0004734090471174568,0.022079717367887497
0.026964157819747925,0.0002584019093774259,-0.01680588722229004,0.01594579592347145,-0.0004887666436843574,0.022779501974582672
0.027334963902831078,0.0002445186546538025,-0.016892872750759125,0.016413815319538116,-0.00047178109525702894,0.023211538791656494
0.027334963902831078,0.0002445186546538025,-0.016892872750759125,0.016413815319538116,-0.00047178109525702894,0.023211538791656494
0.026851223781704903,0.0002319176128366962,-0.017618490383028984,0.01611233875155449,-0.000574020785279572,0.023024706169962883
0.027023939415812492,0.00022055050067137927,-0.01607554778456688,0.016535377129912376,-0.0006147280219011009,0.02299484796822071
0.027410509064793587,0.0002505758893676102,-0.016932660713791847,0.016187531873583794,-0.0006381714483723044,0.02288423851132393
0.027174262329936028,0.0002410094311926514,-0.016801785677671432,0.01649385131895542,-0.000651442795060575,0.02269034832715988
0.027563288807868958,0.0002559572458267212,-0.01664762757718563,0.01650221459567547,-0.0006155091105028987,0.02291051857173443
0.0274460781365633,0.0002712410350795835,-0.016787147149443626,0.017341408878564835,-0.0007608368177898228,0.023368272930383682
0.027626318857073784,0.0002725241065490991,-0.01710354909300804,0.016630858182907104,-0.0006940265884622931,0.023089928552508354
0.028032805770635605,0.0003593537549022585,-0.016797415912151337,0.016358008608222008,-0.0006447837222367525,0.02290874905884266
0.028032805770635605,0.0003593537549022585,-0.016797415912151337,0.016358008608222008,-0.0006447837222367525,0.02290874905884266
0.02802172303199768,0.0003919305163435638,-0.017217855900526047,0.01672062836587429,-0.0006259186193346977,0.023215247318148613
0.02813618816435337,0.000372265960322693,-0.0167317483574152,0.016985837370157242,-0.0006094782729633152,0.02331998571753502
0.028289558365941048,0.00039945129537954926,-0.01706656999886036,0.01688500866293907,-0.0005732467980124056,0.023349108174443245
0.028632130473852158,0.0003816810785792768,-0.016600972041487694,0.017209317535161972,-0.0005180394509807229,0.023400742560625076
0.029513860121369362,0.0004092592862434685,-0.017248058691620827,0.016962872818112373,-0.00046512289554812014,0.023446928709745407
0.029120931401848793,0.0005426944117061794,-0.017059508711099625,0.0174424946308136,-0.000499769055750221,0.02324092946946621
0.026210280135273933,0.0005515703232958913,-0.017010033130645752,0.016763154417276382,-0.0004620759282261133,0.02332012914121151
0.02880602516233921,0.0005562151782214642,-0.01702314242720604,0.016352791339159012,-0.0004918897757306695,0.023211432620882988
0.02954455092549324,0.0005319537012837827,-0.016611911356449127,0.016894279047846794,-0.0005214231787249446,0.023001115769147873
0.028788011521100998,0.0004846082010772079,-0.017298538237810135,0.016604769974946976,-0.0006025154725648463,0.023244822397828102
0.0293005108833313,0.0005098497495055199,-0.016873935237526894,0.017505012452602386,-0.0006419773562811315,0.023221690207719803
0.029753075912594795,0.0005239152233116329,-0.017017528414726257,0.017055930569767952,-0.0006576048908755183,0.023597361519932747
0.029613405466079712,0.000509750796481967,-0.01715243048965931,0.01634073629975319,-0.0006585805676877499,0.02429145947098732
0.0288801658898592,0.0006170719861984253,-0.016981855034828186,0.01643064245581627,-0.0007783196051605046,0.02427119016647339
0.028583455830812454,0.0006486502243205905,-0.017251623794436455,0.01645555905997753,-0.0008936810772866011,0.02373957447707653
0.029671085998415947,0.0006159823387861252,-0.016521481797099113,0.01698976941406727,-0.00090106634888798,0.02310439944267273
0.029867172241210938,0.0006405057501979172,-0.016690922901034355,0.01682361587882042,-0.0009014249662868679,0.02264411188662052
0.029569856822490692,0.0008999214041978121,-0.01702866144478321,0.01688072457909584,-0.0008273987914435565,0.023019224405288696
0.029587527737021446,0.0009073035325855017,-0.016803016886115074,0.01635768637061119,-0.0008750493871048093,0.02392624318599701
0.029970301315188408,0.0008957808022387326,-0.017531605437397957,0.01585443876683712,-0.0008812100277282298,0.02369399555027485
0.029682716354727745,0.0007964731776155531,-0.017027441412210464,0.015650229528546333,-0.0008751038694754243,0.023822415620088577
0.029682716354727745,0.0007964731776155531,-0.017027441412210464,0.015650229528546333,-0.0008751038694754243,0.023822415620088577
0.03015352040529251,0.0008078377577476203,-0.017628317698836327,0.015936782583594322,-0.0007816972211003304,0.024069828912615776
0.030053313821554184,0.0008848516154102981,-0.017583616077899933,0.016389377415180206,-0.0007883177604526281,0.024196747690439224
0.02991345152258873,0.0009294676128774881,-0.01751549169421196,0.016227182000875473,-0.0007414884166792035,0.02409423142671585
0.030182186514139175,0.0013734165113419294,-0.017557667568325996,0.016696471720933914,-0.0006913230172358453,0.023173147812485695
0.030116917565464973,0.0014059460954740644,-0.01743108220398426,0.01685887761414051,-0.0007112731691449881,0.023643041029572487
0.030047161504626274,0.0012344600399956107,-0.017886929214000702,0.017011329531669617,-0.0007241255370900035,0.02498030662536621
0.030498415231704712,0.0013008067617192864,-0.0176706500351429,0.016140880063176155,-0.0006754323258064687,0.025132903829216957
0.0299692340195179,0.0012235082685947418,-0.018130498006939888,0.016732655465602875,-0.0007275807438418269,0.024865221232175827
0.030236827209591866,0.0012091288808733225,-0.01743650622665882,0.01674303598701954,-0.0007529035792686045,0.024591870605945587
0.030331555753946304,0.0014999281847849488,-0.017848635092377663,0.017245562747120857,-0.0007635580259375274,0.024464838206768036
0.031105980277061462,0.001457742415368557,-0.018352312967181206,0.017015822231769562,-0.0007781006279401481,0.024490291252732277
0.03149648755788803,0.0017311417032033205,-0.018244188278913498,0.01660948246717453,-0.0007977726054377854,0.024797625839710236
0.03096536174416542,0.0017502947011962533,-0.01867903769016266,0.016798779368400574,-0.000818587199319154,0.02454521134495735
0.029535099864006042,0.0017105643637478352,-0.01858067326247692,0.016197513788938522,-0.0007692825747653842,0.024284113198518753
0.030090436339378357,0.001575575559400022,-0.017723610624670982,0.01657818630337715,-0.000781545415520668,0.024868864566087723
0.03144261613488197,0.0016352556413039565,-0.01780405081808567,0.016214735805988312,-0.0007496268372051418,0.024937573820352554
0.03089834749698639,0.0016808684449642897,-0.01795128732919693,0.016155771911144257,-0.000718352384865284,0.024939998984336853
0.030719023197889328,0.0015639044577255845,-0.018331043422222137,0.016130320727825165,-0.0006623667431995273,0.024789880961179733
0.030811475589871407,0.0018643586663529277,-0.018807711079716682,0.016342569142580032,-0.0006198132177814841,0.024657076224684715
0.031216692179441452,0.0017659333534538746,-0.018550660461187363,0.017243536189198494,-0.0006414343370124698,0.025188850238919258
0.030346661806106567,0.0021111504174768925,-0.0179565642029047,0.016644472256302834,-0.0006686971173621714,0.024538293480873108
0.03040231578052044,0.002108742715790868,-0.018563861027359962,0.017137927934527397,-0.0006912997341714799,0.02485506422817707
0.031031126156449318,0.002269693883135915,-0.018277322873473167,0.01651647314429283,-0.0008224403718486428,0.025147059932351112
0.031072884798049927,0.0022235943470150232,-0.019027266651391983,0.0157855786383152,-0.0007507625268772244,0.025151077657938004
0.031072884798049927,0.0022235943470150232,-0.019027266651391983,0.0157855786383152,-0.0007507625268772244,0.025151077657938004
0.030646556988358498,0.0024091885425150394,-0.017532356083393097,0.016089515760540962,-0.0006775286747142673,0.024686725810170174
0.030646556988358498,0.0024091885425150394,-0.017532356083393097,0.016089515760540962,-0.0006775286747142673,0.024686725810170174
0.030471112579107285,0.0026456115301698446,-0.018533721566200256,0.01696517877280712,-0.000695827417075634,0.024858975782990456
0.030438942834734917,0.0025458417367190123,-0.018594440072774887,0.017018495127558708,-0.0006320766406133771,0.025100981816649437
0.031062031164765358,0.0026051790919154882,-0.018120281398296356,0.016883619129657745,-0.0006454631802625954,0.025227751582860947
0.031037990003824234,0.0027368837036192417,-0.018270928412675858,0.016553020104765892,-0.0006011612131260335,0.025137778371572495
0.03145163506269455,0.0027741240337491035,-0.01882305182516575,0.017507268115878105,-0.00048622587928548455,0.024930087849497795
0.031272709369659424,0.002846749499440193,-0.018919536843895912,0.017438288778066635,-0.0005027288571000099,0.024899465963244438
0.03177753463387489,0.0028932648710906506,-0.0186267402023077,0.017483467236161232,-0.00047795037971809506,0.025005090981721878
0.029802778735756874,0.002953167073428631,-0.01901746541261673,0.017042523249983788,-0.0005035398644395173,0.024886608123779297
0.03177186846733093,0.0031068886164575815,-0.018816862255334854,0.01709662936627865,-0.0005071936175227165,0.02497899904847145
0.03188597783446312,0.003452014410868287,-0.018508708104491234,0.016915008425712585,-0.0005024179699830711,0.025159090757369995
0.031362053006887436,0.0035923717077821493,-0.018949368968605995,0.016619764268398285,-0.0005848979344591498,0.0259478110820055
0.031098438426852226,0.0035475557669997215,-0.01912129670381546,0.01686793752014637,-0.000553009333088994,0.02591848373413086
0.03174135088920593,0.0036373864859342575,-0.018470942974090576,0.01700698770582676,-0.0005864801933057606,0.025583909824490547
0.03173775225877762,0.0036911999341100454,-0.019060567021369934,0.01744179055094719,-0.000611246912740171,0.024494439363479614
0.03172481805086136,0.003511090762913227,-0.018961671739816666,0.0173752773553133,-0.0006264070398174226,0.024451183155179024
0.032284609973430634,0.003489994676783681,-0.01835332065820694,0.016907667741179466,-0.0007745212060399354,0.025387901812791824
0.03242038935422897,0.0036818399094045162,-0.01917394809424877,0.016940468922257423,-0.0008393746102228761,0.02587677724659443
0.03242293745279312,0.004023894667625427,-0.019299238920211792,0.01624680683016777,-0.0008592478698119521,0.025550736114382744
0.032374583184719086,0.004157652147114277,-0.019004682078957558,0.01644940674304962,-0.0008648904040455818,0.026240425184369087
0.03258407860994339,0.004021711181849241,-0.019347093999385834,0.016550958156585693,-0.0008993938099592924,0.02683609537780285
0.03257431834936142,0.004279999528080225,-0.019245265051722527,0.016833482310175896,-0.000851513585075736,0.02630862221121788
0.03216492757201195,0.004542459733784199,-0.01879842020571232,0.016974210739135742,-0.0007224816363304853,0.024519305676221848
0.03262821212410927,0.004141072742640972,-0.01930031180381775,0.016526229679584503,-0.0007377882138825953,0.025765210390090942
0.03262821212410927,0.004141072742640972,-0.01930031180381775,0.016526229679584503,-0.0007377882138825953,0.025765210390090942
0.03374152258038521,0.004238019697368145,-0.0194783266633749,0.017253974452614784,-0.0007079277420416474,0.026524756103754044
0.03206516429781914,0.004324967972934246,-0.019362695515155792,0.01682773232460022,-0.000679750693961978,0.026144854724407196
0.03206516429781914,0.004324967972934246,-0.019362695515155792,0.01682773232460022,-0.000679750693961978,0.026144854724407196
0.032022569328546524,0.004238572902977467,-0.019367029890418053,0.016823654994368553,-0.0006394137162715197,0.025810029357671738
0.03303090110421181,0.004872319288551807,-0.018861444666981697,0.016640692949295044,-0.000560385175049305,0.026355626061558723
0.032947491854429245,0.00450925761833787,-0.019251994788646698,0.017297260463237762,-0.0005838657962158322,0.026082495227456093
0.03370080515742302,0.004537160508334637,-0.01944304071366787,0.017075305804610252,-0.0006028740899637341,0.026322143152356148
0.0333976149559021,0.004471206571906805,-0.019291523844003677,0.016555096954107285,-0.0005878183292225003,0.02605196088552475
0.032680775970220566,0.004983058664947748,-0.01958080753684044,0.01638641767203808,-0.0005516170058399439,0.026178648695349693
0.03240704908967018,0.005082549527287483,-0.018765002489089966,0.016922812908887863,-0.0006419833516702056,0.02611304447054863
0.033740054816007614,0.004890582524240017,-0.01941787451505661,0.016922825947403908,-0.0005806574481539428,0.025898413732647896
0.03202461078763008,0.004796759691089392,-0.01928885467350483,0.017347630113363266,-0.0005154447280801833,0.026441285386681557
0.03373520076274872,0.004674131982028484,-0.019257089123129845,0.016880124807357788,-0.0005420161760412157,0.026338566094636917
0.034472525119781494,0.004666438326239586,-0.019791042432188988,0.01672438159584999,-0.0005427846335805953,0.0264553464949131
0.03382425382733345,0.004844780080020428,-0.019935796037316322,0.01705530285835266,-0.0005340669886209071,0.026362137869000435
0.033392131328582764,0.005820545833557844,-0.019043363630771637,0.016699157655239105,-0.0005555324023589492,0.026900697499513626
0.03387339413166046,0.005475136451423168,-0.019208459183573723,0.016917284578084946,-0.0005244332132861018,0.02681078389286995
0.03354378417134285,0.005611680448055267,-0.02003379352390766,0.016615290194749832,-0.0005244152853265405,0.027173981070518494
0.03387411683797836,0.005148576106876135,-0.019729746505618095,0.016665808856487274,-0.0005423789261840284,0.026973336935043335
0.0341951958835125,0.005518840625882149,-0.020026206970214844,0.01672866940498352,-0.0005123861483298242,0.026862410828471184
0.03400597721338272,0.005339417140930891,-0.01969418302178383,0.016731837764382362,-0.000536639301571995,0.026441890746355057
0.033663634210824966,0.005964805372059345,-0.0189789067953825,0.01729515939950943,-0.0005030221655033529,0.02644612453877926
0.03363898769021034,0.005564956460148096,-0.019662706181406975,0.016377197578549385,-0.0005282958736643195,0.02756725437939167
0.034878749400377274,0.005717604421079159,-0.021629242226481438,0.016191815957427025,-0.0006132159032858908,0.027971168980002403
0.035763345658779144,0.00560867739841342,-0.0200321227312088,0.015796098858118057,-0.0006749588646925986,0.027218898758292198
0.033636368811130524,0.00564810074865818,-0.01872190088033676,0.01638603024184704,-0.0007092288578860462,0.026424186304211617
0.033516958355903625,0.005891228560358286,-0.019494391977787018,0.016624854877591133,-0.0007326547056436539,0.026220278814435005
0.034775540232658386,0.006122925318777561,-0.020051931962370872,0.016231872141361237,-0.0010836876463145018,0.027239272370934486
0.03409121558070183,0.0062766289338469505,-0.02060723304748535,0.01620396226644516,-0.001071241800673306,0.027218742296099663
0.03540562093257904,0.005720813758671284,-0.01960938423871994,0.015969496220350266,-0.0009792711352929473,0.02683582901954651
0.03540562093257904,0.005720813758671284,-0.01960938423871994,0.015969496220350266,-0.0009792711352929473,0.02683582901954651
0.03528232499957085,0.005764505825936794,-0.020031116902828217,0.016531432047486305,-0.0009556986624374986,0.027927372604608536
0.03465714305639267,0.005781941115856171,-0.019680622965097427,0.016359949484467506,-0.0009028998902067542,0.028541095554828644
0.033235564827919006,0.006196690257638693,-0.019576221704483032,0.016629287973046303,-0.0009040924487635493,0.027830656617879868
0.03533044829964638,0.005694014020264149,-0.019893599674105644,0.01688276417553425,-0.0008582684677094221,0.026873121038079262
0.034612078219652176,0.005939857102930546,-0.01995934173464775,0.017105741426348686,-0.0008121734717860818,0.028123950585722923
0.034982312470674515,0.005917849950492382,-0.02006133645772934,0.01665661111474037,-0.000817508960608393,0.028949042782187462
0.034522607922554016,0.006091726943850517,-0.019767507910728455,0.017365755513310432,-0.0009400555281899869,0.028110843151807785
0.03511901572346687,0.005881438031792641,-0.019828759133815765,0.016979172825813293,-0.0009579809266142547,0.027945687994360924
0.03499477356672287,0.005820132791996002,-0.019870826974511147,0.017024608328938484,-0.0012045411858707666,0.027926141396164894
0.03487545624375343,0.006145188119262457,-0.0195620134472847,0.017201565206050873,-0.001182457897812128,0.02749953418970108
0.034788768738508224,0.006077865604311228,-0.01964063011109829,0.0167252030223608,-0.0011219955049455166,0.02758769318461418
0.03491823375225067,0.006412377581000328,-0.019970091059803963,0.016540227457880974,-0.0010343444300815463,0.02785220555961132
0.03524796664714813,0.005739825777709484,-0.020036891102790833,0.017654815688729286,-0.0009556417935527861,0.028332147747278214
0.03520875424146652,0.005723308771848679,-0.019723303616046906,0.017524439841508865,-0.0008544218144379556,0.028310660272836685
0.03561433404684067,0.006148718297481537,-0.019966673105955124,0.016880111768841743,-0.0006933049880899489,0.028398985043168068
0.035698868334293365,0.006149535533040762,-0.020030111074447632,0.016399404034018517,-0.000655888463370502,0.028688067570328712
0.03548091650009155,0.006331334821879864,-0.01973472721874714,0.016743484884500504,-0.0006297530489973724,0.028303222730755806
0.034259796142578125,0.006093040108680725,-0.01990341581404209,0.016857070848345757,-0.0006544920615851879,0.028297388926148415
0.03645142912864685,0.005801486317068338,-0.020070860162377357,0.016748955473303795,-0.0006775701767764986,0.02849137969315052
0.03634253516793251,0.006114613730460405,-0.019632836803793907,0.0163410734385252,-0.0007381925825029612,0.02848263829946518
0.03588861972093582,0.006165520288050175,-0.019913800060749054,0.01680542342364788,-0.0007729618810117245,0.028609605506062508
0.03597008436918259,0.0058006891049444675,-0.02005353942513466,0.01662726141512394,-0.0008442885591648519,0.029026437550783157
0.03611741587519646,0.003843257436528802,-0.019508494064211845,0.016207529231905937,-0.0008145576575770974,0.02887916751205921
0.03611741587519646,0.003843257436528802,-0.019508494064211845,0.016207529231905937,-0.0008145576575770974,0.02887916751205921
0.03583262860774994,0.002830892102792859,-0.019144801422953606,0.016614733263850212,-0.001116036088205874,0.02917891927063465
0.03599389269948006,0.0022784944158047438,-0.01939278095960617,0.016663359478116035,-0.0010960644576698542,0.02900797687470913
0.03635087236762047,0.0034015856217592955,-0.019489306956529617,0.017403483390808105,-0.0009669478749856353,0.028963971883058548
0.036087773740291595,0.004195422865450382,-0.01956113986670971,0.017023375257849693,-0.0009512281394563615,0.028257271274924278
0.035592157393693924,0.003927961457520723,-0.01908290944993496,0.016469154506921768,-0.0007542656385339797,0.029495371505618095
0.03744083642959595,0.0035291200038045645,-0.018985632807016373,0.01594117283821106,-0.0007435980369336903,0.029292210936546326
0.0366925373673439,0.0033579731825739145,-0.019642570987343788,0.01676243543624878,-0.0006787756574340165,0.03019195981323719
0.03495007008314133,0.003553191665560007,-0.01996573433279991,0.016521338373422623,-0.0006911021191626787,0.030370179563760757
0.035061199218034744,0.003754908451810479,-0.01931130141019821,0.016778776422142982,-0.0006769923493266106,0.02918265573680401
0.036552585661411285,0.003879321739077568,-0.01968013308942318,0.016907185316085815,-0.0006554112187586725,0.028404202312231064
0.03677963837981224,0.003631721716374159,-0.020052028819918633,0.016293946653604507,-0.0006388364126905799,0.028508106246590614
0.037468865513801575,0.0035730618983507156,-0.01956871896982193,0.017040906473994255,-0.0005920403054915369,0.02960698865354061
0.03735107555985451,0.0036919566337019205,-0.020303839817643166,0.01650596410036087,-0.0006225822726264596,0.02921774797141552
0.03535403311252594,0.0038083391264081,-0.02052687667310238,0.01708259992301464,-0.0006448828498832881,0.030032699927687645
0.03546949103474617,0.003775533754378557,-0.0192696675658226,0.01684742607176304,-0.0006743086851201952,0.0302598737180233
0.037103984504938126,0.0035849062260240316,-0.019675616174936295,0.01673654280602932,-0.0009127315133810043,0.02991681918501854
0.03707142174243927,0.0036141639575362206,-0.02042960561811924,0.01616034284234047,-0.0008711448172107339,0.028876788914203644
0.03670011833310127,0.0037775819655507803,-0.020110445097088814,0.015539867803454399,-0.0008473086636513472,0.02844277024269104
0.036976829171180725,0.003983563277870417,-0.020246656611561775,0.015956809744238853,-0.0008244207128882408,0.029798224568367004
0.03664102032780647,0.004067736212164164,-0.019976945593953133,0.016201602295041084,-0.0007835564902052283,0.030401356518268585
0.03728099539875984,0.003959887661039829,-0.019903533160686493,0.017030859366059303,-0.0007669898914173245,0.03023003786802292
0.036940377205610275,0.0042461915872991085,-0.020153045654296875,0.017708780243992805,-0.0007749070064164698,0.029937762767076492
0.03660143166780472,0.004181052092462778,-0.02084749937057495,0.017777107656002045,-0.0007905891980044544,0.029836250469088554
0.03683631122112274,0.004048157949000597,-0.02037087269127369,0.017597295343875885,-0.0008032885380089283,0.02960140071809292
0.03683631122112274,0.004048157949000597,-0.02037087269127369,0.017597295343875885,-0.0008032885380089283,0.02960140071809292
0.03659022971987724,0.004454938694834709,-0.019630784168839455,0.01690008118748665,-0.0009445015457458794,0.029725581407546997
0.037887923419475555,0.004353445954620838,-0.019915759563446045,0.01724780723452568,-0.0010932679288089275,0.02996171824634075
0.037887923419475555,0.004353445954620838,-0.019915759563446045,0.01724780723452568,-0.0010932679288089275,0.02996171824634075
0.03695900738239288,0.004420487210154533,-0.019531235098838806,0.01682024635374546,-0.0011242999462410808,0.029863163828849792
0.03573121502995491,0.004705345723778009,-0.019461676478385925,0.016968341544270515,-0.001157506019808352,0.029759027063846588
0.036628566682338715,0.004932956304401159,-0.020058810710906982,0.017508408054709435,-0.0011020093224942684,0.03032867982983589
0.0374322235584259,0.004676572512835264,-0.019737299531698227,0.01705668680369854,-0.0010105343535542488,0.02888164110481739
0.0374322235584259,0.004676572512835264,-0.019737299531698227,0.01705668680369854,-0.0010105343535542488,0.02888164110481739
0.036075059324502945,0.004904359579086304,-0.020515140146017075,0.017066432163119316,-0.0009897404816001654,0.030903933569788933
0.03623383492231369,0.0048642647452652454,-0.019604140892624855,0.016967691481113434,-0.0009784904541447759,0.030605405569076538
0.03752335533499718,0.0047066593542695045,-0.019979121163487434,0.017539048567414284,-0.0009531592950224876,0.03091653436422348
0.03751944378018379,0.004922522231936455,-0.020540960133075714,0.017640888690948486,-0.0009388175094500184,0.030594641342759132
0.03748247027397156,0.005064112599939108,-0.02029089443385601,0.01742529682815075,-0.0008638293365947902,0.030858227983117104
0.037521425634622574,0.004863526672124863,-0.0202194657176733,0.01732633449137211,-0.0008555611711926758,0.02997625060379505
0.03727268427610397,0.0058670975267887115,-0.020484421402215958,0.016622934490442276,-0.0008458307711407542,0.030528975650668144
0.037646953016519547,0.005948835052549839,-0.02042754553258419,0.016695842146873474,-0.00082380574895069,0.03195939213037491
0.038114726543426514,0.004943857900798321,-0.020620374009013176,0.016458723694086075,-0.0008499528630636632,0.03171614557504654
0.03730238601565361,0.005181363318115473,-0.020675642415881157,0.01660420186817646,-0.0008580863359384239,0.02998044714331627
0.037351202219724655,0.005548914894461632,-0.02070803940296173,0.01697210967540741,-0.0008780222851783037,0.0296268742531538
0.0382196269929409,0.005647246725857258,-0.02045707404613495,0.016880126670002937,-0.0010634659556671977,0.030848562717437744
0.038130298256874084,0.005764729809015989,-0.02080044150352478,0.017005782574415207,-0.0011490515898913145,0.031146006658673286
0.038388412445783615,0.005967839155346155,-0.021075470373034477,0.015536472201347351,-0.0011155202519148588,0.0316317155957222
0.03873341530561447,0.005583699326962233,-0.02056562341749668,0.017406415194272995,-0.0010240641422569752,0.03242252767086029
0.03893209621310234,0.005708780139684677,-0.020102623850107193,0.018228426575660706,-0.0009089192026294768,0.03161028400063515
0.0385437048971653,0.005770952440798283,-0.021383948624134064,0.017998114228248596,-0.00080927211092785,0.030768051743507385
