davideferrari95/blind_handover_controller/data/Test 238 - [2024-02-08 -- 12-32-39]/joint_states_data.csv
shoulder_pan_joint,shoulder_lift_joint,elbow_joint,wrist_1_joint,wrist_2_joint,wrist_3_joint
0.0018729957519099116,0.007389514707028866,-0.00837425421923399,0.001107900869101286,-0.0,0.002085865940898657
0.0018729957519099116,0.007389514707028866,-0.00837425421923399,0.001107900869101286,-0.0,0.002085865940898657
0.001956398133188486,0.0070380643010139465,-0.009405980817973614,0.0010864674113690853,-0.0,0.0019029374234378338
0.0020034457556903362,0.006751613225787878,-0.00873724278062582,0.0011392373126000166,-0.0,0.001703506801277399
0.002226884476840496,0.007408169098198414,-0.008520609699189663,0.0011817588238045573,-0.0,0.0016299517592415214
0.0021769115701317787,0.00767927709966898,-0.009090744890272617,0.00122649478726089,-0.0,0.001452723634429276
0.002044986467808485,0.006689588539302349,-0.008349744603037834,0.0011422578245401382,-0.0,0.0013971352018415928
0.0020951973274350166,0.006934689357876778,-0.008647789247334003,0.0011789090931415558,-0.0,0.0015542805194854736
0.0020951973274350166,0.006934689357876778,-0.008647789247334003,0.0011789090931415558,-0.0,0.0015542805194854736
0.002035766839981079,0.007457240018993616,-0.008811073377728462,0.0010483741061761975,-0.0,0.0016851738328114152
0.0020997340325266123,0.006742684170603752,-0.008426850661635399,0.0010013238061219454,-0.0,0.002399455290287733
0.0020997340325266123,0.006742684170603752,-0.008426850661635399,0.0010013238061219454,-0.0,0.002399455290287733
0.0023481235839426517,0.0070394123904407024,-0.009192466735839844,0.0010170148452743888,-2.6757445539260516e-06,0.002380950376391411
0.0021333477925509214,0.007127079181373119,-0.00853756070137024,0.001004188903607428,-1.7470698310262378e-07,0.0024471618235111237
0.002256056759506464,0.007608289830386639,-0.008268008939921856,0.0010399165330454707,-1.1407117916917286e-08,0.0022160918451845646
0.0025150126311928034,0.007047960069030523,-0.009100391529500484,0.0012972165131941438,-7.448032746104616e-10,0.002161597367376089
0.003092897590249777,0.0067907050251960754,-0.008550591766834259,0.0013273683143779635,-4.863033239987935e-11,0.0022568965796381235
0.0029175609815865755,0.007958406582474709,-0.008234185166656971,0.0012697610072791576,-0.0006981535698287189,0.00230024172924459
0.003059603273868561,0.007894555106759071,-0.008522151969373226,0.0013204310089349747,-0.0009624698432162404,0.002546700183302164
0.002981761237606406,0.007429062854498625,-0.009223634377121925,0.0012991389958187938,-0.0013491770951077342,0.002881391439586878
0.0029537908267229795,0.007145233452320099,-0.008874048478901386,0.001232612645253539,-0.0016543921083211899,0.003131367964670062
0.0028059021569788456,0.007560595870018005,-0.008100290782749653,0.0011722235940396786,-0.0015778677770867944,0.003017261391505599
0.003305915044620633,0.007166957948356867,-0.008273927494883537,0.0012818388640880585,-0.0015375891234725714,0.003256124909967184
0.004276460502296686,0.007214090786874294,-0.008314171805977821,0.0012472168309614062,-0.0014711969997733831,0.003300558775663376
0.004202133510261774,0.006627043709158897,-0.00813570898026228,0.0015058215940371156,-0.0013876243028789759,0.0034559546038508415
0.003416062332689762,0.006967291235923767,-0.00871317833662033,0.0014180723810568452,-0.0014703292399644852,0.003283572616055608
0.003307426581159234,0.007414603140205145,-0.008363493718206882,0.001323655596934259,-0.0014871580060571432,0.003074006177484989
0.0037854460533708334,0.006934089120477438,-0.00818985141813755,0.0012946386123076081,-0.0016757857520133257,0.0029983932618051767
0.003988897427916527,0.006929941009730101,-0.008257120847702026,0.0012705912813544273,-0.0018367292359471321,0.0031811895314604044
0.004280214197933674,0.0068118940107524395,-0.008409659378230572,0.0012303635012358427,-0.0022977653425186872,0.003417195752263069
0.004089726135134697,0.007216483820229769,-0.007867611013352871,0.0013290743809193373,-0.0021091331727802753,0.0036791074089705944
0.003907377365976572,0.007411921862512827,-0.007532051298767328,0.0013102242955937982,-0.0020653530955314636,0.0037719919346272945
0.0037928156089037657,0.0069209495559334755,-0.008274581283330917,0.0012753565097227693,-0.0018547388026490808,0.0035176200326532125
0.004340499173849821,0.007190607488155365,-0.00875882152467966,0.0013830822426825762,-0.001676379470154643,0.0035319202579557896
0.004696716088801622,0.007832071743905544,-0.00793934240937233,0.001422828994691372,-0.001579590025357902,0.003313966328278184
0.004166940227150917,0.006899707950651646,-0.007898645475506783,0.0013903623912483454,-0.0015644882805645466,0.003536062315106392
0.004099634476006031,0.006046047434210777,-0.008284587413072586,0.0013727624900639057,-0.001761257997713983,0.00389707088470459
0.0042899297550320625,0.007441006135195494,-0.008315141312777996,0.0013339038705453277,-0.0020645251497626305,0.003537852084264159
0.0042899297550320625,0.007441006135195494,-0.008315141312777996,0.0013339038705453277,-0.0020645251497626305,0.003537852084264159
0.004919139668345451,0.007022628095000982,-0.008156100288033485,0.0013354737311601639,-0.002196597633883357,0.004170401953160763
0.004919139668345451,0.007022628095000982,-0.008156100288033485,0.0013354737311601639,-0.002196597633883357,0.004170401953160763
0.005028853192925453,0.007078217808157206,-0.007641230709850788,0.0014313276624307036,-0.001771188573911786,0.004283021204173565
0.004899440333247185,0.006861154455691576,-0.00779859721660614,0.001417049439623952,-0.0015208582626655698,0.00433704536408186
0.004901035223156214,0.007250634953379631,-0.008440928533673286,0.0015588304959237576,-0.001487977453507483,0.004068313632160425
0.005162592511624098,0.0068254731595516205,-0.008430084213614464,0.0016763316234573722,-0.00131043023429811,0.0038840826600790024
0.005486309062689543,0.00668797641992569,-0.007843122817575932,0.0016128078568726778,-0.0012160670012235641,0.0038510768208652735
0.0054031237959861755,0.006492559798061848,-0.007622811943292618,0.0016786513151600957,-0.001168050803244114,0.004262488801032305
0.005316249094903469,0.006916229147464037,-0.008420399390161037,0.0015448157209903002,-0.0011336506577208638,0.0048338137567043304
0.005107288248836994,0.0072439685463905334,-0.008370714262127876,0.0015131754335016012,-0.0012017985573038459,0.00491367420181632
0.005204115994274616,0.006973156705498695,-0.0075830817222595215,0.001538181328214705,-0.001150329946540296,0.0046206447295844555
0.005382536444813013,0.007441327907145023,-0.008077123202383518,0.0014760908670723438,-0.0011093452339991927,0.004437182564288378
0.005199840757995844,0.0068285842426121235,-0.008415057323873043,0.001549420994706452,-0.001032753847539425,0.0040033371187746525
0.006032021716237068,0.006957396399229765,-0.007644276600331068,0.0015067853964865208,-0.0010144711704924703,0.0038054727483540773
0.00635497597977519,0.0067090000957250595,-0.007668839767575264,0.001520247315056622,-0.0009224928799085319,0.004277889616787434
0.005444228649139404,0.007070763967931271,-0.007750040385872126,0.0015754838241264224,-0.0009050430962815881,0.004526665434241295
0.005351594183593988,0.00723444577306509,-0.00808424036949873,0.001532319001853466,-0.0008047487353906035,0.004883524030447006
0.0056416066363453865,0.007149148266762495,-0.007716946303844452,0.00165273726452142,-0.0007632730412296951,0.004721770994365215
0.005706291180104017,0.0068094306625425816,-0.0081299664452672,0.001501170452684164,-0.0007297168485820293,0.004793454427272081
0.005710034631192684,0.007345243357121944,-0.008560890331864357,0.0013828454539179802,-0.0006651119911111891,0.004772108979523182
0.005454933736473322,0.007564170751720667,-0.008029662072658539,0.0011994177475571632,-0.0006089851376600564,0.004458404611796141
0.005564396269619465,0.007671608589589596,-0.007788671646267176,0.001127077848650515,-0.0005641732132062316,0.004563487134873867
0.005460079293698072,0.006729189772158861,-0.007964995689690113,0.0012114847777411342,-0.0004569854645524174,0.004567824769765139
0.006075861398130655,0.006526088807731867,-0.009251359850168228,0.0014346009120345116,-0.0004118126817047596,0.004710658453404903
0.005788734182715416,0.006850847974419594,-0.008057842031121254,0.0015313514741137624,-0.0003770512412302196,0.004756666254252195
0.005527620203793049,0.006650190334767103,-0.00843073334544897,0.0016380399465560913,-0.00038625055458396673,0.004550687037408352
0.0054154833778738976,0.0071457065641880035,-0.00912002008408308,0.0015685581602156162,-0.00036142574390396476,0.004303411114960909
0.005621789488941431,0.006636069156229496,-0.00807829201221466,0.001590130035765469,-0.0003388036566320807,0.004335113801062107
0.005621789488941431,0.006636069156229496,-0.00807829201221466,0.001590130035765469,-0.0003388036566320807,0.004335113801062107
0.005250005517154932,0.007099812384694815,-0.008226118050515652,0.0015770846512168646,-0.0003187965485267341,0.004539850167930126
0.005135905463248491,0.007142265327274799,-0.008720165118575096,0.0017245886847376823,-0.00030101751326583326,0.004660293459892273
0.005570075940340757,0.006666146218776703,-0.008550591766834259,0.0017944101709872484,-0.0002851187891792506,0.004312677774578333
0.005257317330688238,0.007052326574921608,-0.008518156595528126,0.0020014753099530935,-0.0003041186719201505,0.004147387109696865
0.005094085820019245,0.006999571342021227,-0.009288450703024864,0.0020149662159383297,-0.00030008514295332134,0.0039497907273471355
0.005118726287037134,0.007350653875619173,-0.008846243843436241,0.0020636527333408594,-0.0002870912430807948,0.0038727258797734976
0.0056600309908390045,0.007160720881074667,-0.008350150659680367,0.002012388315051794,-0.0002746183308772743,0.003909483551979065
0.005226477514952421,0.007480028085410595,-0.009010027162730694,0.00200785999186337,-0.000263147841906175,0.004276519175618887
0.004773455671966076,0.006813019048422575,-0.00935355108231306,0.0019675609655678272,-0.0002525951131246984,0.0042268056422472
0.004617086611688137,0.0070020779967308044,-0.009469864889979362,0.0019199445378035307,-0.00024285574909299612,0.004511632490903139
0.004703066777437925,0.006543166469782591,-0.008516103029251099,0.0018183813663199544,-0.00023384038649965078,0.004678831435739994
0.005101263057440519,0.006713619455695152,-0.00920127797871828,0.001807871856726706,-0.00022547057596966624,0.004341569729149342
0.004937632475048304,0.006885175127536058,-0.008545797318220139,0.0018266543047502637,-0.00021767897123936564,0.004267644137144089
0.004704517312347889,0.0068608662113547325,-0.008681342005729675,0.0019635038916021585,-0.00021040796127635986,0.004087436478585005
0.004607491195201874,0.006346418522298336,-0.009425561875104904,0.001977481646463275,-0.00020360652706585824,0.003929486498236656
0.00444750813767314,0.006437224801629782,-0.009416411630809307,0.0021027480252087116,-0.0001972319296328351,0.004376331809908152
0.004842858295887709,0.0066889869049191475,-0.008978290483355522,0.0021363175474107265,-0.00019124455866403878,0.004758329596370459
0.004823782481253147,0.007503692992031574,-0.009211823344230652,0.0022663765121251345,-0.00018560909666121006,0.0047063762322068214
0.0049304296262562275,0.006859939079731703,-0.009325932711362839,0.0021888252813369036,-0.0001802971091819927,0.00416469294577837
0.004579067695885897,0.006409249734133482,-0.009170901961624622,0.002307731192559004,-0.00019863875058945268,0.004207144491374493
0.0048215026035904884,0.006691190414130688,-0.00903600174933672,0.0021814838983118534,-0.00019478803733363748,0.004505503457039595
0.004852880723774433,0.006695421412587166,-0.009540368802845478,0.0020884026307612658,-0.00018975359853357077,0.004594283644109964
0.004804400727152824,0.006114100571721792,-0.008960159495472908,0.0021087678615003824,-0.00018488685600459576,0.004436523653566837
0.004804400727152824,0.006114100571721792,-0.008960159495472908,0.0021087678615003824,-0.00018488685600459576,0.004436523653566837
0.004638098645955324,0.005147951655089855,-0.009192108176648617,0.0022171714808791876,-0.0001758554863044992,0.004242013208568096
0.004924235865473747,0.005906579550355673,-0.009099853225052357,0.002050047740340233,-0.00017166267207358032,0.004247068427503109
0.004822874907404184,0.005918013397604227,-0.009071579203009605,0.0021193097345530987,-0.0001676650281297043,0.004064516164362431
0.004016936756670475,0.006277856417000294,-0.009281260892748833,0.0020141438581049442,-0.0001638492103666067,0.004328081384301186
0.003914623521268368,0.00664563337340951,-0.009588850662112236,0.002031866228207946,-0.0001602035335963592,0.004448760766535997
0.00513731362298131,0.00586741091683507,-0.008835513144731522,0.0021732919849455357,-0.00015671645815018564,0.004336264915764332
0.005155223421752453,0.005823252256959677,-0.010119408369064331,0.0021806962322443724,-0.00015337766672018915,0.0044591398909688
0.004795893095433712,0.005756164435297251,-0.009233573451638222,0.0022178178187459707,-0.00015017841360531747,0.004223629832267761
0.004715809598565102,0.006250507198274136,-0.00891142338514328,0.002144548809155822,-0.00014711004041600972,0.004288164898753166
0.00479179946705699,0.006515806075185537,-0.00876288115978241,0.0020517308730632067,-0.00014416441263165325,0.004441325552761555
0.004423764068633318,0.005674371030181646,-0.008196782320737839,0.0020654804538935423,-0.00014133435615804046,0.004613399505615234
0.004525750409811735,0.005832380149513483,-0.009226188994944096,0.0022458566818386316,-0.00013861333718523383,0.004438572097569704
0.0045512025244534016,0.005758987739682198,-0.009278731420636177,0.002107348060235381,-0.00013599515659734607,0.004475061781704426
0.00481379684060812,0.006323395296931267,-0.009372437372803688,0.0020776698365807533,-0.00013347406638786197,0.004401654936373234
0.004745004698634148,0.006116022355854511,-0.009659476578235626,0.001963148359209299,-0.00013104478421155363,0.004254027269780636
0.004780493676662445,0.005795372650027275,-0.00858411006629467,0.001968995202332735,-0.0001287022460019216,0.0040458813309669495
0.004399511963129044,0.006072483025491238,-0.009387810714542866,0.0021081604063510895,-0.0001264420134248212,0.004247992765158415
0.004400246776640415,0.00548610370606184,-0.008743279613554478,0.002125054132193327,-0.00012425982276909053,0.004374943673610687
0.004485596437007189,0.006032921373844147,-0.008663779124617577,0.0020933819469064474,-0.00012215162860229611,0.004322383552789688
0.004697967786341906,0.006103991065174341,-0.009290081448853016,0.0021425129380077124,-0.0001201139239128679,0.004511732142418623
0.0048051937483251095,0.006198095623403788,-0.009210369549691677,0.002461119554936886,-0.000118142859719228,0.0045009092427790165
0.004625746514648199,0.005704932380467653,-0.008423767983913422,0.0025602667592465878,-0.00011623565660556778,0.004351833835244179
0.004685136955231428,0.005771279335021973,-0.008457175455987453,0.0025155595503747463,-0.00011438898218329996,0.003998583648353815
0.0047464994713664055,0.006257651839405298,-0.008975339122116566,0.0027350918389856815,-0.00011260007158853114,0.0036287661641836166
0.004726238548755646,0.00625373050570488,-0.008753839880228043,0.0028843777254223824,-0.000110866196337156,0.004041207488626242
0.004503033589571714,0.0064188288524746895,-0.008531308732926846,0.002661277772858739,-0.00010918501357082278,0.0045914193615317345
0.004898182116448879,0.006386823486536741,-0.008872064761817455,0.002612813375890255,-0.00010755398398032412,0.004514283500611782
0.0049090017564594746,0.0057021561078727245,-0.0076498305425047874,0.0023101645056158304,-0.00010597095388220623,0.004390072543174028
0.004646958317607641,0.006236994173377752,-0.008175643160939217,0.002333484124392271,-0.0001029408085742034,0.0034211131278425455
0.004720877856016159,0.0059906975366175175,-0.00809959415346384,0.0021601084154099226,-0.0001014898152789101,0.003500087419524789
0.004720877856016159,0.0059906975366175175,-0.00809959415346384,0.0021601084154099226,-0.0001014898152789101,0.003500087419524789
0.004696807824075222,0.00592409074306488,-0.007920665666460991,0.0022187705617398024,-0.00010007910168496892,0.0038109056185930967
0.004851305857300758,0.005901877768337727,-0.0076766167767345905,0.0023217324633151293,-9.870711801340804e-05,0.004139857832342386
0.004916778765618801,0.006215069442987442,-0.007827946916222572,0.002278899308294058,-9.737221262184903e-05,0.004117559175938368
0.005088748410344124,0.006379169411957264,-0.008197853341698647,0.0021653950680047274,-9.607292304281145e-05,0.004318173974752426
0.004949751775711775,0.006090075243264437,-0.00825974065810442,0.002080722013488412,-9.480788139626384e-05,0.004220901522785425
0.004752935841679573,0.006283390801399946,-0.007982568815350533,0.0019910067785531282,-9.357573435408995e-05,0.0036401094403117895
0.004699225537478924,0.006343009416013956,-0.0079596983268857,0.002019546227529645,-9.2375157692004e-05,0.0034397528506815434
0.005243982188403606,0.006338310893625021,-0.00787315983325243,0.002278081374242902,-9.12050309125334e-05,0.004027423914521933
0.00627089012414217,0.006333522964268923,-0.007603177800774574,0.0023173470981419086,-9.006416075862944e-05,0.004162101075053215
0.006229752209037542,0.006523693446069956,-0.007485995069146156,0.0024917745031416416,-8.895147038856521e-05,0.003976385109126568
0.006169954780489206,0.006005622446537018,-0.00791542325168848,0.0025997450575232506,-8.786599937593564e-05,0.004098991397768259
0.00568285770714283,0.005914485082030296,-0.008204147219657898,0.0024652110878378153,-8.6806649051141e-05,0.0042138658463954926
0.00591269601136446,0.006544690113514662,-0.008343786001205444,0.0025573254097253084,-8.577248809160665e-05,0.0037342363502830267
0.006482170429080725,0.0065903556533157825,-0.008026727475225925,0.0026629813946783543,-8.476281800540164e-05,0.003466494381427765
0.005898629780858755,0.00611150125041604,-0.008433404378592968,0.002759813331067562,-8.377647463930771e-05,0.0035857351031154394
0.005952035542577505,0.00637015188112855,-0.008214113302528858,0.0025884828064590693,-8.281296322820708e-05,0.003808190580457449
0.006242061499506235,0.006492391228675842,-0.0079596396535635,0.0026554325595498085,-8.1871279689949e-05,0.003554311115294695
0.0061500645242631435,0.00654075900092721,-0.008365564979612827,0.0026873282622545958,-6.88622603775002e-05,0.003432414960116148
0.006436339113861322,0.006255239713937044,-0.008231000043451786,0.0026138315442949533,-5.6463719374733046e-05,0.003545427694916725
0.006387684028595686,0.0064736707136034966,-0.008054462261497974,0.0026372151914983988,-5.501998384715989e-05,0.004189133178442717
0.005687580443918705,0.0066104489378631115,-0.007629932835698128,0.002643039682880044,-5.4306743550114334e-05,0.00405231025069952
0.005827142391353846,0.006464973092079163,-0.008495685644447803,0.002521852497011423,-5.365601828088984e-05,0.0035820133052766323
0.007007444277405739,0.006302046123892069,-0.00851421058177948,0.0025456040166318417,-5.302360295900144e-05,0.0032910285517573357
0.006320029031485319,0.0065968697890639305,-0.0077059222385287285,0.0025838701985776424,-5.240612881607376e-05,0.003260801313444972
0.005778078455477953,0.006236507091671228,-0.008151859976351261,0.002505009761080146,-5.180282823857851e-05,0.003480680985376239
0.005642537958920002,0.006008177530020475,-0.008946599438786507,0.0026043951511383057,-5.121331923874095e-05,0.0036673389840871096
0.006997082382440567,0.006762981880456209,-0.007757668383419514,0.002618897007778287,-5.007356230635196e-05,0.003972898703068495
0.006997082382440567,0.006762981880456209,-0.007757668383419514,0.002618897007778287,-5.007356230635196e-05,0.003972898703068495
0.0068900492042303085,0.006162398960441351,-0.008757502771914005,0.002791120670735836,-2.510282865841873e-05,0.0038019095081835985
0.006245162803679705,0.00631190650165081,-0.009000873193144798,0.002663377672433853,-1.6390351902373368e-06,0.003487685462459922
0.006254913751035929,0.006592808291316032,-0.008037043735384941,0.002527666511014104,-1.070172856998397e-07,0.0035563772544264793
0.0058458284474909306,0.006448686122894287,-0.008202881552278996,0.0026575899682939053,-6.98746394078853e-09,0.0033863128628581762
0.006250195205211639,0.006074404809623957,-0.008667937479913235,0.002598951105028391,-4.562314415146318e-10,0.003559510223567486
0.006581268738955259,0.006157285999506712,-0.008605221286416054,0.002511653583496809,-2.978865071279202e-11,0.0036686649546027184
0.006076507270336151,0.006030663847923279,-0.008486510254442692,0.0024120050948113203,-1.9449860558934384e-12,0.0036979217547923326
0.005853060632944107,0.0066269077360630035,-0.009159055538475513,0.0025073718279600143,-1.2699369821792678e-13,0.00332390028052032
0.0065962811931967735,0.006493858993053436,-0.008608427830040455,0.002461477182805538,-8.291780856492428e-15,0.0031270331237465143
0.006292499136179686,0.006215088535100222,-0.008359636180102825,0.0027455701492726803,-5.413940254900317e-16,0.003152936464175582
0.0064056492410600185,0.00619607325643301,-0.00896956492215395,0.0028545234818011522,-3.534915981331471e-17,0.003218164900317788
0.006403438746929169,0.006628509145230055,-0.009132816456258297,0.002833233680576086,-2.308047321620986e-18,0.003109242767095566
0.006504044868052006,0.0069082207046449184,-0.008507358841598034,0.0026985204312950373,-1.5069900809387544e-19,0.0031561574432998896
0.006393903400748968,0.0064108665101230145,-0.008376422338187695,0.0027862645220011473,-9.839569456878986e-21,0.0032510391902178526
0.006558363325893879,0.006163675803691149,-0.008835465647280216,0.0028628134168684483,-6.424535718701772e-22,0.0032117993105202913
0.006778292823582888,0.006495770998299122,-0.00861648004502058,0.00288878520950675,-4.194762499258575e-23,0.003201243933290243
0.0063773407600820065,0.005916917696595192,-0.00843935739248991,0.0028019538149237633,-2.7388802950709817e-24,0.003211498260498047
0.006173831410706043,0.006522824056446552,-0.00900180358439684,0.00295026833191514,-1.788293191429767e-25,0.0033455556258559227
0.006956111174076796,0.005990034434944391,-0.00907533336430788,0.0030514367390424013,-1.1676277695938163e-26,0.003224573563784361
0.006760604679584503,0.0057725729420781136,-0.00861123763024807,0.0029536373913288116,-7.623774425557429e-28,0.0030231422279030085
0.006712970323860645,0.006151719484478235,-0.009303000755608082,0.0028131362050771713,-4.977780200975124e-29,0.002801090246066451
0.006596642080694437,0.006021954119205475,-0.008917612954974174,0.0028798524290323257,-3.250135051097022e-30,0.0028425443451851606
0.006622389890253544,0.006451059132814407,-0.008678644895553589,0.0030751843005418777,-2.122106080706136e-31,0.0028674821369349957
0.006609272211790085,0.006720279343426228,-0.009084937162697315,0.0030244674999266863,-1.385583550115444e-32,0.0029409804847091436
0.006479792296886444,0.006794514134526253,-0.009349686093628407,0.002668576780706644,-9.046870846867183e-34,0.0028688230086117983
0.006868521682918072,0.006362095940858126,-0.009290585294365883,0.002714077942073345,-5.906960131927769e-35,0.0028335063252598047
0.006922900676727295,0.00627904012799263,-0.010097834281623363,0.0027052678633481264,-2.5182295255182875e-37,0.0027838305104523897
0.006854846142232418,0.006033920217305422,-0.009158937260508537,0.002846755553036928,-1.644224202983853e-38,0.002702169818803668
0.006854846142232418,0.006033920217305422,-0.009158937260508537,0.002846755553036928,-1.644224202983853e-38,0.002702169818803668
0.0065812948159873486,0.006061895750463009,-0.00902859028428793,0.0029615259263664484,-1.0735613781900645e-39,0.0030727304983884096
0.006802513264119625,0.006219294387847185,-0.009105360135436058,0.0030999225564301014,-7.0095751782456e-41,0.0033746722619980574
0.006789587438106537,0.006583939306437969,-0.009347907267510891,0.003159329993650317,-4.5766407844848526e-42,0.003226145636290312
0.007165591232478619,0.006265664007514715,-0.008698919788002968,0.0033929257187992334,-2.9847657290118604e-43,0.003047799225896597
0.006809171289205551,0.0064124660566449165,-0.008732530288398266,0.0032778996974229813,-1.961817850054744e-44,0.002859825734049082
0.0065413713455200195,0.006057951599359512,-0.00949640292674303,0.00313233258202672,-1.401298464324817e-45,0.0030858926475048065
0.006671525537967682,0.005774105899035931,-0.008817248977720737,0.00306004099547863,-0.0,0.0030479873530566692
0.006895855534821749,0.005659317597746849,-0.00873369537293911,0.0031554093584418297,-0.0,0.0029316910076886415
0.007345173507928848,0.005759529769420624,-0.009398014284670353,0.003476833924651146,-0.0,0.002783602336421609
0.00702813221141696,0.006028967443853617,-0.00953012052923441,0.0038190288469195366,-0.0,0.0027465217281132936
0.007478801533579826,0.005536030046641827,-0.008525772951543331,0.0034867848735302687,-0.0,0.002770052757114172
0.006805893033742905,0.005848248489201069,-0.009407156147062778,0.0035729496739804745,-0.0,0.002762682968750596
0.006975661963224411,0.006155349779874086,-0.009019066579639912,0.003668264951556921,-0.0,0.002664044266566634
0.00682976096868515,0.0061173816211521626,-0.008463431149721146,0.0038098373916000128,-0.0,0.002663738327100873
0.007004706654697657,0.005919196177273989,-0.009098800830543041,0.0038672611117362976,-0.0,0.0025728396140038967
0.0071057602763175964,0.005491681396961212,-0.008883154951035976,0.003471572883427143,-0.0,0.002432657405734062
0.007410358637571335,0.005724434275180101,-0.009438339620828629,0.0032019177451729774,-0.0,0.0022204748820513487
0.007630272302776575,0.0058814529329538345,-0.008909516036510468,0.0031284417491406202,-0.0,0.0021753706969320774
0.007138499524444342,0.006031122524291277,-0.009744767099618912,0.003328470978885889,-0.0,0.002248876728117466
0.008144555613398552,0.005393003113567829,-0.009407060220837593,0.0036343508400022984,-0.0,0.0024268697015941143
0.00795122142881155,0.0052965725772082806,-0.009054534137248993,0.003766426118090749,-0.0,0.0024487434420734644
0.007663082331418991,0.005149804055690765,-0.009452431462705135,0.0035594459623098373,-0.0,0.0027957349084317684
0.007637802977114916,0.006027408875524998,-0.00905178114771843,0.003575168317183852,-0.0,0.0025123502127826214
0.007686306722462177,0.006073765456676483,-0.008871207945048809,0.0033315608743578196,-0.0,0.0022994838654994965
0.007867410778999329,0.005718303378671408,-0.009678013622760773,0.0033761162776499987,-0.0,0.002188754267990589
0.007867410778999329,0.005718303378671408,-0.009678013622760773,0.0033761162776499987,-0.0,0.002188754267990589
0.007891470566391945,0.005603922065347433,-0.0099331084638834,0.0036264865193516016,-0.0,0.0021705101244151592
0.007891470566391945,0.005603922065347433,-0.0099331084638834,0.0036264865193516016,-0.0,0.0021705101244151592
0.007666923571377993,0.006172546185553074,-0.009554926306009293,0.003465150948613882,-0.0,0.0021743529941886663
0.008032971061766148,0.005870277527719736,-0.009276327677071095,0.0033315615728497505,-0.0,0.002286133822053671
0.008393693715333939,0.005753468256443739,-0.00967374537140131,0.003237385069951415,-0.0,0.002189644845202565
0.007957059890031815,0.005565126426517963,-0.009550157003104687,0.003434607060626149,-0.0,0.0018551636021584272
0.008283483795821667,0.005703335162252188,-0.009770208969712257,0.0033557573333382607,-0.0,0.0017584776505827904
0.007828934118151665,0.006173613015562296,-0.009870568290352821,0.0035156167577952147,-0.0,0.0016680264379829168
0.008259393274784088,0.005902338773012161,-0.00911645032465458,0.003727138275280595,-0.0,0.001805003616027534
0.008349635638296604,0.006035114638507366,-0.009029727429151535,0.003779026446864009,-0.0,0.001738626742735505
0.008153309114277363,0.0056076557375490665,-0.00998399592936039,0.0034428515937179327,-0.0,0.0019735381938517094
0.007944923825562,0.005844794679433107,-0.00968159269541502,0.003481302410364151,-0.0,0.0020048196893185377
0.008988485671579838,0.005625920835882425,-0.00922852847725153,0.003637261688709259,-0.0,0.0020645821932703257
0.008454173803329468,0.0059701199643313885,-0.009727349504828453,0.0042871697805821896,-0.0,0.001860766438767314
0.008115626871585846,0.005304448772221804,-0.009447663091123104,0.004639666061848402,-0.0,0.001882786164060235
0.008527588099241257,0.00526522658765316,-0.009022821672260761,0.004328527022153139,-0.0,0.0018015704117715359
0.008493207395076752,0.005415020510554314,-0.010037665255367756,0.003998702857643366,-0.0,0.0019323291489854455
0.008264272473752499,0.006111769005656242,-0.010077724233269691,0.003843722864985466,-0.0,0.0018527073552832007
0.007806338835507631,0.005957700312137604,-0.009479817003011703,0.0041585275903344154,-0.0,0.0020007125567644835
0.008655804209411144,0.005851082969456911,-0.009813757613301277,0.005021698772907257,-0.0,0.0018493285169824958
0.008716123178601265,0.005301778204739094,-0.00962425023317337,0.004662569612264633,-0.0,0.0019008340314030647
0.008365067653357983,0.005793759133666754,-0.008939381688833237,0.004410173743963242,-0.0,0.0018095008563250303
0.009243374690413475,0.005873866379261017,-0.009184284135699272,0.00433530006557703,-0.0,0.0018968724180012941
0.009060634300112724,0.006003555841743946,-0.009981966577470303,0.004289328586310148,-0.0,0.0019627080764621496
0.008908833377063274,0.005823289975523949,-0.009705432690680027,0.0042913975194096565,-0.0,0.001975135412067175
0.00868258997797966,0.005327841266989708,-0.009799336083233356,0.0048192208632826805,-0.0,0.0018101391615346074
0.008931808173656464,0.005674290005117655,-0.009535876102745533,0.004872748628258705,-0.0,0.0014871293678879738
0.008931808173656464,0.005674290005117655,-0.009535876102745533,0.004872748628258705,-0.0,0.0014871293678879738
0.008870843797922134,0.0061812070198357105,-0.008537903428077698,0.004097537603229284,-0.0,0.0013421399053186178
0.009040824137628078,0.005699491128325462,-0.010128653608262539,0.004109750501811504,-0.0,0.001432677498087287
0.009040824137628078,0.005699491128325462,-0.010128653608262539,0.004109750501811504,-0.0,0.001432677498087287
0.008958117105066776,0.005535643082112074,-0.008876988664269447,0.004361710976809263,-9.786726877791807e-07,0.0018818285316228867
0.009179915301501751,0.005685914773494005,-0.009904586710035801,0.004520956426858902,-6.390033036041132e-08,0.0019785864278674126
0.009891709312796593,0.006152833811938763,-0.009533481672406197,0.004340032581239939,-4.1722350019313126e-09,0.001791297341696918
0.008874715305864811,0.005906936712563038,-0.009403790347278118,0.004454590380191803,-2.7241717215353844e-10,0.001611619722098112
0.009667051024734974,0.0055630928836762905,-0.009898272342979908,0.0041685206815600395,-1.778689348586049e-11,0.0014635601546615362
0.009149264544248581,0.005458569619804621,-0.009519302286207676,0.003940379712730646,-1.1613571432658731e-12,0.0013217291561886668
0.008859094232320786,0.005442296154797077,-0.009016093797981739,0.004220639355480671,-7.582832744958828e-14,0.0011559904087334871
0.008838905021548271,0.005709733814001083,-0.009724333882331848,0.004444904625415802,-4.951048607687103e-15,0.0008720792247913778
0.010016516782343388,0.005819285754114389,-0.00963558629155159,0.0046262904070317745,-3.232680861465744e-16,0.0009291066089645028
0.00944364070892334,0.005513638723641634,-0.008747738786041737,0.0046906182542443275,-2.1107096552982928e-17,0.0009598417673259974
0.009110220707952976,0.005638997070491314,-0.00951917190104723,0.0044537801295518875,-1.3781425609150245e-18,0.001225520158186555
0.009349755942821503,0.005748615600168705,-0.009569410234689713,0.004529633559286594,0.000335949967848137,0.0012445140164345503
0.009219314903020859,0.005836945958435535,-0.009587106294929981,0.004532583989202976,0.00035274072433821857,0.0012113259872421622
0.008961861953139305,0.005582158919423819,-0.010413899086415768,0.004535336513072252,0.0003866735496558249,0.001191408489830792
0.009464612230658531,0.005635203793644905,-0.010048910044133663,0.0046567656099796295,0.0003682464302983135,0.001157614984549582
0.009992344304919243,0.005519807804375887,-0.008849884383380413,0.004783879965543747,0.0003949456731788814,0.001112751429900527
0.009708181023597717,0.005698116030544043,-0.009907144121825695,0.004647029098123312,0.0003780644328799099,0.000962497724685818
0.009570559486746788,0.005333656910806894,-0.009770562872290611,0.004502431023865938,0.00040456026908941567,0.0009461666340939701
0.010339675471186638,0.005926879122853279,-0.009643199853599072,0.0037446198984980583,0.00048269928083755076,0.0008377758786082268
0.009333073161542416,0.005664298310875893,-0.010481844656169415,0.0035834438167512417,0.0005695699946954846,0.000832010933663696
0.009707423858344555,0.00550346402451396,-0.009953446686267853,0.004237724468111992,0.0005614924011752009,0.0008402381208725274
0.009524722583591938,0.0052666859701275826,-0.009818913415074348,0.004752099048346281,0.0006017278647050261,0.0009119263268075883
0.009952855296432972,0.005613544024527073,-0.010502767749130726,0.0042863041162490845,0.0005722112255170941,0.0010267635807394981
0.010292994789779186,0.006133547052741051,-0.009491249918937683,0.004290428478270769,0.0007057432667352259,0.001049535465426743
0.009412026964128017,0.005457505118101835,-0.010358515195548534,0.004091449081897736,0.0007433736464008689,0.000959249387960881
0.009412026964128017,0.005457505118101835,-0.010358515195548534,0.004091449081897736,0.0007433736464008689,0.000959249387960881
0.010039770975708961,0.005092020612210035,-0.009444988332688808,0.004327003378421068,0.0007785889902152121,0.0008234044071286917
0.010039770975708961,0.005092020612210035,-0.009444988332688808,0.004327003378421068,0.0007785889902152121,0.0008234044071286917
0.01061599887907505,0.005424474831670523,-0.009985989890992641,0.004690095782279968,0.0008247735095210373,0.0006964587373659015
0.010258669964969158,0.0055393557995557785,-0.009517489932477474,0.004771875217556953,0.000904540007468313,0.0006028948118910193
0.009973080828785896,0.005161880049854517,-0.009443283081054688,0.004427543841302395,0.0008102984284050763,0.0006089344387874007
0.010261297225952148,0.005253251176327467,-0.010457909666001797,0.00435255141928792,0.0008156931726261973,0.000568431627471
0.010244638659060001,0.005131824873387814,-0.009426708333194256,0.004545292817056179,0.0007784248446114361,0.0005156383849680424
0.010624142363667488,0.004858689848333597,-0.008838723413646221,0.004726783372461796,0.000743103853892535,0.0005282293423078954
0.010184677317738533,0.005395181011408567,-0.009573617950081825,0.004591756034642458,0.0007221897831186652,0.0005037554074078798
0.010231424123048782,0.005301882512867451,-0.009525936096906662,0.004403749015182257,0.0007488759001716971,0.0005165804177522659
0.0100796427577734,0.005273388233035803,-0.009617632254958153,0.004151766188442707,0.0007456157472915947,0.0004962887614965439
0.010336371138691902,0.005339068826287985,-0.010726108215749264,0.004785320721566677,0.0006891320808790624,0.000422136188717559
0.010656462050974369,0.005127860698848963,-0.010045785456895828,0.005672954488545656,0.0006991326808929443,0.00035051253507845104
0.0101401312276721,0.005344572477042675,-0.009201264940202236,0.0053362115286290646,0.0007208944298326969,0.0003228008281439543
0.010673156939446926,0.005218802019953728,-0.009858725592494011,0.004560882691293955,0.0007522551459260285,0.00035701514570973814
0.010796128772199154,0.005279245786368847,-0.009686918929219246,0.004905135836452246,0.0007151368190534413,0.00033828121377155185
0.010174406692385674,0.004905065055936575,-0.009324060752987862,0.005370647646486759,0.0007258937694132328,0.00034440422314219177
0.010674809105694294,0.004741420969367027,-0.010381962172687054,0.005261946469545364,0.0007312392117455602,0.00034917471930384636
0.010395923629403114,0.0050826286897063255,-0.009625460021197796,0.0048459917306900024,0.0006908145733177662,0.00033231262932531536
0.010320535860955715,0.004930161405354738,-0.00937713123857975,0.004667946603149176,0.0007992432801984251,0.00031575351022183895
0.0104850884526968,0.004828584846109152,-0.009692559950053692,0.0047294762916862965,0.000758073409087956,0.00030068555497564375
0.010837925598025322,0.004800915718078613,-0.009644310921430588,0.005033992230892181,0.0007643246208317578,0.0002869853633455932
0.010354802943766117,0.004972126334905624,-0.010547637939453125,0.005291005130857229,0.000693320413120091,0.00027447837055660784
0.010327219031751156,0.0047627887688577175,-0.009433228522539139,0.004555169492959976,0.0006283102557063103,0.000252474652370438
0.0106550557538867,0.004921901039779186,-0.009484129957854748,0.004569271579384804,0.0005947613390162587,0.00024274471797980368
0.010302211157977581,0.004923638887703419,-0.010149028152227402,0.004459874238818884,0.000550457218196243,0.0002337367768632248
0.010576202534139156,0.0048407879658043385,-0.00935547798871994,0.00477647827938199,0.0005114083178341389,0.00022537371842190623
0.010364818386733532,0.004946612287312746,-0.00943599734455347,0.004974138457328081,0.000456743233371526,0.00021758877846878022
0.010579953901469707,0.004830111749470234,-0.010567458346486092,0.005228108260780573,0.00041112577309831977,0.00021032386575825512
0.010579953901469707,0.004830111749470234,-0.010567458346486092,0.005228108260780573,0.00041112577309831977,0.00021032386575825512
0.009931406937539577,0.004814852494746447,-0.009822376072406769,0.005078543908894062,0.0003764407301787287,0.0002035280631389469
0.010349365882575512,0.004748291335999966,-0.009673669934272766,0.0049291145987808704,0.00034733995562419295,0.00019715810776688159
0.010034097358584404,0.00496916938573122,-0.010081109590828419,0.005061727482825518,0.0003823848091997206,0.00019117492774967104
0.01093458104878664,0.005132175516337156,-0.009711199440062046,0.005112564191222191,0.0003607368271332234,0.00018554394773673266
0.010392982512712479,0.005126966163516045,-0.010058636777102947,0.0053064837120473385,0.0003383769071660936,0.00018023504526354373
0.009979854337871075,0.004940555430948734,-0.010287356562912464,0.005077646113932133,0.00031842978205531836,0.00017522191046737134
0.010078296065330505,0.004888370167464018,-0.009881474077701569,0.004834144841879606,0.00030069216154515743,0.00017048005247488618
0.010373410768806934,0.0051569039933383465,-0.01031253021210432,0.004759262781590223,0.00028482626657932997,0.00016598810907453299
0.010600045323371887,0.005428860895335674,-0.010074779391288757,0.004955205135047436,0.0003125431830994785,0.0001617266534594819
0.010194884613156319,0.005066498648375273,-0.009826969355344772,0.005162911955267191,0.0003003763558808714,0.00015767873264849186
0.01061204168945551,0.004916353151202202,-0.010075632482767105,0.005677210167050362,0.00028687354642897844,0.0001538283977424726
0.009745065122842789,0.00521042849868536,-0.010257624089717865,0.005374617874622345,0.00027438829420134425,0.0001501618098700419
0.010318600572645664,0.005066789221018553,-0.009745084680616856,0.004928310867398977,0.00026293465634807944,0.00014666584320366383
0.01120238471776247,0.0049287364818155766,-0.010470227338373661,0.005242365412414074,0.00025239831302314997,0.00014332887076307088
0.010239367373287678,0.00517609529197216,-0.009876404888927937,0.005246614571660757,0.0002426751161692664,0.00014036703214515
0.010396938771009445,0.005051128566265106,-0.009517560712993145,0.005957878660410643,0.00023367215180769563,5.8372119383420795e-05
0.010625124908983707,0.004893070552498102,-0.010565590113401413,0.005820311140269041,0.0002253136335639283,5.1620230806292966e-05
0.009973211213946342,0.005106411408632994,-0.010975625365972519,0.0057996902614831924,0.0002175326517317444,4.985835767001845e-05
0.01031559519469738,0.0048633599653840065,-0.010207210667431355,0.0056876433081924915,0.00022499643091578037,3.65870728273876e-05
0.010857872664928436,0.0048603396862745285,-0.010545190423727036,0.005695106461644173,0.00023154767404776067,2.441560718580149e-05
0.010507208295166492,0.004936971236020327,-0.009944025427103043,0.006084517575800419,0.00021843219292350113,7.676684958823898e-07
0.010183929465711117,0.005060420371592045,-0.011050690896809101,0.006308946292847395,0.0002120035351254046,5.0123265538104533e-08
0.010969950817525387,0.004987969994544983,-0.011049361899495125,0.00579488230869174,0.00020593924273271114,3.2726910070834947e-09
0.010827237740159035,0.004958940204232931,-0.009901843033730984,0.005901412107050419,0.00020021229283884168,2.1368333491533775e-10
0.01027020812034607,0.005115966312587261,-0.01080386433750391,0.005920281633734703,0.0001947952259797603,1.3951993206584579e-11
0.01027020812034607,0.005115966312587261,-0.01080386433750391,0.005920281633734703,0.0001947952259797603,1.3951993206584579e-11
0.011018220335245132,0.005302696954458952,-0.010285241529345512,0.006055912002921104,0.00018966344941873103,9.109654220199048e-13
0.010722366161644459,0.005066921003162861,-0.010197784751653671,0.005750390700995922,0.00018479532445780933,5.947953447046211e-14
0.010408866219222546,0.005456644110381603,-0.010712512768805027,0.00584143353626132,0.00018017071124631912,-0.000627466884907335
0.01061156578361988,0.005111651960760355,-0.01043605711311102,0.005318023264408112,0.0001757722784532234,-0.0009196580504067242
0.011288070119917393,0.00483564380556345,-0.01065108459442854,0.005409708246588707,0.0001715831458568573,-0.0008641969761811197
0.009200717322528362,0.00490221893414855,-0.010710570961236954,0.005402375943958759,0.00016758922720327973,-0.0007499454659409821
0.011240593157708645,0.005401428788900375,-0.00953654758632183,0.005858387798070908,0.00016377685824409127,-0.000738534377887845
0.011498084291815758,0.005072598811239004,-0.010280647315084934,0.0059091029688715935,0.00016013422282412648,-0.0006827982142567635
0.011291906237602234,0.004694638308137655,-0.01092342659831047,0.005993361584842205,0.0001566499995533377,-0.0006933091208338737
0.011191240511834621,0.004671172238886356,-0.010438677854835987,0.005667726509273052,0.00015331424947362393,-0.0006360914558172226
0.011098838411271572,0.00478260638192296,-0.010906247422099113,0.006042006425559521,0.00015011773211881518,-0.0007458823965862393
0.011207041330635548,0.004848634358495474,-0.010333487764000893,0.006116875447332859,0.00014705161447636783,-0.001276042778044939
0.010764135047793388,0.005101121496409178,-0.009923377074301243,0.006338112521916628,0.00014410834410227835,-0.0017807522090151906
0.010851836763322353,0.004993930459022522,-0.010772381909191608,0.006194265093654394,0.00014128036855254322,-0.0016600372036918998
0.011277961544692516,0.004769078455865383,-0.011069425381720066,0.00645487243309617,0.00013856169243808836,-0.0014399269130080938
0.010879102163016796,0.004572587087750435,-0.01138792373239994,0.00646886695176363,0.00013594528718385845,-0.0012986998772248626
0.011019906029105186,0.005008952226489782,-0.011240808293223381,0.0062450529076159,0.00013342598685994744,-0.0011949093313887715
0.011778844520449638,0.0049636634066700935,-0.010119156911969185,0.006179326679557562,0.00013099833449814469,-0.0011638877913355827
0.010940945707261562,0.00548283476382494,-0.010171699337661266,0.0059165554121136665,0.00012865765893366188,-0.0010606399737298489
0.011771776713430882,0.005250908434391022,-0.010488614439964294,0.005944541189819574,0.0001263989688595757,-0.0012034062528982759
0.012825900688767433,0.004882756620645523,-0.01038524229079485,0.006077087949961424,0.0001242182479472831,-0.002016502432525158
0.013076423667371273,0.005021069198846817,-0.011061844415962696,0.006124717649072409,0.00012211136345285922,-0.0020009062718600035
0.012543677352368832,0.005076086614280939,-0.010723548009991646,0.006144200451672077,0.00012007493933197111,-0.0021583614870905876
0.012281877920031548,0.004988085012882948,-0.010248356498777866,0.006151513196527958,0.00011810543219326064,-0.0019895874429494143
0.012390579096972942,0.00547889806330204,-0.01011910755187273,0.00673080887645483,0.00011435361375333741,-0.0017760747577995062
0.012882500886917114,0.005002531688660383,-0.010580375790596008,0.006896335165947676,0.0001125658891396597,-0.0017648652428761125
0.012712981551885605,0.005049294326454401,-0.010926194489002228,0.006417965982109308,0.00011083305435022339,-0.0017833509482443333
0.013077430427074432,0.0048694186843931675,-0.010198261588811874,0.006473267450928688,0.00010915283928625286,-0.0022377835121005774
0.012819834053516388,0.005567440763115883,-0.010583545081317425,0.007246906403452158,0.00010752274101832882,-0.002592619741335511
0.012819834053516388,0.005567440763115883,-0.010583545081317425,0.007246906403452158,0.00010752274101832882,-0.002592619741335511
0.0132973687723279,0.005367071367800236,-0.010517051443457603,0.006786040961742401,0.00010594080231385306,-0.0025399920996278524
0.013203020207583904,0.005323921330273151,-0.009843463078141212,0.006595580838620663,0.00010440449113957584,-0.0022189561277627945
0.013482464477419853,0.004987166728824377,-0.010790021158754826,0.006536002270877361,0.0001029121849569492,-0.002024048939347267
0.013480818830430508,0.00482141925022006,-0.01092150155454874,0.006639606785029173,0.00010146202839678153,-0.0018328914884477854
0.013158122077584267,0.004663506988435984,-0.010896342806518078,0.0065943533554673195,0.000100052056950517,-0.0018103315960615873
0.01332340482622385,0.004926095716655254,-0.011142829433083534,0.0062431469559669495,9.868082997854799e-05,-0.0022429190576076508
0.013613236136734486,0.005404205992817879,-0.010114917531609535,0.0064271120354533195,9.73466012510471e-05,-0.002360869664698839
0.013963602483272552,0.005070078652352095,-0.009822218678891659,0.006584526970982552,9.604809019947425e-05,-0.002657638629898429
0.01339158695191145,0.004726992454379797,-0.010718227364122868,0.007166468072682619,9.478369611315429e-05,-0.002823836402967572
0.013604072853922844,0.004665192682296038,-0.010255199857056141,0.006716225296258926,9.355210204375908e-05,-0.002677986631169915
0.01337392721325159,0.004754812456667423,-0.010881834663450718,0.006376255769282579,9.235210745828226e-05,-0.0024295032490044832
0.013893265277147293,0.004779435228556395,-0.010621345601975918,0.00666882423684001,9.118252637563273e-05,-0.0021508249919861555
0.01352439820766449,0.005143896210938692,-0.010708896443247795,0.006889010779559612,9.004229650599882e-05,-0.0021105227060616016
0.013328715227544308,0.005416140891611576,-0.011585667729377747,0.007204343564808369,8.893015183275566e-05,-0.0026049395091831684
0.013424263335764408,0.005024647805839777,-0.01129094883799553,0.007292354013770819,8.784521924098954e-05,-0.003710508346557617
0.013785711489617825,0.00475357286632061,-0.011297604069113731,0.006827039178460836,8.678630547365174e-05,-0.004303943365812302
0.013594393618404865,0.004715352784842253,-0.011578937992453575,0.006879428867250681,8.575269748689607e-05,-0.003867698833346367
0.014127706177532673,0.004677918273955584,-0.010921440087258816,0.007408175151795149,8.474339847452939e-05,-0.0033617315348237753
0.01409602165222168,0.005331515800207853,-0.011827053502202034,0.006997236981987953,8.375762263312936e-05,-0.0030211086850613356
0.014215787872672081,0.005270005669444799,-0.011435163207352161,0.006178694311529398,8.279446046799421e-05,-0.0028469532262533903
0.014266696758568287,0.004923506174236536,-0.011363399215042591,0.005929739214479923,8.185327897081152e-05,-0.003183463355526328
0.014340626075863838,0.004680304788053036,-0.011879127472639084,0.006341229658573866,8.093314681900665e-05,-0.003094087354838848
0.014166234992444515,0.004579426255077124,-0.011538933031260967,0.006857312750071287,8.003356197150424e-05,-0.0033784571569412947
0.01442792546004057,0.004824952222406864,-0.011652684770524502,0.006669097580015659,1.3278946653372259e-06,-0.0036675541196018457
0.014327304437756538,0.005326131824404001,-0.01115424558520317,0.006592262536287308,8.670203044403024e-08,-0.003666962031275034
0.014327304437756538,0.005326131824404001,-0.01115424558520317,0.006592262536287308,8.670203044403024e-08,-0.003666962031275034
0.014161449857056141,0.005113120190799236,-0.01142910961061716,0.007077109534293413,5.6610232057607845e-09,-0.0035914129111915827
0.014327547512948513,0.004565730690956116,-0.011452337726950645,0.00710514048114419,3.6962435889797973e-10,-0.0034969402477145195
0.014571109786629677,0.004304145462810993,-0.012041709385812283,0.006636482197791338,2.4133828616101916e-11,-0.003502198262140155
0.01431864220649004,0.004462199751287699,-0.011618870310485363,0.006853421218693256,1.5757664270643623e-12,-0.003640345996245742
0.014517144300043583,0.0045464616268873215,-0.011273526586592197,0.0069968546740710735,1.0288629350612213e-13,-0.003679500659927726
0.014751115813851357,0.004934820346534252,-0.011779419146478176,0.00778207927942276,6.717739530609761e-15,-0.0039454130455851555
0.014547291211783886,0.005586374085396528,-0.01114706788212061,0.008102740161120892,4.3862039456567443e-16,-0.004012849647551775
0.014725109562277794,0.005156649276614189,-0.011412864550948143,0.007988346740603447,2.863877620798648e-17,-0.0038416320458054543
0.014791684225201607,0.00450187036767602,-0.011496695689857006,0.008123986423015594,1.869907328739664e-18,-0.004225319717079401
0.0149311488494277,0.004453745204955339,-0.011365741491317749,0.007633505389094353,1.220915869941884e-19,-0.004209102597087622
0.014741035178303719,0.004613266792148352,-0.01162699144333601,0.007465982344001532,7.971709199822586e-21,-0.0039947545155882835
0.015226581133902073,0.005100303329527378,-0.011099131777882576,0.00765836238861084,5.204956759230087e-22,-0.003894926980137825
0.014848779886960983,0.004767760634422302,-0.011262120679020882,0.007650749292224646,3.3984648445118634e-23,-0.003897907678037882
0.014946852810680866,0.005006860010325909,-0.011400161311030388,0.007986343465745449,2.2189546942142964e-24,-0.004011115990579128
0.014809061773121357,0.004839152563363314,-0.011164972558617592,0.007907964289188385,1.4488189803005157e-25,-0.00448377663269639
0.015418686904013157,0.004445331171154976,-0.011743756011128426,0.007784529123455286,9.459751115590137e-27,-0.004709035623818636
0.015275879763066769,0.004561407957226038,-0.011132881045341492,0.007708285003900528,6.176542072567418e-28,-0.004658774007111788
0.01524824183434248,0.004618077538907528,-0.011368264444172382,0.007968053221702576,4.0328407293547555e-29,-0.004437916446477175
0.014675083570182323,0.004750029183924198,-0.01151817012578249,0.007964212447404861,2.6331566225651105e-30,-0.004397965501993895
0.015393177978694439,0.0050352634862065315,-0.010907059535384178,0.008192776702344418,1.7192632262838573e-31,-0.0044091008603572845
0.01496819220483303,0.0045704287476837635,-0.011605434119701385,0.007854882627725601,1.1225560362014027e-32,-0.004779725801199675
0.014472492970526218,0.004483240656554699,-0.011997164227068424,0.008057224564254284,7.329488293995206e-34,-0.00470599252730608
0.015270625241100788,0.004603584762662649,-0.011813031509518623,0.00784893985837698,4.785632078655017e-35,-0.004779371432960033
0.01594449020922184,0.004587515722960234,-0.0117617417126894,0.007681186776608229,3.124675851845136e-36,-0.0048668403178453445
0.015488879755139351,0.004957980010658503,-0.01097953412681818,0.007876740768551826,2.040190118983011e-37,-0.004785674158483744
0.015618196688592434,0.005016749259084463,-0.011613206006586552,0.007872147485613823,6.707212378387339e-06,-0.004337015561759472
0.01580926775932312,0.004798507783561945,-0.011685287579894066,0.008069559931755066,4.379330391657277e-07,-0.004486814606934786
0.015844153240323067,0.004603707231581211,-0.012276951223611832,0.007649186998605728,1.8669772394730444e-09,-0.0054819718934595585
0.015590809285640717,0.005036936141550541,-0.011792020872235298,0.007391550112515688,1.2190026765779294e-10,-0.005662554409354925
0.015590809285640717,0.005036936141550541,-0.011792020872235298,0.007391550112515688,1.2190026765779294e-10,-0.005662554409354925
0.015243674628436565,0.004928023554384708,-0.01189721655100584,0.007856898009777069,5.196799479460779e-13,-0.0048074680380523205
0.015243674628436565,0.004928023554384708,-0.01189721655100584,0.007856898009777069,5.196799479460779e-13,-0.0048074680380523205
0.01607963629066944,0.005223934538662434,-0.012646479532122612,0.007910175248980522,3.393138770175011e-14,-0.0050483220256865025
0.015982896089553833,0.005106647964566946,-0.012176064774394035,0.007764897309243679,2.2154771422234825e-15,-0.004977555479854345
0.016535017639398575,0.004728876519948244,-0.011603058315813541,0.00799716915935278,1.4465483089421132e-16,-0.004603833891451359
0.01628411002457142,0.004847238771617413,-0.01319900993257761,0.007843450643122196,9.444926077962169e-18,-0.004659887403249741
0.015811260789632797,0.005350209306925535,-0.012361750937998295,0.008003844879567623,6.166861526190688e-19,-0.005101796239614487
0.016233857721090317,0.005145291332155466,-0.012276849709451199,0.007902232930064201,4.026520382099791e-20,-0.005065313074737787
0.01631135866045952,0.004880867432802916,-0.012240136042237282,0.008267311379313469,2.629029998802492e-21,-0.005541210062801838
0.01705898717045784,0.005109217017889023,-0.013086499646306038,0.008145811967551708,1.7165689028256118e-22,-0.0054072788916528225
0.016427401453256607,0.004663547966629267,-0.012707115150988102,0.007623734883964062,1.1207968502868229e-23,-0.005482710897922516
0.016666216775774956,0.005030146799981594,-0.01257973164319992,0.007819796912372112,7.318002293636604e-25,-0.0057680923491716385
0.01636185683310032,0.005072818137705326,-0.012765216641128063,0.0085132522508502,4.778132351816415e-26,-0.005890623200684786
0.016557611525058746,0.004984480328857899,-0.012227684259414673,0.008506233803927898,3.11977905758089e-27,-0.00543033704161644
0.01641557738184929,0.005008744541555643,-0.012477747164666653,0.00785767287015915,2.0369927872314576e-28,-0.0057150861248373985
0.01618446782231331,0.005315813701599836,-0.01247374527156353,0.007574789691716433,1.330010657017537e-29,-0.005380160640925169
0.01662258617579937,0.005052184220403433,-0.012598111294209957,0.007900413125753403,8.684020000033008e-31,-0.0058529069647192955
0.016846101731061935,0.004883328452706337,-0.01266799308359623,0.007836603559553623,5.670044608712512e-32,-0.005542728118598461
0.017047053202986717,0.004923112690448761,-0.012884643860161304,0.007852206937968731,3.702133867232375e-33,-0.0057467990554869175
0.01725780963897705,0.004866915754973888,-0.012956185266375542,0.008293263614177704,2.417228956257113e-34,-0.0055689518339931965
0.016901053488254547,0.005048486404120922,-0.012278199195861816,0.008536530658602715,1.5782778058160624e-35,-0.00578671507537365
0.01737731136381626,0.00487558776512742,-0.012582695111632347,0.008549380116164684,1.0305026040795353e-36,-0.005932522471994162
0.01658671908080578,0.004999460186809301,-0.012159166857600212,0.008547326549887657,6.728446119813369e-38,-0.006176183931529522
0.01709880866110325,0.0045003145933151245,-0.013054035604000092,0.008576502092182636,4.393193999923162e-39,-0.005713428370654583
0.016837025061249733,0.004491804633289576,-0.012265041470527649,0.00840065162628889,2.8684439434882573e-40,-0.005336296278983355
0.016999268904328346,0.0048960354179143906,-0.013208767399191856,0.008759645745158195,1.2233335593555653e-42,-0.0064851948991417885
0.01684991642832756,0.004735567606985569,-0.01303998101502657,0.008849897421896458,7.987401246651457e-44,-0.006149400025606155
0.0171353816986084,0.005200218874961138,-0.013081043027341366,0.009346180595457554,5.605193857299268e-45,-0.005565939471125603
0.01699667237699032,0.0051714954897761345,-0.012800936587154865,0.009163899347186089,-0.00037225938285700977,-0.005559434182941914
0.01699667237699032,0.0051714954897761345,-0.012800936587154865,0.009163899347186089,-0.00037225938285700977,-0.005559434182941914
0.017159586772322655,0.005071843974292278,-0.013264832086861134,0.009037208743393421,-0.000495007960125804,-0.005404721479862928
0.016975896432995796,0.005664945114403963,-0.012001159600913525,0.008664545603096485,-0.0005249094683676958,-0.005713306833058596
0.016837740316987038,0.0050614322535693645,-0.01313934475183487,0.008865823037922382,-0.0005018123192712665,-0.006330890115350485
0.017460597679018974,0.0048838406801223755,-0.012442016042768955,0.009035199880599976,-0.0005233707488514483,-0.006272219121456146
0.01726718433201313,0.004807577934116125,-0.01296535599976778,0.009169409982860088,-0.0004952650051563978,-0.0064580924808979034
0.017069559544324875,0.00489236693829298,-0.012724637053906918,0.009338500909507275,-0.0006315239006653428,-0.006301070097833872
0.017152385786175728,0.004758585710078478,-0.012915131635963917,0.009871472604572773,-0.0006913877441547811,-0.0061072069220244884
0.017283590510487556,0.004791863262653351,-0.012754147872328758,0.009489745832979679,-0.0006399077246896923,-0.006309010088443756
0.01747877709567547,0.004716227762401104,-0.012285945005714893,0.009016505442559719,-0.0006197826587595046,-0.006689124740660191
0.017197946086525917,0.004648250062018633,-0.012905902229249477,0.008709294721484184,-0.0006019556894898415,-0.0067247506231069565
0.017647046595811844,0.004494136665016413,-0.012642201967537403,0.008850227110087872,-0.0005899891257286072,-0.0066376253962516785
0.018321769312024117,0.004848856013268232,-0.012760745361447334,0.008555309846997261,-0.000577413069549948,-0.006759438198059797
0.01754715107381344,0.004806713201105595,-0.012853099964559078,0.008777246810495853,-0.0005366267287172377,-0.006594585720449686
0.018027175217866898,0.0048141395673155785,-0.012924741953611374,0.009105932898819447,-0.0005247941007837653,-0.006813437677919865
0.018024485558271408,0.0050134481862187386,-0.013213620521128178,0.00886476505547762,-0.0004752373497467488,-0.0068906438536942005
0.017682116478681564,0.004859982058405876,-0.013103378936648369,0.00899963453412056,-0.0004930803552269936,-0.00740303797647357
0.018270248547196388,0.004410761874169111,-0.013209748081862926,0.00923025980591774,-0.00046960331383161247,-0.00679799122735858
0.017986197024583817,0.003998352214694023,-0.012827104888856411,0.00902803149074316,-0.0004331750678829849,-0.006864479742944241
0.01782512106001377,0.003991097677499056,-0.013151601888239384,0.008901376277208328,-0.0004631893243640661,-0.006883459631353617
0.018584147095680237,0.0041252728551626205,-0.012839371338486671,0.009137744084000587,-0.00043523003114387393,-0.007294308859854937
0.019259188324213028,0.0041317869909107685,-0.01356521900743246,0.009068747982382774,-0.00040734029607847333,-0.007239000406116247
0.018895301967859268,0.00452912924811244,-0.013418636284768581,0.008981635794043541,-0.000433464243542403,-0.006953939329832792
0.018895301967859268,0.00452912924811244,-0.013418636284768581,0.008981635794043541,-0.000433464243542403,-0.006953939329832792
0.018195264041423798,0.003969863057136536,-0.013362091034650803,0.00916354637593031,-0.00038955855416134,-0.007422537077218294
0.018264923244714737,0.0038657626137137413,-0.01325670350342989,0.010097654536366463,-0.0003938930167350918,-0.007358442526310682
0.018459666520357132,0.00427216524258256,-0.013737138360738754,0.009205112233757973,-0.0003966988006141037,-0.0074042752385139465
0.01896701008081436,0.004498638678342104,-0.013463020324707031,0.00896813627332449,-0.00037147625698708,-0.007346689235419035
0.01896701008081436,0.004498638678342104,-0.013463020324707031,0.00896813627332449,-0.00037147625698708,-0.007346689235419035
0.018776465207338333,0.004331767093390226,-0.013304082676768303,0.009539823979139328,-0.0003903275355696678,-0.006932497024536133
0.01857888139784336,0.00431792763993144,-0.013392101041972637,0.009751217439770699,-0.00040658150101080537,-0.006637530867010355
0.01942054182291031,0.004252787679433823,-0.013019989244639874,0.009628155268728733,-0.00040878760046325624,-0.0069501097314059734
0.01894424483180046,0.0040560015477240086,-0.01342870108783245,0.009772107936441898,-0.0005200474988669157,-0.007375998888164759
0.019266970455646515,0.003894433146342635,-0.012984244152903557,0.009937661699950695,-0.0005556566757149994,-0.00800782348960638
0.01925669237971306,0.0037836788687855005,-0.013606852851808071,0.009590783156454563,-0.0005247656372375786,-0.007684982847422361
0.019051846116781235,0.003968558739870787,-0.012947838753461838,0.009439904242753983,-0.0005381997907534242,-0.006958122830837965
0.01908944919705391,0.00408909423276782,-0.013540375046432018,0.00982694886624813,-0.0005125883035361767,-0.007041363511234522
0.019084803760051727,0.004362625069916248,-0.013036660850048065,0.010406918823719025,-0.00047509901924058795,-0.007307280320674181
0.01962325908243656,0.004127184394747019,-0.014021861366927624,0.010329362004995346,-0.000496343825943768,-0.007243980187922716
0.01975518837571144,0.003967602271586657,-0.013798782601952553,0.010051148012280464,-0.0004712817317340523,-0.0074243913404643536
0.02011989802122116,0.003929560538381338,-0.013724825344979763,0.009865733794867992,-0.000442774617113173,-0.007492581382393837
0.02017216570675373,0.004445556551218033,-0.013859543018043041,0.010578183457255363,-0.0004428583197295666,-0.00762628810480237
0.019500723108649254,0.004218665882945061,-0.014188544824719429,0.010580695234239101,-0.00042712988215498626,-0.007405351847410202
0.020011434331536293,0.004339270759373903,-0.014081678353250027,0.009729381650686264,-0.0004591747128870338,-0.007526836358010769
0.020043056458234787,0.004351774230599403,-0.014700846746563911,0.010012459009885788,-0.00043173451558686793,-0.007781679276376963
0.019374094903469086,0.004074662458151579,-0.014016663655638695,0.00992125365883112,-0.00046233818284235895,-0.008120168931782246
0.019883086904883385,0.003871908178552985,-0.014377272687852383,0.009560253471136093,-0.00046467670472338796,-0.008355621248483658
0.019873768091201782,0.004163845907896757,-0.014195043593645096,0.009843005798757076,-0.0004627362941391766,-0.007829914800822735
0.01990778185427189,0.00456546014174819,-0.014034131541848183,0.009726336225867271,-0.0005749560659751296,-0.008024872280657291
0.019189372658729553,0.004624349996447563,-0.014616166241466999,0.010412191040813923,-0.0006044608890078962,-0.008277048356831074
0.020768774673342705,0.004599536769092083,-0.014458565041422844,0.009884241037070751,-0.0005339074996300042,-0.008378501981496811
0.02014385536313057,0.004102651029825211,-0.014576302841305733,0.010106240399181843,-0.0005557938129641116,-0.008370575495064259
0.020583558827638626,0.004115390125662088,-0.014846449717879295,0.010413301177322865,-0.0005739323678426445,-0.008184049278497696
0.02104921080172062,0.004623102955520153,-0.014994684606790543,0.009644313715398312,-0.0005477560334838927,-0.007777857128530741
0.020915668457746506,0.004307923838496208,-0.014539295807480812,0.009572719223797321,-0.0005898397648707032,-0.008640323765575886
0.020915668457746506,0.004307923838496208,-0.014539295807480812,0.009572719223797321,-0.0005898397648707032,-0.008640323765575886
0.020950714126229286,0.004356840625405312,-0.01526479423046112,0.01026136800646782,-0.0006116703734733164,-0.00842563807964325
0.02108393982052803,0.0045479824766516685,-0.01547909528017044,0.00985757913440466,-0.0005984501913189888,-0.008497132919728756
0.02108393982052803,0.0045479824766516685,-0.01547909528017044,0.00985757913440466,-0.0005984501913189888,-0.008497132919728756
0.02083336003124714,0.004250236786901951,-0.01520125474780798,0.009547332301735878,-0.0006245535332709551,-0.008588075637817383
0.021659640595316887,0.00396755849942565,-0.015724696218967438,0.009672686457633972,-0.0007611471810378134,-0.008400223217904568
0.021504255011677742,0.0038626643363386393,-0.015497847460210323,0.00970078818500042,-0.0008024027338251472,-0.00859103724360466
0.02117333561182022,0.004153608810156584,-0.01576845720410347,0.010317441076040268,-0.0009022147278301418,-0.00883401371538639
0.021185047924518585,0.004154938738793135,-0.014705976471304893,0.009996249340474606,-0.0011190964141860604,-0.00870195310562849
0.02135239727795124,0.004318587481975555,-0.015594487078487873,0.009776897728443146,-0.0012526883510872722,-0.008524577133357525
0.02152128331363201,0.0045962161384522915,-0.014829661697149277,0.009772306308150291,-0.0011253847042098641,-0.008747807703912258
0.021505752578377724,0.0042329509742558,-0.015619740821421146,0.00999793317168951,-0.0009597563766874373,-0.00879178661853075
0.021841056644916534,0.004385161679238081,-0.015711599960923195,0.009536652825772762,-0.0009429247002117336,-0.009295309893786907
0.022111810743808746,0.004196790046989918,-0.01577816531062126,0.010294012725353241,-0.0008512287749908864,-0.00901394709944725
0.021721215918660164,0.004302116576582193,-0.015736568719148636,0.010003011673688889,-0.0007051880238577724,-0.00910335686057806
0.022051101550459862,0.00452176108956337,-0.015152140520513058,0.010755331255495548,-0.0006086545181460679,-0.008595130406320095
0.02215396799147129,0.004703994374722242,-0.015643149614334106,0.010551704093813896,-0.0006278958171606064,-0.008325746282935143
0.022239789366722107,0.004237526562064886,-0.01551403384655714,0.009924757294356823,-0.000573553319554776,-0.009185888804495335
0.022856853902339935,0.004381498321890831,-0.01601404696702957,0.010224823839962482,-0.0005824511754326522,-0.009136353619396687
0.02293098159134388,0.00420899735763669,-0.015502160415053368,0.010783115401864052,-0.0005510335904546082,-0.008871355094015598
0.02265608124434948,0.003996070474386215,-0.01598455011844635,0.010231670923531055,-0.000507859222125262,-0.008959244936704636
0.022423923015594482,0.004182242322713137,-0.015420479699969292,0.010676764883100986,-0.0005193433607928455,-0.00952852051705122
0.022907445207238197,0.004490341991186142,-0.016004588454961777,0.010822565294802189,-0.0004986906424164772,-0.009207174181938171
0.023017609491944313,0.004791188519448042,-0.015536675229668617,0.010784175246953964,-0.0004679363628383726,-0.00927619356662035
0.024021528661251068,0.0042708804830908775,-0.015411395579576492,0.01040400005877018,-0.000375943083781749,-0.009200877510011196
0.023241734132170677,0.004213772248476744,-0.015682991594076157,0.010069719515740871,-0.0003978112945333123,-0.009058533236384392
0.02085970900952816,0.004195853136479855,-0.01576796919107437,0.010652204975485802,-0.00038523145485669374,-0.009954261593520641
0.02085970900952816,0.004195853136479855,-0.01576796919107437,0.010652204975485802,-0.00038523145485669374,-0.009954261593520641
0.024066684767603874,0.0044875964522361755,-0.01577089913189411,0.01084675919264555,-0.00039382485556416214,-0.00927194394171238
0.024066684767603874,0.0044875964522361755,-0.01577089913189411,0.01084675919264555,-0.00039382485556416214,-0.00927194394171238
0.023849228397011757,0.004531287122517824,-0.01563851349055767,0.011314758099615574,-0.0004101425874978304,-0.008710812777280807
0.023147108033299446,0.004461847711354494,-0.016175279393792152,0.011217908002436161,-0.0003996183804702014,-0.009278674609959126
0.023307153955101967,0.004263870883733034,-0.01502511091530323,0.010968913324177265,-0.0003804115694947541,-0.008832908235490322
0.02376532554626465,0.004819486290216446,-0.01562706008553505,0.01134385447949171,-0.00045186973875388503,-0.00892469473183155
0.02435615099966526,0.004860526882112026,-0.015800705179572105,0.011923232115805149,-0.0004946879926137626,-0.009075835347175598
0.024136655032634735,0.004476483445614576,-0.01589580997824669,0.012115404941141605,-0.00051425292622298,-0.008776822127401829
0.02302754484117031,0.004453334957361221,-0.015468668192625046,0.011806126683950424,-0.0004917983897030354,-0.00940187182277441
0.023154251277446747,0.005137795116752386,-0.0158662348985672,0.01178255770355463,-0.000488931022118777,-0.00923919677734375
0.024086344987154007,0.004531585145741701,-0.01621491089463234,0.011382093653082848,-0.0004850643454119563,-0.009508815594017506
0.024516912177205086,0.004504178650677204,-0.015984848141670227,0.011793842539191246,-0.0005489086615853012,-0.008778008632361889
0.024684296920895576,0.0044015939347445965,-0.016501635313034058,0.012168209068477154,-0.0005673101404681802,-0.009937797673046589
0.02459864318370819,0.0047913482412695885,-0.015460267663002014,0.01151315774768591,-0.0005963267176412046,-0.009882534854114056
0.024024486541748047,0.00482178945094347,-0.015924276784062386,0.011605179868638515,-0.0006148255779407918,-0.00957480352371931
0.0243464894592762,0.004957100376486778,-0.015821954235434532,0.011149941943585873,-0.0006403756560757756,-0.010143726132810116
0.02401816099882126,0.004786925856024027,-0.01611967571079731,0.011589479632675648,-0.0007205000729300082,-0.009946942329406738
0.024322733283042908,0.004740260541439056,-0.015609084628522396,0.01168453972786665,-0.0008223208715207875,-0.01011635735630989
0.024215256795287132,0.004764546174556017,-0.015751948580145836,0.011084855534136295,-0.0007473823498003185,-0.009883432649075985
0.024337245151400566,0.004470589105039835,-0.01609746366739273,0.011359790340065956,-0.0007385177887044847,-0.009431621059775352
0.024898935109376907,0.004569387529045343,-0.01608278788626194,0.011541835963726044,-0.0007299118442460895,-0.009536867961287498
0.024585099890828133,0.004536774940788746,-0.016379505395889282,0.011650288477540016,-0.0007024183869361877,-0.009135516360402107
0.02418157458305359,0.004597003571689129,-0.015590089373290539,0.011840949766337872,-0.0006435622926801443,-0.009555220603942871
0.0243398267775774,0.004580378532409668,-0.016118790954351425,0.011470742523670197,-0.0006297487998381257,-0.010446736589074135
0.025011392310261726,0.0044975862838327885,-0.016240235418081284,0.011706710793077946,-0.00064129289239645,-0.00948250386863947
0.02505875565111637,0.004692519549280405,-0.01569375954568386,0.012140187434852123,-0.0006215207395143807,-0.009313109330832958
0.024683425202965736,0.004808323923498392,-0.015499287284910679,0.012244761921465397,-0.0006382197607308626,-0.009332125075161457
0.024651970714330673,0.004988367669284344,-0.016062568873167038,0.011953490786254406,-0.0007219527033157647,-0.009222682565450668
0.023619839921593666,0.004885143134742975,-0.01635211706161499,0.012601467780768871,-0.0007583212573081255,-0.009409273974597454
0.025331662967801094,0.004614966455847025,-0.01657046563923359,0.011896985583007336,-0.0007484455709345639,-0.010037869215011597
0.025523915886878967,0.004588692914694548,-0.01592777669429779,0.012006044387817383,-0.0007639679242856801,-0.009878053329885006
0.025523915886878967,0.004588692914694548,-0.01592777669429779,0.012006044387817383,-0.0007639679242856801,-0.009878053329885006
0.025828124955296516,0.004751876462250948,-0.01603134162724018,0.01223768200725317,-0.000733519031200558,-0.010381015948951244
0.025718608871102333,0.004783636424690485,-0.015579820610582829,0.012347450479865074,-0.0008105415035970509,-0.010005718097090721
0.024815479293465614,0.005211444105952978,-0.016614200547337532,0.012591606006026268,-0.0008107231697067618,-0.010019946843385696
0.025206957012414932,0.00499105965718627,-0.016267579048871994,0.011991845443844795,-0.0007330794469453394,-0.009954256936907768
0.025426318868994713,0.004493380431085825,-0.01592286489903927,0.012759397737681866,-0.0007470591808669269,-0.010765698738396168
0.02620844729244709,0.004436851479113102,-0.016412869095802307,0.012892576865851879,-0.0007440257468260825,-0.010767467319965363
0.025450298562645912,0.00471764849498868,-0.016412781551480293,0.013022026047110558,-0.0006942381151020527,-0.010997366160154343
0.02571347914636135,0.0046956841833889484,-0.017118146643042564,0.01257222332060337,-0.0006387581815943122,-0.011071703396737576
0.026482556015253067,0.004871825687587261,-0.015959998592734337,0.01273511815816164,-0.0005859807715751231,-0.010852490551769733
0.026002822443842888,0.004822739399969578,-0.01629798300564289,0.012503795325756073,-0.0005201289313845336,-0.010790873318910599
0.02672063186764717,0.004820721689611673,-0.016416998580098152,0.012369009666144848,-0.0005527332541532815,-0.010296623222529888
0.025616858154535294,0.004663108382374048,-0.0165343526750803,0.01232259813696146,-0.0005064891884103417,-0.010645382106304169
0.02571778930723667,0.004758010618388653,-0.016582034528255463,0.01196806039661169,-0.00046335035585798323,-0.010685842484235764
0.026247289031744003,0.004750142805278301,-0.016347292810678482,0.012620693072676659,-0.00047892157454043627,-0.010648328810930252
0.025967750698328018,0.00486020278185606,-0.01737918145954609,0.01263377908617258,-0.00046012314851395786,-0.010935356840491295
0.025930581614375114,0.004916689824312925,-0.01704254187643528,0.013182434253394604,-0.0004297772247809917,-0.011385509744286537
0.025730015709996223,0.00482209725305438,-0.016483940184116364,0.01293063722550869,-0.0004023807414341718,-0.011082007549703121
0.02590535581111908,0.004645420704036951,-0.01655488647520542,0.013064650818705559,-0.00042493766522966325,-0.010895675048232079
0.025976190343499184,0.004437003284692764,-0.016808509826660156,0.012807409279048443,-0.0004072799056302756,-0.010834871791303158
0.02577419951558113,0.0045593916438519955,-0.01727098971605301,0.012027004733681679,-0.0003789277980104089,-0.01113103423267603
0.02632705681025982,0.00466789398342371,-0.016611723229289055,0.0123950419947505,-0.0003490576345939189,-0.011459624394774437
0.0265300702303648,0.004764063749462366,-0.016683323308825493,0.012243459932506084,-0.000331475748680532,-0.011036979034543037
0.026690980419516563,0.004758020397275686,-0.016959737986326218,0.011967727914452553,-0.0003376979730091989,-0.010950499214231968
0.026690980419516563,0.004758020397275686,-0.016959737986326218,0.011967727914452553,-0.0003376979730091989,-0.010950499214231968
0.026431148871779442,0.004533505532890558,-0.016634086146950722,0.012390313670039177,-0.0003485449415165931,-0.011528019793331623
0.02677084133028984,0.004854672122746706,-0.016907811164855957,0.012476885691285133,-0.0003331673506181687,-0.011367762461304665
0.02677084133028984,0.004854672122746706,-0.016907811164855957,0.012476885691285133,-0.0003331673506181687,-0.011367762461304665
0.026382125914096832,0.0048001776449382305,-0.016852203756570816,0.013520143926143646,-0.0003166181850247085,-0.01154855452477932
0.026084795594215393,0.004898963496088982,-0.0169551819562912,0.013409941457211971,-0.0003415900864638388,-0.01156091969460249
0.026957761496305466,0.004642166197299957,-0.01728273183107376,0.013218367472290993,-0.0003788788744714111,-0.011434664949774742
0.027030635625123978,0.004811963066458702,-0.01690335012972355,0.012546591460704803,-0.0003945716598536819,-0.011374487541615963
0.02650637738406658,0.004849140532314777,-0.01710745319724083,0.013187197968363762,-0.00036569571238942444,-0.011187492869794369
0.026712685823440552,0.00494914036244154,-0.016616733744740486,0.013289588503539562,-0.00039679749170318246,-0.01136187743395567
0.02730938233435154,0.004609070252627134,-0.017245598137378693,0.013162815943360329,-0.00037705330760218203,-0.011457032524049282
0.02719578891992569,0.004840855021029711,-0.01711035892367363,0.013468884862959385,-0.0003962041810154915,-0.011325846426188946
0.02727704495191574,0.005010935477912426,-0.016999641433358192,0.013156487606465816,-0.000385491264751181,-0.011344644241034985
0.027345046401023865,0.004839976318180561,-0.017595550045371056,0.013288991525769234,-0.0004090868460480124,-0.011239545419812202
0.027495166286826134,0.004805941134691238,-0.01691480726003647,0.01292052585631609,-0.000392964284401387,-0.011146930046379566
0.02747187204658985,0.0051513253711164,-0.017636530101299286,0.013393317349255085,-0.00047676428221166134,-0.011459567584097385
0.027755411341786385,0.004890249576419592,-0.017438754439353943,0.012747835367918015,-0.0004888030234724283,-0.011457487940788269
0.02763894945383072,0.004622389562427998,-0.017045244574546814,0.012830507941544056,-0.0005240570171736181,-0.01126450952142477
0.02761846035718918,0.005203249864280224,-0.017480462789535522,0.012993003241717815,-0.0005190632655285299,-0.011512167751789093
0.027767816558480263,0.005022075027227402,-0.016940176486968994,0.013500479981303215,-0.0004818439483642578,-0.011918207630515099
0.02743624895811081,0.004518771078437567,-0.01754007302224636,0.013603211380541325,-0.0005072056665085256,-0.01156392227858305
0.027770845219492912,0.004429162945598364,-0.017074141651391983,0.014161525294184685,-0.0004798137815669179,-0.011990043334662914
0.027822116389870644,0.003802735125645995,-0.017084510996937752,0.014188282191753387,-0.0005794322933070362,-0.011459865607321262
0.028483325615525246,0.0033545990008860826,-0.017672820016741753,0.014255798421800137,-0.0006125863874331117,-0.011692758649587631
0.028565656393766403,0.003107131691649556,-0.016858454793691635,0.014272520318627357,-0.0006067540962249041,-0.011851813644170761
0.028271915391087532,0.004012556280940771,-0.017104128375649452,0.01464233547449112,-0.0005911898333579302,-0.01194437313824892
0.02717738039791584,0.004567589610815048,-0.01693568006157875,0.014430086128413677,-0.0006097871228121221,-0.011694936081767082
0.028648482635617256,0.003656037850305438,-0.017399519681930542,0.014080852270126343,-0.0005846578278578818,-0.012128345668315887
0.027978667989373207,0.0035292981192469597,-0.016840195283293724,0.014289001002907753,-0.0005665677599608898,-0.012136301025748253
0.028274038806557655,0.00365469534881413,-0.017428772523999214,0.0141146844252944,-0.0005802617524750531,-0.012334046885371208
0.02908630669116974,0.003581322729587555,-0.017269423231482506,0.0141071118414402,-0.0005445663700811565,-0.01194964349269867
0.02908630669116974,0.003581322729587555,-0.017269423231482506,0.0141071118414402,-0.0005445663700811565,-0.01194964349269867
0.028166968375444412,0.0035953796468675137,-0.01750955730676651,0.014164569787681103,-0.0005672035040333867,-0.011920801363885403
0.02808854542672634,0.003997413441538811,-0.01756417006254196,0.013802269473671913,-0.0005848051514476538,-0.011972444131970406
0.027790211141109467,0.004055061377584934,-0.017067041248083115,0.014078949578106403,-0.0006820060079917312,-0.011721513234078884
0.02840663120150566,0.0038349267560988665,-0.01805545948445797,0.013746227137744427,-0.0007235737284645438,-0.012336955405771732
0.029285812750458717,0.0036857009399682283,-0.018864164128899574,0.014154254458844662,-0.000665249302983284,-0.01200831402093172
0.02890903130173683,0.0036530375946313143,-0.01768220029771328,0.01359549630433321,-0.0006857385742478073,-0.011827962473034859
0.02869570069015026,0.004207537975162268,-0.018531987443566322,0.014013916254043579,-0.0006890823715366423,-0.011675284244120121
0.029961250722408295,0.0037434909027069807,-0.018448062241077423,0.013496528379619122,-0.0006475376430898905,-0.011857238598167896
0.029406726360321045,0.0034286861773580313,-0.018024804070591927,0.01397855207324028,-0.000685869250446558,-0.012416967190802097
0.028585797175765038,0.0033908034674823284,-0.018492165952920914,0.013383610174059868,-0.0007137676584534347,-0.012528304010629654
0.02934274636209011,0.003704171860590577,-0.018143346533179283,0.014014312997460365,-0.0007219984545372427,-0.012590616010129452
0.03005404584109783,0.0038811222184449434,-0.018911976367235184,0.013641360215842724,-0.0006700451485812664,-0.012899287976324558
0.02949286438524723,0.0038028648123145103,-0.01899389550089836,0.014370176941156387,-0.0006816925597377121,-0.012448221445083618
0.029534263536334038,0.0037417046260088682,-0.01770702935755253,0.014002818614244461,-0.0006320399697870016,-0.01227304246276617
0.030057599768042564,0.004237952176481485,-0.018794141709804535,0.014487354084849358,-0.0006563494098372757,-0.012112528085708618
0.03032614476978779,0.004035176709294319,-0.019361769780516624,0.014230426400899887,-0.0006406313041225076,-0.012600019574165344
0.029956120997667313,0.004222890827804804,-0.018467295914888382,0.01460633147507906,-0.0006177991745062172,-0.012744865380227566
0.030030256137251854,0.004241934046149254,-0.018217645585536957,0.014031480997800827,-0.0006019689608365297,-0.01298893429338932
0.03007386438548565,0.004091083072125912,-0.01845649629831314,0.014418835751712322,-0.0005863445112481713,-0.012719197198748589
0.03149272873997688,0.003511094721034169,-0.01873161271214485,0.014020655304193497,-0.0005388121353462338,-0.012633394449949265
0.03152761980891228,0.004011438228189945,-0.018095001578330994,0.014439132064580917,-0.0005576723488047719,-0.012269383296370506
0.029828209429979324,0.0042267292737960815,-0.017966249957680702,0.014336923137307167,-0.0005253045819699764,-0.012568116188049316
0.029871586710214615,0.004505200777202845,-0.018461938947439194,0.01453721895813942,-0.0004913305165246129,-0.012593632563948631
0.030569907277822495,0.003994568716734648,-0.018150873482227325,0.014973926357924938,-0.00042101641884073615,-0.012539122253656387
0.030885448679327965,0.003864287631586194,-0.018621275201439857,0.014729676768183708,-0.00044149754103273153,-0.012480812147259712
0.030885448679327965,0.003864287631586194,-0.018621275201439857,0.014729676768183708,-0.00044149754103273153,-0.012480812147259712
0.0313374400138855,0.00395661685615778,-0.018917545676231384,0.015202094800770283,-0.0004242693248670548,-0.012894675135612488
0.031303126364946365,0.0040538376197218895,-0.018275061622262,0.014353237114846706,-0.0004427138774190098,-0.012926786206662655
0.03061164915561676,0.004501857794821262,-0.018947716802358627,0.014923692680895329,-0.0004277430707588792,-0.012914671562612057
0.030028527602553368,0.004267774056643248,-0.01915881596505642,0.014416763558983803,-0.00045482386485673487,-0.013165660202503204
0.03116448037326336,0.003956946078687906,-0.01849539205431938,0.014556164853274822,-0.00043112222920171916,-0.012654958292841911
0.03164486587047577,0.0043321955017745495,-0.01903289183974266,0.014410686679184437,-0.0004940230865031481,-0.012837468646466732
0.0312616266310215,0.0041114860214293,-0.01920398697257042,0.015313445590436459,-0.0005248122033663094,-0.012742767110466957
0.031357090920209885,0.0043721585534513,-0.01860734447836876,0.015082676894962788,-0.0004979355144314468,-0.013064942322671413
0.0318225733935833,0.0042153894901275635,-0.01899031177163124,0.015309046022593975,-0.0005279257311485708,-0.012805124744772911
0.03166426345705986,0.004046001471579075,-0.018888210877776146,0.014696928672492504,-0.0005520437844097614,-0.012633554637432098
0.031834714114665985,0.004232370760291815,-0.018704768270254135,0.014816178008913994,-0.0005226297071203589,-0.012876370921730995
0.03147672116756439,0.004522539675235748,-0.01925373263657093,0.014619235880672932,-0.0006602822104468942,-0.013204785995185375
0.031532254070043564,0.004730915185064077,-0.019174009561538696,0.015002615749835968,-0.0006970497779548168,-0.01345813274383545
0.03156578540802002,0.004373587667942047,-0.018488306552171707,0.015192459337413311,-0.0006743092671968043,-0.013188445009291172
0.0317111499607563,0.004320479929447174,-0.018938297405838966,0.015552411787211895,-0.0006498579168692231,-0.012835702858865261
0.03227181360125542,0.004256330896168947,-0.01900959573686123,0.015599993057549,-0.0006701865349896252,-0.013490580953657627
0.032394889742136,0.0040430366061627865,-0.01902688480913639,0.015612655319273472,-0.0006231238949112594,-0.013662321493029594
0.032492972910404205,0.004213952925056219,-0.01956418715417385,0.015798717737197876,-0.0006491589010693133,-0.013480712659657001
0.03220764920115471,0.0045761726796627045,-0.01906554214656353,0.01563287153840065,-0.0007350711384788156,-0.013630864210426807
0.03267805650830269,0.004720968659967184,-0.01863010600209236,0.01616065390408039,-0.0007085648830980062,-0.013671116903424263
0.03205878287553787,0.004407575353980064,-0.019373411312699318,0.01518175844103098,-0.000725011108443141,-0.01368052139878273
0.03240635246038437,0.00449468893930316,-0.019227633252739906,0.015514890663325787,-0.0008328811964020133,-0.013357467949390411
0.03240635246038437,0.00449468893930316,-0.019227633252739906,0.015514890663325787,-0.0008328811964020133,-0.013357467949390411
0.032663702964782715,0.0040110033005476,-0.019101131707429886,0.014688285999000072,-0.0007695354870520532,-0.013379864394664764
0.0327807180583477,0.004599662497639656,-0.018896788358688354,0.015322545543313026,-0.0006912273820489645,-0.01343413908034563
0.0327807180583477,0.004599662497639656,-0.018896788358688354,0.015322545543313026,-0.0006912273820489645,-0.01343413908034563
0.03239649161696434,0.004820622969418764,-0.019356265664100647,0.0160701684653759,-0.0006470675580203533,-0.013563116081058979
0.03239649161696434,0.004820622969418764,-0.019356265664100647,0.0160701684653759,-0.0006470675580203533,-0.013563116081058979
0.03258045017719269,0.0042849392630159855,-0.019047779962420464,0.01641974411904812,-0.0006025590701028705,-0.013583443127572536
0.032587505877017975,0.004676719196140766,-0.019294854253530502,0.016393862664699554,-0.0004852968268096447,-0.013714768923819065
0.032587505877017975,0.004676719196140766,-0.019294854253530502,0.016393862664699554,-0.0004852968268096447,-0.013714768923819065
0.03283437341451645,0.004739935975521803,-0.019127676263451576,0.016031458973884583,-0.0005191774689592421,-0.013973691500723362
0.032446108758449554,0.004869677126407623,-0.01950749382376671,0.0169159397482872,-0.00047843734500929713,-0.013678304851055145
0.032822366803884506,0.004864284303039312,-0.019561614841222763,0.01650277152657509,-0.000507870689034462,-0.013712896034121513
0.034078944474458694,0.004642306361347437,-0.019320614635944366,0.016462143510580063,-0.0005238690646365285,-0.013373816385865211
0.03329024463891983,0.004537741653621197,-0.019513051956892014,0.0161723829805851,-0.0005030137836001813,-0.013452989049255848
0.03193618357181549,0.004501194227486849,-0.018784567713737488,0.016197362914681435,-0.0005822457605972886,-0.013281509280204773
0.03252819925546646,0.00433568749576807,-0.0187938641756773,0.016111323609948158,-0.0006301632965914905,-0.013269280083477497
0.03357899188995361,0.004415019880980253,-0.019609276205301285,0.015542793087661266,-0.0006168694817461073,-0.013238159008324146
0.033745113760232925,0.005135626997798681,-0.0205825287848711,0.015986472368240356,-0.0005997656844556332,-0.013596948236227036
0.0345209501683712,0.005058910697698593,-0.019636059179902077,0.016048157587647438,-0.0006076833815313876,-0.013522659428417683
0.03408507630228996,0.004484090954065323,-0.019711947068572044,0.01687038503587246,-0.0005769550334662199,-0.013354875147342682
0.03322621434926987,0.004323731176555157,-0.01962396502494812,0.016756851226091385,-0.0006473222165368497,-0.01333701703697443
0.032657794654369354,0.004630018956959248,-0.01948360539972782,0.01640373095870018,-0.0006381866405718029,-0.013319950550794601
0.03420229256153107,0.004797089844942093,-0.02010769583284855,0.016093356534838676,-0.0006160471239127219,-0.013576052151620388
0.034227170050144196,0.004805193282663822,-0.020306430757045746,0.015769146382808685,-0.0006235998589545488,-0.013703192584216595
0.0341058187186718,0.004548976197838783,-0.020008249208331108,0.0165967158973217,-0.0005865292041562498,-0.013925802893936634
0.03377199172973633,0.0050141457468271255,-0.01964433304965496,0.016552966088056564,-0.0005749306292273104,-0.013306006789207458
0.03338879346847534,0.004857705440372229,-0.020144496113061905,0.017168637365102768,-0.0005637416034005582,-0.014226448722183704
0.0336904302239418,0.004334493540227413,-0.019752275198698044,0.01701381802558899,-0.0005674789426848292,-0.014255131594836712
0.03429121524095535,0.004436753690242767,-0.020767612382769585,0.016848113387823105,-0.0005524706793949008,-0.014000032097101212
0.03351574018597603,0.004705826751887798,-0.02039118856191635,0.01644119806587696,-0.0005063310381956398,-0.013822665438055992
0.03374754637479782,0.004914493765681982,-0.019306635484099388,0.016626974567770958,-0.0005198160652071238,-0.013547491282224655
0.03374754637479782,0.004914493765681982,-0.019306635484099388,0.016626974567770958,-0.0005198160652071238,-0.013547491282224655
0.03410491347312927,0.0041806660592556,-0.019501758739352226,0.01647195778787136,-0.00046116343582980335,-0.014253012835979462
0.03485238179564476,0.004200818482786417,-0.01951606385409832,0.01616167463362217,-0.0004868528922088444,-0.014692369848489761
0.03485238179564476,0.004200818482786417,-0.01951606385409832,0.01616167463362217,-0.0004868528922088444,-0.014692369848489761
0.034504760056734085,0.004607758950442076,-0.021021489053964615,0.01640823855996132,-0.0004594947095029056,-0.01454694103449583
0.032866328954696655,0.004176234360784292,-0.020261788740754128,0.016579164192080498,-0.00046291534090414643,-0.014527903869748116
0.03315731883049011,0.00433243066072464,-0.019795548170804977,0.01661425270140171,-0.0004305044421926141,-0.014358657412230968
0.03436626121401787,0.004338731989264488,-0.020095214247703552,0.01697758212685585,-0.0004614396020770073,-0.014720319770276546
0.03378584235906601,0.0045291464775800705,-0.020380347967147827,0.016426412388682365,-0.00043363781878724694,-0.014619937166571617
0.034936752170324326,0.004198054317384958,-0.02043149061501026,0.016589993610978127,-0.00043442295282147825,-0.014927122741937637
0.035363949835300446,0.004251288715749979,-0.020297415554523468,0.01648620329797268,-0.00043421488953754306,-0.014959228225052357
0.0333978645503521,0.0046925595961511135,-0.020593658089637756,0.016366146504878998,-0.0004584218258969486,-0.0145344790071249
0.03304310142993927,0.0043093315325677395,-0.020556088536977768,0.016865022480487823,-0.0005565141909755766,-0.014327554032206535
0.03499883413314819,0.004883474670350552,-0.020040394738316536,0.01669229380786419,-0.0006100994069129229,-0.014488829299807549
0.03512305021286011,0.00459539657458663,-0.020385056734085083,0.017304131761193275,-0.0005719979526475072,-0.01431339792907238
0.03470418602228165,0.004514389671385288,-0.02066742070019245,0.01681382581591606,-0.0005989558412693441,-0.014395361766219139
0.034279048442840576,0.004559099208563566,-0.021095016971230507,0.01706119254231453,-0.0006197752663865685,-0.014637133106589317
0.0345909558236599,0.004598536528646946,-0.02060144580900669,0.016956284642219543,-0.0005820566439069808,-0.014961360953748226
0.03492511808872223,0.0045986482873559,-0.020535331219434738,0.0166770089417696,-0.0006983495550230145,-0.014859397895634174
0.03516063466668129,0.004560365807265043,-0.02047870121896267,0.017108161002397537,-0.0007303744205273688,-0.014928599819540977
0.035444390028715134,0.004778093192726374,-0.02015126869082451,0.016710398718714714,-0.0007296157418750226,-0.014664451591670513
0.035444390028715134,0.004778093192726374,-0.02015126869082451,0.016710398718714714,-0.0007296157418750226,-0.014664451591670513
0.034824881702661514,0.004743665922433138,-0.020375072956085205,0.016860954463481903,-0.0007224483997561038,-0.01502051018178463
0.03524303436279297,0.00438325759023428,-0.020646588876843452,0.016723832115530968,-0.0007276908145286143,-0.015058713033795357
0.03523612767457962,0.003949657082557678,-0.020690932869911194,0.017136234790086746,-0.0007410057005472481,-0.014758184552192688
0.03523612767457962,0.003949657082557678,-0.020690932869911194,0.017136234790086746,-0.0007410057005472481,-0.014758184552192688
0.03527839109301567,0.0040055266581475735,-0.02092650905251503,0.01757875084877014,-0.0007083721575327218,-0.014743370935320854
0.03593586012721062,0.004236073698848486,-0.020326191559433937,0.0172189362347126,-0.0007244634907692671,-0.014593292027711868
0.035995982587337494,0.0044330088421702385,-0.020766476169228554,0.016595855355262756,-0.0007946199038997293,-0.014983778819441795
0.03577248752117157,0.00404967600479722,-0.021180592477321625,0.01742047816514969,-0.0008244703058153391,-0.015082319267094135
0.03592861443758011,0.003852945053949952,-0.02045746147632599,0.017639683559536934,-0.0008354131132364273,-0.014931783080101013
0.03629795089364052,0.0038196309469640255,-0.020241117104887962,0.018270129337906837,-0.0008358191698789597,-0.015052681788802147
0.036223504692316055,0.0043183923698961735,-0.02067030593752861,0.018167342990636826,-0.0008587061311118305,-0.015292957425117493
0.0359794981777668,0.004079451318830252,-0.021704820916056633,0.017472973093390465,-0.0009198675397783518,-0.015086447820067406
0.036495257169008255,0.004360549617558718,-0.020830834284424782,0.01828085258603096,-0.0009205557289533317,-0.015534698031842709
0.03666058927774429,0.004241705872118473,-0.020965546369552612,0.018150057643651962,-0.0009181518107652664,-0.01584424078464508
0.03644141927361488,0.004248091019690037,-0.02047896198928356,0.018613176420331,-0.0009416071115992963,-0.015668751671910286
0.036680031567811966,0.004013944882899523,-0.020220289006829262,0.018575847148895264,-0.0009489000658504665,-0.01532293576747179
0.0368163138628006,0.004298058338463306,-0.020224930718541145,0.016863036900758743,-0.0009421377326361835,-0.015428094193339348
0.037186745554208755,0.004479082301259041,-0.021062860265374184,0.016847215592861176,-0.0008764542290009558,-0.015401644632220268
0.036283787339925766,0.004350136034190655,-0.021400531753897667,0.016654424369335175,-0.0008677649893797934,-0.01539660431444645
0.03777151182293892,0.004075385630130768,-0.02095762826502323,0.016843488439917564,-0.0008292587590403855,-0.015130422078073025
0.038391973823308945,0.004407024011015892,-0.020898792892694473,0.017873331904411316,-0.0008456651703454554,-0.015232439152896404
0.036353446543216705,0.004129929933696985,-0.021786004304885864,0.018233979120850563,-0.0007614418282173574,-0.015037236735224724
0.035805895924568176,0.003942785318940878,-0.0216399934142828,0.01820661686360836,-0.0007724320748820901,-0.01585562899708748
0.03788084164261818,0.0038642671424895525,-0.021035920828580856,0.017764437943696976,-0.0007860453915782273,-0.014801854267716408
0.03755614161491394,0.004125414881855249,-0.02142835408449173,0.01766662858426571,-0.00078084651613608,-0.014954808168113232
0.03753095492720604,0.003989901393651962,-0.021286973729729652,0.0176633819937706,-0.0007905609090812504,-0.015491649508476257
0.03753095492720604,0.003989901393651962,-0.021286973729729652,0.0176633819937706,-0.0007905609090812504,-0.015491649508476257
0.03682241216301918,0.004278416745364666,-0.021267328411340714,0.01752765104174614,-0.0007530667935498059,-0.01555897668004036
0.036718279123306274,0.004188450053334236,-0.021497849375009537,0.017326142638921738,-0.00075558788375929,-0.015449674800038338
0.0380234569311142,0.004374357406049967,-0.021870451048016548,0.017004001885652542,-0.000772047380451113,-0.01567710191011429
0.037981145083904266,0.004069510847330093,-0.021091992035508156,0.017056772485375404,-0.0006859796703793108,-0.015749040991067886
0.037981145083904266,0.004069510847330093,-0.021091992035508156,0.017056772485375404,-0.0006859796703793108,-0.015749040991067886
0.037428535521030426,0.0039605870842933655,-0.021377339959144592,0.01707047037780285,-0.0006555957952514291,-0.015702953562140465
0.037877365946769714,0.003914298489689827,-0.021392127498984337,0.017339611425995827,-0.0006784608121961355,-0.015820898115634918
0.03747017681598663,0.003998400643467903,-0.021578947082161903,0.017521867528557777,-0.0006826025783084333,-0.015581276267766953
0.037269227206707,0.004321450833231211,-0.021296808496117592,0.018254786729812622,-0.0006880276487208903,-0.015566299669444561
0.03737526759505272,0.004298722837120295,-0.021245215088129044,0.018060842528939247,-0.0007014403818175197,-0.015690455213189125
0.03794201463460922,0.004029227886348963,-0.02162340097129345,0.018083738163113594,-0.0006714522023685277,-0.015777235850691795
0.0389806404709816,0.003854908049106598,-0.02141537517309189,0.017998741939663887,-0.0006864532479085028,-0.016137097030878067
0.03786763921380043,0.003833151189610362,-0.02102038823068142,0.017736628651618958,-0.0006955331191420555,-0.015981324017047882
0.03644086420536041,0.004054160788655281,-0.02133520133793354,0.01810184307396412,-0.0008105900487862527,-0.015726957470178604
0.03784741833806038,0.003859875025227666,-0.022103052586317062,0.017952196300029755,-0.0008628187933936715,-0.015676287934184074
0.037733547389507294,0.0037219382356852293,-0.021592654287815094,0.017362207174301147,-0.0008539431146346033,-0.01572301983833313
0.03860040754079819,0.0037084079813212156,-0.02063872292637825,0.018284356221556664,-0.0008309829281643033,-0.01554438192397356
0.0388697125017643,0.0037804630119353533,-0.02137548103928566,0.018157154321670532,-0.0007896741735748947,-0.015739645808935165
0.037770144641399384,0.0038548572920262814,-0.02153799496591091,0.017634183168411255,-0.0008403774118050933,-0.01561767142266035
0.03734055161476135,0.0038675337564200163,-0.021161390468478203,0.017896559089422226,-0.0008517953101545572,-0.01611907221376896
0.03879383206367493,0.0042925565503537655,-0.021070588380098343,0.017677869647741318,-0.0008499535033479333,-0.016371849924325943
0.03855498880147934,0.0040990798734128475,-0.021164370700716972,0.01824592985212803,-0.0008554355590604246,-0.01641790010035038
0.03841036185622215,0.004028731491416693,-0.021103110164403915,0.01817440800368786,-0.0008918739622458816,-0.0162429828196764
0.03825754672288895,0.0041351402178406715,-0.02057233452796936,0.01790802739560604,-0.0009153353748843074,-0.015850886702537537
0.03844212368130684,0.003988699987530708,-0.02104383334517479,0.01838364079594612,-0.0009144977084361017,-0.015593650750815868
0.03853311017155647,0.0038084688130766153,-0.021536415442824364,0.01840604469180107,-0.0009287440334446728,-0.01567118987441063
0.03853311017155647,0.0038084688130766153,-0.021536415442824364,0.01840604469180107,-0.0009287440334446728,-0.01567118987441063
0.038623224943876266,0.003978082910180092,-0.021097591146826744,0.01854570396244526,-0.0009588486282154918,-0.015834975987672806
0.038623224943876266,0.003978082910180092,-0.021097591146826744,0.01854570396244526,-0.0009588486282154918,-0.015834975987672806
0.03886815905570984,0.0038489990402013063,-0.02127443440258503,0.018968917429447174,-0.0009341320837847888,-0.016013888642191887
0.038975127041339874,0.004301171749830246,-0.02139766328036785,0.018906857818365097,-0.0008513056091032922,-0.015959838405251503
0.039390046149492264,0.004239315167069435,-0.021665960550308228,0.01859186217188835,-0.0007603494450449944,-0.015951815992593765
0.03934215009212494,0.003991942852735519,-0.02149910107254982,0.019151853397488594,-0.0006549902609549463,-0.015789685770869255
0.03936849534511566,0.004024802707135677,-0.02164801023900509,0.019209500402212143,-0.000677701027598232,-0.015935685485601425
0.039419904351234436,0.003947565332055092,-0.02171817608177662,0.018797051161527634,-0.000695318856742233,-0.01626763865351677
0.0390886515378952,0.00385620747692883,-0.022100798785686493,0.01877041719853878,-0.00070378981763497,-0.01629798300564289
0.039582639932632446,0.0038846866227686405,-0.022015202790498734,0.01993972435593605,-0.0006665633991360664,-0.015871526673436165
0.03944747895002365,0.0042754169553518295,-0.022180302068591118,0.019860202446579933,-0.0007995590567588806,-0.015721967443823814
0.039661429822444916,0.004464100580662489,-0.022289490327239037,0.019816238433122635,-0.0008357412298209965,-0.015483807772397995
0.04027190059423447,0.004287648480385542,-0.021042542532086372,0.019125841557979584,-0.0008449247106909752,-0.015731588006019592
0.04016568884253502,0.004033698234707117,-0.021516766399145126,0.018292995169758797,-0.0010746933985501528,-0.01581140048801899
0.040228743106126785,0.003968726843595505,-0.022521769627928734,0.018936526030302048,-0.0010777233401313424,-0.01614045910537243
0.041333504021167755,0.003997277934104204,-0.022493399679660797,0.019317636266350746,-0.001019445713609457,-0.016593914479017258
0.03974081575870514,0.004418620374053717,-0.021494185552001,0.019669275730848312,-0.0009679386857897043,-0.016726810485124588
0.04017607867717743,0.004239656962454319,-0.02159777656197548,0.019440382719039917,-0.000904876331333071,-0.016686173155903816
0.04054812341928482,0.0042145443148911,-0.022511286661028862,0.019634297117590904,-0.000866685644723475,-0.016554199159145355
0.040168460458517075,0.004155968315899372,-0.0223787073045969,0.019558299332857132,-0.0008052385528571904,-0.016767146065831184
0.04185884818434715,0.003936558961868286,-0.02206811122596264,0.019929587841033936,-0.0008050634060055017,-0.016964320093393326
0.040872469544410706,0.0043587153777480125,-0.02131992019712925,0.019662925973534584,-0.0007757764542475343,-0.016698604449629784
