davideferrari95/blind_handover_controller/data/Test 69 - [2024-02-07 -- 15-48-53]/joint_states_data.csv
shoulder_pan_joint,shoulder_lift_joint,elbow_joint,wrist_1_joint,wrist_2_joint,wrist_3_joint
0.006254165433347225,-0.003605296602472663,-0.010462150909006596,0.00987188145518303,0.0,0.005737141706049442
0.006613210774958134,-0.0030401183757930994,-0.01006191037595272,0.010130763985216618,0.0,0.005919075105339289
0.006613210774958134,-0.0030401183757930994,-0.01006191037595272,0.010130763985216618,0.0,0.005919075105339289
0.00712647894397378,-0.002848076866939664,-0.010704544372856617,0.01084269117563963,0.0,0.005711142905056477
0.0063383993692696095,-0.002863057190552354,-0.010556387715041637,0.010203007608652115,0.0,0.005674497690051794
0.005711226724088192,-0.0032051478046923876,-0.010189073160290718,0.010728196240961552,0.0,0.005957804154604673
0.005879815202206373,-0.0036171870306134224,-0.010583646595478058,0.010991116985678673,0.0,0.005570495035499334
0.0064307223074138165,-0.0035440302453935146,-0.010618378408253193,0.011139100417494774,0.0,0.0054882485419511795
0.005485439207404852,-0.003750463481992483,-0.01073049008846283,0.010588575154542923,0.0,0.0053832815028727055
0.0053451829589903355,-0.0033903971780091524,-0.009836452081799507,0.010884079150855541,0.0,0.005536580458283424
0.005321668926626444,-0.003496660850942135,-0.0105447294190526,0.01170460693538189,0.0,0.005286183208227158
0.006521411240100861,-0.0036855496000498533,-0.009878948330879211,0.011054150760173798,0.0,0.0055860551074147224
0.006041754502803087,-0.0031219259835779667,-0.010029972530901432,0.011047318577766418,0.0,0.005796520039439201
0.005837701261043549,-0.002058933489024639,-0.010197552852332592,0.011030876077711582,0.0,0.00595088629052043
0.005200577434152365,-0.0016776234842836857,-0.010355918668210506,0.010803461074829102,0.0,0.005901211407035589
0.005236828699707985,-0.001423322013579309,-0.009576529264450073,0.011766426265239716,0.0,0.0053099943324923515
0.0056980075314641,-0.0013616217765957117,-0.010296743363142014,0.011380941607058048,0.0,0.005274329334497452
0.006170059088617563,-0.0010782229946926236,-0.009759233333170414,0.011253059841692448,0.0,0.00548572838306427
0.006239954847842455,-0.0011706011136993766,-0.009483950212597847,0.011452071368694305,0.0,0.005506567656993866
0.005450144875794649,-0.0019614661578089,-0.010233573615550995,0.01109341625124216,0.0,0.005795285105705261
0.005240274593234062,-0.0019955113530158997,-0.01000630296766758,0.011526309885084629,0.0,0.005563382059335709
0.005637252703309059,-0.0016876037698239088,-0.009243135340511799,0.011055568233132362,0.0,0.005797010380774736
0.006069070193916559,-0.0014827045379206538,-0.0098722530528903,0.011386989615857601,0.0,0.0056121693924069405
0.006028191652148962,-0.0013094507157802582,-0.009378088638186455,0.012037422508001328,0.0,0.005706471856683493
0.005759901367127895,-0.001272444729693234,-0.009268004447221756,0.011666720733046532,0.0,0.00556775601580739
0.005160894710570574,-0.0010437960736453533,-0.008782723918557167,0.011788705363869667,0.0,0.005655236076563597
0.005160894710570574,-0.0010437960736453533,-0.008782723918557167,0.011788705363869667,0.0,0.005655236076563597
0.0055636451579630375,-0.0011580924037843943,-0.009181526489555836,0.011066844686865807,0.0,0.005540234036743641
0.005722878500819206,-0.0011357348412275314,-0.00861733965575695,0.010984602384269238,0.0,0.006467557977885008
0.006168237887322903,-0.0014894303167238832,-0.008940616622567177,0.011503172107040882,0.0,0.00559258833527565
0.0055818334221839905,-0.0013815844431519508,-0.009205522947013378,0.01161450706422329,0.0,0.005882604513317347
0.005220625549554825,-0.0012992449337616563,-0.008786967024207115,0.011445042677223682,0.0,0.005661536008119583
0.005389308091253042,-0.0011476335348561406,-0.009480291977524757,0.011151332408189774,0.0,0.005877247080206871
0.005670908838510513,-0.0010984813561663032,-0.009644593112170696,0.011267579160630703,0.0,0.00570302177220583
0.00555939506739378,-0.0010646148584783077,-0.009317994117736816,0.011555920355021954,0.0,0.005717446096241474
0.0054998742416501045,-0.0010455809533596039,-0.008475694805383682,0.01126167457550764,0.0,0.005835169460624456
0.006005283445119858,-0.0010921426583081484,-0.008963161148130894,0.011412390507757664,0.0,0.005661324132233858
0.005771809257566929,-0.0013497616164386272,-0.008743006736040115,0.011113660410046577,0.0,0.0058835516683757305
0.005753857549279928,-0.0013683537254109979,-0.009766587987542152,0.011448781937360764,0.0,0.006488234736025333
0.0057729133404791355,-0.0012798559619113803,-0.009495134465396404,0.011264154687523842,0.0,0.0066822972148656845
0.005731734912842512,-0.0012272243620827794,-0.008591965772211552,0.011569173075258732,0.0,0.00593674648553133
0.005476199556142092,-0.0012246478581801057,-0.009268740192055702,0.011434047482907772,0.0,0.005767909809947014
0.0056472220458090305,-0.001202948740683496,-0.009482675231993198,0.011641436256468296,0.0,0.005778573453426361
0.006047219503670931,-0.0011660821037366986,-0.00961238518357277,0.01155078411102295,0.0,0.0059924256056547165
0.005523712374269962,-0.0013281024293974042,-0.009587734006345272,0.011241383850574493,0.0,0.005814497359097004
0.005870838649570942,-0.001264069927856326,-0.009418591856956482,0.011087281629443169,0.0,0.0059922318905591965
0.005816980730742216,-0.0012124861823394895,-0.00909135490655899,0.01175199169665575,0.0,0.006187920458614826
0.006129838526248932,-0.0013768883654847741,-0.009026920422911644,0.011800327338278294,0.0,0.006116928532719612
0.006503789220005274,-0.0012814418878406286,-0.009270340204238892,0.012336436659097672,0.0,0.006289495155215263
0.006424418184906244,-0.0012285418342798948,-0.009019994176924229,0.011388558894395828,0.0,0.0066291517578065395
0.006424418184906244,-0.0012285418342798948,-0.009019994176924229,0.011388558894395828,0.0,0.0066291517578065395
0.005379811394959688,-0.0012763822451233864,-0.009838354773819447,0.011804960668087006,0.0,0.005793555174022913
0.005233136937022209,-0.001244369545020163,-0.00949663482606411,0.011316691525280476,0.0,0.00524169160053134
0.005233136937022209,-0.001244369545020163,-0.00949663482606411,0.011316691525280476,0.0,0.00524169160053134
0.006157232448458672,-0.0014304082142189145,-0.008766782470047474,0.011627312749624252,0.0,0.00564575707539916
0.0066271559335291386,-0.0014491919428110123,-0.009646252728998661,0.012026741169393063,0.0,0.005747316870838404
0.005775541998445988,-0.0012747811852023005,-0.009455922059714794,0.011629546992480755,0.0,0.005939702037721872
0.0055960677564144135,-0.0010667359456419945,-0.010232726112008095,0.011251559481024742,0.0,0.005931092891842127
0.0055960677564144135,-0.0010667359456419945,-0.010232726112008095,0.011251559481024742,0.0,0.005931092891842127
0.006247233599424362,-0.0011331542627885938,-0.009632252156734467,0.011482966132462025,0.0,0.005564634222537279
0.006474098190665245,-0.0010346537455916405,-0.009274899028241634,0.01118032168596983,0.0,0.005366915371268988
0.005804676096886396,-0.0010419123573228717,-0.009873921051621437,0.011713452637195587,0.0,0.005868609994649887
0.006069377530366182,-0.0010405462235212326,-0.010299868881702423,0.01111498475074768,0.0,0.005837437696754932
0.006341095082461834,-0.0013070256682112813,-0.010493448004126549,0.010836807079613209,0.0,0.005754677578806877
0.006414117757230997,-0.0011890457244589925,-0.010329784825444221,0.011615099385380745,0.0,0.0054940893314778805
0.006390101741999388,-0.0010444518411532044,-0.011071658693253994,0.011632274836301804,0.0,0.0056499820202589035
0.006118642166256905,-0.0010224324651062489,-0.011637243442237377,0.01195478718727827,0.0,0.005558458156883717
0.0062209805473685265,-0.0008937747916206717,-0.01038405578583479,0.011458798311650753,0.0,0.005518537946045399
0.006770085543394089,-0.0008902812842279673,-0.010079242289066315,0.011237921193242073,0.0,0.0057313465513288975
0.006430665031075478,-0.0008915510843507946,-0.010838535614311695,0.011797625571489334,0.0,0.0062458147294819355
0.006111964117735624,-0.0008970567723736167,-0.010401606559753418,0.011196481995284557,0.0,0.0066227843053638935
0.006133540067821741,-0.0011622519232332706,-0.010293246246874332,0.011533746495842934,0.0,0.006301581859588623
0.006332733668386936,-0.0011185656767338514,-0.010575329884886742,0.011562242172658443,0.0,0.005895337089896202
0.006151706911623478,-0.0010962958913296461,-0.010698417201638222,0.011016333475708961,0.0,0.006108756177127361
0.0061467308551073074,-0.0010821896139532328,-0.011269234120845795,0.011243421584367752,0.0,0.005976024083793163
0.006066498346626759,-0.001082349568605423,-0.010365608148276806,0.011466982774436474,0.0,0.005903828423470259
0.006355588324368,-0.0010167923755943775,-0.00999963004142046,0.01205788366496563,0.0,0.005880235228687525
0.0066345734521746635,-0.0009994624415412545,-0.011024314910173416,0.01148562878370285,0.0,0.0058511365205049515
0.00647675571963191,-0.0009852821240201592,-0.010143565945327282,0.01127688866108656,0.0,0.006177575793117285
0.006240894086658955,-0.0009890360524877906,-0.010029571130871773,0.011368885636329651,0.0,0.006389380898326635
0.006072963587939739,-0.0010824812343344092,-0.01059693656861782,0.01100952085107565,0.0,0.005915341433137655
0.006312504410743713,-0.0012413936201483011,-0.010031625628471375,0.011297490447759628,0.0,0.005859732162207365
0.006476865150034428,-0.0014133804943412542,-0.010031286627054214,0.011759200133383274,0.0,0.005822842475026846
0.0065739038400352,-0.0013632960617542267,-0.01034797914326191,0.011373224668204784,0.0,0.006185013335198164
0.0065739038400352,-0.0013632960617542267,-0.01034797914326191,0.011373224668204784,0.0,0.006185013335198164
0.006369535345584154,-0.0012846875470131636,-0.009858598001301289,0.011665286496281624,0.0,0.006039357278496027
0.006281788926571608,-0.001246802625246346,-0.010597472079098225,0.011393293738365173,0.0,0.005890802014619112
0.006900804582983255,-0.0011817306512966752,-0.010172542184591293,0.011772946454584599,0.0,0.006068020593374968
0.006499336566776037,-0.0011368576670065522,-0.009695371612906456,0.01198155339807272,0.0,0.005624115001410246
0.0062996395863592625,-0.0010395681019872427,-0.010017738677561283,0.011759892106056213,0.0,0.005803700536489487
0.0061841304413974285,-0.0010101962834596634,-0.010449652560055256,0.011850060895085335,0.0,0.006828581914305687
0.006613054312765598,-0.0009699392830953002,-0.01019018329679966,0.011959370225667953,0.0,0.006173818372189999
0.007202018518000841,-0.0009297350770793855,-0.009874021634459496,0.011948708444833755,0.0,0.006005927920341492
0.006459089927375317,-0.000949172186665237,-0.00946937408298254,0.01163969375193119,0.0,0.006127818953245878
0.006300607696175575,-0.0009420437272638083,-0.010220297612249851,0.011761846952140331,0.0,0.00681024556979537
0.006575516425073147,-0.0009365041041746736,-0.009869428351521492,0.011733978055417538,0.0,0.00649447413161397
0.0071738907136023045,-0.00100891781039536,-0.010004444979131222,0.012336590327322483,0.0,0.00613736966624856
0.006485599093139172,-0.0010071528377011418,-0.010176243260502815,0.012540820054709911,0.0,0.006277185864746571
0.006257376633584499,-0.0009944491321220994,-0.010169180110096931,0.011851095594465733,0.0,0.006591970566660166
0.0064997803419828415,-0.0009780104737728834,-0.00947512872517109,0.011749885976314545,0.0,0.007095505483448505
0.007094969041645527,-0.0009581968188285828,-0.01065693236887455,0.011811843141913414,0.0,0.00637084012851119
0.006818073336035013,-0.000935191405005753,-0.010076099075376987,0.011847514659166336,0.0,0.005880019627511501
0.006325351074337959,-0.0009297104552388191,-0.009565080516040325,0.011629363521933556,0.0,0.0059452843852341175
0.006625582464039326,-0.0009258126374334097,-0.010217154398560524,0.011335209012031555,0.0,0.0060655297711491585
0.006713927257806063,-0.0008626086637377739,-0.010192090645432472,0.012139707803726196,0.0,0.006251350976526737
0.0065240152180194855,-0.0009953058324754238,-0.008970292285084724,0.011685485020279884,0.0,0.006209979765117168
0.006529204547405243,-0.0009819499682635069,-0.009659703820943832,0.012001405470073223,0.0,0.005601635202765465
0.0063236551359295845,-0.0009806858142837882,-0.009368176572024822,0.011862481944262981,0.0,0.005806463770568371
0.007126525044441223,-0.0012535765999928117,-0.009056409820914268,0.012281774543225765,0.0,0.006154571659862995
0.007044710218906403,-0.001194927841424942,-0.010449035093188286,0.012012793682515621,0.0,0.006739376578480005
0.006635005120187998,-0.0011804216774180532,-0.009793118573725224,0.011488017626106739,0.0,0.006486302707344294
0.006355891935527325,-0.001125014154240489,-0.009222707711160183,0.011925078928470612,0.0,0.0062285903841257095
0.006355891935527325,-0.001125014154240489,-0.009222707711160183,0.011925078928470612,0.0,0.0062285903841257095
0.0066145556047558784,-0.0012401611311361194,-0.010779191739857197,0.011840648017823696,0.0,0.005663275718688965
0.007183043286204338,-0.001224046340212226,-0.009471839293837547,0.011486041359603405,0.0,0.006475143134593964
0.007449996192008257,-0.0013249588664621115,-0.009456021711230278,0.011353986337780952,0.0,0.006941927596926689
0.006952032446861267,-0.001395072671584785,-0.009920939803123474,0.01095714420080185,0.0,0.006470732390880585
0.006550287362188101,-0.0013428546953946352,-0.009676883928477764,0.011982792988419533,0.0,0.006133002694696188
0.0072080520913004875,-0.0011139726266264915,-0.009816897101700306,0.011676748283207417,0.0,0.006965185049921274
0.0069630262441933155,-0.0010756630217656493,-0.009641345590353012,0.011706125922501087,0.0,0.0068081943318247795
0.006904296576976776,-0.0010803912300616503,-0.009510481730103493,0.011349109001457691,0.0,0.006375778932124376
0.007081695832312107,-0.0010822768090292811,-0.01033907849341631,0.011481352150440216,0.0,0.006140616722404957
0.0073851714842021465,-0.0010642268462106586,-0.010009443387389183,0.011381207965314388,0.0,0.006171403918415308
0.007461946923285723,-0.0011328874388709664,-0.009840235114097595,0.011615021154284477,0.0,0.006428184453397989
0.007412871345877647,-0.0010364371119067073,-0.010076533071696758,0.011625929735600948,0.0,0.006793140899389982
0.007686217315495014,-0.0011760969646275043,-0.009085466153919697,0.011119441129267216,0.0,0.006514588370919228
0.007738793268799782,-0.0011280984617769718,-0.010062501765787601,0.011615162715315819,0.0,0.006302131339907646
0.0076956553384661674,-0.0011041891993954778,-0.010535182431340218,0.011429531499743462,0.0,0.006735330913215876
0.00703937653452158,-0.0010875998996198177,-0.010118966922163963,0.011268623173236847,0.0,0.006830277852714062
0.007447275798767805,-0.0010616437066346407,-0.009666381403803825,0.011622071266174316,0.0,0.00690404511988163
0.00762472627684474,-0.001034929882735014,-0.010307766497135162,0.011618275195360184,0.0,0.006523919757455587
0.0073630609549582005,-0.0010157122742384672,-0.010179571807384491,0.01149134710431099,0.0,0.007005143910646439
0.008063619956374168,-0.0009692410239949822,-0.01024448499083519,0.011267539113759995,0.0,0.007014815229922533
0.007842610590159893,-0.000967443163972348,-0.010177579708397388,0.010916457511484623,0.0,0.006839276757091284
0.007119381800293922,-0.001045679091475904,-0.010083269327878952,0.011014752089977264,0.0,0.00660145515576005
0.007229913491755724,-0.0011597811244428158,-0.010027659125626087,0.010669040493667126,0.0,0.0066786655224859715
0.0072677950374782085,-0.001199530903249979,-0.010371099226176739,0.010815691202878952,0.0,0.0068825483322143555
0.0072677950374782085,-0.001199530903249979,-0.010371099226176739,0.010815691202878952,0.0,0.0068825483322143555
0.008019303902983665,-0.0011458423687145114,-0.010551359504461288,0.010969589464366436,0.0,0.007950744591653347
0.007848692126572132,-0.0011076926020905375,-0.010028406046330929,0.010899838991463184,0.0,0.006681354250758886
0.0074699269607663155,-0.001073423190973699,-0.01008433848619461,0.011741540394723415,0.0,0.006146481726318598
0.0073563274927437305,-0.0011560535058379173,-0.009796232916414738,0.012377849780023098,0.0,0.006574294995516539
0.007894854061305523,-0.0011496825609356165,-0.011079533025622368,0.011976112611591816,0.0,0.007503064349293709
0.007800795137882233,-0.0013265194138512015,-0.009753822349011898,0.011375419795513153,0.0,0.006770070642232895
0.007327419705688953,-0.0012648331467062235,-0.010557650588452816,0.012182634323835373,0.0,0.006588418502360582
0.0075356075540184975,-0.0012304562842473388,-0.010200274176895618,0.011702679097652435,0.0,0.006992482114583254
0.008154000155627728,-0.0011651209788396955,-0.009916841052472591,0.011941930279135704,0.0,0.006995654199272394
0.0077621228992938995,-0.0011177202686667442,-0.010736707597970963,0.01208816934376955,0.0,0.00669340742751956
0.007551411632448435,-0.0010846606455743313,-0.010145600885152817,0.011751117184758186,0.0,0.006800155621021986
0.008184321224689484,-0.0010846455115824938,-0.009793517179787159,0.011831274256110191,0.0,0.006830188445746899
0.007840347476303577,-0.001090250676497817,-0.010293837636709213,0.011592401191592216,0.0,0.00711440434679389
0.00767397228628397,-0.0010622722329571843,-0.010119866579771042,0.011788549832999706,0.0,0.006974684074521065
0.007494129706174135,-0.0011349719716235995,-0.010340239852666855,0.011943132616579533,0.0,0.006719399243593216
0.0075480141676962376,-0.001112629659473896,-0.010818433947861195,0.011609603650867939,0.0,0.007101860363036394
0.00762642128393054,-0.0011755736777558923,-0.00974943581968546,0.01140905637294054,0.0,0.007633675821125507
0.007727975957095623,-0.0010517395567148924,-0.010199472308158875,0.011128217913210392,0.0,0.007072510663419962
0.00746516790241003,-0.000994295347481966,-0.010176952928304672,0.011330859735608101,0.0,0.007123084273189306
0.007656713481992483,-0.000976573908701539,-0.009996719658374786,0.011488592252135277,0.0,0.007259903475642204
0.00747294956818223,-0.0010538395727053285,-0.010312838479876518,0.011061490513384342,0.0,0.00803566537797451
0.00750148156657815,-0.0009696136694401503,-0.010232433676719666,0.011762076057493687,0.0,0.007023125421255827
0.007416027132421732,-0.001042217598296702,-0.01061162631958723,0.01219080202281475,0.0,0.006615133490413427
0.008698689751327038,-0.0010545336408540606,-0.010351171717047691,0.012463709339499474,0.0,0.006872126832604408
0.008123335428535938,-0.0010431216796860099,-0.010515973903238773,0.012678530998528004,0.0,0.00706513924524188
0.007546755950897932,-0.0010898851323872805,-0.009963260032236576,0.011815600097179413,0.0,0.007130671292543411
0.007546755950897932,-0.0010898851323872805,-0.009963260032236576,0.011815600097179413,0.0,0.007130671292543411
0.007530163042247295,-0.0010744754690676928,-0.010436656884849072,0.011458172462880611,0.0,0.007498325780034065
0.007632328663021326,-0.0010455189039930701,-0.010875649750232697,0.010902678593993187,0.0,0.007105331402271986
0.007871349342167377,-0.001024627941660583,-0.010142623446881771,0.010972436517477036,0.0,0.007907978259027004
0.007379465736448765,-0.0011020411038771272,-0.010855254717171192,0.011011303402483463,0.0,0.007881362922489643
0.007502846419811249,-0.0010703158332034945,-0.010742107406258583,0.010857569985091686,0.0,0.007499781437218189
0.008281194604933262,-0.0010758936405181885,-0.0107826953753829,0.011773118749260902,0.0,0.006850151810795069
0.007846483960747719,-0.0011389907449483871,-0.011101850308477879,0.012037298642098904,0.0,0.007458965294063091
0.008066898211836815,-0.0012345709837973118,-0.010694818571209908,0.011942202225327492,0.0,0.007751402910798788
0.00796466413885355,-0.0009223652305081487,-0.011623553931713104,0.011434621177613735,0.0,0.006964277941733599
0.007788517512381077,-0.0008789520943537354,-0.0103982612490654,0.011896071024239063,0.0,0.00728106964379549
0.007513715419918299,-0.0008146677864715457,-0.010910633951425552,0.011641077697277069,0.0,0.007536332588642836
0.008107020519673824,-0.0007322439341805875,-0.01083886157721281,0.011866070330142975,0.0,0.0074545759707689285
0.008296199142932892,-0.0006078295991756022,-0.010810687206685543,0.012291771359741688,0.0,0.007406790740787983
0.007680106442421675,-0.0006227718549780548,-0.011521612294018269,0.011594835668802261,0.0,0.00744212418794632
0.008134675212204456,-0.0006301949033513665,-0.010996179655194283,0.01219551358371973,0.0,0.007398175075650215
0.00818256102502346,-0.0005998186534270644,-0.011358597315847874,0.011675775982439518,0.0,0.007019650656729937
0.008882404305040836,-0.0006251657614484429,-0.011390377767384052,0.011460640467703342,0.0,0.007230668794363737
0.00807329174131155,-0.0007736136903986335,-0.011463535949587822,0.011453484185039997,0.0,0.00778884207829833
0.00836302898824215,-0.0007717934204265475,-0.01163842435926199,0.010850191116333008,0.0,0.007950103841722012
0.008398683741688728,-0.0007116375491023064,-0.011108662001788616,0.011760897934436798,0.0,0.00804144423455
0.008038557134568691,-0.0006292147445492446,-0.010959262028336525,0.011346317827701569,0.0,0.007840774953365326
0.008249059319496155,-0.0006246009143069386,-0.011342891491949558,0.011413557454943657,0.0,0.007670460734516382
0.008031493052840233,-0.000594843237195164,-0.010847306810319424,0.011666439473628998,0.0,0.007556878495961428
0.008377565070986748,-0.0005438717198558152,-0.01110538188368082,0.011582273058593273,0.0,0.00746903195977211
0.007872968912124634,-0.0005691620172001421,-0.011201315559446812,0.012158375233411789,0.0,0.007974104955792427
0.010191090404987335,-0.0005299898330122232,-0.010487321764230728,0.011952001601457596,0.0,0.007828576490283012
0.008149650879204273,-0.0004954778705723584,-0.010670648887753487,0.011952211149036884,0.0,0.007542540319263935
0.007769329939037561,-0.00043335402733646333,-0.010727636516094208,0.011651961132884026,0.0,0.007452476304024458
0.007769329939037561,-0.00043335402733646333,-0.010727636516094208,0.011651961132884026,0.0,0.007452476304024458
0.007904527708888054,-0.0004645366861950606,-0.010738549754023552,0.011340499855577946,0.0,0.0073137423023581505
0.008817329071462154,-0.0004357011348474771,-0.011035261675715446,0.01180707011371851,0.0,0.007818024605512619
0.00879479106515646,-0.0004695114039350301,-0.010319492779672146,0.011220634914934635,0.0,0.007842358201742172
0.007960068061947823,-0.0004928050911985338,-0.01085490733385086,0.011260558851063251,0.0,0.007855383679270744
0.0084375636652112,-0.0004682701255660504,-0.011135846376419067,0.011502676643431187,0.0,0.007622913457453251
0.008533678017556667,-0.0006441945442929864,-0.01044805534183979,0.011653090827167034,0.0,0.00805461686104536
0.008168557658791542,-0.0006035974947735667,-0.010744951665401459,0.01165208499878645,0.0,0.007571916561573744
0.00870512705296278,-0.0006223823875188828,-0.010682493448257446,0.01175539568066597,0.0,0.0075609139166772366
0.008842087350785732,-0.0005753820296376944,-0.0112924100831151,0.011237227357923985,0.0,0.008075591176748276
0.008351895958185196,-0.0005995018873363733,-0.010813849046826363,0.010768715292215347,0.0,0.007920049130916595
0.008941302075982094,-0.0005560680292546749,-0.01065869815647602,0.011930637992918491,0.0,0.00802643783390522
0.008206656202673912,-0.0005948108737356961,-0.010893357917666435,0.011465904302895069,0.0,0.008412466384470463
0.008206656202673912,-0.0005948108737356961,-0.010893357917666435,0.011465904302895069,0.0,0.008412466384470463
0.008163968101143837,-0.0005456908256746829,-0.011596061289310455,0.01126114372164011,0.0,0.008379318751394749
0.008821748197078705,-0.0005748409312218428,-0.010661963373422623,0.010974511504173279,0.0,0.007858244702219963
0.00884334184229374,-0.0005296531599014997,-0.010470024310052395,0.011212014593183994,0.0,0.008141295053064823
0.008669436909258366,-0.0005499913822859526,-0.011090871877968311,0.010955842211842537,0.0,0.007784079760313034
0.008689779788255692,-0.0005180962034501135,-0.010841059498488903,0.01091779489070177,0.0,0.007843579165637493
0.008943616412580013,-0.0005729979020543396,-0.011370208114385605,0.0112629858776927,0.0,0.00835523009300232
0.00839476753026247,-0.0005193605902604759,-0.011152873747050762,0.010507084429264069,0.0,0.008458980359137058
0.008655603975057602,-0.0005475099314935505,-0.010749208740890026,0.010620007291436195,0.0,0.00799692701548338
0.008655603975057602,-0.0005475099314935505,-0.010749208740890026,0.010620007291436195,0.0,0.00799692701548338
0.008815404027700424,-0.0005063014104962349,-0.011395043693482876,0.011690340004861355,0.0,0.0076886629685759544
0.008757504634559155,-0.0005133241065777838,-0.011016634292900562,0.011344446800649166,0.0,0.007640352472662926
0.008149252273142338,-0.0004971493617631495,-0.01082196831703186,0.011278376914560795,0.0,0.007938251830637455
0.008991003967821598,-0.0004901281790807843,-0.011137092486023903,0.011135287582874298,0.0,0.009367289021611214
0.008991003967821598,-0.0004901281790807843,-0.011137092486023903,0.011135287582874298,0.0,0.009367289021611214
0.008253517560660839,-0.00046113916323520243,-0.011420006863772869,0.011220463551580906,0.0,0.008141078986227512
0.009153560735285282,-0.0005025360733270645,-0.010666380636394024,0.011705366894602776,0.0,0.007583489641547203
0.009153560735285282,-0.0005025360733270645,-0.010666380636394024,0.011705366894602776,0.0,0.007583489641547203
0.008272657170891762,-0.000468290934804827,-0.011286182329058647,0.011649580672383308,0.0,0.008484137244522572
0.008146929554641247,-0.0004779089358635247,-0.011704841628670692,0.011078928597271442,0.0,0.009078050963580608
0.009447643533349037,-0.00046535293222405016,-0.01174565963447094,0.011784195899963379,0.0,0.008169018663465977
0.008639608509838581,-0.00048813511966727674,-0.011624723672866821,0.011378619819879532,0.0,0.007678480353206396
0.009233780205249786,-0.0005600908771157265,-0.012093786150217056,0.011528844013810158,5.873939912248716e-08,0.009139804169535637
0.008879457600414753,-0.0005994847160764039,-0.011436160653829575,0.011103431694209576,3.835262774032344e-09,0.008630619384348392
0.008862622082233429,-0.0006019690190441906,-0.011058272793889046,0.011592463590204716,2.5041524409630256e-10,0.00834212452173233
0.00882314145565033,-0.0005752960569225252,-0.011219813488423824,0.011694246903061867,1.635032734204067e-11,0.00901803094893694
0.008823426440358162,-0.0005996737163513899,-0.011079763062298298,0.012038124725222588,1.0675594522974174e-12,0.00856707338243723
0.008733282797038555,-0.0005562198348343372,-0.01143055409193039,0.01220560073852539,6.970400819039657e-14,0.008558407425880432
0.008415140211582184,-0.0006111969705671072,-0.011158395558595657,0.011282550171017647,4.551173670650768e-15,0.009037597104907036
0.008775830268859863,-0.0005789122660644352,-0.010696259327232838,0.011806778609752655,2.9715914258040784e-16,0.008750884793698788
0.00869080238044262,-0.000603513210080564,-0.010859563015401363,0.011414130218327045,1.9402369954739744e-17,0.008854787796735764
0.008448464795947075,-0.0005528425681404769,-0.01084477361291647,0.011784801259636879,1.2668362071117e-18,0.00869839359074831
0.009567909874022007,-0.000556067272555083,-0.01107974536716938,0.011699247173964977,8.271534060656929e-20,0.008344565518200397
0.009561923332512379,-0.0005350686842575669,-0.011229213327169418,0.011528042145073414,5.400720380495538e-21,0.008911877870559692
0.009284283965826035,-0.000493495084811002,-0.010350673459470272,0.011825358495116234,3.5262844818558033e-22,0.008894621394574642
0.008871269412338734,-0.0005003472324460745,-0.010807756334543228,0.011320042423903942,2.302411563150384e-23,0.009149031713604927
0.00901698600500822,-0.00048728607362136245,-0.011040178127586842,0.01135387271642685,1.5033102375819492e-24,0.008867641910910606
0.008844495750963688,-0.0004794673586729914,-0.010650776326656342,0.011618093587458134,9.815541096466017e-26,0.00844847783446312
0.008876130916178226,-0.0005109417252242565,-0.011119687929749489,0.011227973736822605,6.40884658690144e-27,0.008713817223906517
0.008876130916178226,-0.0005109417252242565,-0.011119687929749489,0.011227973736822605,6.40884658690144e-27,0.008713817223906517
0.00922335684299469,-0.0005011315224692225,-0.01081620343029499,0.011561672203242779,2.73219192758234e-29,0.009104209020733833
0.00922335684299469,-0.0005011315224692225,-0.01081620343029499,0.011561672203242779,2.73219192758234e-29,0.009104209020733833
0.009075628593564034,-0.0004388679808471352,-0.010548023506999016,0.01194730680435896,1.1647761933314899e-31,0.008891399018466473
0.00922810472548008,-0.00046646231203339994,-0.01115954015403986,0.012092630378901958,7.605156780284402e-33,0.008986934088170528
0.00922810472548008,-0.00046646231203339994,-0.01115954015403986,0.012092630378901958,7.605156780284402e-33,0.008986934088170528
0.00893762893974781,-0.0004188215534668416,-0.010705947875976562,0.012179230339825153,3.2421979515179614e-35,0.008949683047831059
0.00893762893974781,-0.0004188215534668416,-0.010705947875976562,0.012179230339825153,3.2421979515179614e-35,0.008949683047831059
0.009087152779102325,-0.0004621432162821293,-0.0112515389919281,0.01256043091416359,2.1169235189105052e-36,0.00886059645563364
0.009014395996928215,-0.000420144060626626,-0.010929190553724766,0.012651200406253338,1.382199663087087e-37,0.009137262590229511
0.009065971709787846,-0.00045999663416296244,-0.010805018246173859,0.012228616513311863,9.024775493298798e-39,0.008871414698660374
0.009350033476948738,-0.00045853151823394,-0.011184603907167912,0.012680701911449432,3.847405063650218e-41,0.008946767076849937
0.009116045199334621,-0.0004282275913283229,-0.011285597458481789,0.012895558029413223,2.512528146534397e-42,0.008990161120891571
0.0099457623437047,-0.0004384447820484638,-0.010468327440321445,0.0125878332182765,1.639519203260036e-43,0.009117783978581429
0.009126617573201656,-0.00043057004222646356,-0.010296255350112915,0.012130250222980976,1.1210387714598537e-44,0.00852204579859972
0.00964891817420721,-0.0004065046086907387,-0.011359264142811298,0.0115584097802639,1.401298464324817e-45,0.008671331219375134
0.00968305766582489,-0.0004417479794938117,-0.011310585774481297,0.011463155969977379,0.0,0.009269598871469498
0.009272410534322262,-0.0004047464462928474,-0.010742642916738987,0.011645396240055561,0.0,0.00951208546757698
0.009341061115264893,-0.0004198223177809268,-0.011450188234448433,0.011553415097296238,0.0,0.009027449414134026
0.009478321298956871,-0.0004113137547392398,-0.011098013259470463,0.01183601189404726,0.0,0.008993824943900108
0.010035749524831772,-0.0003824905725196004,-0.011882076039910316,0.011943954043090343,0.0,0.008939099498093128
0.00892026536166668,-0.00041425172821618617,-0.011523094959557056,0.011828205548226833,0.0,0.008975694887340069
0.0097605986520648,-0.0003908292856067419,-0.010949778370559216,0.012108389288187027,0.0,0.009110996499657631
0.00991796050220728,-0.00036802623071707785,-0.011316751129925251,0.01176887471228838,0.0,0.008769769221544266
0.009518359787762165,-0.0003953410778194666,-0.010757776908576488,0.01189300138503313,0.0,0.008773230947554111
0.009698676876723766,-0.0003765692817978561,-0.011457620188593864,0.01135056558996439,0.0,0.008787650614976883
0.009734977968037128,-0.000357875251211226,-0.011575557291507721,0.011205625720322132,0.0,0.00882353913038969
0.009264172054827213,-0.00038112764013931155,-0.011358032003045082,0.011557208374142647,0.0,0.008740830235183239
0.009877844713628292,-0.0003531685215421021,-0.011773066595196724,0.011150593869388103,0.0,0.008745909668505192
0.009812246076762676,-0.0003274860791862011,-0.011375613510608673,0.01144407968968153,0.0,0.009372802451252937
0.009149324148893356,-0.00030526466434821486,-0.011999049223959446,0.011747931130230427,0.0,0.009342011064291
0.009643105790019035,-0.00034222425892949104,-0.012340787798166275,0.011095714755356312,0.0,0.009167098440229893
0.010132057592272758,-0.00032253877725452185,-0.011471069417893887,0.011356384493410587,0.0,0.009363586083054543
0.009241987951099873,-0.00034904739004559815,-0.01153839472681284,0.010768625885248184,0.0,0.009387345984578133
0.009810223244130611,-0.00033606449142098427,-0.011230275966227055,0.010739418677985668,0.0,0.00930337980389595
0.009810223244130611,-0.00033606449142098427,-0.011230275966227055,0.010739418677985668,0.0,0.00930337980389595
0.010032699443399906,-0.000319115788443014,-0.011896854266524315,0.011225620284676552,0.0,0.009324666112661362
0.009250831790268421,-0.00034650840098038316,-0.01232797559350729,0.010938890278339386,0.0,0.00930732861161232
0.009616781957447529,-0.0003165923699270934,-0.010832314379513264,0.011191464960575104,0.0,0.01021347101777792
0.010229483246803284,-0.0003053541586268693,-0.011871621012687683,0.01130581647157669,0.0,0.0091813113540411
0.009803781285881996,-0.00032727126381359994,-0.012307294644415379,0.01166272908449173,0.0,0.009231244213879108
0.009415769018232822,-0.00030563335167244077,-0.011272087693214417,0.011645090766251087,0.0,0.009314529597759247
0.009215428493916988,-0.00028619886143133044,-0.011041673831641674,0.011793608777225018,0.0,0.00976140983402729
0.010441972874104977,-0.00030429987236857414,-0.011572134681046009,0.012928026728332043,0.0,0.009591694921255112
0.012018287554383278,-0.00030442792922258377,-0.011430134065449238,0.01107894815504551,0.0,0.009783064015209675
0.010813619941473007,-0.0002884000714402646,-0.012330099940299988,0.011044775135815144,0.0,0.010083644650876522
0.011725624091923237,-0.0002737797622103244,-0.011807629838585854,0.010590699501335621,0.0,0.00975911132991314
0.011356125585734844,-0.00030338327633216977,-0.011118946596980095,0.011023434810340405,0.0,0.009804617613554
0.011126513592898846,-0.00028999269125051796,-0.011965161189436913,0.011463586241006851,0.0,0.010027796030044556
0.011280365288257599,-0.00027723758830688894,-0.012159467674791813,0.01099454052746296,0.0,0.010577801614999771
0.010621126741170883,-0.00026555106160230935,-0.012036156840622425,0.011720225214958191,0.0,0.010235274210572243
0.010931895114481449,-0.0002907027956098318,-0.011247854679822922,0.01130275521427393,0.0,0.009682312607765198
0.010986230336129665,-0.00027988391229882836,-0.0110781816765666,0.011702611111104488,0.0,0.01004656683653593
0.011118710972368717,-0.00026941706892102957,-0.011656356044113636,0.011907440610229969,0.0,0.010021318681538105
0.011583809740841389,-0.00025969897978939116,-0.011340481229126453,0.011514734476804733,0.0,0.009864446707069874
0.011224684305489063,-0.0002778389025479555,-0.011767648160457611,0.011780151166021824,0.0,0.009980948641896248
0.011840378865599632,-0.00026289778179489076,-0.011310497298836708,0.011507432907819748,0.0,0.010765357874333858
0.011473029851913452,-0.00024840160040184855,-0.011207561939954758,0.011762584559619427,0.0,0.01106425654143095
0.011180236004292965,-0.00020456017227843404,-0.011828887276351452,0.011973419226706028,0.0,0.010435635223984718
0.01122560165822506,-0.00017917962395586073,-0.01138652116060257,0.011930511333048344,0.0,0.010610389523208141
0.011013860814273357,-0.0001704887836240232,-0.011417088098824024,0.012015161104500294,0.0,0.009983464144170284
0.011789076030254364,-0.0001380054745823145,-0.011755691841244698,0.011358565650880337,0.0,0.009969940409064293
0.01176686305552721,-0.00011788808478740975,-0.011521688662469387,0.011752182617783546,0.0,0.010728319175541401
0.01176686305552721,-0.00011788808478740975,-0.011521688662469387,0.011752182617783546,0.0,0.010728319175541401
0.012623414397239685,-0.00010420003673061728,-0.012060388922691345,0.011760690249502659,0.0,0.010410802438855171
0.01060553826391697,-8.459936361759901e-05,-0.011729955673217773,0.011750299483537674,0.0,0.010456077754497528
0.011412948369979858,-7.732734957244247e-05,-0.011540964245796204,0.011190070770680904,0.0,0.010351401753723621
0.012016513384878635,-8.587668162363116e-06,-0.011226136237382889,0.01175500638782978,0.0,0.010477835312485695
0.011528471484780312,-1.1521454013063703e-07,-0.011596908792853355,0.011749611236155033,-0.00014458844088949263,0.01064187940210104
0.012082500383257866,-1.5457500834870075e-09,-0.011339398100972176,0.01176208071410656,-0.00017190015933010727,0.010707452893257141
0.011293953284621239,-2.0738209760562398e-11,-0.011598009616136551,0.011919272132217884,-0.00016764152678661048,0.010320262983441353
0.01159373577684164,-2.7822956070143456e-13,-0.011262206360697746,0.011577801778912544,-0.00016175501514226198,0.00989746954292059
0.011728842742741108,-3.732804318331553e-15,-0.01106010377407074,0.01186951994895935,-0.00015615059237461537,0.010020294226706028
0.01158294826745987,-5.0080339932932777e-17,-0.012064095586538315,0.011514026671648026,-0.00017325203225482255,0.010680715553462505
0.012172077782452106,-6.71891669712975e-19,-0.011226795613765717,0.01130950078368187,-0.000174707209225744,0.010531553998589516
0.011527979746460915,-9.014284735827582e-21,-0.011261294595897198,0.011683459393680096,-0.00016967844567261636,0.010082365013659
0.011761346831917763,-1.209381322995456e-22,-0.011530186049640179,0.011337541043758392,-0.000164537996170111,0.010641184635460377
0.012040386907756329,-1.622539365050345e-24,-0.011249452829360962,0.01164509542286396,-0.00015967430954333395,0.01072384137660265
0.011158107779920101,-2.1768436412531026e-26,-0.011534933932125568,0.011637973599135876,-0.00016777453129179776,0.010721331462264061
0.011831366457045078,-2.920513630701588e-28,-0.011231518350541592,0.0116032799705863,-0.00017502497939858586,0.010535749606788158
0.011654788628220558,-3.9182416534377234e-30,-0.01116691529750824,0.011899369768798351,-0.0001710510259727016,0.010408984497189522
0.011984126642346382,-5.256821316326427e-32,-0.012105998583137989,0.011438931338489056,-0.0001842135825427249,0.010220501571893692
0.011933987960219383,-7.052696567752501e-34,-0.011337885633111,0.011814169585704803,-0.00018507277127355337,0.010716332122683525
0.011933987960219383,-7.052696567752501e-34,-0.011337885633111,0.011814169585704803,-0.00018507277127355337,0.010716332122683525
0.011690174229443073,-1.2694604932693153e-37,-0.011331375688314438,0.011220059357583523,-0.0002489420585334301,0.010915622115135193
0.011690174229443073,-1.2694604932693153e-37,-0.011331375688314438,0.011220059357583523,-0.0002489420585334301,0.010915622115135193
0.011499582789838314,-1.70314375873424e-39,-0.010928918607532978,0.011704029515385628,-0.0002582349698059261,0.011196820996701717
0.012079402804374695,-2.2849572759280467e-41,-0.011398876085877419,0.011699113063514233,-0.0002882127300836146,0.011433995328843594
0.011819659732282162,-3.0688436368713494e-43,-0.011416363529860973,0.012257193215191364,-0.00027922907611355186,0.011539853177964687
0.011728056706488132,-4.203895392974451e-45,-0.012031525373458862,0.011612415313720703,-0.00026586485910229385,0.011460852809250355
0.01206351537257433,-0.0,-0.011344093829393387,0.011601620353758335,-0.00028999027563259006,0.012585769407451153
0.012123487889766693,0.0,-0.011633235961198807,0.012142536230385303,-0.00028202199609950185,0.010857914574444294
0.012063220143318176,0.0,-0.012297025881707668,0.011904173530638218,-0.00027024990413337946,0.010497676208615303
0.01252819038927555,0.0,-0.011926492676138878,0.01170154009014368,-0.00028323655715212226,0.011130183935165405
0.01252819038927555,0.0,-0.011926492676138878,0.01170154009014368,-0.00028323655715212226,0.011130183935165405
0.012753821909427643,0.0,-0.011687911115586758,0.011283712461590767,-0.00027357664657756686,0.010799516923725605
0.01226972695440054,0.0,-0.011816849000751972,0.01148699689656496,-0.00034619838697835803,0.010729577392339706
0.01201173011213541,0.0,-0.011543591506779194,0.012107809074223042,-0.00033414055360481143,0.01093498058617115
0.012184571474790573,0.0,-0.011963400058448315,0.012282266281545162,-0.00034215234336443245,0.01179580856114626
0.012153467163443565,0.0,-0.011974000371992588,0.012193392962217331,-0.0003479394072201103,0.011956454254686832
0.012075331062078476,0.0,-0.011746630072593689,0.012052654288709164,-0.0003552421403583139,0.011373714543879032
0.012250575236976147,0.0,-0.012170697562396526,0.011491796933114529,-0.00035964587004855275,0.011570380069315434
0.011983094736933708,0.0,-0.011823732405900955,0.012318989261984825,-0.00037775482633151114,0.01107918843626976
0.01284865103662014,0.0,-0.011997430585324764,0.01197780016809702,-0.0003697417851071805,0.011489681899547577
0.012114116922020912,0.0,-0.011611085385084152,0.012362060137093067,-0.0004320377775002271,0.011190135963261127
0.012712780386209488,0.0,-0.012259762734174728,0.011826741509139538,-0.0004631977353710681,0.011717177927494049
0.01225263811647892,0.0,-0.012301711365580559,0.011295869015157223,-0.0005032833432778716,0.011756449937820435
0.012359600514173508,0.0,-0.012205494567751884,0.01186192873865366,-0.0005028627347201109,0.011304432526230812
0.013002109713852406,0.0,-0.013152463361620903,0.011850595474243164,-0.0004975699121132493,0.01121845655143261
0.012356963939964771,0.0,-0.011686732992529869,0.012293199077248573,-0.0005203660693950951,0.01163327693939209
0.01288000401109457,0.0,-0.012378640472888947,0.011736436747014523,-0.0004926805850118399,0.011352330446243286
0.012390270829200745,0.0,-0.011961688287556171,0.011484319344162941,-0.0005396728520281613,0.011379105970263481
0.012159224599599838,0.0,-0.012430332601070404,0.01188264787197113,-0.000547895731870085,0.011713877320289612
0.01220106240361929,0.0,-0.012425911612808704,0.011420736089348793,-0.0005774338496848941,0.012182876467704773
0.012434487231075764,0.0,-0.011335775256156921,0.011819856241345406,-0.0005322574870660901,0.011970775201916695
0.012675249949097633,0.0,-0.012439876794815063,0.01163682620972395,-0.0005241940962150693,0.011674447916448116
0.01264140009880066,0.0,-0.012189969420433044,0.011483272537589073,-0.0005166322807781398,0.012040860950946808
0.012927470728754997,0.0,-0.012409526854753494,0.012240409851074219,-0.00047959998482838273,0.01145447138696909
0.012927470728754997,0.0,-0.012409526854753494,0.012240409851074219,-0.00047959998482838273,0.01145447138696909
0.012552598491311073,0.0,-0.011844148859381676,0.011929153464734554,-0.00047669641207903624,0.011728030629456043
0.012890343554317951,0.0,-0.012013890780508518,0.0119907446205616,-0.0004736572736874223,0.01174095831811428
0.012822851538658142,0.0,-0.012456214055418968,0.011121230199933052,-0.0004377925070002675,0.012610886245965958
0.012822851538658142,0.0,-0.012456214055418968,0.011121230199933052,-0.0004377925070002675,0.012610886245965958
0.013339594937860966,0.0,-0.011839821934700012,0.011421498842537403,-0.00044114096090197563,0.012050135061144829
0.014668167568743229,0.0,-0.01227566972374916,0.011422641575336456,-0.0004716393887065351,0.012054006569087505
0.013864811509847641,0.0,-0.012260906398296356,0.011597218923270702,-0.0004891717107966542,0.012507632374763489
0.013592724688351154,0.0,-0.012213703244924545,0.011531720869243145,-0.0004718579293694347,0.011970147490501404
0.013313692063093185,0.0,-0.012372991070151329,0.011817644350230694,-0.0005903599667362869,0.011861010454595089
0.013931628316640854,0.0,-0.011977282352745533,0.011765509843826294,-0.0005657286965288222,0.012480180710554123
0.013116019777953625,0.0,-0.01274621207267046,0.011626399122178555,-0.0005990465870127082,0.012214509770274162
0.013697048649191856,0.0,-0.012032422237098217,0.011671827174723148,-0.0005448662559501827,0.012026563286781311
0.013479674234986305,0.0,-0.0126420296728611,0.0114785460755229,-0.0004952457966282964,0.012077905237674713
0.014026183634996414,0.0,-0.0123946787789464,0.011832606978714466,-0.0005090581835247576,0.012333270162343979
0.01373649574816227,0.0,-0.012194089591503143,0.011296886019408703,-0.00048686511581763625,0.01277169305831194
0.01410609856247902,0.0,-0.01251841802150011,0.01178050972521305,-0.0004529627622105181,0.011684520170092583
0.013789818622171879,0.0,-0.01210759673267603,0.012056621722877026,-0.0004787787329405546,0.011536426842212677
0.013870474882423878,0.0,-0.012727579101920128,0.011708701029419899,-0.0004523528623394668,0.011940096504986286
0.013483083806931973,0.0,-0.01202580239623785,0.012129231356084347,-0.0004277437983546406,0.012652179226279259
0.014212353155016899,0.0,-0.012823447585105896,0.011394994333386421,-0.0003944849595427513,0.012629181146621704
0.01412744540721178,0.0,-0.012150847353041172,0.011793294921517372,-0.0003629181592259556,0.012715798802673817
0.01436754409223795,0.0,-0.012139282189309597,0.011571421287953854,-0.00036839040694758296,0.012528697960078716
0.013904928229749203,0.0,-0.012827470898628235,0.011768536642193794,-0.0003727327275555581,0.012859626673161983
0.013904928229749203,0.0,-0.012827470898628235,0.011768536642193794,-0.0003727327275555581,0.012859626673161983
0.01402811985462904,0.0,-0.012010893784463406,0.011952046304941177,-0.0003504810156300664,0.012743541970849037
0.014433166943490505,0.0,-0.011921433731913567,0.012290713377296925,-0.0003484204935375601,0.012889567762613297
0.014298215508460999,0.0,-0.012374593876302242,0.011869299225509167,-0.00034145876998081803,0.012551737017929554
0.014565075747668743,0.0,-0.012763299979269505,0.011620067991316319,-0.0003246389969717711,0.012541620060801506
0.014565075747668743,0.0,-0.012763299979269505,0.011620067991316319,-0.0003246389969717711,0.012541620060801506
0.014492005109786987,0.0,-0.012850550934672356,0.01184583455324173,-0.00030877330573275685,0.012614582665264606
0.014572658576071262,0.0,-0.012519336305558681,0.011558051221072674,-0.0002943466242868453,0.012876071967184544
0.014507785439491272,0.0,-0.01206539198756218,0.012255663983523846,-0.00028120464412495494,0.013129489496350288
0.014996200799942017,0.0,-0.013101950287818909,0.012136051431298256,-0.0003025094629265368,0.013298222795128822
0.014837251044809818,0.0,-0.01299512293189764,0.01245714072138071,-0.0002833954931702465,0.013037176802754402
0.014584102667868137,0.0,-0.012978021055459976,0.012245447374880314,-0.00027267984114587307,0.013353017158806324
0.014802640303969383,0.0,-0.012568634003400803,0.01247368473559618,-0.00026272996910847723,0.013004673644900322
0.014668588526546955,0.0,-0.01276987511664629,0.011846223846077919,-0.000248967669904232,0.012726634740829468
0.01509786956012249,0.0,-0.012687969021499157,0.012029326520860195,-0.00023574117221869528,0.01247614435851574
0.01463925838470459,0.0,-0.01294606551527977,0.011697796173393726,-0.00022399135923478752,0.012811800464987755
0.015080966986715794,0.0,-0.01237678062170744,0.011768504045903683,-0.0002133665548171848,0.012833141721785069
0.01478807907551527,0.0,-0.012997833080589771,0.012317586690187454,-0.00023899869120214134,0.01295337826013565
0.01554202288389206,0.0,-0.012636286206543446,0.012078438885509968,-0.00023350196715909988,0.013421389274299145
0.014998768456280231,0.00010708147601690143,-0.012873458676040173,0.012253647670149803,-0.00022412530961446464,0.013226156122982502
0.015497359447181225,0.00011430049926275387,-0.012619726359844208,0.012164866551756859,-0.00021521186863537878,0.012985078617930412
0.015067072585225105,0.00011159920541103929,-0.012990704737603664,0.012086285278201103,-0.00020696324645541608,0.01274915225803852
0.015018481761217117,0.000108900319901295,-0.013304260559380054,0.01169207040220499,-0.00021559228480327874,0.013358267024159431
0.015009565278887749,0.00010632721387082711,-0.012836536392569542,0.01170404814183712,-0.00022315766545943916,0.01325632818043232
0.015009565278887749,0.00010632721387082711,-0.012836536392569542,0.01170404814183712,-0.00022315766545943916,0.01325632818043232
0.01577194593846798,0.00010387292422819883,-0.013169923797249794,0.012288019992411137,-0.00021648200345225632,0.013797115534543991
0.015688346698880196,0.00010152929462492466,-0.012721494771540165,0.011918674223124981,-0.00023724041238892823,0.0139832878485322
0.015203693881630898,0.00011887452274095267,-0.012973287142813206,0.012206891551613808,-0.00023143687576521188,0.0137631231918931
0.01521137822419405,0.0001165711073554121,-0.012690813280642033,0.012394065037369728,-0.000224343515583314,0.013484520837664604
0.015274626202881336,0.00011411139712436125,-0.013558545149862766,0.011992773041129112,-0.00021757141803391278,0.014291697181761265
0.015714377164840698,0.00011174999235663563,-0.013038670644164085,0.011951946653425694,-0.0002111894718836993,0.013476480729877949
0.015497855842113495,0.00010948417184408754,-0.013301192782819271,0.011776968836784363,-0.00022874482965562493,0.012531016953289509
0.015883607789874077,0.000124948492157273,-0.013199793174862862,0.01216887217015028,-0.0002395195624558255,0.013011297211050987
0.015223538503050804,0.0001227507455041632,-0.01331641897559166,0.011836721561849117,-0.00022883871861267835,0.013341781683266163
0.015876000747084618,0.00012040793808409944,-0.013209559954702854,0.012203112244606018,-0.00021785478747915477,0.013557611033320427
0.016126329079270363,0.0001323162141488865,-0.013325979001820087,0.011804656125605106,-0.0002369614812778309,0.01393335685133934
0.015969213098287582,0.00013014391879551113,-0.012753614224493504,0.012551424093544483,-0.00022818066645413637,0.013749525882303715
0.015833066776394844,0.0001278361742151901,-0.013790183700621128,0.011938024312257767,-0.00021900555293541402,0.014031806960701942
0.01555759645998478,0.0001256060495506972,-0.013093051500618458,0.012101246975362301,-0.00023640961444471031,0.013725725933909416
0.015955332666635513,0.00018649060802999884,-0.01369524747133255,0.012293254025280476,-0.00023574232181999832,0.013838493265211582
0.016383927315473557,0.0002093534276355058,-0.013166907243430614,0.012633465230464935,-0.00022775321849621832,0.013646893203258514
0.016589844599366188,0.0002004512498388067,-0.013749735429883003,0.01286832895129919,-0.00021983963961247355,0.01385156624019146
0.017261261120438576,0.00019190750026609749,-0.01342597883194685,0.012470691464841366,-0.00021242833463475108,0.013661331497132778
0.016466433182358742,0.00022035436995793134,-0.013851279392838478,0.01278046052902937,-0.000205498407012783,0.013981479220092297
0.01633705571293831,0.0002121835423167795,-0.013642911799252033,0.012388437055051327,-0.00019900637562386692,0.014022795483469963
0.016614992171525955,0.0002265011571580544,-0.013796703889966011,0.012921206653118134,-0.00021861416462343186,0.014118659310042858
0.015981795266270638,0.00022936007007956505,-0.013771552592515945,0.012664467096328735,-0.00021379822283051908,0.013921177946031094
0.01670622080564499,0.0002214469714090228,-0.014188956469297409,0.013255537487566471,-0.0002077387907775119,0.014157622121274471
0.01659560017287731,0.0002440655807731673,-0.013910745270550251,0.012914042919874191,-0.00020191977091599256,0.01413350272923708
0.017164893448352814,0.00023645494366064668,-0.013392043299973011,0.012700472958385944,-0.0001964115654118359,0.014020695351064205
0.01680642180144787,0.000339632504619658,-0.013795578852295876,0.012240528129041195,-0.0001911954750539735,0.014190346002578735
0.016529828310012817,0.0003668010176625103,-0.014104913920164108,0.011817589402198792,-0.00020968829630874097,0.014421328902244568
0.016902737319469452,0.00033983259345404804,-0.014207137748599052,0.012314928695559502,-0.00020375549502205104,0.014693903736770153
0.016902737319469452,0.00033983259345404804,-0.014207137748599052,0.012314928695559502,-0.00020375549502205104,0.014693903736770153
0.016929367557168007,0.000376539392163977,-0.014151697978377342,0.011884240433573723,-0.00019514987070579082,0.013970705680549145
0.017771905288100243,0.0003542523190844804,-0.013952051289379597,0.012918793596327305,-0.00022191359312273562,0.014019975438714027
0.01717090792953968,0.00036872210330329835,-0.013774550519883633,0.012411828152835369,-0.0002153373061446473,0.01407473161816597
0.01742182858288288,0.0003651251317933202,-0.014280859380960464,0.011805985122919083,-0.00020722135377582163,0.014335958287119865
0.018045028671622276,0.00034534739097580314,-0.01394678559154272,0.012235095724463463,-0.0002241734036942944,0.01450798287987709
0.016588861122727394,0.00037351108039729297,-0.01431002002209425,0.012312845326960087,-0.00022396925487555563,0.014356115832924843
0.01710551790893078,0.0003556779702194035,-0.013534213416278362,0.012476916424930096,-0.00021676928736269474,0.014235928654670715
0.01734716072678566,0.00042812334140762687,-0.014038553461432457,0.012318314053118229,-0.0002242677437607199,0.014256803318858147
0.017580844461917877,0.00040174383320845664,-0.013464989140629768,0.012749898247420788,-0.00023082428378984332,0.01444074884057045
0.01754315011203289,0.00040914557757787406,-0.013372519984841347,0.012455797754228115,-0.00021810553153045475,0.015045673586428165
0.01802356354892254,0.0004411108966451138,-0.013668152503669262,0.012716077268123627,-0.00031938639585860074,0.013947301544249058
0.01763135753571987,0.0004532306920737028,-0.013259956613183022,0.012443115003407001,-0.00030535567202605307,0.014091053046286106
0.017750242725014687,0.0004442362114787102,-0.013403010554611683,0.012924225069582462,-0.0003359285765327513,0.014518983662128448
0.01794322580099106,0.0005679848836734891,-0.01379825733602047,0.012402605265378952,-0.00032264686888083816,0.014935418032109737
0.01743520423769951,0.0005900526302866638,-0.013996882364153862,0.013099768199026585,-0.0003488302754703909,0.015089379623532295
0.018204620108008385,0.0005612491513602436,-0.013737245462834835,0.01233250554651022,-0.0003362504066899419,0.01484658196568489
0.01801893673837185,0.000589983828831464,-0.014433563686907291,0.01197344996035099,-0.0003195835161022842,0.014794345013797283
0.017671534791588783,0.0005929348990321159,-0.014178195968270302,0.012304072268307209,-0.0003446466289460659,0.014978665858507156
0.018236931413412094,0.0005757466424256563,-0.01432576309889555,0.012342206202447414,-0.00033141931635327637,0.01540770847350359
0.01814308762550354,0.0007871080306358635,-0.014122494496405125,0.012729537673294544,-0.0004175908106844872,0.015361225232481956
0.01805480569601059,0.0007261937716975808,-0.013482850044965744,0.011989258229732513,-0.0004129621374886483,0.015085066668689251
0.01833021454513073,0.0007457296596840024,-0.013510369695723057,0.012948522344231606,-0.0004509069840423763,0.015200638212263584
0.018027404323220253,0.0007517936755903065,-0.014116980135440826,0.01285166572779417,-0.0004205262230243534,0.015100167132914066
0.018363773822784424,0.0008150154608301818,-0.014010045677423477,0.012856021523475647,-0.00044659466948360205,0.015330500900745392
0.018338704481720924,0.0008741048513911664,-0.014140278100967407,0.01303273718804121,-0.0004241935384925455,0.015606566332280636
0.018338704481720924,0.0008741048513911664,-0.014140278100967407,0.01303273718804121,-0.0004241935384925455,0.015606566332280636
0.018021244555711746,0.0009750654571689665,-0.014219588600099087,0.012849243357777596,-0.0004255347012076527,0.015558788552880287
0.018453706055879593,0.0012052670354023576,-0.013504210859537125,0.01358218863606453,-0.0004258362459950149,0.015198218636214733
0.018333502113819122,0.0012741006212309003,-0.014594747684895992,0.013063255697488785,-0.00040481024188920856,0.015482858754694462
0.017956599593162537,0.0012038040440529585,-0.014500707387924194,0.013366923667490482,-0.00047495163744315505,0.01502933632582426
0.01867332123219967,0.0011546674650162458,-0.014670440927147865,0.012713578529655933,-0.0004362913314253092,0.015249618329107761
0.018217865377664566,0.0010564978001639247,-0.014211010187864304,0.012952305376529694,-0.0004667459870688617,0.015414715744554996
0.01815030537545681,0.001030209008604288,-0.014171193353831768,0.013061434030532837,-0.0004382042679935694,0.015575965866446495
0.018233060836791992,0.001013338565826416,-0.014020501635968685,0.01251748763024807,-0.00046424567699432373,0.015607258304953575
0.018694499507546425,0.0012006498873233795,-0.01455648336559534,0.012293891049921513,-0.0004401693004183471,0.015648994594812393
0.018373077735304832,0.0012970571406185627,-0.014983189292252064,0.012764053419232368,-0.00043959272443316877,0.015506555326282978
0.018117818981409073,0.001391715370118618,-0.014317318797111511,0.012494551949203014,-0.00041771153337322176,0.015334936790168285
0.018879130482673645,0.0014503487618640065,-0.014527815394103527,0.01330755464732647,-0.0004514744505286217,0.015484360046684742
0.018813978880643845,0.0013857032172381878,-0.014138689264655113,0.012898123823106289,-0.0004147986473981291,0.015786105766892433
0.018140874803066254,0.0012873784871771932,-0.014582122676074505,0.013142281211912632,-0.0004506480472628027,0.015321418642997742
0.018620949238538742,0.0013475175946950912,-0.014416656456887722,0.012921340763568878,-0.00047163834096863866,0.016614411026239395
0.018485715612769127,0.0013188724406063557,-0.01485151145607233,0.012858218513429165,-0.00045391821186058223,0.015684137120842934
0.018209997564554214,0.0015351275214925408,-0.014628710225224495,0.013098856434226036,-0.00042438795207999647,0.015229273587465286
0.018978258594870567,0.0015498247230425477,-0.014486432075500488,0.012858484871685505,-0.0004252813523635268,0.01552607398480177
0.019288280978798866,0.0017813334707170725,-0.014344090595841408,0.013308973982930183,-0.00042556889820843935,0.016073130071163177
0.018875112757086754,0.001815345138311386,-0.014640404842793941,0.012948397547006607,-0.00040410395013168454,0.016421576961874962
0.01885598711669445,0.0017441733507439494,-0.014750097878277302,0.013276943005621433,-0.00044862276990897954,0.016300663352012634
0.01857149787247181,0.0017643022583797574,-0.014579162001609802,0.0130830779671669,-0.00047352444380521774,0.016800109297037125
0.018475981429219246,0.001761956955306232,-0.014782560989260674,0.013183570466935635,-0.0004528507124632597,0.016625825315713882
0.018815960735082626,0.0018337358487769961,-0.014496649615466595,0.01298258826136589,-0.00047920053475536406,0.01707637868821621
0.018815960735082626,0.0018337358487769961,-0.014496649615466595,0.01298258826136589,-0.00047920053475536406,0.01707637868821621
0.018673473969101906,0.002272428246214986,-0.014471873641014099,0.013289819471538067,-0.0004530157020781189,0.016474535688757896
0.01903412491083145,0.002173163928091526,-0.014490506611764431,0.012843210250139236,-0.00047933365567587316,0.015993833541870117
0.01878223940730095,0.0021796829532831907,-0.014909130521118641,0.01299265306442976,-0.0004528731806203723,0.01614958979189396
0.017961272969841957,0.0020771496929228306,-0.0147201307117939,0.01245816983282566,-0.0005528421024791896,0.01632929965853691
0.01879262737929821,0.001998067134991288,-0.015263977460563183,0.011884852312505245,-0.0005101659917272627,0.01712401956319809
0.019434930756688118,0.001990988152101636,-0.01468743197619915,0.012799588963389397,-0.0005264701321721077,0.016956917941570282
0.01901383139193058,0.002139289863407612,-0.015003511682152748,0.012585899792611599,-0.0004985597333870828,0.016890749335289
0.01888299733400345,0.002436139155179262,-0.014465018175542355,0.01305980235338211,-0.0004576294159051031,0.0166837926954031
0.018245555460453033,0.002554563106968999,-0.014499756507575512,0.013025793246924877,-0.00045623088954016566,0.01686754822731018
0.018631095066666603,0.0022744478192180395,-0.015171019360423088,0.01280645839869976,-0.0004552016907837242,0.016910631209611893
0.01886356621980667,0.0022850995883345604,-0.015000147745013237,0.012638259679079056,-0.00045364542165771127,0.016801413148641586
0.01880558580160141,0.002402893966063857,-0.015518532134592533,0.013211273588240147,-0.00042841967660933733,0.016505613923072815
0.018236178904771805,0.0024459795095026493,-0.014753792434930801,0.013082635588943958,-0.0004044587549287826,0.016601083800196648
0.01920710876584053,0.0027630275581032038,-0.01502219308167696,0.01354189682751894,-0.0003860010765492916,0.01596849411725998
0.01935003325343132,0.002840104978531599,-0.0146027198061347,0.012810071930289268,-0.00035694928374141455,0.01623474434018135
0.019284183159470558,0.0028094991575926542,-0.015583622269332409,0.013120998628437519,-0.00037940029869787395,0.016759809106588364
0.018947966396808624,0.002564289141446352,-0.014898054301738739,0.012464347295463085,-0.000368614390026778,0.016774673014879227
0.018770715221762657,0.002557641128078103,-0.016007592901587486,0.012986389920115471,-0.00034597580088302493,0.017622869461774826
0.019241824746131897,0.0027819399256259203,-0.015088945627212524,0.012724116444587708,-0.0003756290243472904,0.017414698377251625
0.01911797933280468,0.003152422374114394,-0.015075843781232834,0.01283946167677641,-0.00035759355523623526,0.017511487007141113
0.019107401371002197,0.002901546424254775,-0.015224350616335869,0.013041033409535885,-0.0003742519475053996,0.016555355861783028
0.019620895385742188,0.0030258106999099255,-0.01613353006541729,0.01263134554028511,-0.0003663965326268226,0.016360897570848465
0.019611863419413567,0.0029866474214941263,-0.015597755089402199,0.0129691855981946,-0.00034934666473418474,0.01723955199122429
0.01945064589381218,0.0030306377448141575,-0.015344801358878613,0.012534442357718945,-0.00041003309888765216,0.017791176214814186
0.01970263570547104,0.0028309295885264874,-0.01569708250463009,0.013071969151496887,-0.0003867292543873191,0.017903683707118034
0.019765609875321388,0.003051129402592778,-0.015765978023409843,0.012941187247633934,-0.0003568217216525227,0.017937131226062775
0.01924094371497631,0.0034029847010970116,-0.01618856191635132,0.013454385101795197,-0.00033063493901863694,0.017614182084798813
0.01924094371497631,0.0034029847010970116,-0.01618856191635132,0.013454385101795197,-0.00033063493901863694,0.017614182084798813
0.019691165536642075,0.0032589957118034363,-0.015356950461864471,0.013638835400342941,-0.0003079928283113986,0.017879823222756386
0.019857751205563545,0.003109060926362872,-0.01588319055736065,0.013716626912355423,-0.0002882526605390012,0.017555464059114456
0.019467055797576904,0.002971791196614504,-0.015537731349468231,0.013820154592394829,-0.0003107938973698765,0.017352396622300148
0.019950062036514282,0.0031211310997605324,-0.015760129317641258,0.013371564447879791,-0.0003056722634937614,0.0178697369992733
0.019905883818864822,0.00333228288218379,-0.0154719278216362,0.01291452907025814,-0.0002900631516240537,0.017611533403396606
0.0205551665276289,0.003180438419803977,-0.015483285300433636,0.013482315465807915,-0.00026196541148237884,0.017958184704184532
0.020636623725295067,0.003623498138040304,-0.015728715807199478,0.01317991316318512,-0.00028863080660812557,0.01779044233262539
0.020365575328469276,0.00397361908107996,-0.016236165538430214,0.013769254088401794,-0.00027840325492434204,0.018043357878923416
0.020580576732754707,0.003500903258100152,-0.01587100513279438,0.01331893540918827,-0.0002667768858373165,0.01843228191137314
0.02092123217880726,0.0036065708845853806,-0.016110550612211227,0.013731271028518677,-0.00028297342942096293,0.018520761281251907
0.020991811528801918,0.0037224774714559317,-0.015360629186034203,0.013168158009648323,-0.00028046692023053765,0.018369160592556
0.02088540606200695,0.0037363723386079073,-0.015588708221912384,0.013954540714621544,-0.000270485965302214,0.018225735053420067
0.021044917404651642,0.0037115621380507946,-0.015039767138659954,0.013571994379162788,-0.00026072628679685295,0.018380027264356613
0.021481910720467567,0.003199404338374734,-0.01598350703716278,0.014187701977789402,-0.0002525638265069574,0.019124232232570648
0.021464558318257332,0.0031346725299954414,-0.015716232359409332,0.013665237464010715,-0.0002296431630384177,0.018704364076256752
0.02104940079152584,0.003375078085809946,-0.01593821309506893,0.012610171921551228,-0.0002178646100219339,0.018400559201836586
0.021067652851343155,0.0036410335451364517,-0.015840651467442513,0.013644782826304436,-0.00020776015298906714,0.018146146088838577
0.021067652851343155,0.0036410335451364517,-0.015840651467442513,0.013644782826304436,-0.00020776015298906714,0.018146146088838577
0.021665191277861595,0.00386953167617321,-0.015813061967492104,0.014544432982802391,-0.00022805208573117852,0.020019149407744408
0.021973006427288055,0.0035662585869431496,-0.015944987535476685,0.014206690713763237,-0.0002529728808440268,0.018395358696579933
0.021785002201795578,0.0035109363961964846,-0.01658495143055916,0.01414174772799015,-0.0002625143970362842,0.018362410366535187
0.022033721208572388,0.0037208902649581432,-0.015474439598619938,0.013836702331900597,-0.0002688781241886318,0.01848788559436798
0.022033721208572388,0.0037208902649581432,-0.015474439598619938,0.013836702331900597,-0.0002688781241886318,0.01848788559436798
0.02087150141596794,0.0038828549440950155,-0.015118657611310482,0.014221780002117157,-0.0004913872107863426,0.018825583159923553
0.02087150141596794,0.0038828549440950155,-0.015118657611310482,0.014221780002117157,-0.0004913872107863426,0.018825583159923553
0.021660761907696724,0.004197179805487394,-0.015896353870630264,0.014201248995959759,-0.0004897788166999817,0.019352197647094727
0.022501682862639427,0.004104239400476217,-0.01564270444214344,0.013689057901501656,-0.0005068244645372033,0.019918890669941902
0.022403821349143982,0.003943175543099642,-0.016109511256217957,0.01394361536949873,-0.00048506807070225477,0.019537920132279396
0.021872490644454956,0.0038498309440910816,-0.016193363815546036,0.013551770709455013,-0.0005071149207651615,0.019349271431565285
0.022228240966796875,0.003990610595792532,-0.015701517462730408,0.013777418993413448,-0.00048485331353731453,0.018665386363863945
0.022846408188343048,0.0037147162947803736,-0.015302619896829128,0.014025826007127762,-0.0006896770210005343,0.018846413120627403
0.021984759718179703,0.0034737265668809414,-0.016058092936873436,0.013295343145728111,-0.0006666239351034164,0.019406545907258987
0.022039061412215233,0.0037633106112480164,-0.015402750112116337,0.013803048059344292,-0.0006474591209553182,0.02010727860033512
0.022216973826289177,0.003874461632221937,-0.015879174694418907,0.013695472851395607,-0.000628782669082284,0.020146120339632034
0.022587710991501808,0.0027780819218605757,-0.015716293826699257,0.013941950164735317,-0.0005805319524370134,0.01985054276883602
0.023412225767970085,0.001862365403212607,-0.015878330916166306,0.014086203649640083,-0.0006253118626773357,0.019236283376812935
0.022859623655676842,0.0013830952811986208,-0.015641164034605026,0.014460301958024502,-0.0005627671489492059,0.01921832375228405
0.022624606266617775,0.0012178684119135141,-0.015568641945719719,0.013939340598881245,-0.0005010300083085895,0.019521238282322884
0.022906027734279633,0.0012264699907973409,-0.01598849706351757,0.0142070846632123,-0.0005283826612867415,0.0200041476637125
0.023226596415042877,0.001140472013503313,-0.015623789280653,0.013837842270731926,-0.0005303832003846765,0.01973855122923851
0.023166460916399956,0.0027409703470766544,-0.016276434063911438,0.01411911565810442,-0.000522869115229696,0.019501646980643272
0.02293679304420948,0.002683235565200448,-0.015826500952243805,0.013873737305402756,-0.0005358718917705119,0.01953558810055256
0.02294181101024151,0.002423130674287677,-0.015803759917616844,0.014154830947518349,-0.0005135874962434173,0.0197308212518692
0.02315162867307663,0.001997204963117838,-0.015516042709350586,0.013706405647099018,-0.0005200544255785644,0.019929522648453712
0.023515937849879265,0.0016292149666696787,-0.01659264601767063,0.013422459363937378,-0.000560858694370836,0.01991346850991249
0.023568658158183098,0.0012366590090095997,-0.015858808532357216,0.01304453331977129,-0.0005874683265574276,0.020220967009663582
0.023657554760575294,0.0012930970406159759,-0.01626179739832878,0.013057682663202286,-0.0006041949382051826,0.01878763735294342
0.023657554760575294,0.0012930970406159759,-0.01626179739832878,0.013057682663202286,-0.0006041949382051826,0.01878763735294342
0.023440975695848465,0.0015987864462658763,-0.01643058843910694,0.013924050144851208,-0.000575994374230504,0.018652955070137978
0.023631593212485313,0.0016797335119917989,-0.01640402153134346,0.013945262879133224,-0.0007739928551018238,0.019593501463532448
0.02420053817331791,0.0019831378012895584,-0.0161417368799448,0.014042658731341362,-0.0007623096462339163,0.019910838454961777
0.02420053817331791,0.0019831378012895584,-0.0161417368799448,0.014042658731341362,-0.0007623096462339163,0.019910838454961777
0.02391882985830307,0.0016726258909329772,-0.016509469598531723,0.01451367698609829,-0.000725437537766993,0.019890496507287025
0.023732973262667656,0.0016336957924067974,-0.015816111117601395,0.014116856269538403,-0.0006534421700052917,0.019898023456335068
0.023721370846033096,0.0015228368574753404,-0.017526770010590553,0.014457066543400288,-0.0006706546409986913,0.01977829448878765
0.024215854704380035,0.0015582010382786393,-0.017246020957827568,0.014199995435774326,-0.0006181566277518868,0.020303506404161453
0.024210751056671143,0.0016211073379963636,-0.016699200496077538,0.014421052299439907,-0.0005715999868698418,0.02044546790421009
0.024299465119838715,0.00211739563383162,-0.017595935612916946,0.014547503553330898,-0.0005110086058266461,0.02010955847799778
0.024154672399163246,0.0019489509286358953,-0.017062978819012642,0.014643964357674122,-0.0005261710030026734,0.020134340971708298
0.023915687575936317,0.0018583982018753886,-0.016685863956809044,0.01390102133154869,-0.0005132511141709983,0.020359737798571587
0.023581335321068764,0.0019450298277661204,-0.016548272222280502,0.013801208697259426,-0.0004906514659523964,0.020603692159056664
0.024051327258348465,0.0018022385193035007,-0.01691325195133686,0.014341293834149837,-0.00048785575199872255,0.020893722772598267
0.025307266041636467,0.002104788087308407,-0.016700338572263718,0.014104104600846767,-0.00048406797577627003,0.020853137597441673
0.02500886283814907,0.0024640040937811136,-0.01722388155758381,0.014821807853877544,-0.00045823882101103663,0.020814966410398483
0.02435128018260002,0.0023737053852528334,-0.01719127967953682,0.014423367567360401,-0.00047718171845190227,0.020599761977791786
0.021877016872167587,0.0024833399802446365,-0.016629565507173538,0.01455680187791586,-0.000499152229167521,0.02062849886715412
0.0248546339571476,0.002226727781817317,-0.017365437000989914,0.01424566563218832,-0.0004751404921989888,0.02099635824561119
0.025377832353115082,0.0024065610487014055,-0.016477245837450027,0.014368358068168163,-0.00043788523180410266,0.02092660777270794
0.02445894666016102,0.002713508438318968,-0.01779279299080372,0.014011021703481674,-0.0004378216399345547,0.020920706912875175
0.02506958693265915,0.00291260564699769,-0.01759616658091545,0.014291184954345226,-0.0004373425617814064,0.021275192499160767
0.025201959535479546,0.0027524398174136877,-0.016836805269122124,0.013987082988023758,-0.0004107745480723679,0.021489745005965233
0.0254955030977726,0.0026952524203807116,-0.017402375116944313,0.014582815580070019,-0.0004263172741048038,0.02291175164282322
0.025142233818769455,0.002579182619228959,-0.016484059393405914,0.014857771806418896,-0.00041445784154348075,0.02097013220191002
0.02414502575993538,0.002412986708804965,-0.017319660633802414,0.014990353025496006,-0.0003926766221411526,0.020536376163363457
0.024088887497782707,0.00250088213942945,-0.01700449548661709,0.014026215299963951,-0.00039001370896585286,0.0209639985114336
0.024887463077902794,0.0026949401944875717,-0.016916047781705856,0.01445486955344677,-0.0003755292564164847,0.021001070737838745
0.024887463077902794,0.0026949401944875717,-0.016916047781705856,0.01445486955344677,-0.0003755292564164847,0.021001070737838745
0.025616174563765526,0.0026787121314555407,-0.01677216961979866,0.01422097161412239,-0.0003541215555742383,0.02196373976767063
0.025616174563765526,0.0026787121314555407,-0.01677216961979866,0.01422097161412239,-0.0003541215555742383,0.02196373976767063
0.02526618167757988,0.0027855229564011097,-0.017105314880609512,0.01366857998073101,-0.00035925061092711985,0.021811654791235924
0.025238221511244774,0.0031756970565766096,-0.016895554959774017,0.014098580926656723,-0.00033859495306387544,0.02159210294485092
0.025358060374855995,0.0030881427228450775,-0.017238935455679893,0.014274424873292446,-0.00036466505844146013,0.021110251545906067
0.025405067950487137,0.003158684354275465,-0.01730760559439659,0.014962920919060707,-0.00035065124393440783,0.02137613482773304
0.025058655068278313,0.0029399492777884007,-0.016682107001543045,0.01587546616792679,-0.00037366748438216746,0.021460264921188354
0.025344131514430046,0.002837961306795478,-0.017401263117790222,0.014357694424688816,-0.00036060510319657624,0.021824253723025322
0.02594885043799877,0.0031502104829996824,-0.016909804195165634,0.013532184064388275,-0.00034432843676768243,0.02172638662159443
0.02599807269871235,0.0029636756516993046,-0.01708870567381382,0.014353894628584385,-0.00039765588007867336,0.02180478163063526
0.025863835588097572,0.0032290515955537558,-0.017147140577435493,0.014399467036128044,-0.00043928937520831823,0.02187315747141838
0.026117129251360893,0.003091766033321619,-0.01740582473576069,0.014565923251211643,-0.00044331958633847535,0.0225150678306818
0.025648873299360275,0.003366944845765829,-0.01723288744688034,0.014753922820091248,-0.0004449267580639571,0.02182125300168991
0.02628192864358425,0.003711796598508954,-0.01741459034383297,0.014603708870708942,-0.00044415058800950646,0.021106921136379242
0.026138339191675186,0.0037383672315627337,-0.017553968355059624,0.0152985705062747,-0.00041997971129603684,0.021050341427326202
0.02599634788930416,0.0036543814931064844,-0.01679491437971592,0.014360628090798855,-0.0004799222806468606,0.021347107365727425
0.02647947147488594,0.003655318170785904,-0.017355529591441154,0.014672706834971905,-0.0005050707259215415,0.022175194695591927
0.026478085666894913,0.003354961983859539,-0.01709156483411789,0.014618159271776676,-0.0004587286675814539,0.022303910925984383
0.026541095227003098,0.0034875492565333843,-0.017202235758304596,0.01513994112610817,-0.0004567425639834255,0.02204800397157669
0.02695988118648529,0.003701520385220647,-0.017601430416107178,0.015314233489334583,-0.0004546786076389253,0.022181818261742592
0.027092058211565018,0.003399701789021492,-0.017250725999474525,0.01542787067592144,-0.00048218932352028787,0.02229454182088375
0.02687455713748932,0.0034319704864174128,-0.017723796889185905,0.015144022181630135,-0.00045570850488729775,0.023240283131599426
0.027056165039539337,0.0035193637013435364,-0.017532391473650932,0.015034262090921402,-0.0004779798910021782,0.02221732959151268
0.02708841860294342,0.0035567395389080048,-0.017825789749622345,0.015054136514663696,-0.00045586517080664635,0.02192572131752968
0.026871534064412117,0.003483724547550082,-0.017464417964220047,0.014598323963582516,-0.00048677832819521427,0.02207092195749283
0.026751121506094933,0.0033839396201074123,-0.017251811921596527,0.014464220032095909,-0.0005264231003820896,0.022127144038677216
0.02651180699467659,0.003565738908946514,-0.018056435510516167,0.014392172917723656,-0.0005599235882982612,0.022286897525191307
0.027088934555649757,0.003415638580918312,-0.01830131746828556,0.014356348663568497,-0.0005830201553180814,0.022332653403282166
0.027088934555649757,0.003415638580918312,-0.01830131746828556,0.014356348663568497,-0.0005830201553180814,0.022332653403282166
0.027410579845309258,0.0035821639467030764,-0.0176332239061594,0.014262787066400051,-0.0007221389096230268,0.022587597370147705
0.026944797486066818,0.003734338330104947,-0.018209582194685936,0.014383316040039062,-0.0008373421151190996,0.022577231749892235
0.02737785503268242,0.003808991750702262,-0.0176534466445446,0.014701670967042446,-0.0007894591544754803,0.023025669157505035
0.026224277913570404,0.0037077784072607756,-0.0180697999894619,0.015074876137077808,-0.0007918884512037039,0.023042995482683182
0.026550278067588806,0.0036060994025319815,-0.018145756796002388,0.01474240142852068,-0.0008034139755181968,0.022819772362709045
0.027721475809812546,0.0036380125675350428,-0.017902566120028496,0.015316552482545376,-0.0007341881864704192,0.02265450358390808
0.027230551466345787,0.003758772974833846,-0.01847522146999836,0.014901073649525642,-0.0007264127489179373,0.022774459794163704
0.027540046721696854,0.003847941290587187,-0.018421905115246773,0.01530580222606659,-0.0006366213783621788,0.023180998861789703
0.028132325038313866,0.004090717062354088,-0.0187912005931139,0.01545384619385004,-0.0006807285826653242,0.02363845892250538
0.028132325038313866,0.004090717062354088,-0.0187912005931139,0.01545384619385004,-0.0006807285826653242,0.02363845892250538
0.027300868183374405,0.004066476598381996,-0.018895061686635017,0.015527631156146526,-0.0006448427448049188,0.02382676489651203
0.027372851967811584,0.00388357019983232,-0.019286805763840675,0.015200615860521793,-0.0006745000137016177,0.02288547344505787
0.027738099917769432,0.003831990761682391,-0.018959179520606995,0.015448697842657566,-0.0007104669930413365,0.0224442295730114
0.028008488938212395,0.004031713120639324,-0.018659334629774094,0.015245579183101654,-0.0007259619887918234,0.022597676143050194
0.028162674978375435,0.004064330831170082,-0.018988486379384995,0.015315908007323742,-0.0007315838593058288,0.023846536874771118
0.02775740809738636,0.003960580099374056,-0.01829495094716549,0.015120959840714931,-0.0006841071299277246,0.02378547005355358
0.028167081996798515,0.004299891646951437,-0.018740655854344368,0.015260064043104649,-0.000743928540032357,0.023328501731157303
0.028090430423617363,0.004564609844237566,-0.01955365762114525,0.015308354049921036,-0.0007739043212495744,0.023479772731661797
0.028262119740247726,0.004494014661759138,-0.019093643873929977,0.015462186187505722,-0.0007615624344907701,0.02434122934937477
0.02822171151638031,0.004364213906228542,-0.01924232766032219,0.015590667724609375,-0.0007258084951899946,0.023609718307852745
0.028115088120102882,0.004089048132300377,-0.019317708909511566,0.015425128862261772,-0.0007404331117868423,0.023203199729323387
0.027978984639048576,0.004227420315146446,-0.01898571476340294,0.01572621613740921,-0.0007512429147027433,0.022891461849212646
0.02813171222805977,0.00420079892501235,-0.019076364114880562,0.01523694396018982,-0.0007058348273858428,0.02322908490896225
0.02799873985350132,0.0043530091643333435,-0.01918507181107998,0.015272916294634342,-0.0006140708574093878,0.02285786345601082
0.028281506150960922,0.004515336360782385,-0.018416978418827057,0.014863668009638786,-0.000540451961569488,0.02357545495033264
0.02830861322581768,0.004065216053277254,-0.019182229414582253,0.01502287294715643,-0.0005528441979549825,0.024385113269090652
0.02857138402760029,0.004313825163990259,-0.019597908481955528,0.014581456780433655,-0.0005210700328461826,0.024248698726296425
0.02945481240749359,0.004176012240350246,-0.01894848607480526,0.015077928081154823,-0.0004764640470966697,0.023942720144987106
0.028986798599362373,0.0041895899921655655,-0.019517013803124428,0.015388217754662037,-0.0004731986264232546,0.024069247767329216
0.027958165854215622,0.004243777133524418,-0.019779477268457413,0.015722770243883133,-0.00047006021486595273,0.02400588057935238
0.027958165854215622,0.004243777133524418,-0.019779477268457413,0.015722770243883133,-0.00047006021486595273,0.02400588057935238
0.028328949585556984,0.004909989889711142,-0.01912131905555725,0.015264498069882393,-0.00043936900328844786,0.02385147474706173
0.028490576893091202,0.004470736254006624,-0.019377296790480614,0.015438285656273365,-0.0004615579382516444,0.023836880922317505
0.029772315174341202,0.004515285603702068,-0.01980995573103428,0.014935833401978016,-0.0004402593185659498,0.02434380166232586
0.029783762991428375,0.0038603709544986486,-0.01941733993589878,0.01526118628680706,-0.00037969736149534583,0.024657830595970154
0.029758865013718605,0.003467742120847106,-0.01993112824857235,0.014744730666279793,-0.00034115611924789846,0.02473188191652298
0.028454497456550598,0.003158795414492488,-0.02003038488328457,0.015011891722679138,-0.00034722243435680866,0.024652447551488876
0.029872948303818703,0.004063023254275322,-0.019261490553617477,0.016190458089113235,-0.0003843807498924434,0.024844231083989143
0.029561566188931465,0.004236362408846617,-0.019768113270401955,0.01633298769593239,-0.00039100440335460007,0.02495717816054821
0.02990259788930416,0.003491173265501857,-0.01979403756558895,0.015218915417790413,-0.00039499503327533603,0.024703960865736008
0.030913779512047768,0.0034791927319020033,-0.019626671448349953,0.01575687900185585,-0.0006532559636980295,0.024978507310152054
0.0311579592525959,0.003679586574435234,-0.020083677023649216,0.01552381832152605,-0.0006956764264032245,0.024942751973867416
0.029830314218997955,0.003823686856776476,-0.019635476171970367,0.0168033167719841,-0.0006721422541886568,0.025134893134236336
0.03018071874976158,0.003458278253674507,-0.01943439245223999,0.01646355912089348,-0.0006853563827462494,0.02527441829442978
0.031087983399629593,0.003273850306868553,-0.0200929194688797,0.016072288155555725,-0.0006352447671815753,0.025356080383062363
0.031070349738001823,0.003229641355574131,-0.01963406801223755,0.0153886117041111,-0.0007337192073464394,0.025595948100090027
0.031085161492228508,0.003431019140407443,-0.019097698852419853,0.015511893667280674,-0.0007143746479414403,0.025019027292728424
0.031009411439299583,0.003668838180601597,-0.019739914685487747,0.01537399273365736,-0.0006806153105571866,0.025142831727862358
0.030971525236964226,0.0037383013404905796,-0.020111683756113052,0.015245215967297554,-0.0007014782167971134,0.025722045451402664
0.03087456338107586,0.0036674276925623417,-0.01974938064813614,0.015843955799937248,-0.0006806686869822443,0.026010850444436073
0.029509179294109344,0.003685807343572378,-0.019745387136936188,0.015662146732211113,-0.0006582881323993206,0.026217550039291382
0.03181486204266548,0.003704840550199151,-0.019839594140648842,0.01624329388141632,-0.0006490742089226842,0.025931736454367638
0.03162625432014465,0.003725337563082576,-0.01961800642311573,0.015825746580958366,-0.0005825608968734741,0.02609398402273655
0.0318678617477417,0.0037248071748763323,-0.019956450909376144,0.016095353290438652,-0.0006054361001588404,0.026058895513415337
0.0321020781993866,0.0038145072758197784,-0.020069878548383713,0.01562897488474846,-0.0005997800617478788,0.026017099618911743
0.0320114903151989,0.003837884170934558,-0.019767919555306435,0.015772521495819092,-0.0005849818116985261,0.026430243626236916
0.0320114903151989,0.003837884170934558,-0.019767919555306435,0.015772521495819092,-0.0005849818116985261,0.026430243626236916
0.03208914399147034,0.0037976738531142473,-0.019463414326310158,0.015992674976587296,-0.000603933644015342,0.025846457108855247
0.03288037329912186,0.003820403479039669,-0.020177442580461502,0.01604115217924118,-0.0005674996064044535,0.02560749463737011
0.032142091542482376,0.003945020958781242,-0.020198345184326172,0.016191739588975906,-0.0005936399102210999,0.026340138167142868
0.032027214765548706,0.004100882913917303,-0.019806677475571632,0.015837332233786583,-0.0006213615997694433,0.02715275064110756
0.03248835727572441,0.004139465745538473,-0.020078128203749657,0.01655229739844799,-0.0006379382102750242,0.02658667415380478
0.03237323835492134,0.004520065616816282,-0.020941423252224922,0.016596361994743347,-0.0006621538195759058,0.025364333763718605
0.03301506116986275,0.0042139277793467045,-0.020368613302707672,0.016791272908449173,-0.0007600350654684007,0.02602306194603443
0.03316715732216835,0.004103978164494038,-0.020914996042847633,0.0160451028496027,-0.0007822324987500906,0.026366665959358215
0.03316715732216835,0.004103978164494038,-0.020914996042847633,0.0160451028496027,-0.0007822324987500906,0.026366665959358215
0.03279083967208862,0.004303980153053999,-0.02009497582912445,0.016608016565442085,-0.0007892976282164454,0.02611931785941124
0.033280547708272934,0.004083724692463875,-0.02114490419626236,0.01675371453166008,-0.0007299661519937217,0.027587173506617546
0.03357308730483055,0.004096522461622953,-0.021317224949598312,0.016393372789025307,-0.0007002886850386858,0.02645966038107872
0.03431069478392601,0.004544501658529043,-0.020524483174085617,0.016783203929662704,-0.0006405991734936833,0.026089254766702652
0.03493214771151543,0.004254586063325405,-0.020862899720668793,0.016928019002079964,-0.0006448416388593614,0.026905102655291557
0.0345509871840477,0.004476556554436684,-0.021661434322595596,0.01697491854429245,-0.0006464681355282664,0.028046775609254837
0.03193338215351105,0.004192965570837259,-0.021202271804213524,0.017030026763677597,-0.0006268038996495306,0.027873774990439415
0.03411654755473137,0.004484695848077536,-0.020716611295938492,0.01616220735013485,-0.0006486652418971062,0.02764139510691166
0.03493013605475426,0.004258072003722191,-0.021200424060225487,0.01662520132958889,-0.0007892774883657694,0.027635294944047928
0.03410877659916878,0.004212096333503723,-0.021061033010482788,0.016556618735194206,-0.0007606986910104752,0.02781863696873188
0.0347890742123127,0.004139570519328117,-0.020525721833109856,0.016867250204086304,-0.0007750154472887516,0.027653994038701057
0.03475309535861015,0.0043659512884914875,-0.02099154330790043,0.01629207655787468,-0.0007441270863637328,0.027729015797376633
0.03381115943193436,0.00401446083560586,-0.021707378327846527,0.015809224918484688,-0.0007136095082387328,0.027892837300896645
0.033928316086530685,0.004238698165863752,-0.02136271819472313,0.016381843015551567,-0.000654253177344799,0.027709022164344788
0.03546709567308426,0.004628002177923918,-0.020558137446641922,0.01653442531824112,-0.0006711123860441148,0.027940738946199417
0.03505554422736168,0.004480849485844374,-0.020843002945184708,0.017838848754763603,-0.0005904579302296042,0.02809014357626438
0.03460003063082695,0.004396101925522089,-0.021399039775133133,0.016889020800590515,-0.0005983902374282479,0.02794397994875908
0.03483593091368675,0.004284755792468786,-0.021548530086874962,0.01640675775706768,-0.0005596283008344471,0.028119327500462532
0.034992948174476624,0.004329092334955931,-0.021278955042362213,0.016528205946087837,-0.0005813786410726607,0.028134621679782867
0.034992948174476624,0.004329092334955931,-0.021278955042362213,0.016528205946087837,-0.0005813786410726607,0.028134621679782867
0.03501150757074356,0.0045311786234378815,-0.021077731624245644,0.016919933259487152,-0.0005788152338936925,0.028023699298501015
0.03443387150764465,0.004649709910154343,-0.02143547311425209,0.0177803635597229,-0.0005678111920133233,0.02797887846827507
0.034800685942173004,0.004314022604376078,-0.0209214985370636,0.01755240000784397,-0.0005662502953782678,0.02808266133069992
0.03519238531589508,0.004378634970635176,-0.02052297443151474,0.01756269671022892,-0.0005843123071826994,0.028034236282110214
0.035223107784986496,0.004541208501905203,-0.021147064864635468,0.01751638948917389,-0.0005482492852024734,0.027766527608036995
0.03511255234479904,0.004719764459878206,-0.02163795754313469,0.017047537490725517,-0.0005599556025117636,0.028283119201660156
0.035621874034404755,0.004723179619759321,-0.021242663264274597,0.017256706953048706,-0.0005315763992257416,0.028862053528428078
0.03477490693330765,0.004231628496199846,-0.021518567577004433,0.016999635845422745,-0.0005244541098363698,0.027834787964820862
0.03610913082957268,0.0045870328322052956,-0.021456977352499962,0.01703343726694584,-0.0006335971993394196,0.027352886274456978
0.037016041576862335,0.004723601043224335,-0.02071310766041279,0.016857070848345757,-0.0006186846294440329,0.028508789837360382
0.035624876618385315,0.005006052553653717,-0.02118644118309021,0.01708168536424637,-0.0006384938023984432,0.028758667409420013
0.03513401374220848,0.00476255314424634,-0.021601473912596703,0.01657794415950775,-0.0006304597482085228,0.02914096601307392
0.03603491932153702,0.004440840799361467,-0.021720778197050095,0.016888393089175224,-0.0006141885532997549,0.029564781114459038
0.036165472120046616,0.0043418072164058685,-0.021150900050997734,0.01709786430001259,-0.0006983688799664378,0.029534315690398216
0.03657246008515358,0.004510858561843634,-0.02111547626554966,0.01767943613231182,-0.0006451992085203528,0.029083125293254852
0.037135425955057144,0.00466119172051549,-0.02100241370499134,0.018504738807678223,-0.0006640789797529578,0.028287924826145172
0.036899808794260025,0.004779468756169081,-0.021774573251605034,0.017951374873518944,-0.000651452224701643,0.02863740362226963
0.0358646884560585,0.005107308272272348,-0.022234458476305008,0.01751154288649559,-0.0006303766858763993,0.029954979196190834
0.03642216697335243,0.004841180518269539,-0.022200483828783035,0.01713208109140396,-0.0006519730086438358,0.030199967324733734
0.03697589784860611,0.0044240583665668964,-0.022098049521446228,0.017009884119033813,-0.0006079330923967063,0.029657449573278427
0.036844998598098755,0.0043189385905861855,-0.021630559116601944,0.017368581146001816,-0.0006131076952442527,0.0293111689388752
0.036701470613479614,0.004844817332923412,-0.02093537338078022,0.017150456085801125,-0.0006239482318051159,0.029299989342689514
0.0362531803548336,0.00486503541469574,-0.022231437265872955,0.018061069771647453,-0.0005813204334117472,0.02976362220942974
0.03645402193069458,0.0049181533977389336,-0.02298682928085327,0.018050795421004295,-0.0006017108680680394,0.02979065477848053
0.03649257868528366,0.0048310826532542706,-0.02281254343688488,0.017267495393753052,-0.0006172012654133141,0.029949622228741646
0.03639819845557213,0.004675332456827164,-0.021877622231841087,0.018140841275453568,-0.0005908309831283987,0.029793769121170044
0.036658875644207,0.004606727976351976,-0.02217606082558632,0.01830165460705757,-0.0006372045027092099,0.029917560517787933
0.0371822789311409,0.00456657400354743,-0.023128395900130272,0.01851850375533104,-0.0006703819963149726,0.02975098043680191
0.0371822789311409,0.00456657400354743,-0.023128395900130272,0.01851850375533104,-0.0006703819963149726,0.02975098043680191
0.0372634120285511,0.004725658800452948,-0.022434940561652184,0.018059035763144493,-0.0006960263126529753,0.031059421598911285
0.037130095064640045,0.005372042767703533,-0.02294762246310711,0.0170275941491127,-0.0006987297674641013,0.029506772756576538
0.037562958896160126,0.005143593065440655,-0.022753052413463593,0.017589902505278587,-0.0006613963050767779,0.029422501102089882
0.03704193979501724,0.004940509796142578,-0.021485310047864914,0.017167216166853905,-0.0008129707421176136,0.030083023011684418
0.03740783780813217,0.004853229969739914,-0.02205674536526203,0.01740623451769352,-0.0008331743883900344,0.0302787683904171
0.03810126334428787,0.004786375910043716,-0.0232915710657835,0.017795635387301445,-0.0007880794582888484,0.030724992975592613
0.037694301456213,0.004863085225224495,-0.022053897380828857,0.018290841951966286,-0.0008026632713153958,0.030359923839569092
0.0381830669939518,0.005412788596004248,-0.022271454334259033,0.01847613975405693,-0.0007537397323176265,0.030311664566397667
0.03820620849728584,0.0050207446329295635,-0.022748373448848724,0.017616797238588333,-0.0007703917799517512,0.030270935967564583
0.03832298517227173,0.004713051021099091,-0.022869637235999107,0.01895955018699169,-0.0007863960927352309,0.030173655599355698
0.03830524906516075,0.004662209190428257,-0.02281489036977291,0.017804350703954697,-0.0007791585521772504,0.029976386576890945
0.03838352486491203,0.004765840247273445,-0.022260945290327072,0.017012571915984154,-0.0007237792597152293,0.029841097071766853
0.03817696124315262,0.005165026988834143,-0.022729704156517982,0.01796204224228859,-0.0007297027623280883,0.029920456930994987
0.0397292822599411,0.005489683244377375,-0.02286243997514248,0.018450098112225533,-0.0007011527195572853,0.03031008131802082
0.03988859802484512,0.005059992894530296,-0.023046202957630157,0.01859583891928196,-0.0006689245346933603,0.03096804767847061
0.03760587051510811,0.004938839469105005,-0.022403661161661148,0.01880897395312786,-0.0006839953130111098,0.031248796731233597
0.03899090737104416,0.0047871023416519165,-0.02249353751540184,0.018617866560816765,-0.0006708455621264875,0.03089321218430996
0.038926638662815094,0.004796099383383989,-0.023042980581521988,0.019221987575292587,-0.000649998604785651,0.02983114682137966
0.03983375430107117,0.005089608021080494,-0.023065034300088882,0.01943303644657135,-0.0006663334788754582,0.03030596673488617
0.040196068584918976,0.005396770313382149,-0.022846326231956482,0.01892865262925625,-0.0007016664603725076,0.031178612262010574
0.03892097994685173,0.004987406078726053,-0.022622741758823395,0.018991632387042046,-0.0007179337553679943,0.030961286276578903
0.03832145407795906,0.0049160197377204895,-0.02255425788462162,0.018904482945799828,-0.0007364848861470819,0.03195573389530182
0.03982900083065033,0.004865139257162809,-0.02266516536474228,0.01878444105386734,-0.0009312403271906078,0.0319196879863739
0.03877145051956177,0.004963071085512638,-0.022922784090042114,0.018894171342253685,-0.0009453916572965682,0.030589645728468895
0.04074382781982422,0.004854281432926655,-0.022913243621587753,0.019049786031246185,-0.000921760918572545,0.030615385621786118
0.04062027856707573,0.0051338388584554195,-0.022655563428997993,0.018334027379751205,-0.0008312998106703162,0.03154747933149338
0.03951677307486534,0.004997907672077417,-0.02253466099500656,0.018631156533956528,-0.0008126627071760595,0.03202706575393677
0.03951677307486534,0.004997907672077417,-0.02253466099500656,0.018631156533956528,-0.0008126627071760595,0.03202706575393677
0.04004734009504318,0.004784189164638519,-0.022822942584753036,0.018668830394744873,-0.0007513256859965622,0.03126572072505951
0.039972856640815735,0.00494747469201684,-0.023233890533447266,0.0183670986443758,-0.0006888426141813397,0.03122873045504093
0.040149178355932236,0.004966840147972107,-0.02309616468846798,0.01864226907491684,-0.0007042194483801723,0.031620223075151443
0.040651094168424606,0.00482616201043129,-0.022526616230607033,0.01834026351571083,-0.0006862365989945829,0.031662143766880035
0.04064560309052467,0.005304601043462753,-0.022951019927859306,0.01872333697974682,-0.0006605340749956667,0.031313128769397736
0.040013350546360016,0.0050814105197787285,-0.02325868047773838,0.019281798973679543,-0.0006633310695178807,0.031097471714019775
0.04089000076055527,0.004614482633769512,-0.023130955174565315,0.019172554835677147,-0.0006279333028942347,0.03127097338438034
0.04235071688890457,0.0048134950920939445,-0.023006850853562355,0.01901465654373169,-0.0007269467459991574,0.031556446105241776
0.03921329975128174,0.004766219761222601,-0.022629516199231148,0.018715424463152885,-0.0006976132281124592,0.03174139931797981
0.04069632664322853,0.005004094913601875,-0.02302923984825611,0.01837482489645481,-0.0007360309245996177,0.03213382884860039
0.041195306926965714,0.005192027892917395,-0.02318386919796467,0.018744589760899544,-0.000972913927398622,0.03226402401924133
0.04231465235352516,0.004783922806382179,-0.024377593770623207,0.018552709370851517,-0.0009909593500196934,0.032083459198474884
0.04090646281838417,0.0045079924166202545,-0.024049263447523117,0.01918778382241726,-0.0009171408601105213,0.03280080854892731
0.03949359804391861,0.004919205792248249,-0.022896794602274895,0.018787063658237457,-0.0009107879013754427,0.03263488784432411
0.041424136608839035,0.005279154982417822,-0.02317151054739952,0.018038373440504074,-0.000925192900467664,0.032587189227342606
0.041419029235839844,0.005031961016356945,-0.023719962686300278,0.01877787336707115,-0.0009311432368122041,0.032168421894311905
0.040799375623464584,0.004926249384880066,-0.02381502464413643,0.01868947595357895,-0.0009269994916394353,0.03269726783037186
0.040769606828689575,0.005048913415521383,-0.02375388890504837,0.018770836293697357,-0.0008712083217687905,0.03369668871164322
0.041651614010334015,0.004650337155908346,-0.02300379052758217,0.01944511942565441,-0.0008216337882913649,0.033240385353565216
0.04147942736744881,0.005108377896249294,-0.023785468190908432,0.019124872982501984,-0.000773642968852073,0.03157687559723854
0.04164886102080345,0.005375020205974579,-0.024505537003278732,0.01853555627167225,-0.0007733937818557024,0.032291848212480545
0.04145156219601631,0.005242976825684309,-0.02465907111763954,0.019286252558231354,-0.0007594396010972559,0.03296968713402748
0.04158865287899971,0.005229944828897715,-0.023894503712654114,0.01774398237466812,-0.0007239055703394115,0.03277731314301491
0.04192495718598366,0.004996990319341421,-0.022634191438555717,0.018255731090903282,-0.0007386881625279784,0.03405267000198364
0.041887782514095306,0.004874820820987225,-0.02332405000925064,0.01948048546910286,-0.0007950853905640543,0.03343105688691139
0.04240184649825096,0.005165883805602789,-0.022835353389382362,0.019147219136357307,-0.0008452509064227343,0.03280891105532646
0.040811341255903244,0.005056073889136314,-0.024638373404741287,0.018949691206216812,-0.0008464428829029202,0.032265689224004745
0.04230011999607086,0.005927880294620991,-0.02448287419974804,0.018865063786506653,-0.0008383680833503604,0.033422913402318954
0.0428566038608551,0.005416461732238531,-0.024349819868803024,0.01874600537121296,-0.0008729715482331812,0.034448858350515366
0.0428566038608551,0.005416461732238531,-0.024349819868803024,0.01874600537121296,-0.0008729715482331812,0.034448858350515366
0.042613767087459564,0.004986902698874474,-0.02397935651242733,0.019259141758084297,-0.0008949848124757409,0.03392387181520462
0.041918329894542694,0.005142375826835632,-0.02347918599843979,0.019650161266326904,-0.0008309586555697024,0.03372931852936745
0.04290834814310074,0.005499160382896662,-0.02364661917090416,0.019491201266646385,-0.0008357797050848603,0.033256277441978455
0.042936451733112335,0.006104688160121441,-0.024261366575956345,0.01920735463500023,-0.0008430086309090257,0.03335946798324585
0.0429847314953804,0.005865622777491808,-0.024353818967938423,0.019352803006768227,-0.0008461293764412403,0.0339399017393589
0.04254427179694176,0.0056104501709342,-0.024418551474809647,0.019219551235437393,-0.0008677734294906259,0.03382596746087074
0.04312074929475784,0.006069827824831009,-0.02360321208834648,0.02028742805123329,-0.0007775863632559776,0.03393853083252907
0.04479034245014191,0.0060304575599730015,-0.023953454568982124,0.020262932404875755,-0.0007873080321587622,0.03398914635181427
0.042224083095788956,0.005835946183651686,-0.023861175402998924,0.019690796732902527,-0.0007900873315520585,0.03457213565707207
0.042217426002025604,0.005402110982686281,-0.02438328228890896,0.019595930352807045,-0.0008174293325282633,0.034070488065481186
0.04278875142335892,0.005354686640202999,-0.024314649403095245,0.01944861002266407,-0.0008375060278922319,0.033763933926820755
0.044381771236658096,0.005530993454158306,-0.023655125871300697,0.019096145406365395,-0.0008454445051029325,0.034136444330215454
0.04458141326904297,0.006066053174436092,-0.02385791949927807,0.019517622888088226,-0.0009755216306075454,0.03387092426419258
0.04290603846311569,0.0056650093756616116,-0.02424730733036995,0.019548611715435982,-0.0009860557038336992,0.034457288682460785
0.04301148280501366,0.005897303577512503,-0.02424214780330658,0.01906110718846321,-0.0009739780216477811,0.03455590084195137
0.04475544020533562,0.005766735412180424,-0.02428668551146984,0.01941589079797268,-0.0009714948246255517,0.03473629429936409
0.04430431127548218,0.0059850215911865234,-0.02405208721756935,0.019666677340865135,-0.0010329000651836395,0.034543126821517944
0.04422922432422638,0.005533386021852493,-0.024151863530278206,0.019566601142287254,-0.0009404897573404014,0.03547990694642067
0.043873004615306854,0.00582163454964757,-0.023985035717487335,0.020197497680783272,-0.0009933350374922156,0.03549227491021156
0.04432600736618042,0.006474677938967943,-0.02378861792385578,0.020189931616187096,-0.0010237492388114333,0.03644164651632309
0.04415364935994148,0.005725225433707237,-0.024266041815280914,0.02004293166100979,-0.001054025487974286,0.03611009195446968
0.043823134154081345,0.005924445576965809,-0.024750875309109688,0.019895412027835846,-0.0011350607965141535,0.034603822976350784
0.043821223080158234,0.005488372873514891,-0.024345405399799347,0.020680725574493408,-0.0010515582980588078,0.03437991067767143
0.043819867074489594,0.005883160978555679,-0.024063479155302048,0.02031412161886692,-0.0012029458303004503,0.035207122564315796
0.045354459434747696,0.006125806365162134,-0.023302579298615456,0.019751250743865967,-0.001155371661297977,0.03509411960840225
