davideferrari95/blind_handover_controller/data/Test 34 - [2024-02-07 -- 14-47-22]/joint_states_data.csv
shoulder_pan_joint,shoulder_lift_joint,elbow_joint,wrist_1_joint,wrist_2_joint,wrist_3_joint
0.009970596060156822,0.008557542227208614,-0.011878003366291523,0.007931630127131939,0.0004318424325902015,0.009687647223472595
0.009970596060156822,0.008557542227208614,-0.011878003366291523,0.007931630127131939,0.0004318424325902015,0.009687647223472595
0.010068852454423904,0.008669151924550533,-0.01247662678360939,0.008263926953077316,0.0004491233848966658,0.009950592182576656
0.00994827225804329,0.008720725774765015,-0.011795847676694393,0.00830795243382454,0.0004334601981099695,0.010392519645392895
0.00994827225804329,0.008720725774765015,-0.011795847676694393,0.00830795243382454,0.0004334601981099695,0.010392519645392895
0.009702173061668873,0.008296455256640911,-0.012469211593270302,0.007545362692326307,0.00040647751302458346,0.009284031577408314
0.009336048737168312,0.00811588391661644,-0.01214815117418766,0.007818389683961868,0.000422068900661543,0.00948401540517807
0.010215937159955502,0.009079819545149803,-0.012308130040764809,0.008280363865196705,0.0004105572297703475,0.009760030545294285
0.009214510209858418,0.008983013220131397,-0.01264672726392746,0.007882571779191494,0.0003891792439389974,0.009609483182430267
0.00935488659888506,0.0089503712952137,-0.011437966488301754,0.00720035657286644,0.0003692662576213479,0.010250251740217209
0.009820765815675259,0.008560198359191418,-0.012297873385250568,0.007983217015862465,0.0003698833752423525,0.00981973111629486
0.00996660441160202,0.009516381658613682,-0.012169290333986282,0.007759379222989082,0.00032072511385194957,0.009072722867131233
0.009770708158612251,0.00834939256310463,-0.011741064488887787,0.007016854826360941,0.00029938892112113535,0.009494897909462452
0.00936651136726141,0.008643687702715397,-0.011383205652236938,0.007225571200251579,0.00033293443266302347,0.009427438490092754
0.00898656528443098,0.009199947118759155,-0.01242099329829216,0.007550392299890518,0.0003168020921293646,0.009499906562268734
0.009386269375681877,0.008153945207595825,-0.011703950352966785,0.007552278693765402,0.00029945012647658587,0.009654419496655464
0.009738750755786896,0.008153463713824749,-0.011464457958936691,0.007641911040991545,0.00028372491942718625,0.009132296778261662
0.00895641092211008,0.008589990437030792,-0.01191658340394497,0.007116978522390127,0.00031139628845267,0.009196705184876919
0.00958733819425106,0.008621091023087502,-0.011578190140426159,0.007172933779656887,0.0002993268135469407,0.009348483756184578
0.009468122385442257,0.007871235720813274,-0.012298068031668663,0.007190697360783815,0.0002859166997950524,0.009674128144979477
0.009648238308727741,0.008186981081962585,-0.01152439322322607,0.007150130812078714,0.00027351255994290113,0.009621065109968185
0.009132901206612587,0.008170555345714092,-0.011964594945311546,0.007183803711086512,0.000262130459304899,0.009520849213004112
0.009565518237650394,0.008112674579024315,-0.012023020535707474,0.007323951460421085,0.0002516570675652474,0.009694836102426052
0.009048107080161572,0.008184954524040222,-0.011739726178348064,0.0067758443765342236,0.00027196083101443946,0.00956715177744627
0.009414035826921463,0.008085223846137524,-0.012292733415961266,0.006703040562570095,0.00026602737489156425,0.009672027081251144
0.009385951794683933,0.0077072978019714355,-0.012292345054447651,0.0067334529012441635,0.00025680672843009233,0.009988954290747643
0.009256848134100437,0.00782658252865076,-0.012639627791941166,0.007302875630557537,0.0002479780523572117,0.009227005764842033
0.008719456382095814,0.00772341713309288,-0.01225826796144247,0.007394509855657816,0.0002397218777332455,0.009632868692278862
0.009476499632000923,0.008240072056651115,-0.01265000831335783,0.006963599007576704,0.00022913147404324263,0.009644336998462677
0.009476499632000923,0.008240072056651115,-0.01265000831335783,0.006963599007576704,0.00022913147404324263,0.009644336998462677
0.009467905387282372,0.007950832135975361,-0.011772005818784237,0.006848386488854885,0.00021768471924588084,0.009400136768817902
0.009018370881676674,0.006858851760625839,-0.011165742762386799,0.00750930467620492,0.00020761479390785098,0.01002822257578373
0.009317398071289062,0.007033987436443567,-0.012099322862923145,0.007478759624063969,0.00019845491624437273,0.00972018949687481
0.009202301502227783,0.007530026137828827,-0.011307201348245144,0.007023699581623077,0.00019007058290299028,0.009360497817397118
0.009150844998657703,0.007110167760401964,-0.011549673043191433,0.007318138610571623,0.00019242006237618625,0.00952193420380354
0.00937721598893404,0.006893336772918701,-0.011298803612589836,0.007335198577493429,0.0002012610639212653,0.009485038928687572
0.008992933668196201,0.007520644925534725,-0.011990074999630451,0.00696136336773634,0.00019503768999129534,0.009641224518418312
0.008992933668196201,0.007520644925534725,-0.011990074999630451,0.00696136336773634,0.00019503768999129534,0.009641224518418312
0.00901295430958271,0.007559862919151783,-0.011454371735453606,0.006758864037692547,0.00018830398039426655,0.009736704640090466
0.009116227738559246,0.006647792179137468,-0.01105754915624857,0.007325677666813135,0.00018196240125689656,0.00981080811470747
0.00922462996095419,0.004635179415345192,-0.011502287350594997,0.006650774274021387,0.00017047250003088266,0.009648631326854229
0.009682766161859035,0.005430333781987429,-0.011717529967427254,0.0064369807951152325,0.00016525517276022583,0.009691300801932812
0.0091590890660882,0.005352787673473358,-0.011415868997573853,0.006575111299753189,0.0001603475393494591,0.009898599237203598
0.008794687688350677,0.005647333338856697,-0.011398585513234138,0.007156378123909235,0.000155723188072443,0.009627332910895348
0.00903902668505907,0.005490331444889307,-0.011503273621201515,0.007012159563601017,0.0001513580500613898,0.009489462710916996
0.009428789839148521,0.0058837877586483955,-0.010743549093604088,0.006608521565794945,0.00014723080676048994,0.009438175708055496
0.00869800802320242,0.006284304894506931,-0.011217981576919556,0.006258130073547363,0.00014332284627016634,0.009169802069664001
0.008723754435777664,0.005514224991202354,-0.010947708040475845,0.006895969621837139,0.00013961686636321247,0.009226875379681587
0.00957757793366909,0.005052454769611359,-0.010535714216530323,0.006532551255077124,0.00013609805318992585,0.009508098475635052
0.00887339748442173,0.00512897502630949,-0.01160745695233345,0.006117413751780987,0.00013275211676955223,0.010071521624922752
0.009100941009819508,0.005227393936365843,-0.011126258410513401,0.006067938636988401,0.00012956654245499521,0.009709603153169155
0.008798445574939251,0.005550894420593977,-0.01131843589246273,0.006185525096952915,0.00012653057638090104,0.00929801445454359
0.008901120163500309,0.005231813527643681,-0.01164410263299942,0.006574021186679602,0.00012363353744149208,0.009383103810250759
0.009024963714182377,0.005281527526676655,-0.011135762557387352,0.006447496823966503,0.00013836399011779577,0.009421136230230331
0.00903213769197464,0.004968002438545227,-0.011413521133363247,0.006770913489162922,0.0001377504668198526,0.00949033908545971
0.009172077290713787,0.005079357884824276,-0.011246408335864544,0.006434915587306023,0.00013495705206878483,0.010008689947426319
0.009116280823946,0.005592220928519964,-0.011185554787516594,0.006988324224948883,0.00013213665806688368,0.009677844122052193
0.009075066074728966,0.005350759252905846,-0.011679109185934067,0.006606148090213537,0.0001294227986363694,0.009177926927804947
0.009004629217088223,0.005079933907836676,-0.011264760047197342,0.006441169418394566,0.00012681740918196738,0.009398934431374073
0.008919794112443924,0.005213023629039526,-0.01193290762603283,0.005834679119288921,0.00012431495997589082,0.010021134279668331
0.009265379048883915,0.005310659762471914,-0.0114213265478611,0.006137865595519543,0.0001219093392137438,0.009421653114259243
0.009139293804764748,0.005529699847102165,-0.01150850486010313,0.006655705627053976,0.00012800205149687827,0.00950727891176939
0.009171884506940842,0.005494777113199234,-0.011903449892997742,0.006477647460997105,0.00013356715498957783,0.009433820843696594
0.009171884506940842,0.005494777113199234,-0.011903449892997742,0.006477647460997105,0.00013356715498957783,0.009433820843696594
0.009416721761226654,0.0056800623424351215,-0.011748089455068111,0.0060751414857804775,0.00013164343545213342,0.00954667292535305
0.009117644280195236,0.005468291696161032,-0.011310020461678505,0.006077637895941734,0.00012931298988405615,0.009827272966504097
0.009208380244672298,0.005572150461375713,-0.011057145893573761,0.00605520885437727,0.0001270336942980066,0.009699254296720028
0.009728603065013885,0.005650864914059639,-0.011265065521001816,0.00652586342766881,0.00011454991181381047,0.009389868006110191
0.0092717120423913,0.0056721786968410015,-0.010028425604104996,0.006549548357725143,0.00011148917837999761,0.009066748432815075
0.009747822768986225,0.006328115239739418,-0.01125106867402792,0.006252394989132881,0.00010877948079723865,0.009695478715002537
0.00977802462875843,0.005627433303743601,-0.011962330900132656,0.00655283173546195,0.00012196016177767888,0.00987525936216116
0.009953979402780533,0.005894843954592943,-0.010705518536269665,0.006761013995856047,0.00012415544188115746,0.009698024019598961
0.009394937194883823,0.005615578033030033,-0.010631718672811985,0.006521743256598711,0.00012168406101409346,0.00988809484988451
0.009547680616378784,0.006118773017078638,-0.010243385098874569,0.006301159970462322,0.00011902323603862897,0.009719446301460266
0.009511544369161129,0.006143366917967796,-0.010499370284378529,0.0063597671687603,0.00013331884110812098,0.009410791099071503
0.009588304907083511,0.005786975380033255,-0.011296418495476246,0.006408313754945993,0.00013283266162034124,0.009337245486676693
0.009994953870773315,0.006104957778006792,-0.010917015373706818,0.006449741777032614,0.00013023849169258028,0.009561320766806602
0.00953805074095726,0.005831712391227484,-0.011229532770812511,0.006090009119361639,0.00012761021207552403,0.009747744537889957
0.009343831799924374,0.0059830001555383205,-0.011785240843892097,0.006373297888785601,0.00012507732026278973,0.009516796097159386
0.010523252189159393,0.006116789299994707,-0.011037006042897701,0.006008424796164036,0.00012264240649528801,0.009464726783335209
0.009748672135174274,0.005844990722835064,-0.011324122548103333,0.006544940639287233,0.00013634229253511876,0.009673673659563065
0.00932752899825573,0.006149751599878073,-0.010773071087896824,0.006385373417288065,0.00013483541260939091,0.009562668390572071
0.010716765187680721,0.006114427465945482,-0.01112399436533451,0.005580243654549122,0.000132423680042848,0.009541177190840244
0.009502491913735867,0.006478188093751669,-0.011597737669944763,0.005335873458534479,0.00013003649655729532,0.009640723466873169
0.009658155962824821,0.006380460225045681,-0.010934218764305115,0.005297263152897358,0.00012772990157827735,0.009542874991893768
0.010734113864600658,0.0064662448130548,-0.011628386564552784,0.006281090434640646,0.00017880939412862062,0.009748161770403385
0.009959100745618343,0.006128063891083002,-0.011316224001348019,0.006638355553150177,0.00022031045227777213,0.009568894281983376
0.009604656137526035,0.006340143270790577,-0.010654197074472904,0.005809785798192024,0.00021315926278475672,0.010330704040825367
0.010221562348306179,0.006813349202275276,-0.011268648318946362,0.005699502304196358,0.0002037223312072456,0.00909171812236309
0.01068376936018467,0.006322256289422512,-0.010687301866710186,0.005826249718666077,0.0001949100405909121,0.008964162319898605
0.009673405438661575,0.0061658937484025955,-0.01132438238710165,0.006412763614207506,0.000219199457205832,0.009355036541819572
0.010064455680549145,0.006502294912934303,-0.011186866089701653,0.006346963346004486,0.00021491841471288353,0.009640219621360302
0.010088937357068062,0.00618496211245656,-0.011231404729187489,0.005570568609982729,0.0002069699694402516,0.009560764767229557
0.010088937357068062,0.00618496211245656,-0.011231404729187489,0.005570568609982729,0.0002069699694402516,0.009560764767229557
0.009832297451794147,0.00610806979238987,-0.011441884562373161,0.006007790099829435,0.00018564044148661196,0.009761381894350052
0.009832297451794147,0.00610806979238987,-0.011441884562373161,0.006007790099829435,0.00018564044148661196,0.009761381894350052
0.01002960279583931,0.006380131933838129,-0.01105506345629692,0.005538574419915676,0.00017946971638593823,0.009611872024834156
0.010370810516178608,0.006751231849193573,-0.010448875837028027,0.005304642952978611,0.00020069249148946255,0.009806179441511631
0.009934943169355392,0.007186779286712408,-0.011217648163437843,0.0054712300188839436,0.0001962022652151063,0.009828575886785984
0.010348813608288765,0.006936470977962017,-0.01130977924913168,0.005140980705618858,0.00019038771279156208,0.009677146561443806
0.010041564702987671,0.00630353856831789,-0.010936335660517216,0.005393213592469692,0.0001848097308538854,0.009936084039509296
0.010076373815536499,0.006428140215575695,-0.011102473363280296,0.00563901849091053,0.00017954283975996077,0.009870265610516071
0.010727704502642155,0.007067873142659664,-0.01080611627548933,0.0059538595378398895,0.00019783098832704127,0.009573080576956272
0.010592477396130562,0.006896505132317543,-0.01183843333274126,0.00559154711663723,0.00019401672761887312,0.010088050737977028
0.010079041123390198,0.00625400198623538,-0.011048019863665104,0.0057689836248755455,0.0001890221901703626,0.010005724616348743
0.010510706342756748,0.006260104011744261,-0.010719604790210724,0.005590933375060558,0.0001841927005443722,0.009585857391357422
0.010749762877821922,0.006511862855404615,-0.011203870177268982,0.005971919279545546,0.00017959842807613313,0.009141865186393261
0.010869476944208145,0.007119395304471254,-0.010850907303392887,0.0062206513248384,0.00017540375120006502,0.009540770202875137
0.011409884318709373,0.006650781724601984,-0.011112990789115429,0.005681861657649279,0.0001925444375956431,0.009864299558103085
0.010282802395522594,0.0063754720613360405,-0.011070424690842628,0.005768229253590107,0.00018618770991452038,0.009590793401002884
0.010226226411759853,0.006550895515829325,-0.010701232589781284,0.005688946228474379,0.00017889024456962943,0.009564339183270931
0.010718580335378647,0.007172992918640375,-0.011271519586443901,0.006107963155955076,0.0001720561267575249,0.009334145113825798
0.010665521956980228,0.006778353359550238,-0.010822273790836334,0.005779069382697344,0.00016571932064834982,0.009281755425035954
0.010860323905944824,0.007126260548830032,-0.010484197176992893,0.005904559511691332,0.0001598321832716465,0.00997144915163517
0.011004608124494553,0.006422588601708412,-0.01108719315379858,0.005653013475239277,0.00017719331663101912,0.009313911199569702
0.010250011458992958,0.00659715011715889,-0.010815653018653393,0.005348857492208481,0.00017855198530014604,0.009524930268526077
0.01087433472275734,0.007028087507933378,-0.010537531226873398,0.0055188387632369995,0.00017329353431705385,0.010368981398642063
0.010869316756725311,0.006931963376700878,-0.011264943517744541,0.005662940442562103,0.00016793431132100523,0.0095122205093503
0.010873747058212757,0.006534849293529987,-0.010837194509804249,0.0056012035347521305,0.00016287084145005792,0.009468287229537964
0.010735119692981243,0.006797418929636478,-0.01081807166337967,0.0054960972629487514,0.00015810198965482414,0.0098024383187294
0.00988966878503561,0.006951165851205587,-0.010652083903551102,0.0055384328588843346,0.00015360445831902325,0.009717642329633236
0.00988966878503561,0.006951165851205587,-0.010652083903551102,0.0055384328588843346,0.00015360445831902325,0.009717642329633236
0.01044582948088646,0.006683563347905874,-0.010131138376891613,0.006183058954775333,0.00014935543003957719,0.009767766110599041
0.01023709774017334,0.00652727298438549,-0.010499928146600723,0.005515792407095432,0.0001415261795045808,0.009370259940624237
0.01023709774017334,0.00652727298438549,-0.010499928146600723,0.005515792407095432,0.0001415261795045808,0.009370259940624237
0.010670079849660397,0.0067586349323391914,-0.010490285232663155,0.005318124778568745,0.0001379116001771763,0.009573955088853836
0.010278499685227871,0.0076093850657343864,-0.010048105381429195,0.006045343354344368,0.00015297942445613444,0.009552846662700176
0.010623334906995296,0.006397586781531572,-0.010568582452833652,0.006122991442680359,0.00014943952555768192,0.00997905246913433
0.010367721319198608,0.006057522725313902,-0.010888864286243916,0.006210337392985821,0.00014598245616070926,0.010206636041402817
0.010721462778747082,0.007077927701175213,-0.009906175546348095,0.005591826047748327,0.00014267668302636594,0.009877709671854973
0.010961565189063549,0.007350289728492498,-0.010232444852590561,0.00555609492585063,0.00013951683649793267,0.009887568652629852
0.010301966220140457,0.00685501703992486,-0.010506448335945606,0.005244668573141098,0.00013649406901095062,0.010234748013317585
0.010427281260490417,0.006865079514682293,-0.010398647747933865,0.00588501850143075,0.00013359951844904572,0.009676906280219555
0.010658967308700085,0.007022746838629246,-0.011091608554124832,0.0056595210917294025,0.00013082509394735098,0.009737969376146793
0.010406970046460629,0.0072573283687233925,-0.010314256884157658,0.0056565068662166595,0.000128163504996337,0.010175507515668869
0.010881859809160233,0.006960418075323105,-0.010292582213878632,0.005235578864812851,0.00012560817413032055,0.009776744060218334
0.011137480847537518,0.006646834779530764,-0.010535558685660362,0.005174136254936457,0.00012315269850660115,0.009571118280291557
0.010377256199717522,0.0069296881556510925,-0.01016999687999487,0.005631705280393362,0.00012079136649845168,0.010080334730446339
0.010686594992876053,0.007183471694588661,-0.01002077292650938,0.006150858011096716,0.00011851901945192367,0.009963816031813622
0.010645315051078796,0.00667429668828845,-0.010621299967169762,0.0054691568948328495,0.00011633042595349252,0.009529746137559414
0.010506858117878437,0.00674151536077261,-0.010007135570049286,0.005419136490672827,0.0001142212568083778,0.010123686864972115
0.010626549832522869,0.006750886328518391,-0.010352259501814842,0.005222351290285587,0.00011218726285733283,0.009598447941243649
0.010608267970383167,0.007293550297617912,-0.010326839983463287,0.005970668513327837,0.00011022438411600888,0.009159811772406101
0.01071583479642868,0.006701100151985884,-0.009897679090499878,0.0064065903425216675,0.00010832912084879354,0.009890110231935978
0.01054291520267725,0.006853088736534119,-0.01028730534017086,0.006177074741572142,0.00010649790056049824,0.010518083348870277
0.010235500521957874,0.006828336976468563,-0.010000670328736305,0.005339662078768015,0.00010472745634615421,0.01002181600779295
0.010807146318256855,0.00732378801330924,-0.009679097682237625,0.005157003179192543,0.00010301497241016477,0.009867747314274311
0.010723136365413666,0.007021221797913313,-0.010168258100748062,0.0054919845424592495,0.00010135762568097562,0.00998672191053629
0.010690834373235703,0.00696173869073391,-0.010255214758217335,0.00617655785754323,9.975272405426949e-05,0.00978279858827591
0.011002863757312298,0.007334996480494738,-0.009702431969344616,0.005882989149540663,9.819782280828804e-05,0.010325541719794273
0.011053293012082577,0.007621847093105316,-0.009941712021827698,0.005719694774597883,9.669076098361984e-05,0.00990308541804552
0.011703073047101498,0.007505851332098246,-0.010141892358660698,0.005333392880856991,9.522917389404029e-05,0.010119544342160225
0.011703073047101498,0.007505851332098246,-0.010141892358660698,0.005333392880856991,9.522917389404029e-05,0.010119544342160225
0.010812506079673767,0.006980639882385731,-0.010083276778459549,0.00568018713966012,9.381119161844254e-05,0.010220310650765896
0.011420735158026218,0.006575297564268112,-0.010249322280287743,0.005028943531215191,8.979967242339626e-05,0.011104099452495575
0.011420735158026218,0.006575297564268112,-0.010249322280287743,0.005028943531215191,8.979967242339626e-05,0.011104099452495575
0.011332533322274685,0.005920090712606907,-0.010272936895489693,0.005114981438964605,8.853767212713137e-05,0.00967076700180769
0.011393057182431221,0.005357921123504639,-0.00997626781463623,0.005523505620658398,8.731059642741457e-05,0.009152725338935852
0.011008783243596554,0.005985531024634838,-0.009351780638098717,0.006084276828914881,8.61171429278329e-05,0.010059859603643417
0.011125828139483929,0.005932503379881382,-0.010774105787277222,0.0060953074134886265,8.495587098877877e-05,0.009991643019020557
0.011035332456231117,0.0063392482697963715,-0.010299763642251492,0.006198775488883257,8.382548548979685e-05,0.009963075630366802
0.010797200724482536,0.005673258099704981,-0.009485701099038124,0.005777512677013874,8.272479317383841e-05,0.010020791552960873
0.011086110025644302,0.005763663910329342,-0.01066278200596571,0.005934983026236296,8.165260805981234e-05,0.010352293029427528
0.010936749167740345,0.005819371901452541,-0.010684376582503319,0.0053834025748074055,8.060785330599174e-05,0.01012349408119917
0.010836261324584484,0.00586210610345006,-0.010659633204340935,0.005671455059200525,7.958948117448017e-05,0.009916138835251331
0.011319434270262718,0.006101683713495731,-0.011045164428651333,0.00594438286498189,7.859661127440631e-05,0.010198014788329601
0.010629972442984581,0.005756499711424112,-0.010305527597665787,0.005944433622062206,7.762811583233997e-05,0.010359309613704681
0.010837867856025696,0.005687049590051174,-0.010540882125496864,0.005881720222532749,7.668324542464688e-05,0.010262061841785908
0.010709384456276894,0.005566229112446308,-0.010803619399666786,0.0053848521783947945,7.576113421237096e-05,0.010724353604018688
0.010566110722720623,0.005601782817393541,-0.010701947845518589,0.00500008137896657,7.486088725272566e-05,0.010400361381471157
0.010911297053098679,0.005648694466799498,-0.011431892402470112,0.004818797577172518,7.398178422590718e-05,0.009798572398722172
0.010935292579233646,0.006077683996409178,-0.011078385636210442,0.005086669698357582,7.312309026019648e-05,0.009842321276664734
0.011016041040420532,0.005428609438240528,-0.01109540555626154,0.004675714764744043,7.228412869153544e-05,0.010026679374277592
0.011771258898079395,0.00545355724170804,-0.01174070592969656,0.0050043449737131596,7.146418647607788e-05,0.009972761385142803
0.011494459584355354,0.005642642267048359,-0.010952414013445377,0.004998133517801762,7.066262332955375e-05,0.009811951778829098
0.011096189729869366,0.006222114898264408,-0.011929268948733807,0.004995879717171192,6.98788498993963e-05,0.010430163703858852
0.01103565376251936,0.005696205422282219,-0.0112587446346879,0.004950486123561859,9.001159924082458e-06,0.010711483657360077
0.010782228782773018,0.005608635488897562,-0.011057173833251,0.0049098096787929535,5.877114404029271e-07,0.010085568763315678
0.0115232914686203,0.005490261595696211,-0.01141191367059946,0.004796348046511412,3.8373354271925564e-08,0.009921220131218433
0.010971121490001678,0.005811695009469986,-0.011130855418741703,0.004780506249517202,2.5055060248746486e-09,0.009980207309126854
0.010971121490001678,0.005811695009469986,-0.011130855418741703,0.004780506249517202,2.5055060248746486e-09,0.009980207309126854
0.010868318378925323,0.00584378931671381,-0.011479434557259083,0.004887884017080069,1.6359165411206078e-10,0.01032918319106102
0.011856680735945702,0.005798781290650368,-0.011343457736074924,0.004978411365300417,1.068136551429788e-11,0.010803484357893467
0.011340823955833912,0.005925269331783056,-0.010405116714537144,0.0053026690147817135,6.974168421589044e-13,0.010341495275497437
0.011213425546884537,0.005481201224029064,-0.011640030890703201,0.005477534141391516,4.553633539032889e-14,0.010677071288228035
0.011306156404316425,0.005426757503300905,-0.011095010675489902,0.004820760805159807,1.941285430356773e-16,0.010279076173901558
0.01135837472975254,0.005861605517566204,-0.011247527785599232,0.004663459956645966,1.2675206163505263e-17,0.010432565584778786
0.011039088480174541,0.005374687258154154,-0.011719504371285439,0.005033641122281551,8.276004584126866e-19,0.010540020652115345
0.011170996353030205,0.004969288129359484,-0.011745745316147804,0.0055309864692389965,5.403639100211628e-20,0.010793894529342651
0.011206557974219322,0.005253078415989876,-0.011499294079840183,0.005315306130796671,3.5281902688286214e-21,0.010483929887413979
0.011263741180300713,0.005389241501688957,-0.010345423594117165,0.005322454962879419,2.3036563541043864e-22,0.010550635866820812
0.01121169701218605,0.005715673323720694,-0.010888436809182167,0.005577016156166792,1.5041229812510757e-23,0.010809351690113544
0.011002562008798122,0.005226260982453823,-0.010867374017834663,0.005450801458209753,9.820847911686859e-25,0.010965083725750446
0.01192786917090416,0.005153916776180267,-0.011115649715065956,0.005675138905644417,6.412311951168975e-26,0.010433516465127468
0.011464542709290981,0.005420254077762365,-0.011062229983508587,0.005511148367077112,4.1867810320333564e-27,0.010273009538650513
0.01106354407966137,0.005207577720284462,-0.010537230409681797,0.005469305906444788,2.7336690556643744e-28,0.01047763042151928
0.011247524060308933,0.005669094156473875,-0.010873797349631786,0.005072934087365866,1.7848906339043898e-29,0.010538221336901188
0.011284946464002132,0.005415884777903557,-0.011045302264392376,0.005329720675945282,1.1654061642639826e-30,0.01063055545091629
0.01214178279042244,0.005284683313220739,-0.010449559427797794,0.005323153920471668,7.609270569701899e-32,0.01082504540681839
0.011471015401184559,0.005147622432559729,-0.010839161463081837,0.0051082465797662735,4.9683095256969403e-33,0.010288226418197155
0.010779359377920628,0.0047908322885632515,-0.010514435358345509,0.005155354272574186,3.2439511485368026e-34,0.010341729037463665
0.011575375683605671,0.00486007472500205,-0.010417886078357697,0.00535014970228076,2.118068485133503e-35,0.010511423461139202
0.011603078804910183,0.0053660268895328045,-0.011023084633052349,0.005486772861331701,1.3829473286853244e-36,0.01073980052024126
0.011365029029548168,0.005495150573551655,-0.010617847554385662,0.005547109059989452,9.029657897408198e-38,0.01110021211206913
0.011666163802146912,0.0050457315519452095,-0.010347808711230755,0.0059644123539328575,5.89572086401234e-39,0.011139089241623878
0.010950892232358456,0.005126476287841797,-0.010684463195502758,0.005798039957880974,3.8494789853774185e-40,0.01094789244234562
0.011292972601950169,0.005590542685240507,-0.010733317583799362,0.005688900593668222,2.513368925612992e-41,0.010964151471853256
0.011292972601950169,0.005590542685240507,-0.010733317583799362,0.005688900593668222,2.513368925612992e-41,0.010964151471853256
0.01116395927965641,0.005520891398191452,-0.01096192467957735,0.00573303084820509,1.064986832886861e-43,0.011457053944468498
0.01116395927965641,0.005520891398191452,-0.01096192467957735,0.00573303084820509,1.064986832886861e-43,0.011457053944468498
0.011641426011919975,0.005699155852198601,-0.010266783647239208,0.005965210497379303,7.006492321624085e-45,0.011131947860121727
0.01131898071616888,0.005195681471377611,-0.010867592878639698,0.005855528637766838,0.0,0.010657532140612602
0.011515852063894272,0.0051300423219799995,-0.010888058692216873,0.005792209412902594,0.0,0.010803118348121643
0.011637609452009201,0.005007355008274317,-0.010858000256121159,0.00579763064160943,0.0,0.011232668533921242
0.012020455673336983,0.0054861195385456085,-0.010072835721075535,0.005245564505457878,0.0,0.010405934415757656
0.011169531382620335,0.005012502893805504,-0.010735375806689262,0.005495186895132065,0.0,0.010590240359306335
0.011339926160871983,0.005160249304026365,-0.01065099611878395,0.005821698345243931,0.0,0.011425619944930077
0.0113911097869277,0.005080097820609808,-0.009941459633409977,0.005566062405705452,0.0,0.012071318924427032
0.011333341710269451,0.0052114613354206085,-0.010871417820453644,0.005517029669135809,0.0,0.011510004289448261
0.01180512085556984,0.005544806364923716,-0.010837470181286335,0.005568287800997496,0.0,0.011530077084898949
0.012005023658275604,0.005516232457011938,-0.009957939386367798,0.006163370329886675,0.0,0.011039319448173046
0.011619978584349155,0.0050990344025194645,-0.010757901705801487,0.005720308516174555,0.0,0.011089619249105453
0.011253932490944862,0.004931802395731211,-0.01015471015125513,0.005361828487366438,0.0,0.011139532551169395
0.01099021639674902,0.0056619467213749886,-0.010004342533648014,0.0053841243498027325,1.1411844752728939e-05,0.011174386367201805
0.011406201869249344,0.0053179701790213585,-0.010465821251273155,0.005567935295403004,7.451119472534629e-07,0.011547473259270191
0.011436525732278824,0.005470700096338987,-0.01062832772731781,0.005768394563347101,4.865048452984411e-08,0.011211155913770199
0.011229374445974827,0.005659361369907856,-0.011593854986131191,0.006069491617381573,3.176528817760982e-09,0.011187813244760036
0.011828181333839893,0.005160946864634752,-0.011354474350810051,0.005662442650645971,2.0740460737744826e-10,0.011496810242533684
0.011525139212608337,0.005025669001042843,-0.010294320993125439,0.005694583989679813,1.354203901793305e-11,0.011362235993146896
0.01169009879231453,0.004988539963960648,-0.010958905331790447,0.005470451898872852,8.841983677350396e-13,0.0112774558365345
0.011434117332100868,0.00548561243340373,-0.010907093062996864,0.0059272972866892815,5.773183444973337e-14,0.011138237081468105
0.011360688135027885,0.005820569582283497,-0.010562154464423656,0.006227664649486542,3.7694761862664544e-15,0.011205490678548813
0.011795753613114357,0.0058983429335057735,-0.011129464022815228,0.005896623712033033,2.461198753243995e-16,0.011102154850959778
0.011485548689961433,0.005315693095326424,-0.010830442421138287,0.005734348203986883,1.6069869370639183e-17,0.010930647142231464
0.011722560971975327,0.005020370706915855,-0.01081436313688755,0.0052746995352208614,1.0492475877505449e-18,0.011469473131000996
0.011805574409663677,0.00574058061465621,-0.01107147615402937,0.005830330308526754,6.850837141430326e-20,0.011235903017222881
0.011805574409663677,0.00574058061465621,-0.01107147615402937,0.005830330308526754,6.850837141430326e-20,0.011235903017222881
0.011729290708899498,0.0056013972498476505,-0.010705937631428242,0.005617154762148857,4.473107197660858e-21,0.011395499110221863
0.011818216182291508,0.005927904509007931,-0.011162650771439075,0.005823658313602209,2.9206192931502015e-22,0.011879215948283672
0.011313523165881634,0.005159626714885235,-0.009559959173202515,0.0054745981469750404,1.9069557491352717e-23,0.011404389515519142
0.011774036101996899,0.005437479820102453,-0.01212600152939558,0.005547843873500824,8.129650432181056e-26,0.011273914948105812
0.012209892272949219,0.005723918322473764,-0.010537098161876202,0.0062006618827581406,5.308080942000927e-27,0.011112215928733349
0.011885174550116062,0.005888327490538359,-0.010656507685780525,0.006139742210507393,3.4657976017723283e-28,0.011119254864752293
0.011290065012872219,0.005489508155733347,-0.01112449262291193,0.005986039526760578,2.2629180317736234e-29,0.010895607061684132
0.011492791585624218,0.005254603922367096,-0.010139033198356628,0.005980127956718206,1.4775238944920567e-30,0.011306983418762684
0.011432953178882599,0.005120771937072277,-0.010732184164226055,0.005687573924660683,9.647175754959764e-32,0.011389859952032566
0.012170006521046162,0.005297163967043161,-0.010746813379228115,0.0056313406676054,6.298916600923967e-33,0.011197295971214771
0.011488175950944424,0.005797309335321188,-0.010250885970890522,0.005634326953440905,4.112742033662766e-34,0.01160546112805605
0.011400937102735043,0.006016446743160486,-0.010995603166520596,0.006089244969189167,2.685326730872911e-35,0.01142207346856594
0.011692717671394348,0.0054119545966386795,-0.010564189404249191,0.005940540228039026,1.75332652124003e-36,0.011434276588261127
0.011956440284848213,0.0056727114133536816,-0.010530639439821243,0.005997980013489723,1.1447969461434023e-37,0.011554991826415062
0.011958620510995388,0.005432797130197287,-0.010879866778850555,0.005749131087213755,7.474706776210472e-39,0.011726830154657364
0.011652069166302681,0.0058861286379396915,-0.010921466164290905,0.005792669951915741,4.880442291550473e-40,0.011517705395817757
0.011483851820230484,0.006476633716374636,-0.011422407813370228,0.006013358011841774,3.186552707874634e-41,0.011790421791374683
0.012204518541693687,0.0057692090049386024,-0.0105200856924057,0.005891726352274418,2.0809282195223534e-42,0.01153771672397852
0.01180268730968237,0.005881635472178459,-0.010567981749773026,0.006016282364726067,1.3592595103950726e-43,0.011168423108756542
0.012212996371090412,0.005458730272948742,-0.012014918960630894,0.005846887361258268,8.407790785948902e-45,0.011045319028198719
0.012347816489636898,0.005850410088896751,-0.011467402800917625,0.005966661032289267,0.0,0.011228061281144619
0.011249839328229427,0.006343771703541279,-0.010417248122394085,0.0061530983075499535,0.0,0.01125254761427641
0.011815094389021397,0.006010441109538078,-0.012050281278789043,0.005759966094046831,0.0,0.011410475708544254
0.011566964909434319,0.005863177124410868,-0.011397786438465118,0.00580811919644475,0.0,0.011824929155409336
0.011680305935442448,0.005678328685462475,-0.010576963424682617,0.00631991121917963,0.0,0.011962465941905975
0.011797294951975346,0.006190628279000521,-0.010767319239675999,0.005999322049319744,0.0,0.012498868629336357
0.011797294951975346,0.006190628279000521,-0.010767319239675999,0.005999322049319744,0.0,0.012498868629336357
0.011792735196650028,0.0059296912513673306,-0.010734141804277897,0.006190262269228697,0.0,0.01216549426317215
0.012219147756695747,0.005872790236026049,-0.01048195268958807,0.00616083899512887,0.0,0.01200093887746334
0.012219147756695747,0.005872790236026049,-0.01048195268958807,0.00616083899512887,0.0,0.01200093887746334
0.011778319254517555,0.006158194970339537,-0.011093588545918465,0.00590484170243144,0.0,0.012527038343250751
0.012250207364559174,0.005926988087594509,-0.010883543640375137,0.00554338563233614,0.0,0.01192359160631895
0.012646004557609558,0.005829718429595232,-0.010821705684065819,0.005976551678031683,0.0,0.011618990451097488
0.012316303327679634,0.0059386687353253365,-0.011267098598182201,0.006764080375432968,0.0,0.011915599927306175
0.012573258951306343,0.005683918949216604,-0.010525495745241642,0.006872238591313362,0.0,0.011831143870949745
0.012415728531777859,0.0056729065254330635,-0.011030033230781555,0.006163842510432005,0.0,0.011952359229326248
0.012767585925757885,0.0058286236599087715,-0.01137529406696558,0.005818563979119062,0.0,0.011568441055715084
0.013045084662735462,0.005950119346380234,-0.010907207615673542,0.005560457240790129,0.0,0.011543141677975655
0.012682296335697174,0.005750673357397318,-0.011537881568074226,0.00582592049613595,0.0,0.011571569368243217
0.01257468480616808,0.005790156312286854,-0.011428533121943474,0.006482395809143782,0.0,0.011794790625572205
0.012415621429681778,0.006005753763020039,-0.011341780424118042,0.006455933675169945,0.0,0.01244737021625042
0.01321097556501627,0.006079166196286678,-0.011299067176878452,0.005757321137934923,0.0,0.012463472783565521
0.012319579720497131,0.006023411639034748,-0.010969510301947594,0.005891542416065931,0.0,0.012294165790081024
0.012744441628456116,0.005633319728076458,-0.012259005568921566,0.005757066421210766,0.0,0.012138023041188717
0.012581737712025642,0.005697324872016907,-0.011235538870096207,0.0062631298787891865,0.0,0.012026273645460606
0.012961280532181263,0.006037828512489796,-0.011230520904064178,0.005917045287787914,0.0,0.011955511756241322
0.012434384785592556,0.005920875817537308,-0.0117467250674963,0.005753654055297375,0.0,0.012205681763589382
0.013005299493670464,0.0061674113385379314,-0.011252013966441154,0.005922509822994471,0.0,0.01280138548463583
0.013378062285482883,0.005666857119649649,-0.012114175595343113,0.005601623095571995,0.0,0.012458369135856628
0.012779646553099155,0.005877759773284197,-0.01201825961470604,0.006408879533410072,0.0,0.01245107315480709
0.012993581593036652,0.00588778592646122,-0.012244605459272861,0.006616854574531317,-5.5306660215137526e-05,0.01253916509449482
0.012579788453876972,0.005925701931118965,-0.011932818219065666,0.006112560164183378,-0.0002624690823722631,0.012654460035264492
0.013073639012873173,0.006014114711433649,-0.011200016364455223,0.006261181086301804,-0.00028650439344346523,0.012366445735096931
0.013073639012873173,0.006014114711433649,-0.011200016364455223,0.006261181086301804,-0.00028650439344346523,0.012366445735096931
0.012691703625023365,0.005407243501394987,-0.01239739079028368,0.0063717602752149105,-0.0002952881914097816,0.012069371528923512
0.014881875365972519,0.005912615451961756,-0.011701948940753937,0.006203924305737019,-0.0002814917825162411,0.012308442033827305
0.012269643135368824,0.0055695995688438416,-0.012237702496349812,0.006051868665963411,-0.0002894124190788716,0.012213820591568947
0.013484880328178406,0.00603617774322629,-0.011803530156612396,0.0058471751399338245,-0.00028398947324603796,0.01217686291784048
0.013284374959766865,0.005874317605048418,-0.012314113788306713,0.005981191992759705,-0.0002718198811635375,0.012350802309811115
0.013576709665358067,0.0056285373866558075,-0.012366477400064468,0.006512627936899662,-0.00027878949185833335,0.012725723907351494
0.013061664998531342,0.005814237054437399,-0.012315547093749046,0.006470229476690292,-0.00028473392012529075,0.012366370297968388
0.013594679534435272,0.006508481223136187,-0.011908247135579586,0.006202910095453262,-0.00027496812981553376,0.012532069347798824
0.013310437090694904,0.006211174186319113,-0.01179703138768673,0.005622038152068853,-0.00026492137112654746,0.012247208505868912
0.013545929454267025,0.005861145909875631,-0.01190248690545559,0.006354831624776125,-0.0002555229002609849,0.011984087526798248
0.013366226106882095,0.005094305146485567,-0.01169819850474596,0.0072678085416555405,-0.0003149890690110624,0.012192115187644958
0.013580354861915112,0.005299182143062353,-0.012732632458209991,0.00645343167707324,-0.0003038909926544875,0.012330063618719578
0.013242779299616814,0.0052153728902339935,-0.011458754539489746,0.0059518469497561455,-0.0002852821780834347,0.012579819187521935
0.013641255907714367,0.005391271784901619,-0.011982729658484459,0.006407286040484905,-0.00029442942468449473,0.012420288287103176
0.013452253304421902,0.005482777021825314,-0.012267866171896458,0.00680871307849884,-0.00030205011717043817,0.013029112480580807
0.01342859398573637,0.005032151006162167,-0.011914393864572048,0.007279707118868828,-0.00028753848164342344,0.012020469643175602
0.013618729077279568,0.005347428843379021,-0.012502637691795826,0.006611872464418411,-0.0002730955311562866,0.012304943054914474
0.013436590321362019,0.005189746152609587,-0.011864074505865574,0.006464511621743441,-0.0002599511353764683,0.012614783830940723
0.013436590321362019,0.005189746152609587,-0.011864074505865574,0.006464511621743441,-0.0002599511353764683,0.012614783830940723
0.013525666669011116,0.005550876725465059,-0.011390394531190395,0.007046052720397711,-0.000237116459175013,0.01218178030103445
0.013525666669011116,0.005550876725465059,-0.011390394531190395,0.007046052720397711,-0.000237116459175013,0.01218178030103445
0.014112057164311409,0.005481228232383728,-0.011466657742857933,0.00679044658318162,-0.00022714032093062997,0.012079066596925259
0.013723240233957767,0.005061439238488674,-0.01091831736266613,0.006506393663585186,-0.000249459088081494,0.012547450140118599
0.014087974093854427,0.005204665940254927,-0.011905571445822716,0.006268200930207968,-0.00024411411141045392,0.012533312663435936
0.01367209479212761,0.005544197279959917,-0.012498954311013222,0.006616121623665094,-0.0002352785668335855,0.012753094546496868
0.014165343716740608,0.005502896849066019,-0.011672239750623703,0.006573297083377838,-0.00022682483540847898,0.012577651999890804
0.013682380318641663,0.005593959707766771,-0.012256797403097153,0.006587658077478409,-0.00021894228120800108,0.01235483679920435
0.014149865135550499,0.005239407531917095,-0.011635232716798782,0.006693268660455942,-0.00021158813615329564,0.012510842643678188
0.013701881282031536,0.005330377258360386,-0.011367534287273884,0.006659960839897394,-0.00023198277631308883,0.01258330512791872
0.01373854000121355,0.005284190643578768,-0.011471175588667393,0.006304370705038309,-0.00021967009524814785,0.012635698541998863
0.01426602341234684,0.005375210661441088,-0.01196429505944252,0.006466467399150133,-0.00021317307255230844,0.013027611188590527
0.013846449553966522,0.005003006663173437,-0.012113441713154316,0.006613575387746096,-0.00020735898579005152,0.013184701092541218
0.014212600886821747,0.005105182528495789,-0.011370646767318249,0.006700736470520496,-0.00019821074965875596,0.012891637161374092
0.013930575922131538,0.00532573414966464,-0.012536433525383472,0.007062398362904787,-0.00018984588677994907,0.01268261019140482
0.013845998793840408,0.00498182000592351,-0.011362481862306595,0.006944315042346716,-0.00018215912859886885,0.01236075907945633
0.013783893547952175,0.005454736296087503,-0.011742827482521534,0.006425883620977402,-0.00017507105076219887,0.012471172958612442
0.014394785277545452,0.005130012985318899,-0.011750464327633381,0.007069596089422703,-0.0001999303203774616,0.012401317246258259
0.014092245139181614,0.005380455870181322,-0.011568136513233185,0.007613040041178465,-0.00019476702436804771,0.012309303507208824
0.01442914642393589,0.005547328386455774,-0.011980826035141945,0.006950093898922205,-0.00018811524205375463,0.012347599491477013
0.014046616852283478,0.00514995027333498,-0.01140530314296484,0.006365392357110977,-0.00018179023754782975,0.012425932101905346
0.014560548588633537,0.005459377076476812,-0.011491531506180763,0.006273187231272459,-0.0001902412186609581,0.012707145884633064
0.013864661566913128,0.005362408701330423,-0.011923389509320259,0.007003161124885082,-0.00019773309759330004,0.013082001358270645
0.01369388960301876,0.0057943835854530334,-0.012141224928200245,0.007000845391303301,-0.0001925685937749222,0.013323989696800709
0.013850106857717037,0.005367404781281948,-0.012101881206035614,0.006507398094981909,-0.00018691207515075803,0.0131790516898036
0.013955333270132542,0.0050466605462133884,-0.01170474011451006,0.006252192426472902,-0.00018152975826524198,0.013442848809063435
0.014048180542886257,0.005106839817017317,-0.01198336761444807,0.006649869494140148,-0.0001983258844120428,0.013235644437372684
0.014048180542886257,0.005106839817017317,-0.01198336761444807,0.006649869494140148,-0.0001983258844120428,0.013235644437372684
0.014323094859719276,0.005480812396854162,-0.011510464362800121,0.007416084874421358,-0.00019594049081206322,0.013522379100322723
0.01433856412768364,0.005467508919537067,-0.01149236224591732,0.00699965562671423,-0.0001909409766085446,0.013364451937377453
0.014263500459492207,0.005295642651617527,-0.01202245894819498,0.006628979928791523,-0.00025555313914082944,0.01354638859629631
0.014017652720212936,0.005623999051749706,-0.01159331388771534,0.006364709232002497,-0.0002514340740162879,0.013238287530839443
0.014342394657433033,0.0053632985800504684,-0.012023000046610832,0.007003562059253454,-0.00026204463210888207,0.013386067934334278
0.014561166986823082,0.00503754336386919,-0.011734502390027046,0.007252837065607309,-0.0002705184160731733,0.013387002982199192
0.01467086561024189,0.005743181332945824,-0.011627082712948322,0.00702119804918766,-0.00025895523140206933,0.013497314415872097
0.015060712583363056,0.005346497520804405,-0.011885317042469978,0.006832472048699856,-0.0002776152396108955,0.014455455355346203
0.014767760410904884,0.005381123628467321,-0.011516241356730461,0.007199907209724188,-0.0002750663261394948,0.01295482274144888
0.014396180398762226,0.0050306059420108795,-0.012067543342709541,0.006390138529241085,-0.0002873229677788913,0.012755426578223705
0.014733795076608658,0.005312946625053883,-0.012147973291575909,0.00662216218188405,-0.000278415041975677,0.013665326870977879
0.014604339376091957,0.005072388332337141,-0.011836405843496323,0.007116732187569141,-0.0002681871992535889,0.01357286050915718
0.014470407739281654,0.005269296001642942,-0.011196334846317768,0.0075532542541623116,-0.0002588056377135217,0.013548704795539379
0.01456302311271429,0.005550350993871689,-0.01196141168475151,0.007583926431834698,-0.00035171519266441464,0.013389747589826584
0.014561322517693043,0.005399622023105621,-0.011705503799021244,0.006524278782308102,-0.00033308801357634366,0.013698969967663288
0.015046149492263794,0.0059294793754816055,-0.012258280999958515,0.006054699420928955,-0.00031057072919793427,0.013724754564464092
0.014872529543936253,0.00573785649612546,-0.012346039526164532,0.006851491518318653,-0.00033330320729874074,0.013559326529502869
0.014881827868521214,0.0058004301972687244,-0.011867553927004337,0.007011669687926769,-0.00032649189233779907,0.013321748934686184
0.014505548402667046,0.005359581205993891,-0.01199010293930769,0.006832255516201258,-0.0003086942888330668,0.013452445156872272
0.015121310949325562,0.00528058223426342,-0.011612962931394577,0.006386414170265198,-0.0002920496335718781,0.013778313994407654
0.014777332544326782,0.0054319933988153934,-0.012467958964407444,0.006502734497189522,-0.00029959200765006244,0.013687346130609512
0.014875128865242004,0.005598878487944603,-0.012270724400877953,0.006990986410528421,-0.00030591647373512387,0.013645614497363567
0.014726422727108002,0.005854401737451553,-0.012224525213241577,0.007070993538945913,-0.00029304908821359277,0.013992066495120525
0.015147724188864231,0.005448316689580679,-0.012299122288823128,0.006917985156178474,-0.0002801059454213828,0.013887995854020119
0.01487955916672945,0.005234122276306152,-0.011844225227832794,0.006227480247616768,-0.0002681851328816265,0.013755436055362225
0.01524239033460617,0.005616671405732632,-0.012365936301648617,0.006712011992931366,-0.00025723298313096166,0.013967650011181831
0.014808114618062973,0.005383922252804041,-0.011987553909420967,0.007370500359684229,-0.0002777471672743559,0.013498514890670776
0.01537502184510231,0.005886874161660671,-0.012905552983283997,0.007057026959955692,-0.0002714755537454039,0.013131163083016872
0.015403253957629204,0.0056699467822909355,-0.012558496557176113,0.006662870291620493,-0.00026187507319264114,0.013170702382922173
0.015674907714128494,0.00560906482860446,-0.012796534225344658,0.007057838141918182,-0.0002527002652641386,0.013583495281636715
0.015674907714128494,0.00560906482860446,-0.012796534225344658,0.007057838141918182,-0.0002527002652641386,0.013583495281636715
0.015557760372757912,0.005186366382986307,-0.012976709753274918,0.0075525990687310696,-0.00024413209757767618,0.013570189476013184
0.01548401452600956,0.00540047837421298,-0.012863816693425179,0.00746132992208004,-0.00023637371486984193,0.013958803378045559
0.015580645762383938,0.005791530013084412,-0.012674610130488873,0.007323108147829771,-0.00022719147091265768,0.013856577686965466
0.015604861080646515,0.005447098053991795,-0.012181337922811508,0.00788100715726614,-0.00021644076332449913,0.014040574431419373
0.015847649425268173,0.00520749855786562,-0.013349339365959167,0.007450998295098543,-0.0002065168955596164,0.013744833879172802
0.015599061734974384,0.004899951629340649,-0.013110680505633354,0.007015431299805641,-0.00019745362806133926,0.014475234784185886
0.015445534139871597,0.005269634071737528,-0.012655539438128471,0.007454044185578823,-0.00021765621204394847,0.014183838851749897
0.015869485214352608,0.005497494712471962,-0.01310021337121725,0.007450849749147892,-0.00020936626242473722,0.014526610262691975
0.015768060460686684,0.005511109717190266,-0.01297308411449194,0.007269526366144419,-0.000201559771085158,0.014240911230444908
0.0162843968719244,0.004925376269966364,-0.01285751722753048,0.006525811739265919,-0.00019430657266639173,0.013976612128317356
0.015575633384287357,0.0049184211529791355,-0.013096386566758156,0.006944998633116484,-0.00020287514780648053,0.014896195381879807
0.016033004969358444,0.005252376664429903,-0.012476298026740551,0.007474839221686125,-0.00021042984735686332,0.01407893467694521
0.015970204025506973,0.005113115534186363,-0.01330731064081192,0.006619671825319529,-0.0002045338915195316,0.01342813577502966
0.015635307878255844,0.005323390010744333,-0.012786904349923134,0.006311423610895872,-0.0001981609093490988,0.013518965803086758
0.016129376366734505,0.005017849616706371,-0.013558024540543556,0.006999344099313021,-0.00019212164625059813,0.014083079993724823
0.016066789627075195,0.004692649003118277,-0.01301686093211174,0.007537434808909893,-0.00018643561634235084,0.01416862104088068
0.016061129048466682,0.004729940090328455,-0.013455730862915516,0.007704584859311581,-0.00018107685900758952,0.014203517697751522
0.015817997977137566,0.005303009878844023,-0.012728432193398476,0.007126159965991974,-0.00019947343389503658,0.014390279538929462
0.016113892197608948,0.005230776034295559,-0.012534023262560368,0.00677798455581069,-0.00019558420171961188,0.01433044858276844
0.016197171062231064,0.005380610469728708,-0.01285631861537695,0.007343137636780739,-0.00019050887203775346,0.014542344026267529
0.016335297375917435,0.005132187157869339,-0.012758107855916023,0.00730951176956296,-0.00021583981288131326,0.014386123046278954
0.016178105026483536,0.005098455119878054,-0.013865281827747822,0.007274049334228039,-0.00021558033768087626,0.01454903557896614
0.015993017703294754,0.005355877336114645,-0.012854045256972313,0.0069638751447200775,-0.00023683524341322482,0.014462116174399853
0.016239261254668236,0.005119261797517538,-0.013187381438910961,0.007004545535892248,-0.00023610774951521307,0.01441184338182211
0.016210826113820076,0.005417623091489077,-0.012523980811238289,0.007179911248385906,-0.0002595857949927449,0.014480032958090305
0.016741039231419563,0.0052740382961928844,-0.013183402828872204,0.007339307107031345,-0.00025366953923366964,0.014505823142826557
0.016526512801647186,0.00509981345385313,-0.012914640828967094,0.007362643722444773,-0.00024413480423390865,0.014169308356940746
0.016394371166825294,0.004861821420490742,-0.012894638814032078,0.007963797077536583,-0.00025987857952713966,0.01414854358881712
0.016316067427396774,0.004756771959364414,-0.012816008180379868,0.008108200505375862,-0.0002583893947303295,0.01428899634629488
0.016316067427396774,0.004756771959364414,-0.012816008180379868,0.008108200505375862,-0.0002583893947303295,0.01428899634629488
0.01650562882423401,0.004259197972714901,-0.01234061736613512,0.007752072066068649,-0.0002505922457203269,0.014410589821636677
0.016843831166625023,0.00435142545029521,-0.012598183006048203,0.0081463772803545,-0.000417184317484498,0.014228450134396553
0.0168394073843956,0.005141302011907101,-0.012752575799822807,0.008431989699602127,-0.0003931765677407384,0.014264054596424103
0.017131304368376732,0.0046315304934978485,-0.012434274889528751,0.008159852586686611,-0.00039323256351053715,0.014580124989151955
0.017131304368376732,0.0046315304934978485,-0.012434274889528751,0.008159852586686611,-0.00039323256351053715,0.014580124989151955
0.01659442111849785,0.004865802824497223,-0.012492422014474869,0.008031744509935379,-0.00039309661951847374,0.014968588948249817
0.016240211203694344,0.004939681850373745,-0.012862958945333958,0.008084731176495552,-0.0003826489846687764,0.01468824502080679
0.016919324174523354,0.004611473996192217,-0.012723679654300213,0.007799183949828148,-0.0003615588939283043,0.01493524294346571
0.016917923465371132,0.005040515214204788,-0.012076805345714092,0.00815751776099205,-0.0003419827844481915,0.015219828113913536
0.01715962029993534,0.0049216547049582005,-0.012834135442972183,0.007623250130563974,-0.0003644837997853756,0.014975473284721375
0.016999173909425735,0.004749249666929245,-0.012631876394152641,0.00736174825578928,-0.0003521465987432748,0.01510871946811676
0.016422437503933907,0.0045746322721242905,-0.012930158525705338,0.007507723290473223,-0.000336064345901832,0.014819989912211895
0.017184246331453323,0.005061381962150335,-0.012786033563315868,0.008226675912737846,-0.00034418885479681194,0.015197666361927986
0.017103886231780052,0.005168064963072538,-0.01303904689848423,0.00784256774932146,-0.000323677493724972,0.015185348689556122
0.017677772790193558,0.005012473091483116,-0.012822022661566734,0.007502066437155008,-0.0003022046876139939,0.015082702040672302
0.01745501160621643,0.005085392855107784,-0.012516285292804241,0.008042290806770325,-0.0003358857939019799,0.01417794544249773
0.017254270613193512,0.005017515271902084,-0.013036095537245274,0.008320119231939316,-0.00031944637885317206,0.014749488793313503
0.018133560195565224,0.004372251685708761,-0.012440964579582214,0.008136129938066006,-0.0003486353962216526,0.014666707254946232
0.016484810039401054,0.004341926891356707,-0.013034958392381668,0.007197909988462925,-0.0003332564956508577,0.015112405642867088
0.017273470759391785,0.005193001125007868,-0.012371238321065903,0.0071323467418551445,-0.0003166989190503955,0.01503997016698122
0.017792152240872383,0.0052793752402067184,-0.012522798962891102,0.007951979525387287,-0.00034167247940786183,0.01533056702464819
0.01715194806456566,0.004901123698800802,-0.012327856384217739,0.008166959509253502,-0.0003286889404989779,0.014919087290763855
0.018035590648651123,0.004660323262214661,-0.012410405091941357,0.007736889645457268,-0.0003962057235185057,0.01498759351670742
0.017710911110043526,0.004615671467036009,-0.012840934097766876,0.007649295497685671,-0.0003893066314049065,0.015042215585708618
0.017710911110043526,0.004615671467036009,-0.012840934097766876,0.007649295497685671,-0.0003893066314049065,0.015042215585708618
0.017524413764476776,0.004909120965749025,-0.012237505987286568,0.008011987432837486,-0.00035994130303151906,0.015101715922355652
0.01749541237950325,0.004911152645945549,-0.012941858731210232,0.007966219447553158,-0.0003909278311766684,0.014810677617788315
0.017416086047887802,0.00534824701026082,-0.012478354386985302,0.008388087153434753,-0.00037184919347055256,0.014909503050148487
0.017710573971271515,0.005141690839082003,-0.01277884840965271,0.008612353354692459,-0.000348362373188138,0.014945153146982193
0.01747759059071541,0.0051825749687850475,-0.012544962577521801,0.00820756983011961,-0.0003780254046432674,0.015443992801010609
0.017652638256549835,0.005404922645539045,-0.012906237505376339,0.007665787823498249,-0.00035974461934529245,0.015738127753138542
0.01767110265791416,0.004730317275971174,-0.012551939114928246,0.00811106525361538,-0.0003405093739274889,0.016039762645959854
0.018080687150359154,0.005615991074591875,-0.012681053020060062,0.00816330872476101,-0.00035098660737276077,0.01568993739783764
0.017939472571015358,0.005210554227232933,-0.012230501510202885,0.007863093167543411,-0.0003348426253069192,0.01585637778043747
0.0176237802952528,0.005147761665284634,-0.013068465515971184,0.008187259547412395,-0.0003554629220161587,0.015731530264019966
0.017766132950782776,0.005038413219153881,-0.01247149333357811,0.0082657840102911,-0.00033490985515527427,0.015676310285925865
0.01769290305674076,0.004870275501161814,-0.012731135822832584,0.008249261416494846,-0.0003120577603112906,0.01537085510790348
0.017968153581023216,0.005758433602750301,-0.012570196762681007,0.007744294591248035,-0.0003347845049574971,0.015637142583727837
0.01801321469247341,0.005357049405574799,-0.012672089971601963,0.008212191052734852,-0.00032785613439045846,0.015575536526739597
0.017620619386434555,0.0049218847416341305,-0.012694928795099258,0.008743684738874435,-0.00030991100356914103,0.015383429825305939
0.017760589718818665,0.005266967229545116,-0.012609575875103474,0.008425022475421429,-0.000293137039989233,0.015212731435894966
0.017601042985916138,0.005173779558390379,-0.013428181409835815,0.008654342032968998,-0.0003211923176422715,0.015309223905205727
0.01777939684689045,0.005173782352358103,-0.012663339264690876,0.008851406164467335,-0.00030828561284579337,0.015570878982543945
0.01798940822482109,0.005095440428704023,-0.013083025813102722,0.008529694750905037,-0.0002940751437563449,0.01569925993680954
0.017875133082270622,0.005277376156300306,-0.012625637464225292,0.008152174763381481,-0.0003005854377988726,0.016003508120775223
0.01810634881258011,0.005292390938848257,-0.013317032717168331,0.008646296337246895,-0.00030605538631789386,0.016110705211758614
0.01810840144753456,0.005171009339392185,-0.013012574054300785,0.008782942779362202,-0.00029471845482476056,0.015411969274282455
0.01773504540324211,0.005404010880738497,-0.013456868939101696,0.008507492952048779,-0.00028320218552835286,0.015271567739546299
0.018176766112446785,0.005386957433074713,-0.0137011194601655,0.008555267937481403,-0.00027316281921230257,0.015628477558493614
0.018176766112446785,0.005386957433074713,-0.0137011194601655,0.008555267937481403,-0.00027316281921230257,0.015628477558493614
0.017955442890524864,0.0060865129344165325,-0.01333751529455185,0.008748004212975502,-0.0002855772036127746,0.016029858961701393
0.018069619312882423,0.005601386073976755,-0.013495170511305332,0.008193640038371086,-0.00027036172104999423,0.016117582097649574
0.018215524032711983,0.005364435259252787,-0.013402086682617664,0.008237001486122608,-0.00025515310699120164,0.016407767310738564
0.017949873581528664,0.0055127558298408985,-0.013744769617915154,0.008801301009953022,-0.000283257570117712,0.016481813043355942
0.01803271844983101,0.006018972024321556,-0.01285204291343689,0.008640230633318424,-0.00027457220130600035,0.016538241878151894
0.018059231340885162,0.005707012489438057,-0.013448677025735378,0.008573140017688274,-0.0002829324803315103,0.01608768105506897
0.017886733636260033,0.005834701005369425,-0.012902715243399143,0.009097668342292309,-0.00028970628045499325,0.015735458582639694
0.018122920766472816,0.005300689488649368,-0.013071604073047638,0.008104179985821247,-0.0002665177162270993,0.015713993459939957
0.018460867926478386,0.005432140547782183,-0.012545505538582802,0.008209096267819405,-0.0002873658377211541,0.016320081427693367
0.01902187429368496,0.005561976693570614,-0.013584067113697529,0.0088278129696846,-0.0002805145049933344,0.01711910590529442
0.018393781036138535,0.00567907327786088,-0.01420822273939848,0.008838830515742302,-0.00027026725001633167,0.017037877812981606
0.0182509683072567,0.00538754602894187,-0.013322279788553715,0.00848729070276022,-0.00033646251540631056,0.016305649653077126
0.017977699637413025,0.005452098790556192,-0.013415645807981491,0.008696458302438259,-0.0003713357145898044,0.01687646470963955
0.01785896345973015,0.005556104239076376,-0.013207010924816132,0.008663821965456009,-0.00036201896728016436,0.016757149249315262
0.018436258658766747,0.005692797712981701,-0.013041632249951363,0.008347916416823864,-0.0003402208094485104,0.01699470914900303
0.018302610144019127,0.005896338261663914,-0.01333521492779255,0.008537039160728455,-0.00036975793773308396,0.01670854724943638
0.01831849105656147,0.005517668556421995,-0.01341111958026886,0.008763182908296585,-0.0003523155755829066,0.016808349639177322
0.01822555623948574,0.005651033949106932,-0.013678307645022869,0.00807412900030613,-0.0003338515816722065,0.01660696044564247
0.01804022118449211,0.005204757209867239,-0.013137230649590492,0.008765838108956814,-0.00033916064421646297,0.01617332547903061
0.018582459539175034,0.005445265676826239,-0.013521828688681126,0.009012226946651936,-0.00034347109613008797,0.01576666720211506
0.019157644361257553,0.005533112213015556,-0.012895633466541767,0.009445286355912685,-0.000329108297592029,0.015945591032505035
0.01883687451481819,0.005706930998712778,-0.013272648677229881,0.008973009884357452,-0.00039165408816188574,0.016405783593654633
0.018643217161297798,0.00523474020883441,-0.012636303901672363,0.009529400616884232,-0.0003841283905785531,0.016872242093086243
0.018643217161297798,0.00523474020883441,-0.012636303901672363,0.009529400616884232,-0.0003841283905785531,0.016872242093086243
0.019135257229208946,0.005861897952854633,-0.01322723925113678,0.009332766756415367,-0.0003554637951310724,0.01709209382534027
0.01817586086690426,0.005442640744149685,-0.013151077553629875,0.00854701641947031,-0.00039078714326024055,0.01789434812963009
0.018344908952713013,0.005995344836264849,-0.013686902821063995,0.00872825924307108,-0.0003681373782455921,0.01697515696287155
0.018746383488178253,0.005655399523675442,-0.013607189990580082,0.009218815714120865,-0.0003871825465466827,0.016436627134680748
0.018769027665257454,0.0057542584836483,-0.013277009129524231,0.008806704543530941,-0.0003772162599489093,0.01637214981019497
0.0181416105479002,0.005617047660052776,-0.013643528334796429,0.008871814236044884,-0.0003567147650755942,0.01721508428454399
0.019319377839565277,0.005633573513478041,-0.013212103396654129,0.009514495730400085,-0.0003611633146647364,0.017621690407395363
0.01905907690525055,0.005226857494562864,-0.013831429183483124,0.008119449950754642,-0.0003646356053650379,0.01732245273888111
0.019040416926145554,0.005061400588601828,-0.013215962797403336,0.008240541443228722,-0.00034841062733903527,0.017177237197756767
0.018885111436247826,0.005030537489801645,-0.013500954024493694,0.00907684862613678,-0.0003629823913797736,0.0173436738550663
0.019370436668395996,0.005118467845022678,-0.014108985662460327,0.009154020808637142,-0.0003989246324636042,0.017180833965539932
0.019294900819659233,0.005047496408224106,-0.013540690764784813,0.008776730857789516,-0.0003753012861125171,0.01688135229051113
0.018922533839941025,0.00482418667525053,-0.01419952604919672,0.009152323938906193,-0.00040559389162808657,0.01751742511987686
0.019489947706460953,0.005889026448130608,-0.013820115476846695,0.008865716867148876,-0.00038440359639935195,0.017127564176917076
0.019520647823810577,0.00547842588275671,-0.014423131942749023,0.008934627287089825,-0.0004107088316231966,0.017001811414957047
0.01931324228644371,0.004922694992274046,-0.01383460033684969,0.009098798967897892,-0.0003932100080419332,0.01703028194606304
0.019420819357037544,0.005306714680045843,-0.014033740386366844,0.009014399722218513,-0.0005090133636258543,0.017327412962913513
0.019607095047831535,0.005060374271124601,-0.013617859221994877,0.009183633141219616,-0.0005471384502016008,0.01746092364192009
0.019647222012281418,0.004746248014271259,-0.014323130249977112,0.009024428203701973,-0.0005481317057274282,0.017018688842654228
0.019639918580651283,0.005005593411624432,-0.013890271075069904,0.009607616811990738,-0.0005389247671701014,0.016971299424767494
0.01946992613375187,0.00522407703101635,-0.014654544182121754,0.008655142970383167,-0.0005601854645647109,0.016915027052164078
0.01944933459162712,0.004857918713241816,-0.01386166550219059,0.008917301893234253,-0.0005276462179608643,0.017036674544215202
0.019695265218615532,0.004889188800007105,-0.014014946296811104,0.008989152498543262,-0.0006259544170461595,0.01735667698085308
0.01969935931265354,0.00486335763707757,-0.013927469030022621,0.009024060331285,-0.0006232411251403391,0.0173330120742321
0.019617382436990738,0.004763488192111254,-0.014545736834406853,0.009584970772266388,-0.0006034418474882841,0.017806468531489372
0.019784564152359962,0.004787901882082224,-0.014415851794183254,0.009794047102332115,-0.0006300461245700717,0.017603997141122818
0.019784564152359962,0.004787901882082224,-0.014415851794183254,0.009794047102332115,-0.0006300461245700717,0.017603997141122818
0.020125621929764748,0.005226521752774715,-0.014374361373484135,0.008951808325946331,-0.0006177822360768914,0.017437240108847618
0.019748549908399582,0.005068997386842966,-0.014064907096326351,0.009738974273204803,-0.0006025286857038736,0.017069075256586075
0.01987256482243538,0.00447717122733593,-0.01427855622023344,0.0097596300765872,-0.0006475671543739736,0.016797136515378952
0.02015204168856144,0.004906685557216406,-0.014245844446122646,0.009217952378094196,-0.000681003846693784,0.018463149666786194
0.020087506622076035,0.004853381309658289,-0.014633885584771633,0.009487555362284184,-0.00062997464556247,0.017294010147452354
0.019822800531983376,0.004927982110530138,-0.014322344213724136,0.009775860235095024,-0.0006346225854940712,0.017294472083449364
0.020032411441206932,0.004916379228234291,-0.014454120770096779,0.009519483894109726,-0.0005958330002613366,0.017532922327518463
0.020315833389759064,0.005017165560275316,-0.014390057884156704,0.009709054604172707,-0.0006127581000328064,0.01728781871497631
0.020315850153565407,0.004822299815714359,-0.01472417637705803,0.01025672722607851,-0.0005731731071136892,0.018164588138461113
0.0202549546957016,0.004511952865868807,-0.014391608536243439,0.009996377862989902,-0.0005906976875849068,0.018187319859862328
0.02002159133553505,0.0053849779069423676,-0.014497957192361355,0.00993261206895113,-0.000567725277505815,0.018077222630381584
0.020337902009487152,0.0050199576653540134,-0.014901939779520035,0.009599595330655575,-0.0005164141766726971,0.017877725884318352
0.020849211141467094,0.004842154681682587,-0.014698317274451256,0.010094352066516876,-0.0004714732931461185,0.018143856897950172
0.020983455702662468,0.004327825736254454,-0.014515054412186146,0.010648085735738277,-0.0005007262225262821,0.017572864890098572
0.021037757396697998,0.004534886218607426,-0.014359367080032825,0.009686714969575405,-0.0004678931727539748,0.017350386828184128
0.021224213764071465,0.004737801384180784,-0.01492702029645443,0.009908825159072876,-0.0004357922007329762,0.01814861409366131
0.020530518144369125,0.004705189261585474,-0.015191784128546715,0.010092810727655888,-0.0004617621307261288,0.019076842814683914
0.02030826359987259,0.005072366446256638,-0.0153088653460145,0.00946391187608242,-0.0004372429975774139,0.018835902214050293
0.0206622127443552,0.004931862931698561,-0.014571644365787506,0.009737719781696796,-0.00041241678991355,0.01881539262831211
0.021570680662989616,0.004643456544727087,-0.015588382259011269,0.01005384512245655,-0.00039008079329505563,0.018803462386131287
0.021337095648050308,0.004693651106208563,-0.015484767034649849,0.009633796289563179,-0.00036245511728338897,0.018569184467196465
0.021087706089019775,0.0048281545750796795,-0.015649214386940002,0.00982305221259594,-0.00032930567977018654,0.018606141209602356
0.021354248747229576,0.0047905538231134415,-0.014852805063128471,0.00994542334228754,-0.0003064319316763431,0.018817473202943802
0.02173914946615696,0.005192562937736511,-0.015323536470532417,0.009461122564971447,-0.0002868580922950059,0.019325725734233856
0.021620897576212883,0.004910210147500038,-0.015487000346183777,0.009677620604634285,-0.00031629329896532,0.01896066963672638
0.02114889957010746,0.004697187338024378,-0.01584569178521633,0.010015089064836502,-0.00030481148860417306,0.01864073984324932
0.021061766892671585,0.005164891015738249,-0.016003940254449844,0.009668760001659393,-0.00028891355032101274,0.01870608888566494
0.021433906629681587,0.004850694909691811,-0.015928640961647034,0.009822472929954529,-0.00029656561673618853,0.018966957926750183
0.021562037989497185,0.004094935487955809,-0.016065003350377083,0.010014439933001995,-0.0003029760846402496,0.018762357532978058
0.021562037989497185,0.004094935487955809,-0.016065003350377083,0.010014439933001995,-0.0003029760846402496,0.018762357532978058
0.021671295166015625,0.00517761567607522,-0.015416281297802925,0.01014631800353527,-0.00030695099849253893,0.019706206396222115
0.021671295166015625,0.00517761567607522,-0.015416281297802925,0.01014631800353527,-0.00030695099849253893,0.019706206396222115
0.021778875961899757,0.004954314325004816,-0.015103111043572426,0.009942212142050266,-0.0003032467211596668,0.017951514571905136
0.021934494376182556,0.004725076258182526,-0.016054252162575722,0.009203306399285793,-0.00029156802338548005,0.017751550301909447
0.021636633202433586,0.004684098064899445,-0.015452777966856956,0.009505567140877247,-0.00032291715615428984,0.01862429827451706
0.021799547597765923,0.004718702752143145,-0.016218289732933044,0.009752197191119194,-0.00031512713758274913,0.018764162436127663
0.022051291540265083,0.0051735215820372105,-0.015804290771484375,0.00958620011806488,-0.00029540093964897096,0.01915654167532921
0.021986981853842735,0.005201245192438364,-0.015208903700113297,0.010704847052693367,-0.0003288498264737427,0.018969014286994934
0.022156288847327232,0.0047416239976882935,-0.013559103943407536,0.01080276444554329,-0.000313141179503873,0.018538985401391983
0.021860994398593903,0.004826519638299942,-0.015571936964988708,0.010185223072767258,-0.00029617929249070585,0.018908634781837463
0.022618798539042473,0.004882051609456539,-0.016004502773284912,0.010199196636676788,-0.0003109796380158514,0.019105345010757446
0.022775214165449142,0.004852996673434973,-0.015623372048139572,0.010420160368084908,-0.0002966928295791149,0.019001316279172897
0.022069836035370827,0.0051270718686282635,-0.015407023020088673,0.010222131386399269,-0.0003210816939827055,0.01892358437180519
0.022022496908903122,0.0049055046401917934,-0.01609359122812748,0.01012895442545414,-0.0003097279113717377,0.01901429332792759
0.022538254037499428,0.004656586330384016,-0.015243756584823132,0.009729394689202309,-0.000297105114441365,0.019033294171094894
0.022795775905251503,0.0046320222318172455,-0.015023254789412022,0.010436050593852997,-0.00035446794936433434,0.018976038321852684
0.022535670548677444,0.00464024068787694,-0.014676620252430439,0.009850626811385155,-0.00033840080141089857,0.01927875354886055
0.022093448787927628,0.004705559462308884,-0.015834838151931763,0.009493003599345684,-0.00036174256820231676,0.019443830475211143
0.022625893354415894,0.005062487907707691,-0.015409589745104313,0.010316736996173859,-0.00035260076401755214,0.019223123788833618
0.022878378629684448,0.0048967949114739895,-0.0161301176995039,0.009974506683647633,-0.0003318691160529852,0.01886672154068947
0.022785568609833717,0.004681172780692577,-0.015609364956617355,0.009908615611493587,-0.000357784767402336,0.01943344436585903
0.022770043462514877,0.004588001407682896,-0.015592565760016441,0.010645034722983837,-0.00034438958391547203,0.01969384215772152
0.022415658459067345,0.005116636399179697,-0.01563883386552334,0.010068129748106003,-0.0003496995195746422,0.019412554800510406
0.022847861051559448,0.004978451412171125,-0.015553736127912998,0.0105684082955122,-0.0003536483854986727,0.01984657160937786
0.02332070842385292,0.004659824538975954,-0.015663648024201393,0.010294506326317787,-0.00043181178625673056,0.020157339051365852
0.022745545953512192,0.005044738296419382,-0.015535090118646622,0.01015253085643053,-0.00042286072857677937,0.01995096728205681
0.022977439686655998,0.005313392262905836,-0.016457248479127884,0.010116792283952236,-0.00044536712812259793,0.019976183772087097
0.023170730099081993,0.00506484555080533,-0.01536419615149498,0.010167810134589672,-0.0004278222331777215,0.020025623962283134
0.023626776412129402,0.005517013370990753,-0.01630515418946743,0.01038760133087635,-0.0004461547068785876,0.021508608013391495
0.023626776412129402,0.005517013370990753,-0.01630515418946743,0.01038760133087635,-0.0004461547068785876,0.021508608013391495
0.02317020855844021,0.005189185030758381,-0.015898440033197403,0.010265408083796501,-0.0004308440547902137,0.01979043148458004
0.02271205186843872,0.005419203080236912,-0.016081323847174644,0.010509380139410496,-0.00044668835471384227,0.0194789357483387
0.020649820566177368,0.005630464758723974,-0.015789205208420753,0.010180333629250526,-0.00043313787318766117,0.019804859533905983
0.0238165482878685,0.005056657362729311,-0.015977105125784874,0.01083544734865427,-0.0004106637497898191,0.020411496981978416
0.023816615343093872,0.004701592959463596,-0.01597834751009941,0.010686835274100304,-0.0004742649325635284,0.020724110305309296
0.023305946961045265,0.004620344843715429,-0.015727020800113678,0.010583348572254181,-0.00047737869317643344,0.020891930907964706
0.023373465985059738,0.004735829774290323,-0.01658245176076889,0.011245224624872208,-0.0004738730494864285,0.020603841170668602
0.023413531482219696,0.005397821310907602,-0.016310574486851692,0.011043135076761246,-0.00047028655535541475,0.019862350076436996
0.023885030299425125,0.0047279843129217625,-0.01576445810496807,0.01108731608837843,-0.0004979829536750913,0.019445842131972313
0.02380877360701561,0.004394493065774441,-0.01597820222377777,0.011051485314965248,-0.0006007941556163132,0.019976109266281128
0.023027855902910233,0.004852318670600653,-0.015528326854109764,0.012231945060193539,-0.0005702966591343284,0.020306721329689026
0.023045189678668976,0.0050094034522771835,-0.01580370031297207,0.011506141163408756,-0.000508729659486562,0.020746486261487007
0.023736614733934402,0.005025113001465797,-0.016155339777469635,0.01126285083591938,-0.000541943300049752,0.020492790266871452
0.023875422775745392,0.005194017197936773,-0.01587344892323017,0.01111782155930996,-0.000537550775334239,0.021139606833457947
0.02407624013721943,0.005037054419517517,-0.016374608501791954,0.010768766514956951,-0.0005290074623189867,0.021269721910357475
0.02394508384168148,0.004723802208900452,-0.016264330595731735,0.010924768634140491,-0.000524148577824235,0.02094333991408348
0.023611856624484062,0.004938569385558367,-0.016700120642781258,0.010908572934567928,-0.0005175844416953623,0.02048351988196373
0.023613108322024345,0.005229987669736147,-0.015855371952056885,0.010918175801634789,-0.0005237071309238672,0.020068196579813957
0.024099351838231087,0.005269183777272701,-0.01610145904123783,0.011214185506105423,-0.0005294864531606436,0.019778668880462646
0.023829294368624687,0.005371310748159885,-0.015876643359661102,0.010897715575993061,-0.0005211552488617599,0.01987648941576481
0.023694803938269615,0.004542302805930376,-0.015940483659505844,0.011083440855145454,-0.0005464531714096665,0.020065251737833023
0.024075647816061974,0.004577893763780594,-0.016310449689626694,0.01140619721263647,-0.0005115672247484326,0.02076803892850876
0.02425578609108925,0.005196101032197475,-0.016191139817237854,0.011065943166613579,-0.0005365943070501089,0.02104102075099945
0.024345478042960167,0.00491697620600462,-0.016795920208096504,0.011397936381399632,-0.000507352058775723,0.021112186834216118
0.02472045086324215,0.004871046636253595,-0.016063816845417023,0.011308901011943817,-0.000599625229369849,0.020960817113518715
0.024430157616734505,0.005336128640919924,-0.016132671386003494,0.011345170438289642,-0.0005383589304983616,0.02094225212931633
0.024203050881624222,0.005114973057061434,-0.015916544944047928,0.011928043328225613,-0.0005641173338517547,0.020558152347803116
0.024580247700214386,0.004839702043682337,-0.01698455959558487,0.01130989845842123,-0.0005209026276133955,0.02138042263686657
0.024580247700214386,0.004839702043682337,-0.01698455959558487,0.01130989845842123,-0.0005209026276133955,0.02138042263686657
0.024752985686063766,0.004388151224702597,-0.01725749857723713,0.01185316126793623,-0.000533797312527895,0.020722635090351105
0.02454395405948162,0.0044138324446976185,-0.01689106784760952,0.012193961068987846,-0.0005086816963739693,0.02100283093750477
0.02428198605775833,0.005001242272555828,-0.016986429691314697,0.012206493876874447,-0.0005044177523814142,0.021273808553814888
0.024746645241975784,0.005101549904793501,-0.01650805026292801,0.01199397724121809,-0.0004993686452507973,0.02131754346191883
0.024426186457276344,0.004757324233651161,-0.01690448448061943,0.011808225885033607,-0.00046879975707270205,0.02136981673538685
0.02470448426902294,0.004660614300519228,-0.016562798991799355,0.012375002726912498,-0.0004402480262797326,0.021379146724939346
0.025303717702627182,0.004763809964060783,-0.016516784206032753,0.011390026658773422,-0.00040925966459326446,0.021522758528590202
0.025154024362564087,0.004524413496255875,-0.01705760508775711,0.012142911553382874,-0.0004066825786139816,0.021321410313248634
0.0249794851988554,0.0045830556191504,-0.017510520294308662,0.010656269267201424,-0.00038577301893383265,0.021235045045614243
0.02554800547659397,0.004781723488122225,-0.016913527622818947,0.011453097686171532,-0.0003605370002333075,0.021266883239150047
0.024984586983919144,0.004696790128946304,-0.017277797684073448,0.01191908773034811,-0.00038668952765874565,0.021180329844355583
0.025129757821559906,0.004765018355101347,-0.017075790092349052,0.012355584651231766,-0.00037058943416923285,0.021354172378778458
0.023805078119039536,0.004677592311054468,-0.016699064522981644,0.012720475904643536,-0.00035040531656704843,0.021366190165281296
0.026026325300335884,0.004512154962867498,-0.01711917109787464,0.01209934614598751,-0.00036693955189548433,0.02139473520219326
0.026324402540922165,0.00490203034132719,-0.01686239056289196,0.012034399434924126,-0.00035957922227680683,0.021430619060993195
0.025952689349651337,0.00490541523322463,-0.017027009278535843,0.012030764482915401,-0.0003431549994274974,0.022151807323098183
0.02638779580593109,0.004744986072182655,-0.017223205417394638,0.012507124803960323,-0.0003815788368228823,0.021520713344216347
0.025757888332009315,0.004517289809882641,-0.017032325267791748,0.012331490404903889,-0.0003597094619181007,0.021580049768090248
0.02471693977713585,0.004848484415560961,-0.017410678789019585,0.011625871062278748,-0.0003911896492354572,0.0209242794662714
0.02543562650680542,0.004476608708500862,-0.016819825395941734,0.012424622662365437,-0.0003721097600646317,0.020975131541490555
0.02627822756767273,0.004531609360128641,-0.016934333369135857,0.012094254605472088,-0.0003768384922295809,0.021249782294034958
0.025616664439439774,0.004607685841619968,-0.017183274030685425,0.012630471959710121,-0.00038010560092516243,0.02207031287252903
0.025830116122961044,0.004640109371393919,-0.01683119125664234,0.011980458162724972,-0.00036007590824738145,0.022281698882579803
0.02735120989382267,0.004588166251778603,-0.017343562096357346,0.012290265411138535,-0.0003644349053502083,0.021975170820951462
0.026499660685658455,0.0046626063995063305,-0.017176222056150436,0.012320322915911674,-0.00036777363857254386,0.02170875109732151
0.026343563571572304,0.005166648421436548,-0.017260050401091576,0.01237238384783268,-0.00040525131043978035,0.022369012236595154
0.02621297724545002,0.0049332184717059135,-0.017090121284127235,0.012652812525629997,-0.00041956824134103954,0.022201571613550186
0.025781039148569107,0.005044000688940287,-0.016916370019316673,0.0123443603515625,-0.00044364534551277757,0.021791469305753708
0.025999510660767555,0.005132438149303198,-0.01748654618859291,0.013008794747292995,-0.00042638593004085124,0.021427854895591736
0.02688462659716606,0.004858624655753374,-0.016881683841347694,0.012632525525987148,-0.00045326544204726815,0.022634463384747505
0.026577170938253403,0.004747798666357994,-0.01763986609876156,0.012519977986812592,-0.00043015406117774546,0.021610278636217117
0.02631588652729988,0.004766632802784443,-0.01763114519417286,0.012473330833017826,-0.00043113130959682167,0.021969333291053772
0.02631588652729988,0.004766632802784443,-0.01763114519417286,0.012473330833017826,-0.00043113130959682167,0.021969333291053772
0.026553107425570488,0.005047994200140238,-0.017315324395895004,0.012262264266610146,-0.00043110232218168676,0.022403212264180183
0.026869263499975204,0.005023539531975985,-0.0177849680185318,0.012573622167110443,-0.0005306533421389759,0.02253352478146553
0.02676076628267765,0.005318987648934126,-0.017195910215377808,0.012809819541871548,-0.0005271898698993027,0.022332431748509407
0.027277091518044472,0.004931451287120581,-0.01712733879685402,0.0124741829931736,-0.00048524633166380227,0.022391311824321747
0.026388810947537422,0.00493600033223629,-0.017084015533328056,0.012768004089593887,-0.0005145028699189425,0.02255568839609623
0.026696769520640373,0.004938756115734577,-0.0174728874117136,0.012467817403376102,-0.00047981448005884886,0.022505739703774452
0.02708262763917446,0.005225988104939461,-0.01611892133951187,0.012669754214584827,-0.0005011483444832265,0.02250738814473152
0.026580972597002983,0.0056340680457651615,-0.016337454319000244,0.013122731819748878,-0.0004755578120239079,0.02282142825424671
0.026857741177082062,0.005053328350186348,-0.016430534422397614,0.012355723418295383,-0.0004836871230509132,0.0230143703520298
0.025611575692892075,0.004585275426506996,-0.016616174951195717,0.012394185177981853,-0.00047123691183514893,0.022870494052767754
0.027550416067242622,0.005144244991242886,-0.016860036179423332,0.012065171264111996,-0.0005084024160169065,0.02311602234840393
0.02763737365603447,0.004934955853968859,-0.01660224422812462,0.012717016041278839,-0.00046952086267992854,0.022852091118693352
0.027366355061531067,0.00490232277661562,-0.017561892047524452,0.012314043007791042,-0.0004943970707245171,0.02280595526099205
0.026803070679306984,0.004803760442882776,-0.017482144758105278,0.012338616885244846,-0.0004986122366972268,0.02311796322464943
0.027374595403671265,0.004680514335632324,-0.017385633662343025,0.013032039627432823,-0.0004978739889338613,0.022916989400982857
0.026972632855176926,0.00464034965261817,-0.017217088490724564,0.013072044588625431,-0.0006238514324650168,0.02280478924512863
0.027873516082763672,0.004691105801612139,-0.016926230862736702,0.013462895527482033,-0.00066280277678743,0.023297542706131935
0.028280043974518776,0.004646426998078823,-0.01772848702967167,0.013069799169898033,-0.0006699159275740385,0.023317057639360428
0.028460700064897537,0.0051396992057561874,-0.01744118146598339,0.01348733901977539,-0.0006914422265253961,0.023461265489459038
0.02669614925980568,0.005169238895177841,-0.01754254661500454,0.012464880011975765,-0.0006506303325295448,0.023488884791731834
0.027261769399046898,0.0048835924826562405,-0.017716560512781143,0.012740240432322025,-0.0007301384466700256,0.02360999956727028
0.02807340957224369,0.0046933479607105255,-0.01788530871272087,0.012712469324469566,-0.0007096478366293013,0.02357834205031395
0.027726462110877037,0.005176928360015154,-0.018068544566631317,0.01336091198027134,-0.0006764950230717659,0.023196063935756683
0.027863653376698494,0.0051151360385119915,-0.017304321750998497,0.013023307546973228,-0.0006043376633897424,0.022818952798843384
0.028698062524199486,0.005397067870944738,-0.016734778881072998,0.012732259929180145,-0.000627668749075383,0.023264355957508087
0.028698062524199486,0.005397067870944738,-0.016734778881072998,0.012732259929180145,-0.000627668749075383,0.023264355957508087
0.028654295951128006,0.0051728710532188416,-0.018492963165044785,0.012819577008485794,-0.0005757494363933802,0.02356729470193386
0.02904692478477955,0.0047259037382900715,-0.018399251624941826,0.012641805224120617,-0.0005978537956252694,0.023742446675896645
0.02785380929708481,0.005471730604767799,-0.01896333135664463,0.012760773301124573,-0.0005210315575823188,0.023938732221722603
0.02894127182662487,0.005141808185726404,-0.018075909465551376,0.013593841344118118,-0.000513584294822067,0.024191997945308685
0.02884896844625473,0.004702173173427582,-0.018487950786948204,0.013197191059589386,-0.0005062183481641114,0.02383265644311905
0.028594832867383957,0.005028394050896168,-0.018288301303982735,0.013652298599481583,-0.0005319436895661056,0.024030236527323723
0.028893737122416496,0.004594739526510239,-0.017832385376095772,0.013387984596192837,-0.0005336025496944785,0.02424710802733898
0.028865771368145943,0.0045064520090818405,-0.017985757440328598,0.013621428050100803,-0.0005273218266665936,0.024494189769029617
0.028582561761140823,0.005093629937618971,-0.017917536199092865,0.013453188352286816,-0.0007035704329609871,0.023485900834202766
0.02866174839437008,0.005195948760956526,-0.018560905009508133,0.013441442511975765,-0.0006821246934123337,0.02414046600461006
0.028267262503504753,0.00469285249710083,-0.018366921693086624,0.013834514655172825,-0.000696966948453337,0.024677839130163193
0.029665399342775345,0.00490386551246047,-0.01804136298596859,0.013606551103293896,-0.0006821956485509872,0.02480686828494072
0.029365265741944313,0.004355262033641338,-0.01852371357381344,0.013954252004623413,-0.0006599920452572405,0.023582128807902336
0.029322272166609764,0.004410292953252792,-0.018760621547698975,0.01402481459081173,-0.0006834121304564178,0.02337673306465149
0.029284212738275528,0.0046402751468122005,-0.018571507185697556,0.014192396774888039,-0.0006601421046070755,0.024429429322481155
0.029533326625823975,0.00453305384144187,-0.018801499158143997,0.013595030643045902,-0.0006793792708776891,0.025080237537622452
0.029405102133750916,0.0045347660779953,-0.01878190040588379,0.013967764563858509,-0.0006905571208335459,0.024287456646561623
0.029815055429935455,0.004911330062896013,-0.01766444742679596,0.013475878164172173,-0.0006437711999751627,0.024143913760781288
0.02988440729677677,0.004946046508848667,-0.018266160041093826,0.013654029928147793,-0.0006630683201365173,0.025577431544661522
0.02957812137901783,0.004303158260881901,-0.018549656495451927,0.01292826421558857,-0.0006692989263683558,0.025748277083039284
0.02979261986911297,0.004195439629256725,-0.018757367506623268,0.01355605199933052,-0.0006346043082885444,0.024734744802117348
0.02979261986911297,0.004195439629256725,-0.018757367506623268,0.01355605199933052,-0.0006346043082885444,0.024734744802117348
0.029911017045378685,0.004560904111713171,-0.019315330311655998,0.013493996113538742,-0.0006554293213412166,0.023591607809066772
0.029923995956778526,0.004781269934028387,-0.0185548048466444,0.014270239509642124,-0.0006686488632112741,0.023771625012159348
0.030368423089385033,0.004810513462871313,-0.018366148695349693,0.015124959871172905,-0.0006910295342095196,0.024888981133699417
0.03007880039513111,0.004505595657974482,-0.018801087513566017,0.014566492289304733,-0.0006546447402797639,0.025289397686719894
0.03034740313887596,0.004477497190237045,-0.01830318011343479,0.01326023694127798,-0.0007292740629054606,0.02508697472512722
0.030244022607803345,0.004482003394514322,-0.018925121054053307,0.01378602534532547,-0.0007557245553471148,0.024696119129657745
0.03064211830496788,0.004108359105885029,-0.019309954717755318,0.013735124841332436,-0.0006702588289044797,0.024523330852389336
0.030453698709607124,0.004696856718510389,-0.01866205409169197,0.014388207346200943,-0.0006917104474268854,0.025224648416042328
0.03115120902657509,0.0046592229045927525,-0.01906142383813858,0.014838244765996933,-0.0006497807917185128,0.025210749357938766
0.032351840287446976,0.004854004364460707,-0.018890665844082832,0.014454924501478672,-0.0006416654796339571,0.0251587126404047
0.032683536410331726,0.004623421933501959,-0.019090205430984497,0.014629184268414974,-0.0006531609687954187,0.025131862610578537
0.030102184042334557,0.0045825280249118805,-0.01901821792125702,0.01383698545396328,-0.0006541503826156259,0.02505296841263771
0.03100769594311714,0.004450803156942129,-0.018714290112257004,0.013994998298585415,-0.0006336977239698172,0.025471985340118408
0.03216252848505974,0.004824535921216011,-0.01911396160721779,0.014339093118906021,-0.0006551621481776237,0.025589386001229286
0.03170968219637871,0.0047887940891087055,-0.019517725333571434,0.01474815234541893,-0.0007773133111186326,0.02577948570251465
0.031896404922008514,0.004835056606680155,-0.018825024366378784,0.014663409441709518,-0.0007873186259530485,0.025583304464817047
0.03255682811141014,0.004507735837250948,-0.018882572650909424,0.015259596519172192,-0.0007149631856009364,0.025530127808451653
0.03218613937497139,0.004367290064692497,-0.019314736127853394,0.014625749550759792,-0.0007236052770167589,0.02538674883544445
0.03135894611477852,0.004201923497021198,-0.018834931775927544,0.014616654254496098,-0.0007412676350213587,0.02544865570962429
0.031132424250245094,0.0044291359372437,-0.01921859383583069,0.014312151819467545,-0.0006889135693199933,0.025397183373570442
0.032996173948049545,0.004585231188684702,-0.019312290474772453,0.014672036282718182,-0.0006720922538079321,0.025598034262657166
0.03255382925271988,0.004619957413524389,-0.018642187118530273,0.01452083420008421,-0.0006986812222748995,0.025429436936974525
0.03260347247123718,0.004645413253456354,-0.019198603928089142,0.014714629389345646,-0.0007146400748752058,0.025754040107131004
0.0324014388024807,0.0050984714180231094,-0.019527949392795563,0.014522864483296871,-0.0007213791832327843,0.026503289118409157
0.03200403228402138,0.005032337736338377,-0.019249476492404938,0.014575719833374023,-0.0006754539208486676,0.02687470242381096
0.03237375244498253,0.004624900408089161,-0.01974116638302803,0.014094611629843712,-0.0007335846312344074,0.026093851774930954
0.032149143517017365,0.0048994948156178,-0.019729064777493477,0.01419794000685215,-0.000759544491302222,0.025076229125261307
0.032149143517017365,0.0048994948156178,-0.019729064777493477,0.01419794000685215,-0.000759544491302222,0.025076229125261307
0.03210129216313362,0.004793911706656218,-0.01932494528591633,0.014120250940322876,-0.0007774995174258947,0.02470400743186474
0.03241615369915962,0.00490531837567687,-0.01942512020468712,0.014595474116504192,-0.000752784835640341,0.025846343487501144
0.032485783100128174,0.0048361849039793015,-0.019300568848848343,0.014187145046889782,-0.000721712363883853,0.026113051921129227
0.032409511506557465,0.004729601554572582,-0.019313300028443336,0.014683878049254417,-0.0007829092792235315,0.026337331160902977
0.03231363743543625,0.004744238685816526,-0.020188799127936363,0.014527899213135242,-0.0007851661066524684,0.026937924325466156
0.03204388543963432,0.0043414984829723835,-0.019496282562613487,0.014695440419018269,-0.0007216914091259241,0.026283711194992065
0.030651554465293884,0.004372369032353163,-0.0200541652739048,0.014842179603874683,-0.0007273725932464004,0.025768034160137177
0.03334997221827507,0.005090523511171341,-0.02052437886595726,0.01477039884775877,-0.0006865956238470972,0.025672096759080887
0.03425987809896469,0.00496049877256155,-0.020318523049354553,0.01515266764909029,-0.0007313214591704309,0.0262753888964653
0.033576223999261856,0.004501152317970991,-0.020516522228717804,0.01421406026929617,-0.000698321673553437,0.02682730183005333
0.0320810042321682,0.0044623566791415215,-0.020655157044529915,0.01459107268601656,-0.0007108659483492374,0.02670672908425331
0.03221448138356209,0.00464233011007309,-0.020223934203386307,0.014671828597784042,-0.0007297162082977593,0.026517216116189957
0.03355266898870468,0.004780367016792297,-0.01980046182870865,0.014895630069077015,-0.0008369755232706666,0.026333676651120186
0.033212799578905106,0.0048157949931919575,-0.02042861469089985,0.014442022889852524,-0.0008956604287959635,0.026590021327137947
0.033713776618242264,0.004844163544476032,-0.020998118445277214,0.015158627182245255,-0.0008734602015465498,0.02702905796468258
0.03395640477538109,0.004997147247195244,-0.020865699276328087,0.014782938174903393,-0.0007927563856355846,0.02688678354024887
0.033851876854896545,0.004829232580959797,-0.020279277116060257,0.015236304141581059,-0.0007057181210257113,0.026539888232946396
0.032834142446517944,0.004720605909824371,-0.02079109102487564,0.015134983696043491,-0.0007187080918811262,0.026803016662597656
0.03327273204922676,0.0048633962869644165,-0.02131938375532627,0.015184971503913403,-0.0006643132655881345,0.027021372690796852
0.03336327522993088,0.005344625096768141,-0.02082017809152603,0.014861215837299824,-0.0006045919144526124,0.0273718424141407
0.033606767654418945,0.0052024610340595245,-0.020519819110631943,0.015155614353716373,-0.0006335866055451334,0.027065401896834373
0.033606767654418945,0.0052024610340595245,-0.020519819110631943,0.015155614353716373,-0.0006335866055451334,0.027065401896834373
0.03352789953351021,0.004590095020830631,-0.02122829481959343,0.015352007932960987,-0.0005926129524596035,0.026708045974373817
0.03352789953351021,0.004590095020830631,-0.02122829481959343,0.015352007932960987,-0.0005926129524596035,0.026708045974373817
0.03316190466284752,0.00480758398771286,-0.020678844302892685,0.015294947661459446,-0.000608613365329802,0.026651490479707718
0.03362056985497475,0.004680145066231489,-0.020779293030500412,0.015402419492602348,-0.000656907563097775,0.027052780613303185
0.03371402621269226,0.004942648112773895,-0.021362386643886566,0.015474188141524792,-0.0006428738706745207,0.026988927274942398
0.033634793013334274,0.005248770117759705,-0.021331220865249634,0.015391429886221886,-0.0006495174020528793,0.027161763980984688
0.03432739898562431,0.004495556466281414,-0.021389158442616463,0.015430362895131111,-0.0006274445331655443,0.027214569970965385
0.03399883955717087,0.004891371354460716,-0.021055584773421288,0.01605251245200634,-0.0006359119433909655,0.02724006585776806
0.03379755839705467,0.005032720509916544,-0.02106589451432228,0.015204443596303463,-0.0006036280537955463,0.02757716178894043
0.034380827099084854,0.004629358183592558,-0.02104663848876953,0.015970692038536072,-0.0006312636542133987,0.027514353394508362
0.03410319611430168,0.004971236921846867,-0.021366411820054054,0.01493127178400755,-0.0006561435875482857,0.027543863281607628
0.033631954342126846,0.005380604416131973,-0.02159777097404003,0.015223309397697449,-0.0006448340136557817,0.027682770043611526
0.03428076580166817,0.004956386983394623,-0.021071452647447586,0.015039739198982716,-0.0006678136996924877,0.027662817388772964
0.03466914966702461,0.0049217091873288155,-0.021068686619400978,0.015642501413822174,-0.0006544450297951698,0.02760154940187931
0.03436911851167679,0.004924449138343334,-0.021220913156867027,0.016201088204979897,-0.00083064945647493,0.027475789189338684
0.034559283405542374,0.0047589377500116825,-0.020659269765019417,0.016060950234532356,-0.0008500326657667756,0.027627889066934586
0.03454325348138809,0.0046610445715487,-0.02026091143488884,0.016327962279319763,-0.0008020879467949271,0.02836197055876255
0.034944307059049606,0.004734519869089127,-0.021164657548069954,0.015840066596865654,-0.0007893787114880979,0.028495164588093758
0.035151176154613495,0.00477861613035202,-0.021021666005253792,0.016490431502461433,-0.0007320890435948968,0.027945626527071
0.035050515085458755,0.004771842155605555,-0.020783882588148117,0.015771780163049698,-0.0007073186570778489,0.02715512551367283
0.03498158976435661,0.004645016975700855,-0.020720958709716797,0.015996545553207397,-0.0006483244360424578,0.027658110484480858
0.03445880115032196,0.004641599487513304,-0.021072102710604668,0.015623226761817932,-0.0006665926775895059,0.028249502182006836
0.03509479761123657,0.005087647121399641,-0.02123090624809265,0.016354987397789955,-0.000605143781285733,0.02797754295170307
0.036041438579559326,0.005009467713534832,-0.02063097432255745,0.016379574313759804,-0.000629090704023838,0.028519654646515846
0.036041438579559326,0.005009467713534832,-0.02063097432255745,0.016379574313759804,-0.000629090704023838,0.028519654646515846
0.034221772104501724,0.005116833373904228,-0.021409722045063972,0.016528643667697906,-0.0006016240804456174,0.02882423996925354
0.034221772104501724,0.005116833373904228,-0.021409722045063972,0.016528643667697906,-0.0006016240804456174,0.02882423996925354
0.03566848486661911,0.004910439718514681,-0.02102407068014145,0.016180815175175667,-0.0006758790696039796,0.027210291475057602
0.03531457111239433,0.0049086096696555614,-0.02057117037475109,0.016934605315327644,-0.0006575316074304283,0.02826370671391487
0.03582923859357834,0.005274143069982529,-0.021183617413043976,0.016355331987142563,-0.000680969562381506,0.028700049966573715
0.03658764809370041,0.005232730880379677,-0.02125226892530918,0.01608722284436226,-0.0006200962816365063,0.028861701488494873
0.034699078649282455,0.005055612418800592,-0.02045878954231739,0.015623638406395912,-0.0005976736429147422,0.02798708900809288
0.03528016805648804,0.005155833438038826,-0.020801568403840065,0.01610984466969967,-0.000657295691780746,0.028152966871857643
0.03664347901940346,0.005247413646429777,-0.021860584616661072,0.016082104295492172,-0.0006817368557676673,0.028399741277098656
0.03526739031076431,0.005402545444667339,-0.020993515849113464,0.01642279326915741,-0.0006929425289854407,0.028288308531045914
0.03653613477945328,0.0054954527877271175,-0.021259067580103874,0.016224628314375877,-0.0006902937893755734,0.028150087222456932
0.036508768796920776,0.005098468624055386,-0.021684249863028526,0.01658760942518711,-0.0006678556674160063,0.028476035222411156
0.03607331961393356,0.004943042527884245,-0.02093665674328804,0.016341684386134148,-0.0007994446204975247,0.028640227392315865
0.03642871230840683,0.0057260412722826,-0.020388947799801826,0.01636650785803795,-0.0008620771113783121,0.028609251603484154
0.03627141937613487,0.0053893220610916615,-0.021964190527796745,0.016510138288140297,-0.000884819426573813,0.028840091079473495
0.03594706207513809,0.004814209882169962,-0.021921340376138687,0.016423329710960388,-0.0010030546691268682,0.028510261327028275
0.03712004795670509,0.004614864941686392,-0.021802643314003944,0.017079224810004234,-0.0009756909566931427,0.028883233666419983
0.03670188784599304,0.004587970208376646,-0.021517474204301834,0.01690572313964367,-0.000961266690865159,0.02900441363453865
0.0361437126994133,0.004671140108257532,-0.022338908165693283,0.01710459589958191,-0.000889899383764714,0.0290890634059906
0.036516401916742325,0.005248233675956726,-0.022107943892478943,0.01691133715212345,-0.0008302763453684747,0.02931210957467556
0.038142651319503784,0.0050580683164298534,-0.022059699520468712,0.01669601909816265,-0.0007872544811107218,0.029480617493391037
0.03754652664065361,0.005375407636165619,-0.021691983565688133,0.01663491502404213,-0.0007504205568693578,0.029480451717972755
0.03575877845287323,0.0054677268490195274,-0.021704088896512985,0.016146743670105934,-0.0006333090714178979,0.02928715944290161
0.03716110810637474,0.004881476052105427,-0.021991251036524773,0.016640249639749527,-0.0006540146423503757,0.029177691787481308
0.03716110810637474,0.004881476052105427,-0.021991251036524773,0.016640249639749527,-0.0006540146423503757,0.029177691787481308
0.03721913322806358,0.004902639426290989,-0.02270527556538582,0.016394348815083504,-0.000673432950861752,0.030355514958500862
0.037547823041677475,0.004973404109477997,-0.022386038675904274,0.016788773238658905,-0.0006838029366917908,0.03055674396455288
0.038311369717121124,0.004885395523160696,-0.022080466151237488,0.017015745863318443,-0.0007903135265223682,0.02991630509495735
0.03800278529524803,0.005075558554381132,-0.02253495156764984,0.016966592520475388,-0.0009105224744416773,0.028801223263144493
0.036027975380420685,0.004883535206317902,-0.0228271484375,0.01727708987891674,-0.000933719624299556,0.028979357331991196
0.03834240883588791,0.00448621204122901,-0.02195090614259243,0.01733972504734993,-0.0008363788947463036,0.02958156168460846
0.03834240883588791,0.00448621204122901,-0.02195090614259243,0.01733972504734993,-0.0008363788947463036,0.02958156168460846
0.0377199612557888,0.004820006433874369,-0.023006543517112732,0.018356837332248688,-0.000876015517860651,0.03125344589352608
0.03804440051317215,0.00477174436673522,-0.02266998589038849,0.01786147803068161,-0.000863752153236419,0.029915601015090942
0.03784574195742607,0.004664827138185501,-0.022106461226940155,0.017528146505355835,-0.0008673049160279334,0.02954210713505745
0.03794362396001816,0.004591926466673613,-0.021878747269511223,0.01774217002093792,-0.0008065033471211791,0.028984857723116875
0.03815074265003204,0.004240601789206266,-0.022538695484399796,0.017325347289443016,-0.0008911773911677301,0.030250966548919678
0.03808685019612312,0.00447354931384325,-0.022471310570836067,0.01713983342051506,-0.000831106211990118,0.030948633328080177
0.03805798292160034,0.004636687692254782,-0.0222601518034935,0.017621314153075218,-0.0008361395448446274,0.030243949964642525
0.03838168457150459,0.00456371670588851,-0.022252120077610016,0.01731688901782036,-0.0008223037584684789,0.030019661411643028
0.03824952244758606,0.00460283225402236,-0.021858833730220795,0.01748049259185791,-0.0007596445502713323,0.029932010918855667
