davideferrari95/blind_handover_controller/data/Test 286 - [2024-02-08 -- 13-56-45]/joint_states_data.csv
shoulder_pan_joint,shoulder_lift_joint,elbow_joint,wrist_1_joint,wrist_2_joint,wrist_3_joint
0.0034824477043002844,0.009000835940241814,-0.011220655404031277,0.0012615809682756662,-0.0,0.004770768340677023
0.0034824477043002844,0.009000835940241814,-0.011220655404031277,0.0012615809682756662,-0.0,0.004770768340677023
0.003084142692387104,0.0093566058203578,-0.011115836910903454,0.0011223648907616735,-0.0,0.004869036376476288
0.003084142692387104,0.0093566058203578,-0.011115836910903454,0.0011223648907616735,-0.0,0.004869036376476288
0.0027763741090893745,0.009298274293541908,-0.011428480967879295,0.0010832013795152307,-0.0,0.004661255981773138
0.0029390177223831415,0.008993958123028278,-0.011167854070663452,0.000943733612075448,-0.0,0.00430828845128417
0.0033672626595944166,0.009442453272640705,-0.011022928170859814,0.0009193047299049795,-0.0,0.004219303838908672
0.003413374535739422,0.009193078614771366,-0.0111991036683321,0.0009152467246167362,-0.0,0.004251654725521803
0.003405915107578039,0.00891234539449215,-0.010613587684929371,0.0008980099810287356,-0.0,0.004098041448742151
0.0032115124631673098,0.00924699380993843,-0.01108539942651987,0.0008883994305506349,-0.0,0.004287628456950188
0.0030508486088365316,0.008985745720565319,-0.011004418134689331,0.000935252639465034,-0.0,0.0044468361884355545
0.0032633861992508173,0.008898003026843071,-0.010519304312765598,0.0010069432901218534,-0.0,0.004529109224677086
0.0034487515222281218,0.009033167734742165,-0.011242239736020565,0.0009520235471427441,-0.0,0.004293715115636587
0.0034380487632006407,0.009049912914633751,-0.010495626367628574,0.0011819186620414257,-0.0,0.004294681828469038
0.0032981832046061754,0.009196353144943714,-0.010962811298668385,0.0011489460011944175,-0.0,0.00436071353033185
0.0034809510689228773,0.008814793080091476,-0.010914752259850502,0.001119015272706747,-0.0,0.004328463692218065
0.0032000350765883923,0.009457331150770187,-0.011453038081526756,0.0011728167301043868,-0.0,0.004466310143470764
0.0030273026786744595,0.00905098207294941,-0.01145457848906517,0.0011332265567034483,-0.0,0.0045171561650931835
0.003222157945856452,0.009607784450054169,-0.010367617942392826,0.0010418468154966831,-0.0,0.004297712817788124
0.003222157945856452,0.009607784450054169,-0.010367617942392826,0.0010418468154966831,-0.0,0.004297712817788124
0.003527587978169322,0.00895082950592041,-0.011648159474134445,0.001053476589731872,-0.0,0.003998970612883568
0.0036504485178738832,0.008884233422577381,-0.010962467640638351,0.0010689888149499893,-0.0,0.003899774281308055
0.003468385199084878,0.009024973958730698,-0.010717974044382572,0.0010463519720360637,-0.0,0.004378601908683777
0.0033812092151492834,0.009287834167480469,-0.011502518318593502,0.0010412485571578145,-0.0,0.004481068812310696
0.0035686264745891094,0.008679536171257496,-0.011890515685081482,0.001068667508661747,-0.0,0.004268909338861704
0.0034428162034600973,0.008628233335912228,-0.01162347849458456,0.0010433512507006526,-0.0,0.00441103707998991
0.0036081469152122736,0.009431242011487484,-0.01114818174391985,0.0010398285230621696,-0.0,0.00464560417458415
0.003857893403619528,0.008785314857959747,-0.010928435251116753,0.0010480348719283938,-0.0,0.004689681809395552
0.0034297527745366096,0.009086791425943375,-0.01141628809273243,0.0010557296918705106,-0.0,0.0044771162793040276
0.004204731900244951,0.009095133282244205,-0.010963737033307552,0.00110255042091012,-0.0,0.004421223886311054
0.004084437154233456,0.009199251420795918,-0.011277636513113976,0.001132905948907137,-0.0,0.004414079710841179
0.0034941332414746284,0.008907654322683811,-0.011548087932169437,0.0011542643187567592,-0.0,0.004479704424738884
0.003529893234372139,0.009370925836265087,-0.011171606369316578,0.0011341760400682688,-0.0,0.004410417750477791
0.0037777204997837543,0.00875113531947136,-0.01193233858793974,0.0010993037139996886,-0.0,0.004419049248099327
0.003939657472074032,0.008603489957749844,-0.011531611904501915,0.0012527606450021267,-0.0,0.004081547260284424
0.003970238380134106,0.009342066943645477,-0.012108657509088516,0.0012307147262617946,-0.0,0.00415381882339716
0.0034588859416544437,0.008895114995539188,-0.011691760271787643,0.0011972670909017324,-0.0,0.004161071497946978
0.004192744847387075,0.008998380973935127,-0.011794916354119778,0.0013167227152734995,-0.0,0.003978997003287077
0.004001172725111246,0.009197014383971691,-0.011460158042609692,0.001106472685933113,-0.0,0.00441510695964098
0.00345790758728981,0.008776053786277771,-0.011423093266785145,0.0010701543651521206,-0.0,0.004393336828798056
0.0035182747524231672,0.008966892957687378,-0.011316392570734024,0.0009280493250116706,-0.0,0.00443239975720644
0.0036474941298365593,0.00943489745259285,-0.01103728637099266,0.0009169054683297873,-0.0,0.004183102864772081
0.0036450049374252558,0.00884662289172411,-0.011983569711446762,0.000976561161223799,-0.0,0.004275264218449593
0.0036294434685260057,0.008517189882695675,-0.011257273145020008,0.0010599374072626233,-0.0,0.004912463948130608
0.0036294434685260057,0.008517189882695675,-0.011257273145020008,0.0010599374072626233,-0.0,0.004912463948130608
0.004211274906992912,0.009579688310623169,-0.011884570121765137,0.0012513985857367516,-0.0,0.004870618227869272
0.004126633517444134,0.008857963606715202,-0.010617883875966072,0.0012651856523007154,-0.0,0.004175972193479538
0.0040045189671218395,0.008976546116173267,-0.01169345062226057,0.0015919391298666596,-0.0,0.003315297421067953
0.0034591248258948326,0.0091449785977602,-0.011463998816907406,0.001624181168153882,-0.0,0.0034222963731735945
0.003556446870788932,0.009155088104307652,-0.01084823440760374,0.001563570462167263,-0.0,0.00383830931968987
0.004209007136523724,0.00864484440535307,-0.011193216778337955,0.0016165263950824738,-0.0,0.004402114078402519
0.004068470560014248,0.00895619299262762,-0.01136960368603468,0.0015157157322391868,-0.0,0.0046774847432971
0.003847561776638031,0.00915528740733862,-0.010904418304562569,0.001521692960523069,-0.0,0.004448722116649151
0.00415823794901371,0.008711968548595905,-0.011837742291390896,0.0014179255813360214,-0.0,0.003781860927119851
0.004231419879943132,0.008933859877288342,-0.011556250043213367,0.0013227567542344332,-0.0,0.0035113375633955
0.004086970817297697,0.00938321091234684,-0.010940560139715672,0.0012728009605780244,-0.0,0.0039502461440861225
0.003923045005649328,0.009570674039423466,-0.011323804035782814,0.001251543639227748,-0.0,0.004211082588881254
0.004344353452324867,0.008547843433916569,-0.011157418601214886,0.0012153531424701214,-0.0,0.004070929251611233
0.004213314037770033,0.008877823129296303,-0.011731854639947414,0.001432291348464787,-0.0,0.004319542087614536
0.004019558429718018,0.00877176970243454,-0.010909894481301308,0.0014543102588504553,-0.0,0.0042392234317958355
0.004106596112251282,0.008818455040454865,-0.010651673190295696,0.0015098765725269914,-0.0,0.00402246555313468
0.004090189468115568,0.009366008453071117,-0.010949420742690563,0.0015973910922184587,-0.0,0.0038465061224997044
0.00441936356946826,0.009360257536172867,-0.010908405296504498,0.0014913787599653006,-0.0,0.0040407003834843636
0.004474032670259476,0.009084786288440228,-0.0108247185125947,0.0014034205814823508,-0.0,0.004744695033878088
0.004474032670259476,0.009084786288440228,-0.0108247185125947,0.0014034205814823508,-0.0,0.004744695033878088
0.00397820770740509,0.009241952560842037,-0.011064926162362099,0.0013973702443763614,-0.0,0.004538039676845074
0.004304978996515274,0.00938227865844965,-0.011013291776180267,0.0014800031203776598,-0.0,0.00415387935936451
0.004204288590699434,0.00906941294670105,-0.01078723929822445,0.0016301918076351285,-0.0,0.003916791640222073
0.004158732481300831,0.008879340253770351,-0.011059300974011421,0.0015790803590789437,-0.0,0.004167825914919376
0.004127505235373974,0.008962634019553661,-0.01077358704060316,0.0014460242819041014,-0.0,0.004550413694232702
0.004403921775519848,0.009829053655266762,-0.01125369779765606,0.0013937109615653753,-0.0,0.004640521481633186
0.004524262621998787,0.008806727826595306,-0.011151566170156002,0.0013472058344632387,-0.0,0.004388650879263878
0.004477614536881447,0.00898900255560875,-0.01069115661084652,0.0013163619441911578,-0.0,0.004497035872191191
0.004302062094211578,0.009329289197921753,-0.01147947832942009,0.0014852239983156323,-0.0,0.0041891420260071754
0.004374018870294094,0.009144339710474014,-0.010903344489634037,0.0015310210874304175,-0.0,0.004048428498208523
0.004675349686294794,0.008950035087764263,-0.010614619590342045,0.001616577384993434,-0.0,0.004071649629622698
0.004773725289851427,0.009915154427289963,-0.010716474615037441,0.00169737683609128,-0.0,0.0043909307569265366
0.004773725289851427,0.009915154427289963,-0.010716474615037441,0.00169737683609128,-0.0,0.0043909307569265366
0.004869661293923855,0.009498994797468185,-0.010360592976212502,0.0016363351605832577,-0.0,0.004258923232555389
0.004300535190850496,0.009160756133496761,-0.011069363914430141,0.0017520554829388857,-0.0,0.004284372553229332
0.004339850973337889,0.00873660296201706,-0.010766600258648396,0.0017562092980369925,-0.0,0.004205419681966305
0.005149438977241516,0.00982261635363102,-0.010282649658620358,0.0017748436657711864,-0.0,0.0041381120681762695
0.004533339757472277,0.009097243659198284,-0.010806149803102016,0.0017027290305122733,-0.0,0.0041059041395783424
0.0045422897674143314,0.009681177325546741,-0.010679897852241993,0.0018390603363513947,-0.0,0.004051372408866882
0.004551799967885017,0.00994111504405737,-0.010994640178978443,0.0017346235690638423,-0.0,0.00441430089995265
0.0047309803776443005,0.009321353398263454,-0.011371814645826817,0.0017248454969376326,-0.0,0.004138993564993143
0.004796660039573908,0.009339475072920322,-0.010313872247934341,0.0017501252004876733,-0.0,0.004168633837252855
0.004774666856974363,0.009361974895000458,-0.010597500018775463,0.0018301582895219326,-0.0,0.0041020652279257774
0.004805516917258501,0.009780235588550568,-0.011129281483590603,0.0018420490669086576,-0.0,0.004326133523136377
0.005069364327937365,0.008833060041069984,-0.010284588672220707,0.0018361724214628339,-0.0,0.0044159176759421825
0.005051350221037865,0.009880917146801949,-0.01083714421838522,0.0018278640927746892,-0.0,0.004584539216011763
0.004433062393218279,0.008023291826248169,-0.010362977162003517,0.001709774020127952,-0.0,0.004082547966390848
0.004847442731261253,0.010013292543590069,-0.011116431094706059,0.0019329868955537677,-0.0,0.004180445335805416
0.004474582616239786,0.009120829403400421,-0.010701635852456093,0.0020339663606137037,-0.0,0.004113699309527874
0.0044826241210103035,0.009742379188537598,-0.010318741202354431,0.0022858926095068455,-1.8156930536861182e-06,0.004331575706601143
0.004336201120167971,0.01027531549334526,-0.010466434061527252,0.0022549401037395,-1.1855178172481828e-07,0.004398983437567949
0.004218459129333496,0.009546168148517609,-0.010329654440283775,0.0022118533961474895,-7.740583285453795e-09,0.00436536967754364
0.004460955038666725,0.009042466059327126,-0.011090213432908058,0.001994931371882558,-5.054047735875145e-10,0.004553951323032379
0.004150873981416225,0.009667574428021908,-0.011308029294013977,0.0018090661615133286,-3.299932202494027e-11,0.004194135777652264
0.004150873981416225,0.009667574428021908,-0.011308029294013977,0.0018090661615133286,-3.299932202494027e-11,0.004194135777652264
0.0046707927249372005,0.009147905744612217,-0.010679804719984531,0.0020111927296966314,-1.406812763071058e-13,0.004171399865299463
0.0046707927249372005,0.009147905744612217,-0.010679804719984531,0.0020111927296966314,-1.406812763071058e-13,0.004171399865299463
0.004245373886078596,0.009357067756354809,-0.010537599213421345,0.0021290492732077837,-9.185482778041598e-15,0.0046293907798826694
0.0041898260824382305,0.009646609425544739,-0.010650132782757282,0.002668668981641531,-3.915916033217886e-17,0.004323012661188841
0.0041898260824382305,0.009646609425544739,-0.010650132782757282,0.002668668981641531,-3.915916033217886e-17,0.004323012661188841
0.004619617480784655,0.009844542481005192,-0.010276582092046738,0.002417450537905097,-2.556813205449877e-18,0.004477162845432758
0.004670188296586275,0.009746120311319828,-0.010797049850225449,0.002373766852542758,-1.6694164292424033e-19,0.004290701821446419
0.004852930549532175,0.009428733959794044,-0.01122650783509016,0.0022124825045466423,-1.0900094973735095e-20,0.0042267246171832085
0.004656465724110603,0.009952305816113949,-0.010764419101178646,0.002104004379361868,-7.116982927610885e-22,0.004546968266367912
0.00483505567535758,0.010134453885257244,-0.010935314930975437,0.0023221976589411497,-4.646882034323531e-23,0.004642675630748272
0.00481027876958251,0.009603946469724178,-0.010817867703735828,0.0023704073391854763,-3.034082103781226e-24,0.004380007274448872
0.0047754221595823765,0.009799926541745663,-0.010649850592017174,0.002643714426085353,-1.981039027668877e-25,0.004472647327929735
0.004494736436754465,0.009507925249636173,-0.011373003013432026,0.0027213641442358494,-1.293477045512218e-26,0.004521801136434078
0.005009015090763569,0.009210585616528988,-0.011534062214195728,0.0024116351269185543,-8.445480140050021e-28,0.004580519162118435
0.004946897737681866,0.009652233682572842,-0.011213072575628757,0.002058083424344659,-3.600440643122294e-30,0.004806984681636095
0.004868438933044672,0.009419332258403301,-0.010719193145632744,0.0021905233152210712,-2.350830245006084e-31,0.004539215471595526
0.004868438933044672,0.009419332258403301,-0.010719193145632744,0.0021905233152210712,-2.350830245006084e-31,0.004539215471595526
0.004534308798611164,0.009540007449686527,-0.0115407295525074,0.0022037848830223083,-1.0021957186198694e-33,0.004417154472321272
0.005011277738958597,0.009339704178273678,-0.011169993318617344,0.002304025227203965,-6.543622910395615e-35,0.004563772119581699
0.005627112928777933,0.010232800617814064,-0.012135734781622887,0.002229238860309124,-4.2725183912812895e-36,0.004732924979180098
0.005627112928777933,0.010232800617814064,-0.012135734781622887,0.002229238860309124,-4.2725183912812895e-36,0.004732924979180098
0.004687153268605471,0.00909361895173788,-0.011617995798587799,0.0023877171333879232,-2.789649155047027e-37,0.004762584809213877
0.00464590173214674,0.009477303363382816,-0.011263852007687092,0.0027711614966392517,-1.1892707962847576e-39,0.004424373619258404
0.00464590173214674,0.009477303363382816,-0.011263852007687092,0.0027711614966392517,-1.1892707962847576e-39,0.004424373619258404
0.004988438915461302,0.009534583427011967,-0.010913786478340626,0.0027579977177083492,-7.765155310209541e-41,0.0044708093628287315
0.004960016347467899,0.009425397962331772,-0.011603109538555145,0.0028880550526082516,-5.069897843927188e-42,0.004851150792092085
0.005238753743469715,0.009553099982440472,-0.010924534872174263,0.0025311950594186783,-3.3070643758065683e-43,0.004907287657260895
0.005340150557458401,0.010277707129716873,-0.011263789609074593,0.0023965644650161266,-2.1019476964872256e-44,0.005084767006337643
0.005040594842284918,0.009278401732444763,-0.011354781687259674,0.0022957634646445513,-1.401298464324817e-45,0.005095569882541895
0.00541990390047431,0.009859368205070496,-0.010679934173822403,0.0022831405512988567,-0.0,0.004776699002832174
0.005026240833103657,0.00919087789952755,-0.011200525797903538,0.0025446261279284954,-0.0,0.004830539226531982
0.0049075414426624775,0.008943764492869377,-0.01108796801418066,0.002996143652126193,-0.0,0.004779270850121975
0.005449891556054354,0.008985892869532108,-0.011128672398626804,0.002810704754665494,-0.0,0.004726620391011238
0.005173305049538612,0.010108347050845623,-0.00988040678203106,0.002604718552902341,-0.0,0.004684517625719309
0.005144975613802671,0.009104421362280846,-0.01147213764488697,0.0024444207083433867,-0.0,0.004921148531138897
0.005431142169982195,0.008853496983647346,-0.011974422261118889,0.0024772256147116423,-0.0,0.004815932363271713
0.005017727147787809,0.009611690416932106,-0.011197391897439957,0.0024101976305246353,-0.0,0.004499473609030247
0.005276714451611042,0.009457970969378948,-0.011365805752575397,0.00243778876028955,-0.0,0.004657238721847534
0.005303863435983658,0.007954827509820461,-0.011466547846794128,0.0025127187836915255,-0.0,0.005028633866459131
0.005135794170200825,0.007904625497758389,-0.010955302976071835,0.002496116328984499,-0.0,0.004926418419927359
0.005242680199444294,0.00829810556024313,-0.011119958944618702,0.0026360643096268177,-0.0,0.004869540221989155
0.0050131697207689285,0.008407346904277802,-0.010959761217236519,0.002398841781541705,-0.0,0.004997214302420616
0.0054105366580188274,0.008583096787333488,-0.010686786845326424,0.002457732567563653,-0.0,0.004821318667382002
0.0057161469012498856,0.008571809157729149,-0.011043809354305267,0.0027573539409786463,-0.0,0.004625869914889336
0.005306095350533724,0.008083327673375607,-0.010977419093251228,0.0027078448329120874,-0.0,0.004459955729544163
0.005013788118958473,0.008238271810114384,-0.011040321551263332,0.002966597443446517,-0.0,0.0048554809764027596
0.005188703071326017,0.008821050636470318,-0.010378620587289333,0.0030130655504763126,-0.0,0.005199540872126818
0.005386305972933769,0.00850950088351965,-0.01093111652880907,0.002974236384034157,-0.0,0.005157783627510071
0.006191306747496128,0.008409500122070312,-0.010864379815757275,0.0027761394158005714,-0.0,0.005158044397830963
0.006191306747496128,0.008409500122070312,-0.010864379815757275,0.0027761394158005714,-0.0,0.005158044397830963
0.0054338183254003525,0.008434442803263664,-0.011328786611557007,0.0027057966217398643,-0.0,0.00497971149161458
0.0054338183254003525,0.008434442803263664,-0.011328786611557007,0.0027057966217398643,-0.0,0.00497971149161458
0.0054929801262915134,0.008127247914671898,-0.011187764815986156,0.002619903301820159,-0.0,0.005541330669075251
0.006086279638111591,0.008354425430297852,-0.010937022976577282,0.0027544545009732246,-0.0,0.005559937562793493
0.0058377403765916824,0.008267177268862724,-0.011076569557189941,0.0026158494874835014,-0.0,0.005099078174680471
0.005917693488299847,0.008494171313941479,-0.010517533868551254,0.00252521806396544,-0.0,0.0048014922067523
0.005691975820809603,0.008332910016179085,-0.011027729138731956,0.0027266598772257566,-0.0,0.004681241232901812
0.005753597244620323,0.008522805757820606,-0.010974986478686333,0.0027637865860015154,-0.0,0.004589502699673176
0.006018283776938915,0.008840644732117653,-0.01026207022368908,0.002770631108433008,-1.5696510672569275e-05,0.00498082023113966
0.006026896648108959,0.0083486782386899,-0.011054383590817451,0.0026480890810489655,-6.595678860321641e-05,0.005556839518249035
0.006195608526468277,0.008308461867272854,-0.011104791425168514,0.0026519440580159426,-6.825134187238291e-05,0.005249281879514456
0.006337731145322323,0.008841254748404026,-0.010984154418110847,0.002685298677533865,-6.744359416188672e-05,0.0047863926738500595
0.006022783927619457,0.00913814827799797,-0.011298048309981823,0.0026396268513053656,-6.646158726653084e-05,0.0047986325807869434
0.0060440353117883205,0.008410229347646236,-0.01088225282728672,0.0029021240770816803,-6.549512909259647e-05,0.005665674805641174
0.0065714516676962376,0.008839624002575874,-0.011069473810493946,0.0030171419493854046,-6.455571565311402e-05,0.005577682983130217
0.006149618420749903,0.008801343850791454,-0.010925477370619774,0.003037817310541868,-6.364267755998299e-05,0.005434807389974594
0.00628762599080801,0.008511357009410858,-0.010503266006708145,0.002883385634049773,-6.275517807807773e-05,0.005280723795294762
0.006072724238038063,0.009505198337137699,-0.011230835691094398,0.002897920086979866,-6.189205305418e-05,0.005222599022090435
0.00607334915548563,0.008860078640282154,-0.010778487659990788,0.0027263006195425987,-6.105231295805424e-05,0.005495118442922831
0.00672282837331295,0.00847348291426897,-0.010558446869254112,0.002873834455385804,-6.0235150158405304e-05,0.005575803108513355
0.006083972752094269,0.008741885423660278,-0.010718130506575108,0.0029608155600726604,-5.866466017323546e-05,0.005391793791204691
0.0062006753869354725,0.008796467445790768,-0.011300249956548214,0.003170359879732132,-5.790969225927256e-05,0.005338551010936499
0.006524094846099615,0.008490724489092827,-0.011543762870132923,0.0030135703273117542,-5.717394014936872e-05,0.005304173566401005
0.006660560145974159,0.008935422636568546,-0.010975143872201443,0.002873307792469859,-5.6456665333826095e-05,0.005889366380870342
0.0064892275258898735,0.009275483898818493,-0.011320360004901886,0.0028096355963498354,-6.12539442954585e-05,0.005501837003976107
0.006439229007810354,0.00829434022307396,-0.011073090136051178,0.002960262820124626,-6.572049460373819e-05,0.005396604537963867
0.0060808234848082066,0.008803093805909157,-0.011063221842050552,0.003151822602376342,-6.526648940052837e-05,0.005230661481618881
0.0066269319504499435,0.008971760049462318,-0.011586512438952923,0.003134225495159626,-6.450903310906142e-05,0.0051930127665400505
0.006922900211066008,0.008376555517315865,-0.011000767350196838,0.0030895997770130634,-6.374897202476859e-05,0.005735235754400492
0.006922900211066008,0.008376555517315865,-0.011000767350196838,0.0030895997770130634,-6.374897202476859e-05,0.005735235754400492
0.006395811680704355,0.008340271189808846,-0.011257555335760117,0.0031593565363436937,-6.300528912106529e-05,0.005382193252444267
0.00647744070738554,0.008791320025920868,-0.011023984290659428,0.002947899280115962,-6.227866833796725e-05,0.005423407536000013
0.006150431931018829,0.00822884775698185,-0.01099742203950882,0.0030664242804050446,-6.156859308248386e-05,0.005243126302957535
0.00667070597410202,0.008081349544227123,-0.011257431469857693,0.0030305448453873396,-6.087453220970929e-05,0.0056162429973483086
0.006909719668328762,0.0092484625056386,-0.010909066535532475,0.0032728149089962244,-6.019598731654696e-05,0.005427178926765919
0.006794158834964037,0.008585997857153416,-0.011209276504814625,0.003148077055811882,-3.0176322979968973e-05,0.005958292633295059
0.0059883310459554195,0.008503099903464317,-0.01109239924699068,0.003002186305820942,-1.9702983991010115e-06,0.005507089663296938
0.006273993290960789,0.009021250531077385,-0.010896466672420502,0.003166285576298833,-1.2864640552834317e-07,0.0053578633815050125
0.006690800189971924,0.008888697251677513,-0.011828837916254997,0.003244555788114667,-8.399690720750641e-09,0.005665706004947424
0.006351565942168236,0.008742425590753555,-0.011934158392250538,0.0031486107036471367,-5.484397935795471e-10,0.005654723383486271
0.00613308884203434,0.008452764712274075,-0.01163425762206316,0.0034082543570548296,-3.5809199355751886e-11,0.005774759221822023
0.006354230456054211,0.009004684165120125,-0.011185548268258572,0.003259885823354125,-2.3380848038906388e-12,0.005923612974584103
0.006810293532907963,0.008493277244269848,-0.010950666852295399,0.003161301137879491,-1.5266023308761062e-13,0.00589367188513279
0.006864022463560104,0.008354907855391502,-0.01156429573893547,0.0032344236969947815,-9.967621990107905e-15,0.005938618443906307
0.006867461837828159,0.008811648935079575,-0.01126701757311821,0.003433380275964737,-6.508144827701711e-16,0.005973926745355129
0.006421590223908424,0.009020100347697735,-0.01116157416254282,0.0033619157038629055,-4.2493538616269913e-17,0.005927145015448332
0.006589765194803476,0.008606425486505032,-0.011344525963068008,0.0032535362988710403,-2.77452424754169e-18,0.006121955346316099
0.006702582351863384,0.008879623375833035,-0.011738184839487076,0.003144605550915003,-1.182823201069794e-20,0.005647806450724602
0.006342584732919931,0.008249950595200062,-0.011948227882385254,0.003115228842943907,-7.72299067127597e-22,0.0055244360119104385
0.006696003954857588,0.00813485961407423,-0.010746370069682598,0.0031296757515519857,-5.042561095974821e-23,0.005626106169074774
0.006923307664692402,0.008535834960639477,-0.011623565107584,0.0031817301642149687,-3.2924320780888442e-24,0.005309450905770063
0.0073506939224898815,0.008485451340675354,-0.011144354939460754,0.003532407572492957,-2.1497226341464833e-25,0.005816414952278137
0.006809300277382135,0.008601481094956398,-0.011102194897830486,0.0033372186589986086,-1.4036152782790887e-26,0.005797429941594601
0.006809300277382135,0.008601481094956398,-0.011102194897830486,0.0033372186589986086,-1.4036152782790887e-26,0.005797429941594601
0.0062965028919279575,0.00856059230864048,-0.011184810660779476,0.003484617453068495,-9.164605047914715e-28,0.005776101257652044
0.006684004794806242,0.008901223540306091,-0.010976430959999561,0.0037580467760562897,-5.98383183714333e-29,0.005805892404168844
0.007307382300496101,0.009120962582528591,-0.011470387689769268,0.0034320971462875605,-3.907014836031438e-30,0.006208490580320358
0.006972017232328653,0.008610006421804428,-0.011586073786020279,0.0031074893195182085,-2.551001416425689e-31,0.006371762603521347
0.006689493078738451,0.008694258518517017,-0.011619871482253075,0.002952632959932089,-1.0875321085502557e-33,0.006087930407375097
0.006689493078738451,0.008694258518517017,-0.011619871482253075,0.002952632959932089,-1.0875321085502557e-33,0.006087930407375097
0.0070318132638931274,0.008419426158070564,-0.01113987248390913,0.0032667024061083794,-7.100807806657231e-35,0.005872416775673628
0.006854401435703039,0.008334115147590637,-0.011757152155041695,0.003631638130173087,-4.6363200457898825e-36,0.006024349480867386
0.006941786967217922,0.008498616516590118,-0.011904227547347546,0.00376334460452199,-7.664330041734502e-05,0.00623331917449832
0.006890253163874149,0.008732316084206104,-0.012090377509593964,0.0033777421340346336,-8.168599015334621e-05,0.006422244478017092
0.00719716539606452,0.008239556103944778,-0.011656598187983036,0.0031049055978655815,-8.064233406912535e-05,0.006207096856087446
0.007659648545086384,0.008918944746255875,-0.011233449913561344,0.003168917028233409,-7.924954843474552e-05,0.006425457540899515
0.007075971458107233,0.008824748918414116,-0.011976771056652069,0.004039152525365353,-7.787984941387549e-05,0.006676135119050741
0.007185821421444416,0.008266858756542206,-0.012043982744216919,0.004035475663840771,-7.655499939573929e-05,0.006484674755483866
0.007611436303704977,0.00849737785756588,-0.012044375762343407,0.0034795107785612345,-7.52744817873463e-05,0.0062049864791333675
0.00758634926751256,0.008797705173492432,-0.011934016831219196,0.003414618782699108,-7.403602648992091e-05,0.005941732320934534
0.007613727357238531,0.008404207415878773,-0.011649220250546932,0.003641832619905472,-7.283764716703445e-05,0.005991428624838591
0.007047147955745459,0.008394388481974602,-0.011949592269957066,0.0037568318657577038,-7.167747389758006e-05,0.006512321997433901
0.007996123284101486,0.008835614658892155,-0.012701970525085926,0.0034306147135794163,-8.243606134783477e-05,0.006339612416923046
0.007849575020372868,0.008443841710686684,-0.012051119469106197,0.0036622127518057823,-8.203012112062424e-05,0.006252074148505926
0.007849575020372868,0.008443841710686684,-0.012051119469106197,0.0036622127518057823,-8.203012112062424e-05,0.006252074148505926
0.008118676953017712,0.008711528964340687,-0.01197090744972229,0.0039005412254482508,-7.966779230628163e-05,0.006685596890747547
0.008021960034966469,0.008144793100655079,-0.01166690792888403,0.0039075398817658424,-7.850977272028103e-05,0.006511818151921034
0.007852978073060513,0.008331254124641418,-0.011976254172623158,0.004000549670308828,-7.738473505014554e-05,0.006782064214348793
0.007166173774749041,0.008695917204022408,-0.011739405803382397,0.0035641901195049286,-7.62913768994622e-05,0.006707290653139353
0.007166173774749041,0.008695917204022408,-0.011739405803382397,0.0035641901195049286,-7.62913768994622e-05,0.006707290653139353
0.008157107047736645,0.008500193245708942,-0.011840214021503925,0.0035797806922346354,-7.522862870246172e-05,0.006843344308435917
0.007964437827467918,0.007863443344831467,-0.012304642237722874,0.003679855028167367,-7.419497705996037e-05,0.00681770546361804
0.007600167766213417,0.008440643548965454,-0.011710060760378838,0.004034935496747494,-7.92003920651041e-05,0.006344227585941553
0.0074850632809102535,0.008664043620228767,-0.01193110179156065,0.004323155619204044,-8.384184184251353e-05,0.006220149341970682
0.007901146076619625,0.009034407325088978,-0.011928245425224304,0.004011423792690039,-8.310771227115765e-05,0.006368762813508511
0.00791214406490326,0.008459837175905704,-0.010438799858093262,0.0037682463880628347,-8.204966434277594e-05,0.007313524838536978
0.007570082787424326,0.008643005043268204,-0.012299618683755398,0.003790732705965638,-8.09963748906739e-05,0.00705451425164938
0.007274501491338015,0.008311817422509193,-0.01160457730293274,0.0034521964844316244,-7.996835483936593e-05,0.006448659580200911
0.007840627804398537,0.008223351091146469,-0.011975524015724659,0.003564191283658147,-7.896604802226648e-05,0.006524133030325174
0.007933023385703564,0.008367517031729221,-0.011294204741716385,0.0037728033494204283,-7.79885085648857e-05,0.007155170664191246
0.008097521960735321,0.008221293799579144,-0.011733120307326317,0.0038361491169780493,-7.70349070080556e-05,0.007039416115731001
0.007879098877310753,0.008249711245298386,-0.011519975028932095,0.003979756962507963,-7.610432658111677e-05,0.006785986479371786
0.007481628097593784,0.00847061537206173,-0.010831913910806179,0.003539866069331765,-7.519594510085881e-05,0.006692725233733654
0.007755959872156382,0.008533953689038754,-0.01194721832871437,0.003521091304719448,-7.430902769556269e-05,0.007541104219853878
0.007352591957896948,0.00814926065504551,-0.01159521471709013,0.00368684995919466,-8.324150257976726e-05,0.007165024988353252
0.0076422132551670074,0.007532364688813686,-0.011772011406719685,0.004311498254537582,-8.292216807603836e-05,0.006568288896232843
0.008021295070648193,0.00823199562728405,-0.011486084200441837,0.004486988764256239,-8.20193235995248e-05,0.006987584754824638
0.007661784533411264,0.008348934352397919,-0.011181213892996311,0.004424442537128925,-8.109826012514532e-05,0.007504240144044161
0.008364214561879635,0.007521163206547499,-0.011938818730413914,0.004053286276757717,-4.020220512757078e-05,0.007866524159908295
0.008364214561879635,0.007521163206547499,-0.011938818730413914,0.004053286276757717,-4.020220512757078e-05,0.007866524159908295
0.008078516460955143,0.00775531493127346,-0.011789370328187943,0.003924940712749958,-3.8456713809864596e-05,0.007302417419850826
0.00788312777876854,0.0073615326546132565,-0.011250227689743042,0.003913407679647207,-0.00010561601811787114,0.007092752028256655
0.008830003440380096,0.007374752778559923,-0.011957305483520031,0.004224204458296299,-0.00010753413516795263,0.00734758609905839
0.008071471937000751,0.00826671440154314,-0.011899176985025406,0.00414623785763979,-0.00010530785948503762,0.0070778802037239075
0.008030056022107601,0.008203601464629173,-0.011598300188779831,0.0039866212755441666,-0.00010291810031048954,0.007090498227626085
0.008517363108694553,0.007135401945561171,-0.011720864102244377,0.003955811727792025,-0.00010061809734907001,0.007350016385316849
0.009054454043507576,0.00797786470502615,-0.01167981419712305,0.0039375643245875835,-0.00011551621719263494,0.007405403070151806
0.008059630170464516,0.00785705354064703,-0.012551604770123959,0.004149775020778179,-0.000115404516691342,0.007133054081350565
0.008059630170464516,0.00785705354064703,-0.012551604770123959,0.004149775020778179,-0.000115404516691342,0.007133054081350565
0.008049744181334972,0.007600738666951656,-0.0116074588149786,0.004287245683372021,-0.00011314064613543451,0.006963958963751793
0.008658763021230698,0.007089098449796438,-0.011965759098529816,0.0045874109491705894,-0.00011082843411713839,0.007787973619997501
0.008933588862419128,0.007331960368901491,-0.011826343834400177,0.004660087171941996,-0.00010860015754587948,0.007963600568473339
0.008448614738881588,0.007402788382023573,-0.011056870222091675,0.004453256726264954,-0.000106459301605355,0.007435929495841265
0.008733009919524193,0.007262371946126223,-0.011938616633415222,0.004058860242366791,-0.00010440081678098068,0.007115304935723543
0.008685074746608734,0.0074146161787211895,-0.01164898183196783,0.004182554315775633,-0.00011725419608410448,0.0073495786637067795
0.008709212765097618,0.007080209907144308,-0.01185003574937582,0.00452793762087822,-0.00011712056584656239,0.0073616113513708115
0.010188750922679901,0.007293321657925844,-0.012256674468517303,0.004749697167426348,-0.00011511412594700232,0.007300266530364752
0.008595015853643417,0.007241858169436455,-0.011424148455262184,0.004866782575845718,-0.00011305708176223561,0.007985682226717472
0.008525277487933636,0.00739328796043992,-0.012047700583934784,0.004720018710941076,-0.00011887477739946917,0.008283874951303005
0.008995600044727325,0.006857865955680609,-0.011267486959695816,0.004380700644105673,-0.00012420602433849126,0.007910489104688168
0.008852566592395306,0.0069870417937636375,-0.011939105577766895,0.004489369224756956,-0.00012257359048817307,0.007523004896938801
0.009019623510539532,0.007014104630798101,-0.011780127882957458,0.004171086475253105,-0.00012055267870891839,0.0072928378358483315
0.008564258925616741,0.006766531616449356,-0.011976823210716248,0.004205761011689901,-0.00011856953642563894,0.007807130925357342
0.008964799344539642,0.006975024472922087,-0.012304159812629223,0.004651795141398907,-0.00011664866178762168,0.007699589245021343
0.008861887268722057,0.007086022291332483,-0.011864694766700268,0.004836219362914562,-0.0001878090697573498,0.0072267623618245125
0.009766087867319584,0.007302736863493919,-0.011742460541427135,0.004654632415622473,-0.0001815142313716933,0.007486268877983093
0.00960558746010065,0.006984419655054808,-0.011509427800774574,0.0044828150421381,-0.00017455559282097965,0.007653465494513512
0.009267905727028847,0.007449327036738396,-0.012107263319194317,0.004432092886418104,-0.00019937030447181314,0.00799113605171442
0.008915266953408718,0.007454928010702133,-0.01162386778742075,0.004685131832957268,-0.00019424183119554073,0.007811213843524456
0.009730050340294838,0.007467146031558514,-0.012114940211176872,0.0043272096663713455,-0.00020295048307161778,0.008145886473357677
0.009608021937310696,0.00663019297644496,-0.012251759879291058,0.005075222346931696,-0.00021051379735581577,0.008325795643031597
0.009173253551125526,0.00705368397757411,-0.012217597104609013,0.005185566842556,-0.00020461317035369575,0.00805437471717596
0.009593627415597439,0.007238565478473902,-0.011744625866413116,0.0049947891384363174,-0.0001982359535759315,0.0077786217443645
0.009583252482116222,0.006846195552498102,-0.011197289451956749,0.004931515548378229,-0.00021252296573948115,0.008281534537672997
0.009383004158735275,0.007145137060433626,-0.012137111276388168,0.004913269076496363,-0.0002126798062818125,0.008053656667470932
0.009383004158735275,0.007145137060433626,-0.012137111276388168,0.004913269076496363,-0.0002126798062818125,0.008053656667470932
0.00933942198753357,0.007036730647087097,-0.012062598019838333,0.004842513706535101,-0.00020698602020274848,0.008107383735477924
0.009938553906977177,0.007270618341863155,-0.012643782421946526,0.0046575251035392284,-0.0003003902093041688,0.008380895480513573
0.009490334428846836,0.007444364484399557,-0.012109111994504929,0.004621987231075764,-0.000311715470161289,0.008213892579078674
0.009677623398602009,0.0070048123598098755,-0.011775421909987926,0.004722923971712589,-0.0003481080930214375,0.008198861964046955
0.010459618642926216,0.006677641067653894,-0.012200957164168358,0.004482529126107693,-0.0003573207650333643,0.00862181931734085
0.009221830405294895,0.00695030065253377,-0.011170417070388794,0.004261577967554331,-0.0003617535694502294,0.008198649622499943
0.009872124530375004,0.00666010333225131,-0.011864733882248402,0.004312262404710054,-0.00038614432560279965,0.00816495344042778
0.009790971875190735,0.00679926248267293,-0.011801458895206451,0.00474641565233469,-0.00037359417183324695,0.008193687535822392
0.009362448938190937,0.007098513655364513,-0.011817248538136482,0.004491659812629223,-0.0005826168926432729,0.008890164084732533
0.009824617765843868,0.007620607502758503,-0.012247408740222454,0.004476942587643862,-0.0006803440628573298,0.008854602463543415
0.010308423079550266,0.007595561444759369,-0.011611889116466045,0.0044929697178304195,-0.0007313865935429931,0.008783471770584583
0.009489764459431171,0.007551893591880798,-0.012314698658883572,0.004772479645907879,-0.0008927268208935857,0.008450770750641823
0.010541067458689213,0.007059947121888399,-0.012049165554344654,0.004937988705933094,-0.0011486378498375416,0.008477448485791683
0.010223244316875935,0.008048496209084988,-0.012007828801870346,0.005168008152395487,-0.0011927317827939987,0.008659401908516884
0.009638721123337746,0.0077173421159386635,-0.012005425989627838,0.005045275669544935,-0.0014742283383384347,0.008680371567606926
0.009974554181098938,0.0069782668724656105,-0.011798445135354996,0.004873788449913263,-0.0014410953735932708,0.008915284648537636
0.010755650699138641,0.007585465908050537,-0.013123557902872562,0.004785020835697651,-0.001366266282275319,0.008629591204226017
0.009900154545903206,0.007963855750858784,-0.012791165150702,0.004381838720291853,-0.0013391283573582768,0.008452878333628178
0.01008511334657669,0.006745543330907822,-0.012765733525156975,0.004787101410329342,-0.0014385356334969401,0.009239017963409424
0.009960015304386616,0.006986037362366915,-0.012800679542124271,0.005180705338716507,-0.0016386706847697496,0.008497948758304119
0.010345525108277798,0.00773761747404933,-0.012626241892576218,0.004663980100303888,-0.0019823082257062197,0.007860351353883743
0.010073100216686726,0.0075434790924191475,-0.01248790044337511,0.004436539486050606,-0.002200208604335785,0.008401707746088505
0.00985072273761034,0.007198410574346781,-0.013421175070106983,0.004593127407133579,-0.002415848895907402,0.008716774173080921
0.010110893286764622,0.007165250368416309,-0.012638705782592297,0.004663372412323952,-0.0022517251782119274,0.00891586858779192
0.01045949850231409,0.007446830626577139,-0.013227186165750027,0.00495846988633275,-0.0022846385836601257,0.00921968650072813
0.009836130775511265,0.00733055267482996,-0.012365270406007767,0.005743288900703192,-0.0021049566566944122,0.009112362749874592
0.010350716300308704,0.007154775317758322,-0.012983735650777817,0.005462093744426966,-0.002028446877375245,0.009462704882025719
0.010200045071542263,0.006926960311830044,-0.01248911488801241,0.00533417658880353,-0.0020619668066501617,0.00955711305141449
0.00965071003884077,0.007504141423851252,-0.012839210219681263,0.0054047745652496815,-0.002029506489634514,0.009309184737503529
0.00965071003884077,0.007504141423851252,-0.012839210219681263,0.0054047745652496815,-0.002029506489634514,0.009309184737503529
0.01004160474985838,0.007847501896321774,-0.012990312650799751,0.005319677293300629,-0.0020681763999164104,0.009026460349559784
0.009903929196298122,0.007155509665608406,-0.012511024251580238,0.005744969937950373,-0.0019084407249465585,0.009228396229445934
0.010649905540049076,0.0066359699703752995,-0.01284128986299038,0.005553287919610739,-0.0016951976576820016,0.009442153386771679
0.010199773125350475,0.007220787461847067,-0.012459701858460903,0.00524582713842392,-0.0013834513956680894,0.009420976974070072
0.009927196428179741,0.007466360926628113,-0.012678002007305622,0.005300389602780342,-0.0011604625033214688,0.009560036472976208
0.010007815435528755,0.007112259976565838,-0.012451330199837685,0.005463697016239166,-0.0009989221580326557,0.009704522788524628
0.010437204502522945,0.006847469136118889,-0.012339579872786999,0.005618866533041,-0.0008769251289777458,0.009542769752442837
0.0097981421276927,0.00739486375823617,-0.012166452594101429,0.005655006505548954,-0.0007815416902303696,0.009892537258565426
0.009861191734671593,0.007596940267831087,-0.012594148516654968,0.005201193504035473,-0.0007049049017950892,0.00922146625816822
0.010437550023198128,0.007563420571386814,-0.012820051051676273,0.005253985524177551,-0.0006419705459848046,0.009463381953537464
0.009839272126555443,0.006723553407937288,-0.01266874186694622,0.005389935802668333,-0.0005893654888495803,0.009576894342899323
0.010872885584831238,0.006554009858518839,-0.013079412281513214,0.005321399308741093,-0.0005447376752272248,0.009808453731238842
0.010367270559072495,0.007261449936777353,-0.01226732786744833,0.0059269145131111145,-0.0005063958815298975,0.009846366010606289
0.009887193329632282,0.007112601771950722,-0.012897892855107784,0.005736989434808493,-0.00047309958608821034,0.010597391985356808
0.010358822531998158,0.0070290942676365376,-0.012405510060489178,0.005712395068258047,-0.00044391470146365464,0.010218332521617413
0.010169855318963528,0.006994196213781834,-0.012853807769715786,0.00590117834508419,-0.00041812253766693175,0.009841646067798138
0.01061036717146635,0.0067143221385777,-0.01279536820948124,0.005478766746819019,-0.0003951656399294734,0.010096948593854904
0.010726507753133774,0.007025642786175013,-0.012827168218791485,0.006163792219012976,-0.00035606700112111866,0.009798348881304264
0.010617542080581188,0.006751120090484619,-0.012518733739852905,0.006254656706005335,-0.000339283054927364,0.009975230321288109
0.01033981516957283,0.00698043080046773,-0.013138224370777607,0.006230628117918968,-0.00032401055796071887,0.010604503564536572
0.0102456109598279,0.007088040933012962,-0.012794728390872478,0.005917087662965059,-0.00031005480559542775,0.010065710172057152
0.010085521265864372,0.0068418895825743675,-0.013241888023912907,0.0064847408793866634,-0.0002972508082166314,0.010059644468128681
0.010812334716320038,0.006679386831820011,-0.012207642197608948,0.006387482862919569,-0.00025453034322708845,0.010496491566300392
0.010227167047560215,0.006823561154305935,-0.012670119293034077,0.005917524453252554,-0.00024056302208919078,0.010622206144034863
0.010778318159282207,0.006782442796975374,-0.012922587804496288,0.0057479324750602245,-0.00023144623264670372,0.010409952141344547
0.010949550196528435,0.006583609618246555,-0.01330341212451458,0.005640767514705658,-0.00022322629229165614,0.010239086113870144
0.010302985087037086,0.00662124902009964,-0.013416695408523083,0.006031385622918606,-0.0002155851252609864,0.010153057985007763
0.010302985087037086,0.00662124902009964,-0.013416695408523083,0.006031385622918606,-0.0002155851252609864,0.010153057985007763
0.011293508112430573,0.0063770366832613945,-0.012752249836921692,0.005890617147088051,-0.00020845112157985568,0.009856843389570713
0.01058968622237444,0.006432952359318733,-0.0130512285977602,0.0059404512867331505,-0.0002017740480368957,0.009940707124769688
0.010473702102899551,0.0065557025372982025,-0.012542464770376682,0.0063949269242584705,-0.00019551205332390964,0.009855950251221657
0.011283939704298973,0.00653764046728611,-0.013270753435790539,0.006222065072506666,-0.0001896266039693728,0.010505931451916695
0.010713721625506878,0.0065598334185779095,-0.012534124776721,0.006490330211818218,-0.00018408529285807163,0.010171538218855858
0.01082572340965271,0.0066349138505756855,-0.013249816372990608,0.006450774613767862,-0.0001788585213944316,0.010325883515179157
0.01089556235820055,0.0068315560929477215,-0.013093839399516582,0.0064560906030237675,-0.00017392041627317667,0.010461008176207542
0.010692133568227291,0.006836145184934139,-0.013089860789477825,0.006242723204195499,-0.00016924800002016127,0.010299364104866982
0.011470690369606018,0.0069159092381596565,-0.01322329044342041,0.006466860417276621,-0.00010844215285032988,0.010270250961184502
0.01057182066142559,0.00686550373211503,-0.012321202084422112,0.0063925012946128845,-5.2039446018170565e-05,0.010856817476451397
0.010485482402145863,0.0073823775164783,-0.012919415719807148,0.006297429092228413,-4.718659693025984e-05,0.011165672913193703
0.011870531365275383,0.0066786776296794415,-0.012309351935982704,0.0061503523029387,-4.5758984924759716e-05,0.012343659065663815
0.013265043497085571,0.006411900743842125,-0.013463558629155159,0.006183907389640808,-4.460995478439145e-05,0.010951933450996876
0.013006847351789474,0.006660561542958021,-0.012890664860606194,0.0065321833826601505,-4.353006443125196e-05,0.009584964253008366
0.012228228151798248,0.006792522966861725,-0.012893260456621647,0.0065408749505877495,-4.250214260537177e-05,0.010122522711753845
0.012237465009093285,0.006827174220234156,-0.012744023464620113,0.006352371536195278,-2.6126932425540872e-05,0.010631703771650791
0.012996651232242584,0.006789320148527622,-0.01298591773957014,0.006522413343191147,-2.064308682747651e-05,0.01087106205523014
0.013505397364497185,0.006916827522218227,-0.012580756098031998,0.006869062781333923,-1.9418603187659755e-05,0.011297927238047123
0.012693820521235466,0.007098848465830088,-0.013176371343433857,0.007197441998869181,-1.9007107766810805e-05,0.011305605061352253
0.013243184424936771,0.006829069461673498,-0.012443757615983486,0.006824634037911892,-1.86138986464357e-05,0.01128227636218071
0.012875206768512726,0.006451593246310949,-0.013362499885261059,0.0068740807473659515,-1.8236698451801203e-05,0.010988294146955013
0.01363853458315134,0.006667737383395433,-0.012654313817620277,0.007075837347656488,-1.7874517652671784e-05,0.01115928404033184
0.01321240235120058,0.007103659212589264,-0.012719091959297657,0.007326812017709017,-1.1670782669170876e-06,0.011219444684684277
0.013426386751234531,0.007067099679261446,-0.012445631437003613,0.007378070615231991,-7.6201878584925e-08,0.011193841695785522
0.013367031700909138,0.006802779622375965,-0.013043475337326527,0.006884480826556683,-4.975437395415838e-09,0.011198839172720909
0.013367031700909138,0.006802779622375965,-0.013043475337326527,0.006884480826556683,-4.975437395415838e-09,0.011198839172720909
0.013571223244071007,0.00717652915045619,-0.012723449617624283,0.006647380068898201,-3.248605273675764e-10,0.011179160326719284
0.013471732847392559,0.007072109263390303,-0.012915760278701782,0.0069063883274793625,-2.1211072828708488e-11,0.010957082733511925
0.01341259852051735,0.006830609869211912,-0.013389820232987404,0.006807767320424318,-1.3849314490360642e-12,0.011179270222783089
0.012420972809195518,0.006680802442133427,-0.012532499618828297,0.0066663958132267,-9.042612714388679e-14,0.011135653592646122
0.013685613870620728,0.00666380999609828,-0.013647987507283688,0.007155751809477806,-5.90418005488153e-15,0.011506167240440845
0.014007466845214367,0.007009868510067463,-0.012942461296916008,0.007747334893792868,-3.855007879214299e-16,0.011513476260006428
0.012737754732370377,0.00707282405346632,-0.013081207871437073,0.007715810555964708,-2.5170445949859815e-17,0.011055629700422287
0.013308843597769737,0.006539445836097002,-0.01343817450106144,0.007066361606121063,-1.643450195838598e-18,0.011115475557744503
0.013283680193126202,0.0062907179817557335,-0.01361862849444151,0.006518475711345673,-1.0730554613669549e-19,0.01076015830039978
0.013468037359416485,0.00668881693854928,-0.01343204639852047,0.007131696213036776,-7.006285219603067e-21,0.011658767238259315
0.013522577472031116,0.0068695638328790665,-0.013601871207356453,0.007105317432433367,-4.574603632070178e-22,0.011908826418220997
0.013777794316411018,0.00677028764039278,-0.013457258231937885,0.007106167264282703,-2.986889604531646e-23,0.011402669362723827
0.013683721423149109,0.006264729890972376,-0.012762277387082577,0.007079237140715122,-1.9502252825462326e-24,0.011664099059998989
0.014066685922443867,0.006564518436789513,-0.01446014828979969,0.0076323323883116245,-1.2733578260518966e-25,0.011510204523801804
0.014101085253059864,0.005994041915982962,-0.014036951586604118,0.007543875370174646,-8.314116310403256e-27,0.01179460808634758
0.01436789333820343,0.0065462966449558735,-0.014106329530477524,0.007318247575312853,-3.54443813622652e-29,0.011535484343767166
0.014485497027635574,0.006496293004602194,-0.014562578871846199,0.007986024022102356,-2.3142645654130216e-30,0.011923247016966343
0.014384216628968716,0.006203274708241224,-0.013946613296866417,0.007788161281496286,-1.5110493225159265e-31,0.012129275128245354
0.014243274927139282,0.006052388343960047,-0.014127577655017376,0.007024841848760843,-9.86607322729722e-33,0.012201226316392422
0.013828851282596588,0.006265183445066214,-0.013696381822228432,0.0064850905910134315,-6.441841285620603e-34,0.012208853848278522
0.014098042622208595,0.006153924856334925,-0.01422871183604002,0.0071020303294062614,-4.206061993218966e-35,0.0128659438341856
0.014059407636523247,0.006083095446228981,-0.013608686625957489,0.007737508974969387,-2.7462580041511477e-36,0.01275569573044777
0.014059407636523247,0.006083095446228981,-0.013608686625957489,0.007737508974969387,-2.7462580041511477e-36,0.01275569573044777
0.014230078086256981,0.00610114773735404,-0.01415171753615141,0.0074766166508197784,-1.793110034844699e-37,0.012602685950696468
0.014086221344769001,0.006208203267306089,-0.013726781122386456,0.007034174166619778,-1.1707728157765915e-38,0.012482763268053532
0.014207613654434681,0.006613014731556177,-0.014484012499451637,0.007495146710425615,-7.644307330646169e-40,0.012150898575782776
0.014174901880323887,0.006358604412525892,-0.013762477785348892,0.008377304300665855,0.00024850713089108467,0.011949196457862854
0.013975747860968113,0.006005183327943087,-0.014102901332080364,0.007850720547139645,0.0002576188126113266,0.011748259887099266
0.014404152520000935,0.005987471900880337,-0.013662653043866158,0.007304346188902855,0.0002451104810461402,0.011734053492546082
0.014516027644276619,0.00649506039917469,-0.014390604570508003,0.007583769038319588,0.00023253922699950635,0.013496791012585163
0.014556263573467731,0.006699180696159601,-0.013686232268810272,0.008255968801677227,0.00022111614816822112,0.012225905433297157
0.01440347172319889,0.006320232059806585,-0.014112500473856926,0.008237161673605442,0.0002418792137177661,0.012318882159888744
0.014757050201296806,0.006079640705138445,-0.014196256175637245,0.007680044509470463,0.000240871129790321,0.012481382116675377
0.014857941307127476,0.006189748644828796,-0.014579442329704762,0.007994981482625008,0.00023119602701626718,0.012814901769161224
0.01474621519446373,0.006346846930682659,-0.014181623235344887,0.007794124074280262,0.00022174288460519165,0.012465091422200203
0.014656680636107922,0.006267073098570108,-0.01456360425800085,0.007833321578800678,0.00021299706713762134,0.012285083532333374
0.015045319683849812,0.0060233185067772865,-0.013504672795534134,0.007783546112477779,0.0002049132453976199,0.013005812652409077
0.015207000076770782,0.006380402948707342,-0.014211054891347885,0.00803228747099638,0.00019742132280953228,0.013139670714735985
0.015169955790042877,0.0064807250164449215,-0.013603649102151394,0.00820518471300602,0.00019045654335059226,0.013372932560741901
0.015170172788202763,0.006619719788432121,-0.01398361288011074,0.008091541938483715,0.00018396778614260256,0.013565536588430405
0.015027036890387535,0.006309494376182556,-0.013704081997275352,0.008221697062253952,0.00017790560377761722,0.01330632995814085
0.015108819119632244,0.00614714901894331,-0.014455989003181458,0.008070788346230984,0.00017223088070750237,0.012999972328543663
0.01504057738929987,0.006215150933712721,-0.014018305577337742,0.008069412782788277,0.00016690706252120435,0.01302186306566
0.015187514014542103,0.00673541147261858,-0.01383865438401699,0.008586679585278034,0.0001571894099470228,0.013150203041732311
0.01552090048789978,0.006225189194083214,-0.014093137346208096,0.008239314891397953,0.0001527426647953689,0.013075011782348156
0.014871110208332539,0.006246382836252451,-0.013933762907981873,0.007737647742033005,0.00014854066830594093,0.013469837605953217
0.015568419359624386,0.0059324526228010654,-0.013747276738286018,0.008155201561748981,0.00014456373173743486,0.01384609192609787
0.015596576035022736,0.006444917060434818,-0.014364024624228477,0.00832859706133604,0.00014079449465498328,0.013757639564573765
0.015807300806045532,0.006496778689324856,-0.014131253585219383,0.008538604713976383,0.0001372166007058695,0.014548609033226967
0.015865981578826904,0.006145488005131483,-0.014151317998766899,0.00790384691208601,0.00013381591998040676,0.014105387032032013
0.01592225767672062,0.0060722180642187595,-0.013684645295143127,0.008227858692407608,0.0001467142574256286,0.014036638662219048
0.016019625589251518,0.006266503129154444,-0.014062149450182915,0.00833158753812313,0.00014837863272987306,0.013575672172009945
0.015766989439725876,0.006762286648154259,-0.013858693651854992,0.007655615918338299,0.00014529140025842935,0.013805726543068886
0.01650899089872837,0.006706540938466787,-0.014162549749016762,0.0074058580212295055,0.0001420373737346381,0.013932794332504272
0.015972042456269264,0.006252260413020849,-0.014072222635149956,0.008316191844642162,0.00013890692207496613,0.014133171178400517
0.015977075323462486,0.006479877512902021,-0.014080710709095001,0.008097427897155285,0.00013591036258731037,0.013788152486085892
0.015684183686971664,0.006860337220132351,-0.013744732365012169,0.007990377023816109,0.00013304012827575207,0.013884891755878925
0.015684183686971664,0.006860337220132351,-0.013744732365012169,0.007990377023816109,0.00013304012827575207,0.013884891755878925
0.016421223059296608,0.006746997125446796,-0.014303965494036674,0.00786607526242733,0.00013028857938479632,0.013800588436424732
0.016289526596665382,0.006250537931919098,-0.013866818509995937,0.008285334333777428,0.00012764870189130306,0.013892222195863724
0.016614947468042374,0.006170421373099089,-0.014164367690682411,0.008110652677714825,0.00012511368549894542,0.013714305125176907
0.01634172908961773,0.006651459261775017,-0.013451199978590012,0.007801700383424759,0.00012267730198800564,0.013892538845539093
0.016152501106262207,0.006885365583002567,-0.014337442815303802,0.008320356719195843,0.00012033395614707842,0.014081407338380814
0.01700439117848873,0.006543952040374279,-0.013774418272078037,0.008689344860613346,0.00011807859118562192,0.014458429999649525
0.01674618571996689,0.006099893245846033,-0.014144159853458405,0.008518661372363567,0.000115906324936077,0.014494558796286583
0.016902068629860878,0.00659599294885993,-0.013448350131511688,0.009000424295663834,0.00011381237709429115,0.014468462206423283
0.016943523660302162,0.006225832737982273,-0.014306943863630295,0.008681902661919594,0.00011179262946825475,0.014240158721804619
0.016833780333399773,0.0065254103392362595,-0.013832270167768002,0.008374184370040894,6.042189124855213e-05,0.014843860641121864
0.017288748174905777,0.0064772265031933784,-0.014588489197194576,0.008182208985090256,4.33819841418881e-05,0.013461502268910408
0.01680232211947441,0.0062771150842309,-0.014062345959246159,0.009074837900698185,4.136619463679381e-05,0.013739559799432755
0.017105571925640106,0.006127217784523964,-0.014736413024365902,0.009104790166020393,4.0371782233705744e-05,0.01410920824855566
0.016971644014120102,0.006639277096837759,-0.014073997735977173,0.00866096280515194,3.9481903513660654e-05,0.01449369452893734
0.017442423850297928,0.006609220523387194,-0.01420423574745655,0.009209578856825829,3.8634181692032143e-05,0.014391141012310982
0.01768103986978531,0.0063304598443210125,-0.014043500646948814,0.009124448522925377,3.782234125537798e-05,0.01439146138727665
0.01685691997408867,0.006081209518015385,-0.014917836524546146,0.008586186915636063,3.704396294779144e-05,0.014318360015749931
0.017826972529292107,0.006853454280644655,-0.014860148541629314,0.008965018205344677,3.557947275112383e-05,0.014420164749026299
0.017342159524559975,0.006567812990397215,-0.014181416481733322,0.009154874831438065,3.4889770176960155e-05,0.014672708697617054
0.01770288310945034,0.006191477179527283,-0.015363248996436596,0.009186621755361557,3.422637382755056e-05,0.014510747976601124
0.01754048839211464,0.00615642499178648,-0.014665321446955204,0.0094224251806736,3.3587733923923224e-05,0.014667664654552937
0.017560133710503578,0.006787641439586878,-0.014991044998168945,0.008990942500531673,3.2972428016364574e-05,0.014961084350943565
0.017564555630087852,0.006917807273566723,-0.014307965524494648,0.008866080082952976,3.237932833144441e-05,0.014746030792593956
0.017558488994836807,0.0064851646311581135,-0.014968784525990486,0.009277483448386192,3.1807176128495485e-05,0.014518813230097294
0.018085286021232605,0.006123250816017389,-0.014695189893245697,0.009374462999403477,3.125486182398163e-05,0.014968976378440857
0.01806464046239853,0.0064378404058516026,-0.015463677234947681,0.008978115394711494,3.0721392249688506e-05,0.015157300978899002
0.01806464046239853,0.0064378404058516026,-0.015463677234947681,0.008978115394711494,3.0721392249688506e-05,0.015157300978899002
0.01817949488759041,0.0067985765635967255,-0.015091782435774803,0.010070757940411568,3.020587064384017e-05,0.015225375071167946
0.01849203370511532,0.006366940215229988,-0.015142577700316906,0.009930920787155628,2.9707342036999762e-05,0.01478736475110054
0.01839226670563221,0.0062609328888356686,-0.015216395258903503,0.009489274583756924,2.9225013349787332e-05,0.01511336863040924
0.018323468044400215,0.006303118076175451,-0.01564832404255867,0.00955691747367382,2.8758086045854725e-05,0.015137601643800735
0.018178610131144524,0.006543676368892193,-0.016034036874771118,0.009453481063246727,2.8305839805398136e-05,0.015289311297237873
0.01799018122255802,0.00685185706242919,-0.015977201983332634,0.009564623236656189,2.786761979223229e-05,0.0150034474208951
0.018455304205417633,0.006496795453131199,-0.01601853407919407,0.009415569715201855,2.744276207522489e-05,0.015326336957514286
0.018284911289811134,0.006571961101144552,-0.015509579330682755,0.00949567835777998,2.7030664568883367e-05,0.015062334947288036
0.018471388146281242,0.006163721438497305,-0.01589769683778286,0.00896148756146431,1.4197823475115001e-05,0.015234828926622868
0.018908362835645676,0.006615669932216406,-0.015005042776465416,0.009511965326964855,1.3178872904973105e-05,0.015635240823030472
0.018498096615076065,0.006680094171315432,-0.016049401834607124,0.009728633798658848,1.2936453458678443e-05,0.015773629769682884
0.018525877967476845,0.0066149793565273285,-0.015537885017693043,0.009114718064665794,1.2749741472362075e-05,0.01588681899011135
0.01863502524793148,0.00611482560634613,-0.01582193933427334,0.00944769661873579,1.2571422303153668e-05,0.016109932214021683
0.018226271495223045,0.006127520464360714,-0.01550705824047327,0.009562872350215912,1.2398223589116242e-05,0.016059912741184235
0.018570220097899437,0.006798883434385061,-0.01587199978530407,0.009694219566881657,1.2229760613990948e-05,0.015691598877310753
0.01887347549200058,0.0063901785761117935,-0.016167370602488518,0.010513232089579105,1.2065797818650026e-05,0.0158982016146183
0.019084645435214043,0.006282181013375521,-0.016172463074326515,0.009665573947131634,1.999644894112862e-07,0.01625904068350792
0.01928349956870079,0.0067171361297369,-0.015647662803530693,0.010132918134331703,1.3056252079479691e-08,0.01743234694004059
0.018444782122969627,0.006864046212285757,-0.015816492959856987,0.010311732068657875,8.524799754994206e-10,0.01638949289917946
0.018983596935868263,0.006303150672465563,-0.015492334961891174,0.009840911254286766,5.5660854397787674e-11,0.015966126695275307
0.018950840458273888,0.006276095286011696,-0.016508709639310837,0.009673106484115124,3.6342560905122667e-12,0.016025759279727936
0.01889842376112938,0.006116063799709082,-0.016254974529147148,0.009866262786090374,2.372909540301199e-13,0.01592722162604332
0.019731009379029274,0.007071968168020248,-0.016164984554052353,0.009624166414141655,1.549340320481426e-14,0.015828194096684456
0.019731009379029274,0.007071968168020248,-0.016164984554052353,0.009624166414141655,1.549340320481426e-14,0.015828194096684456
0.01936565525829792,0.006138058379292488,-0.016062337905168533,0.010323750786483288,6.605080866372269e-17,0.016578685492277145
0.01936565525829792,0.006138058379292488,-0.016062337905168533,0.010323750786483288,6.605080866372269e-17,0.016578685492277145
0.01899544522166252,0.006501039490103722,-0.01661408133804798,0.009755950421094894,4.312645917068731e-18,0.016741735860705376
0.018952954560518265,0.006228488404303789,-0.015545349568128586,0.010338280349969864,2.8158494671618034e-19,0.01681642048060894
0.01973024383187294,0.006581244058907032,-0.01591428928077221,0.010034391656517982,1.8385484981274723e-20,0.016746554523706436
0.01984594389796257,0.0067060962319374084,-0.015575430355966091,0.009487001225352287,1.2004409162319839e-21,0.016420526430010796
0.019406622275710106,0.006406909786164761,-0.016233865171670914,0.009953491389751434,7.838020980080105e-23,0.01593216322362423
0.019157016649842262,0.0062978737987577915,-0.016025973483920097,0.010440438985824585,5.117667280583465e-24,0.01637694425880909
0.020007634535431862,0.006649159360677004,-0.015729235485196114,0.00925684254616499,3.341471073920036e-25,0.016561822965741158
0.01938067190349102,0.006722427438944578,-0.015831217169761658,0.009584651328623295,2.1817418203620638e-26,0.017090249806642532
0.019581688567996025,0.006833020597696304,-0.016237778589129448,0.010523244738578796,1.4245215944928021e-27,0.017305420711636543
0.020055601373314857,0.0067650629207491875,-0.016736255958676338,0.010029171593487263,-0.0003730505704879761,0.016669873148202896
0.02021353505551815,0.006363476160913706,-0.015589917078614235,0.010199199430644512,-0.0003834642411675304,0.016764726489782333
0.01929118111729622,0.0064821504056453705,-0.016168348491191864,0.010140808299183846,-0.00035588868195191026,0.01661156490445137
0.019175037741661072,0.0066842795349657536,-0.01592010073363781,0.010175995528697968,-0.00037844106554985046,0.0172540582716465
0.019825706258416176,0.006208819802850485,-0.015996957197785378,0.010793731547892094,-0.0003677504137158394,0.0170031376183033
0.0202836524695158,0.00617791386321187,-0.01599464751780033,0.010030031204223633,-0.0003452161909081042,0.017010832205414772
0.019987134262919426,0.006725749000906944,-0.01616784743964672,0.009490689262747765,-0.00035084961564280093,0.016726139932870865
0.02038627304136753,0.004853907506912947,-0.0157622043043375,0.010603087954223156,-0.00033785856794565916,0.016384204849600792
0.019687041640281677,0.004754565190523863,-0.016033988445997238,0.01000917237251997,-0.00036342538078315556,0.01629551686346531
0.02006254531443119,0.00593469338491559,-0.015444925054907799,0.009910931810736656,-0.0003836394753307104,0.016499346122145653
0.02041482925415039,0.005547557026147842,-0.01630501262843609,0.010001607239246368,-0.00038497577770613134,0.01699264720082283
0.020230434834957123,0.005883233156055212,-0.015623118728399277,0.009986781515181065,-0.00042298826156184077,0.017178934067487717
0.02026963420212269,0.005318041425198317,-0.015611479058861732,0.010665232315659523,-0.00039639449096284807,0.01704975590109825
0.02062785066664219,0.0050095366314053535,-0.01576698198914528,0.00985393114387989,-0.0004148401494603604,0.01660563237965107
0.02062785066664219,0.0050095366314053535,-0.01576698198914528,0.00985393114387989,-0.0004148401494603604,0.01660563237965107
0.02053070068359375,0.005665103439241648,-0.01605956070125103,0.010149597190320492,-0.00043048636871390045,0.01690628193318844
0.020309552550315857,0.005456209182739258,-0.016066376119852066,0.009885516948997974,-0.0004313968529459089,0.016817515715956688
0.02057090774178505,0.0054456936195492744,-0.015924593433737755,0.009514163248240948,-0.0005637163412757218,0.01703205518424511
0.02102626860141754,0.005390129517763853,-0.01654444821178913,0.009349455125629902,-0.0005997112020850182,0.017956560477614403
0.021052712574601173,0.005466533824801445,-0.015779441222548485,0.009737932123243809,-0.0005851011956110597,0.017149949446320534
0.020834259688854218,0.005145880859345198,-0.016090858727693558,0.00977044366300106,-0.0006069980445317924,0.01711117848753929
0.02128925360739231,0.0054525351151824,-0.015905681997537613,0.010465149767696857,-0.000563239969778806,0.017092393711209297
0.021211763843894005,0.005556823685765266,-0.016497164964675903,0.010715494863688946,-0.0005813808529637754,0.017392447218298912
0.021074991673231125,0.005868611857295036,-0.01588907092809677,0.009950011968612671,-0.0005459891399368644,0.01751190423965454
0.02089925855398178,0.005632464773952961,-0.01629534363746643,0.01005095336586237,-0.0005885011050850153,0.017594294622540474
0.02118430659174919,0.004981024656444788,-0.016482019796967506,0.010668749921023846,-0.0005328266997821629,0.017738714814186096
0.021288525313138962,0.004885633941739798,-0.01600370556116104,0.009867353364825249,-0.0005592054803855717,0.017734790220856667
0.021253999322652817,0.005314997397363186,-0.016589002683758736,0.010671739466488361,-0.0005910817999392748,0.017989572137594223
0.021405549719929695,0.005192685406655073,-0.01584198884665966,0.010191026143729687,-0.0006180741474963725,0.0176779143512249
0.021364377811551094,0.00592678552493453,-0.016363274306058884,0.009936576709151268,-0.0007328424835577607,0.017355507239699364
0.021549277007579803,0.00555189186707139,-0.016542065888643265,0.010917337611317635,-0.0007942420779727399,0.017729157581925392
0.02121790312230587,0.005440190434455872,-0.016658898442983627,0.010409639216959476,-0.0007951634470373392,0.017694665119051933
0.021960295736789703,0.005274225026369095,-0.017225289717316628,0.010186463594436646,-0.0007303160964511335,0.017573196440935135
0.021970536559820175,0.005315954331308603,-0.016334086656570435,0.01038332935422659,-0.0007365464116446674,0.017954761162400246
0.02145594358444214,0.0058774822391569614,-0.016865966841578484,0.010929938405752182,-0.0008338701445609331,0.018038544803857803
0.021668151021003723,0.005418328568339348,-0.017130501568317413,0.011298774741590023,-0.0008445103885605931,0.01813686639070511
0.02180306427180767,0.005758375395089388,-0.01690007746219635,0.010835685767233372,-0.0008371999720111489,0.017860492691397667
0.022073257714509964,0.005506637506186962,-0.01644381508231163,0.011008033528923988,-0.000772417988628149,0.018428290262818336
0.02124425210058689,0.005960481707006693,-0.016810212284326553,0.011328454129397869,-0.0008109328337013721,0.01907365582883358
0.022272462025284767,0.00649496354162693,-0.016791289672255516,0.011843875050544739,-0.0007048886618576944,0.0184343159198761
0.02262830175459385,0.0057207029312849045,-0.017163163051009178,0.012013284489512444,-0.0007232606294564903,0.018279297277331352
0.02262830175459385,0.0057207029312849045,-0.017163163051009178,0.012013284489512444,-0.0007232606294564903,0.018279297277331352
0.0228332057595253,0.005839957855641842,-0.016779504716396332,0.011815824545919895,-0.0007365006604231894,0.01780698634684086
0.022388840094208717,0.005427977070212364,-0.017221299931406975,0.011542722582817078,-0.0007410014513880014,0.017928069457411766
0.022213175892829895,0.005836897064000368,-0.017357047647237778,0.011464308947324753,-0.0007369197555817664,0.01817764714360237
0.02150484174489975,0.005998068489134312,-0.016899341717362404,0.011390062980353832,-0.00074190174927935,0.017919672653079033
0.02165445312857628,0.005941615905612707,-0.016877060756087303,0.011547611095011234,-0.0007050730637274683,0.01854899153113365
0.02234257571399212,0.005496582016348839,-0.016843901947140694,0.010910062119364738,-0.0007238501566462219,0.01902439258992672
0.02269449084997177,0.005855756811797619,-0.017362257465720177,0.011372832581400871,-0.0007001032936386764,0.018423184752464294
0.022166533395648003,0.0063071162439882755,-0.01707717776298523,0.011079682037234306,-0.0006753277266398072,0.018478458747267723
0.02265048213303089,0.00620076572522521,-0.016297144815325737,0.010854220949113369,-0.0006235967739485204,0.018427342176437378
0.023343052715063095,0.006268048658967018,-0.01712491735816002,0.011529486626386642,-0.0006321625551208854,0.01888762041926384
0.023043882101774216,0.005386019591242075,-0.01700405217707157,0.011040611192584038,-0.0006133139249868691,0.018951114267110825
0.022251281887292862,0.005970265716314316,-0.017299514263868332,0.011672567576169968,-0.0005938904942013323,0.018512751907110214
0.022882655262947083,0.006191344931721687,-0.017322462052106857,0.01175413466989994,-0.0006033846875652671,0.018183927983045578
0.02274766005575657,0.006502876989543438,-0.016970543190836906,0.011513390578329563,-0.0006085692439228296,0.018433915451169014
0.022519730031490326,0.006336168386042118,-0.017297057434916496,0.012066845782101154,-0.0005952417850494385,0.01849886029958725
0.02281484752893448,0.005937365815043449,-0.016756922006607056,0.011925289407372475,-0.0005966204917058349,0.017986781895160675
0.023134887218475342,0.005887517239898443,-0.01719534397125244,0.011623675003647804,-0.0005678307497873902,0.018659306690096855
0.022967886179685593,0.006658824160695076,-0.016880862414836884,0.011271710507571697,-0.0005807877168990672,0.018893998116254807
0.023217855021357536,0.006923041306436062,-0.01723579131066799,0.011011997237801552,-0.0005449699820019305,0.01911122538149357
0.023185908794403076,0.00598675524815917,-0.017502425238490105,0.011718044988811016,-0.0005731152486987412,0.019282979890704155
0.023099934682250023,0.006135131232440472,-0.01739717461168766,0.011119174771010876,-0.0005617949645966291,0.01911860704421997
0.023302379995584488,0.006516182795166969,-0.01710815168917179,0.011921601369976997,-0.0006865315954200923,0.019321348518133163
0.022833677008748055,0.006394844967871904,-0.016961518675088882,0.011649243533611298,-0.0007182908593676984,0.019253255799412727
0.022963760420680046,0.0062464214861392975,-0.017466288059949875,0.01162746176123619,-0.0007635772344656289,0.019188791513442993
0.023014286532998085,0.005901031196117401,-0.01694907806813717,0.01168203353881836,-0.0010070073185488582,0.019396374002099037
0.02258887328207493,0.0061289542354643345,-0.017539113759994507,0.011777309700846672,-0.0011613145470619202,0.01918838731944561
0.023217370733618736,0.0061906082555651665,-0.016838552430272102,0.012402930296957493,-0.001166996662504971,0.019433731213212013
0.02338256873190403,0.005966071039438248,-0.016982123255729675,0.011995970271527767,-0.001236863317899406,0.01953478530049324
0.023180220276117325,0.006063510663807392,-0.017250025644898415,0.012389480136334896,-0.0012117926962673664,0.019318681210279465
0.023180220276117325,0.006063510663807392,-0.017250025644898415,0.012389480136334896,-0.0012117926962673664,0.019318681210279465
0.0228648129850626,0.006118469405919313,-0.01727805659174919,0.012387380003929138,-0.0011319797486066818,0.01968073658645153
0.0228648129850626,0.006118469405919313,-0.01727805659174919,0.012387380003929138,-0.0011319797486066818,0.01968073658645153
0.02290348894894123,0.006380285136401653,-0.0167721938341856,0.012457522563636303,-0.0011463867267593741,0.019769763574004173
0.024662017822265625,0.006142498925328255,-0.017295826226472855,0.012184041552245617,-0.0011040563695132732,0.02009933814406395
0.023618338629603386,0.006357107311487198,-0.0169645044952631,0.01203224714845419,-0.0009844013256952167,0.01959971897304058
0.023618338629603386,0.006357107311487198,-0.0169645044952631,0.01203224714845419,-0.0009844013256952167,0.01959971897304058
0.023584313690662384,0.005977317690849304,-0.01727120392024517,0.012192667461931705,-0.0009189778938889503,0.019576698541641235
0.023716475814580917,0.0063097658567130566,-0.016753099858760834,0.012139255180954933,-0.0008974813972599804,0.019984561949968338
0.02369280345737934,0.005851759109646082,-0.017089324072003365,0.012176386080682278,-0.000863382127135992,0.02001851610839367
0.024490173906087875,0.005769563373178244,-0.01687048003077507,0.012630374170839787,-0.0008103363797999918,0.02013651467859745
0.025284800678491592,0.005936650559306145,-0.016797654330730438,0.01236185897141695,-0.0007212333148345351,0.020286744460463524
0.024362102150917053,0.005270946770906448,-0.017695462331175804,0.012942575849592686,-0.0007329941727221012,0.020110659301280975
0.02444348856806755,0.005277623422443867,-0.017386743798851967,0.012445919215679169,-0.0006702924147248268,0.019763806834816933
0.023171797394752502,0.005470240022987127,-0.017393965274095535,0.013077452778816223,-0.0006134876166470349,0.020209774374961853
0.024290526285767555,0.005279588047415018,-0.01779668778181076,0.012476911768317223,-0.0005445822607725859,0.020280608907341957
0.024727175012230873,0.005266125313937664,-0.017520371824502945,0.012531069107353687,-0.00048547223559580743,0.020295828580856323
0.024328913539648056,0.005199582315981388,-0.01742110587656498,0.012252772226929665,-0.0005193987162783742,0.02052038535475731
0.024576039984822273,0.005726673640310764,-0.017680412158370018,0.01232890598475933,-0.0005105736781843007,0.02062786929309368
0.02514173462986946,0.005605410318821669,-0.01794426329433918,0.012103395536541939,-0.0005374270840547979,0.020591966807842255
0.02484249882400036,0.005222039762884378,-0.01784280687570572,0.013001791201531887,-0.0006349771865643561,0.020916610956192017
0.025150610134005547,0.005830739624798298,-0.017628246918320656,0.012445428408682346,-0.0006540731992572546,0.02101570926606655
0.024810384958982468,0.005352681037038565,-0.017212502658367157,0.012792058289051056,-0.0006313357152976096,0.021426592022180557
0.024672163650393486,0.005433843936771154,-0.018220970407128334,0.012544150464236736,-0.0006561803165823221,0.021145036444067955
0.02548970654606819,0.005469049327075481,-0.018804306164383888,0.011996299959719181,-0.00067342963302508,0.021121114492416382
0.02548970654606819,0.005469049327075481,-0.018804306164383888,0.011996299959719181,-0.00067342963302508,0.021121114492416382
0.025583762675523758,0.004773400723934174,-0.017309769988059998,0.012115459889173508,-0.0006253081955946982,0.020919086411595345
0.02552395686507225,0.005043588578701019,-0.017707109451293945,0.011981550604104996,-0.0006907007773406804,0.021882561966776848
0.02503734827041626,0.0049652294255793095,-0.018330629914999008,0.013123434036970139,-0.0007053224253468215,0.020376378670334816
0.025340568274259567,0.004815062042325735,-0.018066857010126114,0.012251006439328194,-0.0006489483057521284,0.02026945911347866
0.025359364226460457,0.005121960304677486,-0.017629383131861687,0.012072931043803692,-0.0005808996502310038,0.020994272083044052
0.025700824335217476,0.00532288383692503,-0.017224693670868874,0.012491823174059391,-0.0005997460684739053,0.02138190157711506
0.02575734816491604,0.004623563960194588,-0.01786423847079277,0.012125659734010696,-0.0005569059867411852,0.021758589893579483
0.025620494037866592,0.0045438408851623535,-0.018616346642374992,0.012242759577929974,-0.0005753655568696558,0.020855365321040154
0.026586558669805527,0.004993078764528036,-0.017589906230568886,0.012159069068729877,-0.0005407622084021568,0.02002706564962864
0.025922732427716255,0.005024490877985954,-0.018026508390903473,0.013224837370216846,-0.0005128146731294692,0.02068442665040493
0.025890612974762917,0.005252826493233442,-0.018128754571080208,0.012262565083801746,-0.0005311794811859727,0.021961452439427376
0.02569219470024109,0.005268943030387163,-0.017384769394993782,0.012217087671160698,-0.0005432858597487211,0.02178860269486904
0.025652047246694565,0.0047058225609362125,-0.018084904178977013,0.012938490137457848,-0.0005723439971916378,0.021019741892814636
0.026068994775414467,0.004984953440725803,-0.018033796921372414,0.012704058550298214,-0.0005637871799990535,0.021142635494470596
0.026163799688220024,0.005365729797631502,-0.018087347969412804,0.013259213417768478,-0.0005288912798278034,0.022583380341529846
0.02684713341295719,0.005113252438604832,-0.018111668527126312,0.013406558893620968,-0.0006663352833129466,0.022736119106411934
0.026657557114958763,0.005341194104403257,-0.017215793952345848,0.013533067889511585,-0.0006789891049265862,0.02148965746164322
0.026407161727547646,0.005105809774249792,-0.01803063228726387,0.013004029169678688,-0.0006774736102670431,0.02083556167781353
0.02712199091911316,0.005129193887114525,-0.01773240603506565,0.013029929250478745,-0.0006769211031496525,0.021675853058695793
0.026669545099139214,0.005089087877422571,-0.017987364903092384,0.013574992306530476,-0.000733061577193439,0.022407233715057373
0.026597056537866592,0.004921001382172108,-0.017537051811814308,0.013432255014777184,-0.0007675572414882481,0.022022400051355362
0.026552826166152954,0.005169116426259279,-0.017789533361792564,0.013705756515264511,-0.0007771680247969925,0.021912531927227974
0.027014942839741707,0.004941687919199467,-0.018080197274684906,0.013379850424826145,-0.0007039491320028901,0.02193186990916729
0.02716468647122383,0.0047364551573991776,-0.017543679103255272,0.014149194583296776,-0.0007001030026003718,0.021965201944112778
0.02716468647122383,0.0047364551573991776,-0.017543679103255272,0.014149194583296776,-0.0007001030026003718,0.021965201944112778
0.026889191940426826,0.004564197733998299,-0.01761014200747013,0.01387789472937584,-0.0006566232186742127,0.021707162261009216
0.027603235095739365,0.004583579022437334,-0.017371436581015587,0.01378002017736435,-0.0006542147020809352,0.021970247849822044
0.027780655771493912,0.004666946828365326,-0.018168773502111435,0.013656273484230042,-0.0005898797535337508,0.02182634361088276
0.027413850650191307,0.005159493535757065,-0.018590254709124565,0.01375590730458498,-0.0005727498210035264,0.022158967331051826
0.02753406949341297,0.005295658949762583,-0.017433492466807365,0.013651415705680847,-0.00055836042156443,0.022004906088113785
0.02802729792892933,0.004872480407357216,-0.017936917021870613,0.01358314510434866,-0.0005495453369803727,0.021965254098176956
0.029050704091787338,0.004931759089231491,-0.01834293268620968,0.013839805498719215,-0.0005396323394961655,0.022026939317584038
0.02864217758178711,0.005311868619173765,-0.017763834446668625,0.013440839946269989,-0.0005516374949365854,0.022593941539525986
0.025892488658428192,0.005063667893409729,-0.01816595159471035,0.013973797671496868,-0.0005280006444081664,0.022633463144302368
0.02853301167488098,0.005523666273802519,-0.0179551150649786,0.013586707413196564,-0.0005373125313781202,0.022373076528310776
0.02867293544113636,0.005261642392724752,-0.01804397813975811,0.01380454283207655,-0.0005674844142049551,0.022420208901166916
0.028097502887248993,0.004713705740869045,-0.01831294782459736,0.012960417196154594,-0.0005661083851009607,0.0226439256221056
0.028607727959752083,0.004921928979456425,-0.017572633922100067,0.013630139641463757,-0.0005550289642997086,0.022617321461439133
0.02944127470254898,0.004904476925730705,-0.018099132925271988,0.013595238327980042,-0.0005123982555232942,0.022649293765425682
0.029139069840312004,0.005136081483215094,-0.01824534684419632,0.013689370825886726,-0.0005324242520146072,0.022618114948272705
0.028646213933825493,0.005620140116661787,-0.017848968505859375,0.013663679361343384,-0.0005031732143834233,0.022693853825330734
0.028191043063998222,0.005193931050598621,-0.018451416864991188,0.014051394537091255,-0.0005475323996506631,0.02303219400346279
0.028900934383273125,0.004908654373139143,-0.018367962911725044,0.013698011636734009,-0.0005615470581687987,0.022782301530241966
0.02960306406021118,0.005185251589864492,-0.01826273836195469,0.014030850492417812,-0.000550224503967911,0.022608252242207527
0.029183708131313324,0.00512920506298542,-0.01848713308572769,0.014057043939828873,-0.0005020314711146057,0.023137493059039116
0.029051534831523895,0.005665893666446209,-0.01851819083094597,0.014208531938493252,-0.0005278037278912961,0.023225564509630203
0.028789393603801727,0.0053054955787956715,-0.01854672096669674,0.01446316484361887,-0.0005210781819187105,0.022942259907722473
0.028832199051976204,0.0052830795757472515,-0.01758439466357231,0.014463509432971478,-0.0005675932625308633,0.022369330748915672
0.02874755673110485,0.00519169308245182,-0.01812884211540222,0.014801609329879284,-0.000529587035998702,0.022213494405150414
0.029018685221672058,0.0054811048321425915,-0.018815703690052032,0.014338072389364243,-0.0005636205314658582,0.023023836314678192
0.028989046812057495,0.005592558067291975,-0.018672464415431023,0.014636554755270481,-0.0005570860230363905,0.023465093225240707
0.02873818203806877,0.005533822812139988,-0.019441941753029823,0.014059154316782951,-0.0005465840804390609,0.023239603266119957
0.029323063790798187,0.0056779999285936356,-0.019175821915268898,0.014565953053534031,-0.0005674782441928983,0.023633606731891632
0.029194815084338188,0.005446297582238913,-0.018169961869716644,0.01404939778149128,-0.0005340047064237297,0.024189189076423645
0.029194815084338188,0.005446297582238913,-0.018169961869716644,0.01404939778149128,-0.0005340047064237297,0.024189189076423645
0.028953831642866135,0.0056877112947404385,-0.01839049905538559,0.014263957738876343,-0.0005924138822592795,0.023772679269313812
0.02927890606224537,0.005382937844842672,-0.018179364502429962,0.014256168156862259,-0.0006299341912381351,0.023634478449821472
0.02925967052578926,0.005414528306573629,-0.0185101181268692,0.01399439387023449,-0.0006464329781010747,0.023114319890737534
0.027903513982892036,0.005274525843560696,-0.019131286069750786,0.01378269586712122,-0.0006065874476917088,0.022987624630331993
0.029313327744603157,0.005523781292140484,-0.018614929169416428,0.014188681729137897,-0.00062817387515679,0.0235840305685997
0.030351871624588966,0.0052421619184315205,-0.018442442640662193,0.014695273712277412,-0.0005822358652949333,0.024399764835834503
0.030317330732941628,0.005004537757486105,-0.019111420959234238,0.01444795448333025,-0.0006496876594610512,0.02414758875966072
0.03003113903105259,0.005634188186377287,-0.018577175214886665,0.01454812940210104,-0.0005839440273120999,0.024022048339247704
0.02902393974363804,0.005492547992616892,-0.019078658893704414,0.014662609435617924,-0.0005178424762561917,0.023879610002040863
0.029593175277113914,0.0052496325224637985,-0.019214512780308723,0.014432722702622414,-0.0005442521069198847,0.02377667836844921
0.030480055138468742,0.004941243212670088,-0.018005726858973503,0.01439628005027771,-0.0005042236298322678,0.0238492414355278
0.030108001083135605,0.0052890535444021225,-0.018808243796229362,0.014451973140239716,-0.00046177164767868817,0.024170219898223877
0.030562549829483032,0.005602688528597355,-0.0188220776617527,0.014502829872071743,-0.00047744286712259054,0.024350756779313087
0.03079134412109852,0.0057327658869326115,-0.018597446382045746,0.014281218871474266,-0.00045880815014243126,0.024189958348870277
0.03095388412475586,0.005612419452518225,-0.018228750675916672,0.013611444272100925,-0.00042863108683377504,0.02444630116224289
0.03026594966650009,0.005258125253021717,-0.019260505214333534,0.014149993658065796,-0.0004435802111402154,0.02448062226176262
0.030266473069787025,0.005331350024789572,-0.019255278632044792,0.014759567566215992,-0.000430244515882805,0.024467708542943
0.03066207468509674,0.005645304452627897,-0.019347183406352997,0.015158707275986671,-0.0003889799991156906,0.025405269116163254
0.030918773263692856,0.0054718260653316975,-0.019028419628739357,0.014963769353926182,-0.00039177873986773193,0.024694718420505524
0.030823029577732086,0.0057341293431818485,-0.019243167713284492,0.01499155256897211,-0.00041218457045033574,0.024212704971432686
0.030634384602308273,0.005420333240181208,-0.0187105480581522,0.014565059915184975,-0.00040016043931245804,0.024767912924289703
0.030296601355075836,0.005774577148258686,-0.01887410320341587,0.014662796631455421,-0.00042371777817606926,0.02492280676960945
0.03061819262802601,0.005612692795693874,-0.019676560536026955,0.014039184898138046,-0.00040654136682860553,0.024458488449454308
0.03064560703933239,0.005672542843967676,-0.01934378407895565,0.014936454594135284,-0.0005835229530930519,0.024538898840546608
0.030861543491482735,0.0051513598300516605,-0.019068140536546707,0.015029678121209145,-0.0006282561807893217,0.024586960673332214
0.031086379662156105,0.005293643102049828,-0.020118489861488342,0.015788977965712547,-0.0006510244566015899,0.024897603318095207
0.03136788308620453,0.005706185009330511,-0.019783740863204002,0.01550534088164568,-0.000663324142806232,0.024914201349020004
0.03164072707295418,0.005354324355721474,-0.018899228423833847,0.015792278572916985,-0.0006257688510231674,0.024812716990709305
0.02983258105814457,0.0056657628156244755,-0.019346360117197037,0.015240312553942204,-0.0007179559324868023,0.024849722161889076
0.02983258105814457,0.0056657628156244755,-0.019346360117197037,0.015240312553942204,-0.0007179559324868023,0.024849722161889076
0.03194687142968178,0.005496366880834103,-0.019390076398849487,0.015640929341316223,-0.0006625475944019854,0.024629727005958557
0.03171970695257187,0.005209889728575945,-0.019170373678207397,0.015330614522099495,-0.0006797313108108938,0.024756629019975662
0.03148733451962471,0.004949409980326891,-0.01970483921468258,0.016261057928204536,-0.0006906981579959393,0.02496008388698101
0.031157195568084717,0.005663932766765356,-0.019410265609622,0.0157548226416111,-0.0006882529705762863,0.025128373876214027
0.031091969460248947,0.0053837960585951805,-0.018949251621961594,0.015523333102464676,-0.0006660703802481294,0.02489641308784485
0.03161515295505524,0.005435374565422535,-0.019627129659056664,0.015659552067518234,-0.0006570316036231816,0.024681109935045242
0.03151581808924675,0.005576668307185173,-0.01943916268646717,0.015426890924572945,-0.000613447860814631,0.024720918387174606
0.03201606124639511,0.005108175333589315,-0.018902139738202095,0.01563173346221447,-0.0006213999586179852,0.02523229643702507
0.03197738155722618,0.005141227040439844,-0.019418174400925636,0.015089276246726513,-0.0005790264694951475,0.025398030877113342
0.03213512897491455,0.004525198135524988,-0.019440490752458572,0.01560134906321764,-0.0006054167170077562,0.02537611871957779
0.03230389580130577,0.004600817803293467,-0.018800053745508194,0.015631992369890213,-0.0005956870736554265,0.024494066834449768
0.03238231688737869,0.005143915303051472,-0.019401278346776962,0.016176415607333183,-0.0005838824436068535,0.02441512979567051
0.032049957662820816,0.004864655435085297,-0.020045360550284386,0.015725303441286087,-0.0006808100151829422,0.025213222950696945
0.031805891543626785,0.004605676047503948,-0.019092820584774017,0.015949754044413567,-0.0007389755919575691,0.026110999286174774
0.032160431146621704,0.004443424288183451,-0.019443849101662636,0.0158776193857193,-0.0007587241125293076,0.025801101699471474
0.03332160413265228,0.004753314424306154,-0.019865863025188446,0.015828324481844902,-0.0008893303456716239,0.0269538015127182
0.03217202425003052,0.004882729146629572,-0.01970014162361622,0.015805035829544067,-0.0008500429103150964,0.026538953185081482
0.031549859791994095,0.004920180421322584,-0.01964709721505642,0.016185814514756203,-0.000791712140198797,0.02474685199558735
0.03292908892035484,0.004953787662088871,-0.019441381096839905,0.01564965397119522,-0.0008011666359379888,0.02522190287709236
0.032600194215774536,0.004389339126646519,-0.019467530772089958,0.01563911885023117,-0.0007918452029116452,0.026311099529266357
0.03282243758440018,0.004470405168831348,-0.019655857235193253,0.015488263219594955,-0.0007343512261286378,0.026908302679657936
0.03365016356110573,0.0044295391999185085,-0.019523009657859802,0.01580691523849964,-0.0006853638333268464,0.026688097044825554
0.032575394958257675,0.004798888694494963,-0.01998332515358925,0.015402096323668957,-0.0006878113490529358,0.026072025299072266
0.03239760547876358,0.004930333700031042,-0.020012808963656425,0.01578599214553833,-0.0006847192998975515,0.026246612891554832
0.03239760547876358,0.004930333700031042,-0.020012808963656425,0.01578599214553833,-0.0006847192998975515,0.026246612891554832
0.03319487348198891,0.004309176001697779,-0.01929786428809166,0.016164107248187065,-0.0006848882767371833,0.02590193599462509
0.03352486714720726,0.0040791877545416355,-0.02077389322221279,0.01599317230284214,-0.0007989558507688344,0.025730643421411514
0.03352486714720726,0.0040791877545416355,-0.02077389322221279,0.01599317230284214,-0.0007989558507688344,0.025730643421411514
0.03348366543650627,0.00477673439309001,-0.019512809813022614,0.01605897583067417,-0.0007188143208622932,0.026079867035150528
0.03348366543650627,0.00477673439309001,-0.019512809813022614,0.01605897583067417,-0.0007188143208622932,0.026079867035150528
0.033330533653497696,0.005092544015496969,-0.020492518320679665,0.015538638457655907,-0.0007332221139222383,0.026262635365128517
0.03293759003281593,0.0047262306325137615,-0.020278865471482277,0.016002004966139793,-0.0007439147448167205,0.02651655487716198
0.033824726939201355,0.004295126534998417,-0.019807221367955208,0.015641050413250923,-0.0007217975216917694,0.026712564751505852
0.03338270261883736,0.004449264612048864,-0.019781013950705528,0.015727385878562927,-0.0006591075798496604,0.026709724217653275
0.03285643458366394,0.004707342013716698,-0.02033173479139805,0.01555277593433857,-0.0006840433925390244,0.026765769347548485
0.033305805176496506,0.004796771798282862,-0.019987009465694427,0.01578703708946705,-0.0007012512069195509,0.026463069021701813
0.03366520255804062,0.004446169827133417,-0.01997513137757778,0.016052747145295143,-0.0006862657610327005,0.026534661650657654
0.03345271944999695,0.004488267004489899,-0.020406637340784073,0.01606651395559311,-0.0006635843310505152,0.02648754231631756
0.03344837948679924,0.004657112993299961,-0.02055695280432701,0.01649853028357029,-0.0006691257003694773,0.02665051817893982
0.033694710582494736,0.004761119373142719,-0.02023458480834961,0.016029762104153633,-0.0006343965069390833,0.026888228952884674
0.0346069261431694,0.0046402341686189175,-0.020210379734635353,0.016383294016122818,-0.0006407406181097031,0.02707013487815857
0.03229338303208351,0.00447052763774991,-0.019848370924592018,0.016675928607583046,-0.0006205740501172841,0.026489656418561935
0.03406558558344841,0.004578791558742523,-0.019699007272720337,0.016720186918973923,-0.0006400942802429199,0.027049243450164795
0.03449851647019386,0.0051278057508170605,-0.020377112552523613,0.016422774642705917,-0.0005998528795316815,0.02823111042380333
0.03438786044716835,0.004594652447849512,-0.02041730098426342,0.01645790971815586,-0.0006233868189156055,0.02802368625998497
0.03493829444050789,0.004407697822898626,-0.0200264360755682,0.016165511682629585,-0.0006561877089552581,0.0268683061003685
0.03456800431013107,0.004623405169695616,-0.02029757760465145,0.016870656982064247,-0.0006633728626184165,0.026212362572550774
0.03398151323199272,0.004853937774896622,-0.020709853619337082,0.01768977753818035,-0.0006855168612673879,0.027123726904392242
0.03398151323199272,0.004853937774896622,-0.020709853619337082,0.01768977753818035,-0.0006855168612673879,0.027123726904392242
0.03395012021064758,0.004785491619259119,-0.020223820582032204,0.017794432118535042,-0.0007691839709877968,0.02781655080616474
0.03540574759244919,0.004644825588911772,-0.020026348531246185,0.0172906331717968,-0.0008707655360922217,0.02761107124388218
0.03503548726439476,0.004882595967501402,-0.020329607650637627,0.01627635955810547,-0.0008477243827655911,0.027915215119719505
0.03414800018072128,0.004759966861456633,-0.020140500739216805,0.015984784811735153,-0.0007979052606970072,0.028774263337254524
0.035175617784261703,0.004685025662183762,-0.02007150650024414,0.015794668346643448,-0.0008056287770159543,0.0276065394282341
0.03510542958974838,0.004674569237977266,-0.020588867366313934,0.01698262244462967,-0.0008301651105284691,0.027437668293714523
0.03495677933096886,0.004456670489162207,-0.020274780690670013,0.01671781949698925,-0.0008402186213061213,0.02694583125412464
0.03516549617052078,0.004583558067679405,-0.019961729645729065,0.01701190136373043,-0.000756847090087831,0.02768588252365589
0.03507935255765915,0.004786447621881962,-0.0201839841902256,0.01706010475754738,-0.0007683176081627607,0.0286860391497612
0.03549293056130409,0.005118787754327059,-0.02013200893998146,0.016422612592577934,-0.0007628524326719344,0.028424592688679695
0.03533276170492172,0.004889213014394045,-0.01950089819729328,0.017487782984972,-0.0007157599902711809,0.028018705546855927
0.035488713532686234,0.004907248541712761,-0.019969623535871506,0.017077628523111343,-0.0006983039784245193,0.028102707117795944
0.035429805517196655,0.004742103163152933,-0.020423073321580887,0.01769687794148922,-0.0007224924047477543,0.027882281690835953
0.03561675548553467,0.004783419892191887,-0.0198703370988369,0.017191968858242035,-0.0007434306899085641,0.02754611149430275
0.03599151596426964,0.004806854296475649,-0.019922466948628426,0.016718192026019096,-0.0007536111515946686,0.02798912115395069
0.035367079079151154,0.004712987691164017,-0.02035032957792282,0.017502758651971817,-0.0008773030713200569,0.02838345803320408
0.03522269427776337,0.004619770683348179,-0.02018781751394272,0.016940008848905563,-0.0009024650207720697,0.02809254452586174
0.03624414652585983,0.004597244318574667,-0.02015107311308384,0.017253821715712547,-0.0008803325472399592,0.028280220925807953
0.03565803915262222,0.004700231831520796,-0.02005865052342415,0.01724088378250599,-0.0008073133649304509,0.028109489008784294
0.03548840805888176,0.005114255007356405,-0.0201544389128685,0.017581047490239143,-0.0007273309747688472,0.02840154990553856
0.03639218211174011,0.004901965148746967,-0.02065655030310154,0.017097771167755127,-0.0006775354850105941,0.028627309948205948
0.036153197288513184,0.004690752364695072,-0.02102031745016575,0.017407972365617752,-0.000650765432510525,0.028321266174316406
0.03615757077932358,0.00512830913066864,-0.02025553025305271,0.017344553023576736,-0.0006259283400140703,0.028300773352384567
0.0361405685544014,0.0050322264432907104,-0.020635589957237244,0.01686951518058777,-0.0006324780988506973,0.028612112626433372
0.036091096699237823,0.004842515103518963,-0.02055804617702961,0.017086930572986603,-0.0006351388292387128,0.028374245390295982
0.036091096699237823,0.004842515103518963,-0.02055804617702961,0.017086930572986603,-0.0006351388292387128,0.028374245390295982
0.035863324999809265,0.004617176949977875,-0.020364416763186455,0.016831109300255775,-0.0006190029671415687,0.02865992859005928
0.03621714562177658,0.00477739330381155,-0.020081911236047745,0.01706666685640812,-0.0006464029429480433,0.028947222977876663
0.037541694939136505,0.004917585756629705,-0.02088773436844349,0.017059026286005974,-0.000590341747738421,0.028995174914598465
0.036327287554740906,0.004796357359737158,-0.020730502903461456,0.016842633485794067,-0.000620417355094105,0.029303032904863358
0.03524845838546753,0.0045506153255701065,-0.0199615228921175,0.01722669042646885,-0.0005621995660476387,0.028704922646284103
0.03642246499657631,0.0048724934458732605,-0.020649971440434456,0.016957301646471024,-0.0005883043631911278,0.029508985579013824
0.0363297238945961,0.004830960649996996,-0.0211567934602499,0.0173034630715847,-0.0006096226861700416,0.028998389840126038
0.037816666066646576,0.0048545659519732,-0.020928606390953064,0.016781620681285858,-0.0006355151417665184,0.02923482097685337
0.03738602623343468,0.004522294271737337,-0.02009996958076954,0.016739793121814728,-0.0007050413405522704,0.030192643404006958
0.03610120713710785,0.004361794795840979,-0.020277637988328934,0.01717551425099373,-0.0007309732027351856,0.029263755306601524
0.03541462495923042,0.004446652252227068,-0.02001766860485077,0.016791420057415962,-0.0007494529709219933,0.028324561193585396
0.03712867572903633,0.004499885719269514,-0.020160766318440437,0.017490370199084282,-0.0007000297773629427,0.028553014621138573
0.03717594966292381,0.0042596179991960526,-0.020216023549437523,0.017261117696762085,-0.0008482177508994937,0.029939014464616776
0.03677333518862724,0.004538299981504679,-0.02100549265742302,0.017207330092787743,-0.000850627722684294,0.02955561876296997
0.03724593296647072,0.004561117384582758,-0.020847594365477562,0.01741037517786026,-0.0007646188605576754,0.029504597187042236
0.03685600310564041,0.004487587139010429,-0.020206689834594727,0.01729751192033291,-0.0007752017700113356,0.030325861647725105
0.037080712616443634,0.00418416503816843,-0.02039152756333351,0.018181556835770607,-0.0007818261510692537,0.030425449833273888
0.0376252755522728,0.004395096097141504,-0.020702335983514786,0.017827529460191727,-0.000722746888641268,0.029784541577100754
0.037012502551078796,0.004380323924124241,-0.020443078130483627,0.017559822648763657,-0.0006997759337536991,0.030007271096110344
0.03678014501929283,0.0043283868581056595,-0.020902257412672043,0.0174298956990242,-0.0007726905751042068,0.030683862045407295
0.037422697991132736,0.004450532607734203,-0.020843083038926125,0.017796523869037628,-0.0009150606929324567,0.030561545863747597
0.03820780664682388,0.004484548233449459,-0.02036770060658455,0.01780017279088497,-0.0010324164759367704,0.03022320754826069
0.037449028342962265,0.004218425136059523,-0.020642781630158424,0.017639709636569023,-0.0010382531909272075,0.030272044241428375
0.035902708768844604,0.00457043619826436,-0.02108382247388363,0.017528213560581207,-0.0010200660908594728,0.029633903875947
0.037216268479824066,0.004713660571724176,-0.020383328199386597,0.017371289432048798,-0.0009940514573827386,0.03002285212278366
0.037216268479824066,0.004713660571724176,-0.020383328199386597,0.017371289432048798,-0.0009940514573827386,0.03002285212278366
0.036950837820768356,0.004544742405414581,-0.020340604707598686,0.01775827258825302,-0.0008928372990339994,0.030404411256313324
0.037570055574178696,0.004759595263749361,-0.020652759820222855,0.017896950244903564,-0.0008777399198152125,0.03047957457602024
0.03858478367328644,0.004726849962025881,-0.02061966061592102,0.017890682443976402,-0.0007698649424128234,0.03023051656782627
0.03679891675710678,0.00435249088332057,-0.020346615463495255,0.01833992451429367,-0.0007786454516462982,0.03010125271975994
0.03575184941291809,0.004522115457803011,-0.020731104537844658,0.018418045714497566,-0.0007718742708675563,0.03043237514793873
0.03805496171116829,0.004265471827238798,-0.0214091669768095,0.017884695902466774,-0.0007176529034040868,0.030787819996476173
0.037856459617614746,0.00439114635810256,-0.020907755941152573,0.01853926107287407,-0.0006403743172995746,0.028954703360795975
0.037831179797649384,0.004556944593787193,-0.020931055769324303,0.018543358892202377,-0.0006436423282139003,0.03073922172188759
0.03754383325576782,0.0045756264589726925,-0.021283961832523346,0.018589990213513374,-0.0006453295354731381,0.03076843172311783
0.037487518042325974,0.004334382712841034,-0.021472452208399773,0.018406078219413757,-0.0006258005159907043,0.030325958505272865
0.037796758115291595,0.004514428786933422,-0.021406758576631546,0.018896957859396935,-0.0006477251299656928,0.030979076400399208
0.03822232782840729,0.004254643805325031,-0.021489975973963737,0.01977008953690529,-0.0006908852374181151,0.031087230890989304
0.03803956136107445,0.0042540933936834335,-0.02165253274142742,0.019421014934778214,-0.0007440629415214062,0.03149968013167381
0.0381004735827446,0.004088153596967459,-0.021796459332108498,0.018590416759252548,-0.0007094729808159173,0.030847614631056786
0.03825870156288147,0.0044098650105297565,-0.021398423239588737,0.018539076671004295,-0.0007280262070707977,0.031226355582475662
0.038693618029356,0.004253573715686798,-0.021439678966999054,0.018915636464953423,-0.0007394073763862252,0.032541774213314056
0.03848470374941826,0.0041167535819113255,-0.021930355578660965,0.01938067376613617,-0.0008134163799695671,0.03075578436255455
0.03848470374941826,0.0041167535819113255,-0.021930355578660965,0.01938067376613617,-0.0008134163799695671,0.03075578436255455
0.03893270716071129,0.004192562308162451,-0.022560346871614456,0.01857868954539299,-0.0008364042150788009,0.03172348439693451
0.038953885436058044,0.004031194373965263,-0.02256123349070549,0.018836133182048798,-0.0007955867331475019,0.03174476698040962
0.03923795372247696,0.003970021847635508,-0.022013531997799873,0.01900571398437023,-0.0008537163957953453,0.03222523257136345
0.039245929569005966,0.0039939540438354015,-0.021303143352270126,0.018992651253938675,-0.0008449225570075214,0.0325772725045681
