davideferrari95/blind_handover_controller/data/Test 162 - [2024-02-08 -- 11-04-16]/joint_states_data.csv
shoulder_pan_joint,shoulder_lift_joint,elbow_joint,wrist_1_joint,wrist_2_joint,wrist_3_joint
-0.0020423000678420067,-0.01140496414154768,-4.8943667722194453e-14,0.010476455092430115,-0.0,-0.002782429801300168
-0.0020423000678420067,-0.01140496414154768,-4.8943667722194453e-14,0.010476455092430115,-0.0,-0.002782429801300168
-0.001843078644014895,-0.010216585360467434,-0.0015032069059088826,0.01106676459312439,-0.0,-0.002886055735871196
-0.001843078644014895,-0.010216585360467434,-0.0015032069059088826,0.01106676459312439,-0.0,-0.002886055735871196
-0.0017833809833973646,-0.010271232575178146,-0.0012534259585663676,0.010498522780835629,-0.0,-0.0029071385506540537
-0.001670385361649096,-0.010885581374168396,-0.0009814552031457424,0.010254116728901863,-0.0,-0.0027519676368683577
-0.0019373820396140218,-0.010312540456652641,-0.0008053993806242943,0.010354592464864254,-0.0,-0.002497955923900008
-0.0020754714496433735,-0.01079543586820364,-0.0006829824997112155,0.010176438838243484,-0.0,-0.0026081204414367676
-0.002300140680745244,-0.010657468810677528,-0.0005928931059315801,0.010300190187990665,-0.0,-0.0026612314395606518
-0.0022713954094797373,-0.01035977154970169,-0.0006240554503165185,0.010728530585765839,-0.0,-0.0027232025749981403
-0.002044025808572769,-0.01053487416356802,-0.0005098241381347179,0.01071145012974739,-0.0,-0.0022595913615077734
-0.001986792543902993,-0.010480520315468311,-0.00046582601498812437,0.011576100252568722,-0.0,-0.0021950092632323503
-0.0020572408102452755,-0.01088348962366581,-0.00042882206616923213,0.011306600645184517,-0.0,-0.002301994478330016
-0.002075441414490342,-0.010970384813845158,-0.00039726714021526277,0.011234935373067856,-0.0,-0.0025771029759198427
-0.002291613956913352,-0.010509331710636616,-0.0003700368106365204,0.01119806244969368,-0.0,-0.00301867607049644
-0.0021122179459780455,-0.01050267368555069,-0.00034630426671355963,0.010683664120733738,-0.0,-0.002983824349939823
-0.0022343224845826626,-0.009887827560305595,-0.0003254287876188755,0.010925397276878357,-0.0,-0.0031498116441071033
-0.00203899247571826,-0.010128634981811047,-0.00030692885047756135,0.011079919524490833,-0.0,-0.002928640693426132
-0.0019958866760134697,-0.010378019884228706,-0.00029042139067314565,0.011263305321335793,-0.0,-0.0025608805008232594
-0.0018997673178091645,-0.010649779811501503,-0.00030569330556318164,0.011118456721305847,-0.0,-0.0025471949484199286
-0.0019123177044093609,-0.01032936666160822,-0.0003057025605812669,0.010268949903547764,-0.0,-0.0026652098167687654
-0.0022146361880004406,-0.010138137266039848,-0.0002917446836363524,0.010713215917348862,-0.0,-0.00241369241848588
-0.002188372192904353,-0.009937172755599022,-0.0002788343408610672,0.011050047352910042,-0.0,-0.0023554142098873854
-0.002390387002378702,-0.01026123110204935,-0.0002920377010013908,0.010748712345957756,-0.0,-0.002109964843839407
-0.0021322655957192183,-0.010835076682269573,-0.00029257600544951856,0.010965024121105671,-0.0,-0.002166982274502516
-0.002135296817868948,-0.010182006284594536,-0.00028131104772910476,0.010828410275280476,-0.0,-0.002295603509992361
-0.0020908506121486425,-0.010461956262588501,-0.00027073503588326275,0.010710928589105606,-0.0,-0.0023255564738065004
-0.0020908506121486425,-0.010461956262588501,-0.00027073503588326275,0.010710928589105606,-0.0,-0.0023255564738065004
-0.00239549926482141,-0.009899969212710857,-0.00025304334121756256,0.010435326024889946,-0.0,-0.0028385184705257416
-0.00239549926482141,-0.009899969212710857,-0.00025304334121756256,0.010435326024889946,-0.0,-0.0028385184705257416
-0.002348683774471283,-0.0108793368563056,-0.0001667270844336599,0.011011741124093533,-0.0,-0.0028056420851498842
-0.0023943455889821053,-0.010079475119709969,-0.00015977301518432796,0.010797522030770779,-0.0,-0.0026565855368971825
-0.002429745625704527,-0.009777726605534554,-0.00015428131155204028,0.010245980694890022,-0.0,-0.002527486067265272
-0.0023192311637103558,-0.010085144080221653,-0.00014916669169906527,0.010707414709031582,-0.0,-0.002546683419495821
-0.0024497013073414564,-0.010668185539543629,-0.00016334923566319048,0.010611292906105518,-0.0,-0.002453845925629139
-0.002355254953727126,-0.010157501325011253,-0.00016773754032328725,0.010486487299203873,-0.0,-0.002514682710170746
-0.0024806142318993807,-0.01016218401491642,-0.00016280739509966224,0.01039854809641838,-0.0,-0.0022581012453883886
-0.0023787773679941893,-0.009701307862997055,-0.00018332304898649454,0.010313046164810658,-0.0,-0.0022237005177885294
-0.0023097647354006767,-0.010523675940930843,-0.00017418854986317456,0.010098964907228947,-0.0,-0.002313013654202223
-0.0023097647354006767,-0.010523675940930843,-0.00017418854986317456,0.010098964907228947,-0.0,-0.002313013654202223
-0.0024037230759859085,-0.00976695865392685,-0.0001886370882857591,0.010216299444437027,-0.0,-0.0030777892097830772
-0.002625195775181055,-0.009883789345622063,-0.0001838249881984666,0.010669325478374958,-0.0,-0.0031028343364596367
-0.0023325129877775908,-0.009703781455755234,-0.00027038250118494034,0.010622109286487103,-0.0,-0.0029345639050006866
-0.0022863945923745632,-0.009690666571259499,-0.0002977061958517879,0.011177988722920418,-0.0,-0.0028067873790860176
-0.002372689312323928,-0.009596684947609901,-0.00027980213053524494,0.010935649275779724,-0.0,-0.0024884596932679415
-0.0022159803193062544,-0.00914495438337326,-0.0002634279371704906,0.0105112474411726,-0.0,-0.002396075055003166
-0.002107518259435892,-0.009891599416732788,-0.0002488582395017147,0.01108692679554224,-0.0,-0.0023888947907835245
-0.002098466269671917,-0.009287744760513306,-0.0002823108807206154,0.01030591782182455,-0.0,-0.002163220662623644
-0.0023185093887150288,-0.009551049210131168,-0.0002688775130081922,0.009753662161529064,-0.0,-0.0021124137565493584
-0.002272422192618251,-0.010070252232253551,-0.00025613169418647885,0.010437642224133015,-0.0,-0.0022437996231019497
-0.0022074738517403603,-0.01039760559797287,-0.00024453227524645627,0.009971446357667446,-0.0,-0.0023016647901386023
-0.0022879180032759905,-0.009760999120771885,-0.00025951224961318076,0.009302996098995209,-0.0,-0.002625099616125226
-0.00215769000351429,-0.010039737448096275,-0.00026141441776417196,0.010365739464759827,-0.0,-0.002776999259367585
-0.0021857363171875477,-0.010583119466900826,-0.0002511627390049398,0.010006745345890522,-0.0,-0.002594355959445238
-0.0021857363171875477,-0.010583119466900826,-0.0002511627390049398,0.010006745345890522,-0.0,-0.002594355959445238
-0.0021373440977185965,-0.009791535325348377,-0.00024153497361112386,0.009405393153429031,-0.0,-0.0023942787665873766
-0.0022475379519164562,-0.010031166486442089,-0.00026192545192316175,0.009647208265960217,-0.0,-0.0022010074462741613
-0.002149779349565506,-0.010036608204245567,-0.0002563282323535532,0.009828607551753521,-0.0,-0.002285892143845558
-0.0020957868546247482,-0.01065841969102621,-0.0002484582073520869,0.010005874559283257,-0.0,-0.0024135378189384937
-0.002281252993270755,-0.010415427386760712,-0.0002759270428214222,0.010293573141098022,-0.0,-0.0025984745007008314
-0.0022273927461355925,-0.01030114758759737,-0.00026052503380924463,0.009960505180060863,-0.0,-0.002781487302854657
-0.0024299677461385727,-0.009881616570055485,-0.0002935035154223442,0.009567579254508018,-0.0,-0.002516887616366148
-0.002336776116862893,-0.010452499613165855,-0.00028016575379297137,0.009615417569875717,-0.0,-0.0022683716379106045
-0.0024450828786939383,-0.010293765924870968,-0.00026636969414539635,0.009642358869314194,-0.0,-0.0021697687916457653
-0.002319351304322481,-0.010845259763300419,-0.00025384750915691257,0.009611327201128006,-0.0,-0.0023430741857737303
-0.0021648311521857977,-0.011023513972759247,-0.000270680378889665,0.010466143488883972,-0.0,-0.0030258174519985914
-0.0021045925095677376,-0.01142837293446064,-0.0002595487458165735,0.009869768284261227,0.00014973316865507513,-0.0027935970574617386
-0.0024167026858776808,-0.01056765764951706,-0.00024927876074798405,0.009689625352621078,0.00017999754345510155,-0.0024782982654869556
-0.0021972658578306437,-0.010255358181893826,-0.00023979081015568227,0.009567702189087868,0.00017535247025080025,-0.002173318527638912
-0.00229978421702981,-0.010260109789669514,-0.00023099809186533093,0.008981652557849884,0.00016892403073143214,-0.002029110211879015
-0.0019497319590300322,-0.010250108316540718,-0.0002533708175178617,0.009358418174088001,0.00016282100114040077,-0.0020575791131705046
-0.002068480709567666,-0.010168288834393024,-0.0002459437819197774,0.009034916758537292,0.00015713532047811896,-0.0023965451400727034
-0.0020949069876223803,-0.011094119399785995,-0.00023783503274898976,0.008769246749579906,0.00017817498883232474,-0.0030139246955513954
-0.002031666226685047,-0.010337048210203648,-0.0002311561838723719,0.009983532130718231,0.00017598927661310881,-0.002656571101397276
-0.002071118913590908,-0.01026615034788847,-0.00026361309573985636,0.008847947232425213,0.00017066321743186563,-0.002479841699823737
-0.0020150390919297934,-0.010235020890831947,-0.0002496083325240761,0.007986988872289658,0.00016544917889405042,-0.0023607255425304174
-0.0021202152129262686,-0.009718971326947212,-0.0002781695802696049,0.008636166341602802,0.00016053163562901318,-0.0021468757186084986
-0.0018140487372875214,-0.010611746460199356,-0.0002695485018193722,0.00826205499470234,0.0001801325415726751,-0.00220590946264565
-0.0015858426922932267,-0.010530684143304825,-0.00025680105318315327,0.008488058112561703,0.00017666163330432028,-0.0023283849004656076
-0.0013163033872842789,-0.010140706785023212,-0.00024514261167496443,0.00913692731410265,0.00017194276733789593,-0.002348701935261488
-0.0011128101032227278,-0.009819661267101765,-0.00026895158225670457,0.009898323565721512,0.0001673814986133948,-0.002496471395716071
-0.0011128101032227278,-0.009819661267101765,-0.00026895158225670457,0.009898323565721512,0.0001673814986133948,-0.002496471395716071
-0.0007993478793650866,-0.00963581446558237,-0.00028342462610453367,0.009611591696739197,0.00017576487152837217,-0.0025437641888856888
-0.0008216510759666562,-0.009927041828632355,-0.0002765667741186917,0.009579045698046684,0.00017678756557870656,-0.0027662969660013914
-0.0008216510759666562,-0.009927041828632355,-0.0002765667741186917,0.009579045698046684,0.00017678756557870656,-0.0027662969660013914
-0.0012216510949656367,-0.009981086477637291,-0.0003320830874145031,0.009939935058355331,0.000168858707183972,-0.0025720964185893536
-0.0012216510949656367,-0.009981086477637291,-0.0003320830874145031,0.009939935058355331,0.000168858707183972,-0.0025720964185893536
-0.0010807585204020143,-0.009753764607012272,-0.00032008838024921715,0.009855588898062706,0.0001612947235116735,-0.0022335464600473642
-0.0010807585204020143,-0.009753764607012272,-0.00032008838024921715,0.009855588898062706,0.0001612947235116735,-0.0022335464600473642
-0.000976620358414948,-0.009877769276499748,-0.0002988337946590036,0.009889490902423859,0.00017823728558141738,-0.0021679492201656103
-0.0008603947935625911,-0.009321305900812149,-0.0002802219532895833,0.010020652785897255,0.00019021081971004605,-0.002331198425963521
-0.000737421796657145,-0.009538422338664532,-0.0002637934812810272,0.01012180745601654,0.00018371974874753505,-0.002985070925205946
-0.0007143383845686913,-0.009164121001958847,-0.0002983113517984748,0.00932287611067295,0.00017659191507846117,-0.003120292443782091
-0.0006647650734521449,-0.009081553667783737,-0.0002833194739650935,0.008557409048080444,0.00019506228272803128,-0.0030588035006076097
-0.000714543741196394,-0.009147404693067074,-0.00029894846375100315,0.008676495403051376,0.00018955553241539747,-0.0025877556763589382
-0.000938504294026643,-0.009460697881877422,-0.00028559070779010653,0.008829167112708092,0.0001831592235248536,-0.00288843153975904
-0.0009352824417874217,-0.009778467006981373,-0.0002732071152422577,0.009042778052389622,0.00017715188732836396,-0.0030020675621926785
-0.0008518073009327054,-0.009449027478694916,-0.0002618518774397671,0.00867090467363596,0.00017152464715763927,-0.003205394372344017
-0.0008564127492718399,-0.009365391917526722,-0.00028307075263001025,0.008416326716542244,0.00017983488214667886,-0.0028849567752331495
-0.0007666090386919677,-0.009441966190934181,-0.0002762331278063357,0.008469588123261929,0.0001872357097454369,-0.002480416791513562
-0.0007515602628700435,-0.008985615335404873,-0.00026607888867147267,0.008787821978330612,0.00018264047685079277,-0.002439877251163125
-0.0006469706422649324,-0.00899591390043497,-0.0002578004205133766,0.009205195121467113,0.000177547219209373,-0.0025819363072514534
-0.000677006843034178,-0.009374559856951237,-0.0002599862636998296,0.009198260493576527,0.00017268367810174823,-0.002769522136077285
-0.0006681649829261005,-0.009465777315199375,-0.0002460010291542858,0.00851690024137497,0.00018586893565952778,-0.00281737232580781
-0.0006535894935950637,-0.009471219033002853,-0.00026608241023495793,0.00894933007657528,0.0001823303900891915,-0.002858925610780716
-0.0006535894935950637,-0.009471219033002853,-0.00026608241023495793,0.00894933007657528,0.0001823303900891915,-0.002858925610780716
-0.0006020549917593598,-0.009501654654741287,-0.00028131986618973315,0.008850825019180775,0.00017808080883696675,-0.0028472202830016613
-0.0005752366269007325,-0.009280347265303135,-0.0002824091352522373,0.008711030706763268,0.00022951913706492633,-0.002697199583053589
-0.0005752366269007325,-0.009280347265303135,-0.0002824091352522373,0.008711030706763268,0.00022951913706492633,-0.002697199583053589
-0.0005507766036316752,-0.009235992096364498,-0.0002920018741860986,0.009095135144889355,0.00021193928841967136,-0.0026390410494059324
-0.0005507766036316752,-0.009235992096364498,-0.0002920018741860986,0.009095135144889355,0.00021193928841967136,-0.0026390410494059324
-0.0005797011544927955,-0.008684302680194378,-0.0002846073475666344,0.008534902706742287,0.00023749182582832873,-0.0025408193469047546
-0.0005337503971531987,-0.00887648481875658,-0.0002738379407674074,0.008251801133155823,0.0002320935163879767,-0.002591494470834732
-0.0005613626562990248,-0.009559672325849533,-0.0004001960624009371,0.008331537246704102,0.00024099762958940119,-0.0028276958037167788
-0.0005255825235508382,-0.00905770342797041,-0.0004215017834212631,0.008690365590155125,0.0002484475262463093,-0.0028089438565075397
-0.0005752738798037171,-0.008836369961500168,-0.00041290666558779776,0.007934028282761574,0.0002400866651441902,-0.002804340096190572
-0.000511437188833952,-0.008938178420066833,-0.00038386762025766075,0.008053162135183811,0.00026215051184408367,-0.002797086723148823
-0.0005497054080478847,-0.008774674497544765,-0.0004156430659350008,0.008287551812827587,0.00025488308165222406,-0.0027791792526841164
-0.0005000072997063398,-0.008615420199930668,-0.0003920611343346536,0.008152596652507782,0.00024718319764360785,-0.0027528894133865833
-0.000492056948132813,-0.008937695063650608,-0.00039825300336815417,0.008454550988972187,0.00038373208371922374,-0.0025446771178394556
-0.000492056948132813,-0.008937695063650608,-0.00039825300336815417,0.008454550988972187,0.00038373208371922374,-0.0025446771178394556
-0.00048635812709107995,-0.008745435625314713,-0.00044440271449275315,0.007993464358150959,0.00036371455644257367,-0.002579629421234131
-0.0004920341307297349,-0.008956112898886204,-0.00041514443000778556,0.0077194636687636375,0.0003937313158530742,-0.0028551840223371983
-0.0004487995174713433,-0.00868838932365179,-0.0003802136052399874,0.00811715517193079,0.00039983002352528274,-0.003146387869492173
-0.0004081528459209949,-0.008524784818291664,-0.0004177649680059403,0.00808066874742508,0.00040173553861677647,-0.002950770780444145
-0.0004458941984921694,-0.00865950807929039,-0.000390246364986524,0.007307094056159258,0.0005374150350689888,-0.0028416600544005632
-0.00041451549623161554,-0.008311852812767029,-0.00036397576332092285,0.0077888197265565395,0.000549602322280407,-0.002730805892497301
-0.0003849934146273881,-0.008328959345817566,-0.00039546596235595644,0.008431043475866318,0.0005394979962147772,-0.002538244239985943
-0.00041677517583593726,-0.008734703995287418,-0.0003741544787772,0.00795126985758543,0.0005533327930606902,-0.0026900379452854395
-0.0003930629463866353,-0.00861018430441618,-0.0003532057744450867,0.0074667246080935,0.0005623278557322919,-0.003031553002074361
-0.0004045994719490409,-0.008463995531201363,-0.0003344514698255807,0.007532672490924597,0.0005534599767997861,-0.0031721650157123804
-0.00039915827801451087,-0.008490374311804771,-0.00036231937701813877,0.007613731548190117,0.0006258029025048018,-0.0031274438370019197
-0.00041393167339265347,-0.008367759175598621,-0.0003455301921349019,0.007302775047719479,0.0005839028744958341,-0.002904023276641965
-0.00039540076977573335,-0.008023535832762718,-0.0003610864805523306,0.007237116806209087,0.0005947072640992701,-0.002903315704315901
-0.00039540076977573335,-0.008023535832762718,-0.0003610864805523306,0.007237116806209087,0.0005947072640992701,-0.002903315704315901
-0.0003956751897931099,-0.00842614471912384,-0.0003745765134226531,0.007152330595999956,0.0005842503160238266,-0.0028865314088761806
-0.00037556805182248354,-0.008705569431185722,-0.0003887516795657575,0.007480229251086712,0.0005959146656095982,-0.003139219479635358
-0.00037556805182248354,-0.008705569431185722,-0.0003887516795657575,0.007480229251086712,0.0005959146656095982,-0.003139219479635358
-0.0003512335242703557,-0.007819980382919312,-0.00038376604788936675,0.006779063027352095,0.0005668110097758472,-0.0029944945126771927
-0.0003297817602287978,-0.008242197334766388,-0.000411544693633914,0.006909986957907677,0.0005887173465453088,-0.0031289062462747097
-0.0003107977972831577,-0.008177103474736214,-0.0005673917476087809,0.007058328948915005,0.000593389559071511,-0.0033711448777467012
-0.0003421660221647471,-0.008035805076360703,-0.0005800222279503942,0.007002962753176689,0.0005777823971584439,-0.003243887098506093
-0.00032515462953597307,-0.007528434507548809,-0.0006133188144303858,0.007162305526435375,0.0006058895378373563,-0.003074588719755411
-0.0003092020924668759,-0.0076016876846551895,-0.0005542559083551168,0.007004212122410536,0.0006161187775433064,-0.002867236966267228
-0.0002947362663690001,-0.008820554241538048,-0.0005762925720773637,0.006950613111257553,0.0005850287270732224,-0.0029679618310183287
-0.00028156250482425094,-0.007955653592944145,-0.0005363745731301606,0.007160205859690905,0.0006924515473656356,-0.003065891098231077
-0.00026951657491736114,-0.0076013365760445595,-0.0004943901440128684,0.00657320162281394,0.0007245194865390658,-0.00317872641608119
-0.00028268148889765143,-0.007810521870851517,-0.0005229494418017566,0.00614901352673769,0.0007384424097836018,-0.002792464569211006
-0.0002729792322497815,-0.007549216039478779,-0.000458143069408834,0.0059580449014902115,0.0006920277955941856,-0.002723072189837694
-0.00026300977333448827,-0.0077811009250581264,-0.0004381130274850875,0.006433619651943445,0.0006382142310030758,-0.0031971095595508814
-0.0002537406689953059,-0.0074941921047866344,-0.00045162273454479873,0.006599488668143749,0.0006576930172741413,-0.003370236838236451
-0.00024510224466212094,-0.008112832903862,-0.00043996135354973376,0.006067978218197823,0.0006797363748773932,-0.003391968784853816
-0.00023703332408331335,-0.006980940233916044,-0.000407121900934726,0.006415479350835085,0.0006653256132267416,-0.0035551628097891808
-0.0002294779260409996,-0.00712530268356204,-0.0004390476970002055,0.00598139688372612,0.0006424580933526158,-0.0033535745460540056
-0.0002223898918600753,-0.007436785846948624,-0.0004126962448935956,0.005773375742137432,0.0006576990708708763,-0.003256947733461857
-0.0002157267153961584,-0.007348193787038326,-0.00044039954082109034,0.00558454729616642,0.0006117578595876694,-0.003213598858565092
-0.00018595647998154163,-0.007031526416540146,-0.0004190625622868538,0.005718455649912357,0.0006368071190081537,-0.0030854607466608286
-0.0001777261059032753,-0.006989271380007267,-0.0005031366017647088,0.005975604522973299,0.0006671590963378549,-0.0031472165137529373
-0.0001709619100438431,-0.007266271393746138,-0.0005435904022306204,0.0057762316428124905,0.0006800530245527625,-0.0032605044543743134
-0.00016470419359393418,-0.0075741782784461975,-0.0005739807966165245,0.005852084141224623,0.0006787648308090866,-0.003585525555536151
-0.0001588883314980194,-0.006932973861694336,-0.0006013279780745506,0.0051970165222883224,0.0006577196763828397,-0.003409678116440773
-0.00015346948930528015,-0.007235085591673851,-0.0007734006503596902,0.005245038773864508,0.0007337626884691417,-0.0032495325431227684
-0.00014840798394288868,-0.007693794090300798,-0.0008461328106932342,0.005450726952403784,0.0007676959503442049,-0.0031198777724057436
-0.00014840798394288868,-0.007693794090300798,-0.0008461328106932342,0.005450726952403784,0.0007676959503442049,-0.0031198777724057436
-0.0001436697057215497,-0.007405987940728664,-0.0007714394596405327,0.005784469190984964,0.0007564190891571343,-0.002988263498991728
-0.0001392246049363166,-0.006640260573476553,-0.000786336197052151,0.005873335525393486,0.0007711679791100323,-0.003040775889530778
-0.00013504651724360883,-0.00693468889221549,-0.0007653863285668194,0.00528119457885623,0.0007399124442599714,-0.0033199763856828213
-0.00013111172302160412,-0.0074482387863099575,-0.0007198562379926443,0.005125328432768583,0.0008090547635219991,-0.0033062708098441362
-0.00012739974772557616,-0.007805981207638979,-0.0007179200765676796,0.0051142023876309395,0.0008257028530351818,-0.0033203514758497477
-0.00012389206676743925,-0.0070101236924529076,-0.0007411653641611338,0.0056170932948589325,0.0008357495535165071,-0.0034572030417621136
-0.00012057251296937466,-0.006982018239796162,-0.0007267829496413469,0.005471047013998032,0.0008432890754193068,-0.003570079104974866
-0.00011742627975763753,-0.0073053897358477116,-0.0006817859830334783,0.00591461593285203,0.0010034928563982248,-0.003623964497819543
-0.00011443997937021777,-0.007448933087289333,-0.0007022268255241215,0.005448714829981327,0.0009345652651973069,-0.003475496079772711
-0.00011160173016833141,-0.007199778221547604,-0.0007541837403550744,0.00496496818959713,0.000925794243812561,-0.0035793872084468603
-9.234269964508712e-05,-0.007088137790560722,-0.0006905767368152738,0.005331478547304869,0.000926306180190295,-0.003476757789030671
-8.31964862300083e-05,-0.008009319193661213,-0.0007132722530514002,0.005436023697257042,0.000939306803047657,-0.003595776157453656
-8.122513827402145e-05,-0.0071714408695697784,-0.000722438155207783,0.005562097765505314,0.0008825949626043439,-0.0039161937311291695
-7.943173841340467e-05,-0.006709118839353323,-0.0006731217727065086,0.005157595966011286,0.0008250373648479581,-0.003953969571739435
-7.77168752392754e-05,-0.00703108124434948,-0.0007919998024590313,0.004984291270375252,0.0008297084714286029,-0.003827646840363741
-7.607469888171181e-05,-0.007364252582192421,-0.0008356188191100955,0.005043034441769123,0.0008133685332722962,-0.0037174932658672333
-7.450034900102764e-05,-0.006918307393789291,-0.0008437056676484644,0.005085329990833998,0.0008302369387820363,-0.0036731811705976725
-7.298980199266225e-05,-0.0064695668406784534,-0.0009773161727935076,0.005142827983945608,0.0008976213284768164,-0.003679682733491063
-7.153938349802047e-05,-0.006794077809900045,-0.0010044005466625094,0.004955936223268509,0.0010046656243503094,-0.003769765142351389
-7.014552102191374e-05,-0.006795988418161869,-0.0009879174176603556,0.004345949273556471,0.0013870460679754615,-0.003812297247350216
-6.8804802140221e-05,-0.007168937474489212,-0.0009757446823641658,0.003970026504248381,0.0013290074421092868,-0.0038709421642124653
-6.751451292075217e-05,-0.00645214831456542,-0.0008950051269493997,0.004049799870699644,0.0014176308177411556,-0.004303923342376947
-6.751451292075217e-05,-0.00645214831456542,-0.0008950051269493997,0.004049799870699644,0.0014176308177411556,-0.004303923342376947
-6.507370562758297e-05,-0.006928349379450083,-0.0008772264700382948,0.0043624709360301495,0.0013834990095347166,-0.003909220919013023
-6.391837814589962e-05,-0.006939800456166267,-0.0008803037344478071,0.004030546173453331,0.0013057846808806062,-0.0038987582083791494
-6.391837814589962e-05,-0.006939800456166267,-0.0008803037344478071,0.004030546173453331,0.0013057846808806062,-0.0038987582083791494
-6.280330126173794e-05,-0.006600525230169296,-0.0008826630655676126,0.0038100047968328,0.0010767534840852022,-0.0038571038749068975
-5.156941551831551e-05,-0.007154424674808979,-0.000913971452973783,0.004197224043309689,0.0010311143705621362,-0.0037988300900906324
-4.5585235056933016e-05,-0.006671916227787733,-0.0009160546469502151,0.004114117473363876,0.000998657662421465,-0.004023638553917408
-4.476087633520365e-05,-0.006842975039035082,-0.0009134779102168977,0.004014377947896719,0.0009840762941166759,-0.004188040271401405
-4.40300464106258e-05,-0.006594808306545019,-0.0009116921573877335,0.003935319371521473,0.0009310730965808034,-0.0043685282580554485
1.57135036715772e-05,-0.006309250369668007,-0.0009432040387764573,0.0034957965835928917,0.000908992369659245,-0.004098574630916119
6.486290658358485e-05,-0.007067125756293535,-0.0009401854476891458,0.0034963341895490885,0.0008729063556529582,-0.0043206484988331795
6.62233869661577e-05,-0.006670947186648846,-0.0010208000894635916,0.0033477824181318283,0.0008181389421224594,-0.004158861935138702
8.593935490353033e-05,-0.0068663121201097965,-0.0010967548005282879,0.003322400152683258,0.0008236498688347638,-0.0035638113040477037
0.00034000547020696104,-0.006445372477173805,-0.0010812408290803432,0.003406768897548318,0.0008471569744870067,-0.003629032289609313
0.00037968182004988194,-0.006205725017935038,-0.0010238989489153028,0.0034857538994401693,0.0008547876495867968,-0.004229927435517311
0.00037064007483422756,-0.006399601232260466,-0.0009344791178591549,0.003235801123082638,0.0008601944427937269,-0.004110857844352722
0.00032638252014294267,-0.00672889593988657,-0.0009900054428726435,0.0030744276009500027,0.0009580731275491416,-0.003917091991752386
0.0002911706396844238,-0.006151065230369568,-0.0010097819613292813,0.002934474730864167,0.0009688663994893432,-0.003738312516361475
0.00026281180907972157,-0.0058882045559585094,-0.0010052344296127558,0.003024766454473138,0.0009594479924999177,-0.003697124542668462
0.00023948989110067487,-0.00613893149420619,-0.0012867158511653543,0.0032545439898967743,0.0009564121719449759,-0.003685825038701296
0.00028444259078241885,-0.0062123434618115425,-0.001262987614609301,0.00361845875158906,0.0010689442278817296,-0.0039405254647135735
0.0002710773842409253,-0.006068495102226734,-0.0012018575798720121,0.003380431327968836,0.0010470034321770072,-0.0041853454895317554
0.00025219161761924624,-0.006056780461221933,-0.001129685901105404,0.0031197089701890945,0.000959686585702002,-0.0040770238265395164
0.00018608375103212893,-0.006127234548330307,-0.0011040669633075595,0.0029670309741050005,0.0009235416655428708,-0.003936669789254665
0.00014658331929240376,-0.0061501748859882355,-0.0010820577153936028,0.0030435288790613413,0.0008436380885541439,-0.003483075648546219
0.00013523860252462327,-0.006110129877924919,-0.001068859244696796,0.002832036232575774,0.0007696774555370212,-0.00355586432851851
0.00013523860252462327,-0.006110129877924919,-0.001068859244696796,0.002832036232575774,0.0007696774555370212,-0.00355586432851851
0.00018776410433929414,-0.005815240554511547,-0.0012443721061572433,0.0027200491167604923,0.0007830790127627552,-0.003929940517991781
0.00022807494679000229,-0.006105230189859867,-0.0011815697653219104,0.002537933411076665,0.0008526698220521212,-0.004233642481267452
0.00022061615891288966,-0.0060103051364421844,-0.0011364289093762636,0.00229220325127244,0.0008132717339321971,-0.004283671732991934
0.0002578041166998446,-0.005874356254935265,-0.0011119225528091192,0.002214185893535614,0.0010114889591932297,-0.004308314062654972
0.0002457231457810849,-0.006170636974275112,-0.0010808202205225825,0.002210897160694003,0.0009308013250119984,-0.004417357500642538
0.0005012464243918657,-0.00557028129696846,-0.0010548349237069488,0.0020328585524111986,0.0009219081257469952,-0.004571499768644571
0.0004815594875253737,-0.005766500718891621,-0.0010392399271950126,0.002010579686611891,0.000918672070838511,-0.004877620842307806
0.0005118800909258425,-0.0057835932821035385,-0.001187472022138536,0.0018499859143048525,0.0009219702333211899,-0.00443554762750864
0.00047623764839954674,-0.00563039630651474,-0.0011374029563739896,0.0016677569365128875,0.0009172622812911868,-0.004014596808701754
0.0005076375091448426,-0.0055101178586483,-0.001111880294047296,0.0014857396017760038,0.0009145883959718049,-0.004063025116920471
0.000516427680850029,-0.005639373790472746,-0.0011155861429870129,0.0013662647688761353,0.0009213029406964779,-0.004045445006340742
0.0005948119214735925,-0.005091393366456032,-0.0011937704402953386,0.000995907001197338,0.0011216376442462206,-0.0045671844854950905
0.0006349393515847623,-0.0058502512983977795,-0.0014118890976533294,0.0009273823234252632,0.0010896020103245974,-0.004493195563554764
0.0006311500910669565,-0.005599988624453545,-0.0013748593628406525,0.0009377728565596044,0.0011190887307748199,-0.004543640650808811
0.0006005154573358595,-0.005619016010314226,-0.0013027999084442854,0.0009182081557810307,0.0011081579141318798,-0.004435858689248562
0.0006258205976337194,-0.005089303012937307,-0.0013969086576253176,0.0008450708701275289,0.0010740476427599788,-0.004242230672389269
0.0007577375508844852,-0.005297465715557337,-0.001341835712082684,0.0008264331263490021,0.0010574012994766235,-0.004384694155305624
0.0007848998648114502,-0.0052871727384626865,-0.0012771041365340352,0.000826104951556772,0.001002251054160297,-0.004516498651355505
0.0007963379612192512,-0.005761795211583376,-0.00118362030480057,0.0007890061824582517,0.0010673817014321685,-0.004607560113072395
0.0007998785004019737,-0.005314005073159933,-0.0012581237824633718,0.0007477851468138397,0.0010820631869137287,-0.004673933610320091
0.0008599735447205603,-0.004999068100005388,-0.0012337175430729985,0.0007603695266880095,0.001151752076111734,-0.004757611081004143
0.0008786378311924636,-0.005013945512473583,-0.001230137888342142,0.0007011216366663575,0.0012469596695154905,-0.004637497942894697
0.0008821096271276474,-0.005002971272915602,-0.001306419144384563,0.0006514563574455678,0.001195021322928369,-0.0046719093807041645
0.0009113472187891603,-0.004966049455106258,-0.001272688270546496,0.0006551060942001641,0.0010862263152375817,-0.004514225758612156
0.0009113472187891603,-0.004966049455106258,-0.001272688270546496,0.0006551060942001641,0.0010862263152375817,-0.004514225758612156
0.0009870475623756647,-0.005168197210878134,-0.001247543841600418,0.0006069571245461702,0.0011172121157869697,-0.004964358638972044
0.001043104799464345,-0.004897098056972027,-0.0011874164920300245,0.00059094512835145,0.001130236079916358,-0.005347870290279388
0.0011189752258360386,-0.004636046011000872,-0.0011400568764656782,0.0005764812231063843,0.0011160351568832994,-0.005195884965360165
0.0013020142214372754,-0.004513033200055361,-0.0011287840316072106,0.0005304997321218252,0.0011326298117637634,-0.005412265658378601
0.001431058393791318,-0.004620335064828396,-0.0012211456196382642,0.0004894200246781111,0.0011289195390418172,-0.005261311307549477
0.0013606945285573602,-0.004928234964609146,-0.0012756503419950604,0.0004541250818874687,0.0010913341538980603,-0.0050423406064510345
0.0015535973943769932,-0.004728794563561678,-0.00132635363843292,0.0004235727246850729,0.001062679337337613,-0.005091172643005848
0.0015620517078787088,-0.004307059105485678,-0.0014490579487755895,0.00039687377284280956,0.000992420595139265,-0.005048132035881281
0.0014917840017005801,-0.004384955391287804,-0.001390507211908698,0.00037334239459596574,0.0009677995694801211,-0.005250206217169762
0.0015654893359169364,-0.00449304049834609,-0.0012880709255114198,0.00035244683385826647,0.0010324957547709346,-0.005359157454222441
0.0016896415036171675,-0.004302795976400375,-0.001373489503748715,0.0003337671223562211,0.001088363234885037,-0.005420254077762365
0.0018038994167000055,-0.0044575948268175125,-0.0013309994246810675,0.0003169685078319162,0.0013033754657953978,-0.005494933109730482
0.0018428526818752289,-0.00437173992395401,-0.0014841578667983413,0.0003017809067387134,0.0012876276159659028,-0.005395675543695688
0.0019029140239581466,-0.004374389536678791,-0.001441313768737018,0.0002879824605770409,0.0017538577085360885,-0.005473986733704805
0.0021953813266009092,-0.004585078451782465,-0.0015621978091076016,0.000275390746537596,0.0016875718720257282,-0.005044095683842897
0.0020685624331235886,-0.003950266633182764,-0.001538813579827547,0.00025324549642391503,0.001687110518105328,-0.0054277353920042515
0.00200718455016613,-0.004704157821834087,-0.0016113573219627142,0.00024345719430129975,0.0015276562189683318,-0.005314467009156942
0.0017831440782174468,-0.004791536368429661,-0.0015180868795141578,0.0002343976666452363,0.001414743484929204,-0.005079580470919609
0.0019461197080090642,-0.003939966205507517,-0.0015733997570350766,0.00022598820214625448,0.0014582960866391659,-0.005139081738889217
0.002064337721094489,-0.003672582097351551,-0.0016274693189188838,0.00021816143998876214,0.0015102828620001674,-0.005099073983728886
0.002208302728831768,-0.0041899047791957855,-0.0015248105628415942,0.00021085866319481283,0.0016007429221644998,-0.005039985757321119
0.002208302728831768,-0.0041899047791957855,-0.0015248105628415942,0.00021085866319481283,0.0016007429221644998,-0.005039985757321119
0.0033977716229856014,-0.00395089341327548,-0.0014670504024252295,0.00019762814918067306,0.0017662044847384095,-0.005328725092113018
0.0033489984925836325,-0.003854435170069337,-0.0013744562165811658,8.320005144923925e-05,0.0016143283573910594,-0.005517345853149891
0.0030222085770219564,-0.0038000387139618397,-0.0014486159197986126,6.539388414239511e-05,0.001488736947067082,-0.0055320532992482185
0.002984965220093727,-0.0035286806523799896,-0.001479085418395698,6.2167840951588e-05,0.001413067220710218,-0.0050219036638736725
0.0034863923210650682,-0.003553312039002776,-0.001516502583399415,6.003098678775132e-05,0.001341749564744532,-0.005272906739264727
0.00386459706351161,-0.004182422999292612,-0.0015947858337312937,5.808928108308464e-05,0.001328710583038628,-0.005320096854120493
0.003912658896297216,-0.004119172692298889,-0.0014969789190217853,3.003277197421994e-05,0.0014167908811941743,-0.005777798127382994
0.0034121593926101923,-0.0035296401474624872,-0.0015587573871016502,2.7407142624724656e-05,0.0019112214213237166,-0.005505185108631849
0.0034121593926101923,-0.0035296401474624872,-0.0015587573871016502,2.7407142624724656e-05,0.0019112214213237166,-0.005505185108631849
0.0034773503430187702,-0.0035479855723679066,-0.0015953719848766923,2.6488582079764456e-05,0.00201170495711267,-0.005337272770702839
0.004302184097468853,-0.003757899161428213,-0.0014686142094433308,3.3960641303565353e-06,0.002327318536117673,-0.004952604882419109
0.0041078124195337296,-0.003305323887616396,-0.0015437323600053787,2.2173871627728658e-07,0.0021416342351585627,-0.005088518373668194
0.004333064891397953,-0.0034934866707772017,-0.0014533939538523555,1.4477953058644744e-08,0.0019777845591306686,-0.005271820817142725
0.004322488326579332,-0.0036536850966513157,-0.001696151914075017,9.45306943833657e-10,0.0017893016338348389,-0.005497921258211136
0.004565627779811621,-0.0037770639173686504,-0.0015769745223224163,6.172178740326828e-11,0.0016029240796342492,-0.006682327017188072
0.0042628697119653225,-0.0034199277870357037,-0.0017601565923541784,4.029991618192952e-12,0.0014945302391424775,-0.0054046232253313065
0.004160907585173845,-0.003335925517603755,-0.0017198887653648853,2.6312963309974013e-13,0.0014275886351242661,-0.004952580202370882
0.004228558391332626,-0.0034137237817049026,-0.0018280785297974944,1.7180486159705695e-14,0.0014509821776300669,-0.00535964360460639
0.005060599651187658,-0.0034790546633303165,-0.0015683610690757632,-0.0009124268544837832,0.0014772415161132812,-0.006152097601443529
0.004677475430071354,-0.0031351603101938963,-0.0015559084713459015,-0.0009679683134891093,0.001562872203066945,-0.006001967005431652
0.0044974591583013535,-0.0034784474410116673,-0.0015923221362754703,-0.0012446459149941802,0.0016690430929884315,-0.005659222602844238
0.004974763374775648,-0.00344519573263824,-0.001713972887955606,-0.0015769335441291332,0.0017378091579303145,-0.0058723571710288525
0.0052127111703157425,-0.003476661629974842,-0.0017417003400623798,-0.002095343079417944,0.0016567291459068656,-0.006164050195366144
0.005046144127845764,-0.0036014504730701447,-0.0018102674512192607,-0.002636016346514225,0.0016456837765872478,-0.006124268751591444
0.005192750599235296,-0.00368834869004786,-0.001673622988164425,-0.0030079656280577183,0.0016878170426934958,-0.0061881705187261105
0.005043941084295511,-0.0033063217997550964,-0.00165176868904382,-0.003194836899638176,0.0017375138122588396,-0.005648715887218714
0.004826258402317762,-0.003206956433132291,-0.0016754486132413149,-0.0031149836722761393,0.0017859790241345763,-0.005399648100137711
0.0052421847358345985,-0.003184226108714938,-0.001612251391634345,-0.0031939586624503136,0.0016475373413413763,-0.0055320910178124905
0.0051806531846523285,-0.003401011461392045,-0.0018407824682071805,-0.0036550210788846016,0.00183506915345788,-0.006237156223505735
0.005366503726691008,-0.0032775497529655695,-0.0017512263730168343,-0.00421907240524888,0.0020284722559154034,-0.00581176346167922
0.005398258101195097,-0.0035261281300336123,-0.0019427278311923146,-0.004366982728242874,0.0020301423501223326,-0.0057816896587610245
0.005398258101195097,-0.0035261281300336123,-0.0019427278311923146,-0.004366982728242874,0.0020301423501223326,-0.0057816896587610245
0.0054340544156730175,-0.0033584008924663067,-0.0017175691900774837,-0.004240068607032299,0.0017928223824128509,-0.0059860167093575
0.0054340544156730175,-0.0033584008924663067,-0.0017175691900774837,-0.004240068607032299,0.0017928223824128509,-0.0059860167093575
0.0061087473295629025,-0.00304492749273777,-0.0020880503579974174,-0.005136869847774506,0.0015837352257221937,-0.0061493501998484135
0.0061087473295629025,-0.00304492749273777,-0.0020880503579974174,-0.005136869847774506,0.0015837352257221937,-0.0061493501998484135
0.005772111471742392,-0.003207466332241893,-0.0022320121061056852,-0.0052028256468474865,0.0016725902678444982,-0.006126333028078079
0.005772111471742392,-0.003207466332241893,-0.0022320121061056852,-0.0052028256468474865,0.0016725902678444982,-0.006126333028078079
0.005580272991210222,-0.003036877606064081,-0.0019689290784299374,-0.005136409774422646,0.0015903811436146498,-0.006027396768331528
0.005817206110805273,-0.002835878636687994,-0.0017442841781303287,-0.005231998860836029,0.0015087121864780784,-0.006077918689697981
0.0066090659238398075,-0.0032001473009586334,-0.0017359460471197963,-0.0051753828302025795,0.0016281780553981662,-0.006458132993429899
0.006189411971718073,-0.003357905661687255,-0.00166370312217623,-0.004936830140650272,0.001590866595506668,-0.006010154262185097
0.005965156946331263,-0.003189872484654188,-0.0018759142840281129,-0.0059105451218783855,0.0020598559640347958,-0.00609075790271163
0.006297182757407427,-0.0032582986168563366,-0.001946242991834879,-0.006122187711298466,0.002296490129083395,-0.006160164717584848
0.006637802347540855,-0.003392410697415471,-0.0019333428936079144,-0.005494763143360615,0.002206731354817748,-0.006123865954577923
0.0064027439802885056,-0.003181038424372673,-0.0019121762597933412,-0.005274956580251455,0.002113710157573223,-0.006134962663054466
0.0062795947305858135,-0.0030957513954490423,-0.0020330622792243958,-0.005143010523170233,0.001823126687668264,-0.006353916134685278
0.005983300507068634,-0.0031887677032500505,-0.001977852312847972,-0.005571720190346241,0.0017848109127953649,-0.006512881722301245
0.006962853018194437,-0.003134536324068904,-0.001909532817080617,-0.006325707770884037,0.0017610191134735942,-0.0063169850036501884
0.006728598847985268,-0.0030928077176213264,-0.0018787413137033582,-0.006649619434028864,0.0018418468534946442,-0.005716299172490835
0.005790332332253456,-0.0029949392192065716,-0.0018753837794065475,-0.006245090160518885,0.0018728463910520077,-0.005917507689446211
0.0065460242331027985,-0.0029708731453865767,-0.0018665946554392576,-0.005971772130578756,0.0021001938730478287,-0.005977549124509096
0.00665338896214962,-0.00288845831528306,-0.0019587897695600986,-0.006159510929137468,0.0021912360098212957,-0.006139510776847601
0.006825876887887716,-0.0027486064936965704,-0.0017768099205568433,-0.006274412386119366,0.002128125634044409,-0.006484206300228834
0.006760834250599146,-0.0026381523348391056,-0.0017513559432700276,-0.0063926782459020615,0.001989755081012845,-0.006565778981894255
0.0065892357379198074,-0.0027521189767867327,-0.0018057598499581218,-0.006279865279793739,0.0017826049588620663,-0.006507867481559515
0.006085245404392481,-0.0030325097031891346,-0.0017893364420160651,-0.006533568259328604,0.0016250524204224348,-0.006430265959352255
0.007040816359221935,-0.0028693892527371645,-0.0017785015515983105,-0.006829890888184309,0.0015145764918997884,-0.006698764860630035
0.007040816359221935,-0.0028693892527371645,-0.0017785015515983105,-0.006829890888184309,0.0015145764918997884,-0.006698764860630035
0.006818107329308987,-0.002763559576123953,-0.0017033226322382689,-0.00708827655762434,0.0015687986742705107,-0.006669832859188318
0.006939592771232128,-0.0028090246487408876,-0.0018699334468692541,-0.006595648359507322,0.0016511420253664255,-0.006372315343469381
0.006759388837963343,-0.0025198140647262335,-0.0019686492159962654,-0.00699728773906827,0.001723467605188489,-0.006532569881528616
0.006617777515202761,-0.002434047404676676,-0.002009060699492693,-0.006983406841754913,0.0018594826105982065,-0.006316851358860731
0.00724137993529439,-0.002636689692735672,-0.00194153084885329,-0.007108668331056833,0.0018986704526469111,-0.0062238117679953575
0.006970282644033432,-0.002781410003080964,-0.0019545366521924734,-0.0068576755002141,0.0020157808903604746,-0.006063723471015692
0.0072126565501093864,-0.0028862536419183016,-0.0018929713405668736,-0.006527676247060299,0.002015739446505904,-0.006099333055317402
0.006521306466311216,-0.002723192796111107,-0.0019180576782673597,-0.0074007888324558735,0.0020347300451248884,-0.006157771218568087
0.0072172656655311584,-0.002531984355300665,-0.0018483190797269344,-0.006847805343568325,0.0021286308765411377,-0.006258075591176748
0.007243581116199493,-0.0023781037889420986,-0.0019313921220600605,-0.0065043349750339985,0.0021636588498950005,-0.006115213502198458
0.006988867651671171,-0.001818923861719668,-0.0019869382958859205,-0.007373598404228687,0.0022879508323967457,-0.006220054347068071
0.0071248337626457214,-0.0012786044972017407,-0.0022358985152095556,-0.008113117888569832,0.002070864662528038,-0.006473594345152378
0.007482070941478014,-0.0004906906397081912,-0.0020092229824513197,-0.007681585382670164,0.0019927744287997484,-0.006845485884696245
0.00704767694696784,-0.0003340014081913978,-0.0018351927865296602,-0.007010449655354023,0.0018415219383314252,-0.006426570937037468
0.007189514581114054,-0.000509749457705766,-0.0017787361284717917,-0.007396108936518431,0.00198419694788754,-0.006318686995655298
0.007679549977183342,-0.0005022837431170046,-0.0016507402760908008,-0.00810130126774311,0.0018543495098128915,-0.006510692182928324
0.0071075670421123505,-0.0005948323523625731,-0.0018688259879127145,-0.008371241390705109,0.002030949341133237,-0.006376891862601042
0.00689415168017149,-0.0006555289146490395,-0.0017461491515859962,-0.00788042787462473,0.0018844327423721552,-0.006603858433663845
0.007165658753365278,-0.0006932932883501053,-0.002074016258120537,-0.007404125761240721,0.002005324000492692,-0.006754895206540823
0.00709432503208518,-0.0006023059831932187,-0.0019283806905150414,-0.007089926395565271,0.0020683039911091328,-0.006680828519165516
0.007464293856173754,-0.0008081757696345448,-0.0020022063981741667,-0.006651293020695448,0.002282141475006938,-0.00652502803131938
0.007485191337764263,-0.0007148597505874932,-0.0018082184251397848,-0.006350093521177769,0.002264271955937147,-0.006424925290048122
0.007247381843626499,-0.0005426878924481571,-0.0017327266978099942,-0.007118150591850281,0.002038979670032859,-0.006515326909720898
0.007247381843626499,-0.0005426878924481571,-0.0017327266978099942,-0.007118150591850281,0.002038979670032859,-0.006515326909720898
0.0077164629474282265,-0.0004842459748033434,-0.0018889154307544231,-0.007357525173574686,0.002065530512481928,-0.006459060125052929
0.0077164629474282265,-0.0004842459748033434,-0.0018889154307544231,-0.007357525173574686,0.002065530512481928,-0.006459060125052929
0.007293402682989836,-0.0004371779796201736,-0.0018750032177194953,-0.007251732517033815,0.0022174199111759663,-0.006584933493286371
0.007017967291176319,-0.00039845099672675133,-0.001938324305228889,-0.007061384152621031,0.002100947080180049,-0.00683946069329977
0.007335436064749956,-0.00036602813634090126,-0.0019075340824201703,-0.007427691016346216,0.0022534134332090616,-0.006898306310176849
0.007715998217463493,-0.00039803626714274287,-0.0018532299436628819,-0.007807193789631128,0.002091798232868314,-0.006639049854129553
0.0066153183579444885,-0.000377655029296875,-0.0017875564517453313,-0.0075571779161691666,0.0020377174951136112,-0.006589521188288927
0.004728219471871853,-0.00035305789788253605,-0.0015764886047691107,-0.007474495563656092,0.0019033306743949652,-0.006881879176944494
0.004047400318086147,-0.00033138867001980543,-0.001621105009689927,-0.00803760439157486,0.0020562384743243456,-0.006764841731637716
0.005257333628833294,-0.0003122253983747214,-0.0016920632915571332,-0.00828205980360508,0.0022255664225667715,-0.006760884076356888
0.006188875995576382,-0.00027985841734334826,-0.0021723753307014704,-0.008275127969682217,0.002654100302606821,-0.006925434805452824
0.005442602094262838,-0.000266067567281425,-0.002162633929401636,-0.008775516413152218,0.002510587451979518,-0.0070973727852106094
0.005223300773650408,-0.0002535727107897401,-0.002139256102964282,-0.008308490738272667,0.002360044978559017,-0.006683267652988434
0.005358322989195585,-0.00026866738335229456,-0.001988400239497423,-0.008346907794475555,0.002220607828348875,-0.006616748403757811
0.006005658768117428,-0.0002702487399801612,-0.0018669901182875037,-0.008570876903831959,0.0020307127851992846,-0.006521514151245356
0.005676909349858761,-0.00025930078118108213,-0.0018509853398427367,-0.009194043464958668,0.0020344131626188755,-0.007043375167995691
0.005425228271633387,-0.000249051779974252,-0.002282625762745738,-0.008657152764499187,0.001873598201200366,-0.006976551841944456
0.005273719318211079,-0.0002395802439423278,-0.002361672930419445,-0.008387897163629532,0.0017626385670155287,-0.007088708225637674
0.0055976128205657005,-0.00023080284881871194,-0.0022999481298029423,-0.009347504936158657,0.001765503897331655,-0.006580257322639227
0.005759062245488167,-0.00022264584549702704,-0.0020381174981594086,-0.00902076531201601,0.0017136483220383525,-0.0066310144029557705
0.0063096992671489716,-0.00021504588949028403,-0.0019085626117885113,-0.008620863780379295,0.001744776382111013,-0.0070237875916063786
0.005706045776605606,-0.00020794733427464962,-0.0017714541172608733,-0.00881904736161232,0.001986902905628085,-0.006908389739692211
0.006016253028064966,-0.00020130255143158138,-0.0018286731792613864,-0.00884296651929617,0.0020740171894431114,-0.006818893365561962
0.006199476774781942,-0.0001950694713741541,-0.001995288534089923,-0.008589646779000759,0.0025811614468693733,-0.007091561798006296
0.006124204955995083,-0.00018921068112831563,-0.0020601663272827864,-0.008730116300284863,0.0025204489938914776,-0.006679784040898085
0.006124204955995083,-0.00018921068112831563,-0.0020601663272827864,-0.008730116300284863,0.0025204489938914776,-0.006679784040898085
0.006665918976068497,-0.00017848936840891838,-0.0018981019966304302,-0.008882371708750725,0.0022544299717992544,-0.007007889915257692
0.006435322109609842,-0.00017357156320940703,-0.0017831121804192662,-0.00904091913253069,0.0020669749937951565,-0.007013966329395771
0.006122749764472246,-0.00016891774430405349,-0.002037242753431201,-0.0091562420129776,0.002327964175492525,-0.007379845716059208
0.006122749764472246,-0.00016891774430405349,-0.002037242753431201,-0.0091562420129776,0.002327964175492525,-0.007379845716059208
0.0068672047927975655,-0.00016450702969450504,-0.002313996199518442,-0.008801913820207119,0.002743796445429325,-0.0075452751480042934
0.00674441596493125,-0.0001603206037543714,-0.0022519915364682674,-0.01001264899969101,0.0028464640490710735,-0.007089236751198769
0.006823378149420023,-0.00015634196461178362,-0.0021361871622502804,-0.009511519223451614,0.0025991597212851048,-0.007134466897696257
0.0068801273591816425,-0.00015255615289788693,-0.0021102807950228453,-0.009534770622849464,0.0023370510898530483,-0.007559899240732193
0.00716419517993927,-0.00014550906780641526,-0.0020263027399778366,-0.010346274822950363,0.0018955072155222297,-0.006860153283923864
0.006878828164190054,-0.00014222411846276373,-0.002278608037158847,-0.009569874964654446,0.0019239303655922413,-0.006675075273960829
0.0068438067100942135,-0.00013908438268117607,-0.002156575908884406,-0.009479138068854809,0.00234391400590539,-0.006725285202264786
0.006978238932788372,-0.00013608008157461882,-0.00231639901176095,-0.010179542936384678,0.002582124201580882,-0.0070617287419736385
0.007394789252430201,-0.00013320287689566612,-0.002179530682042241,-0.009606334380805492,0.002557148691266775,-0.006886290851980448
0.007500398904085159,-0.00013044499792158604,-0.0020801664795726538,-0.010328962467610836,0.0025240264367312193,-0.006686388980597258
0.00731953838840127,-0.00012779874668922275,-0.002135105663910508,-0.010076449252665043,0.0022102792281657457,-0.006674105767160654
0.007270572241395712,-0.000125257924082689,-0.002101734047755599,-0.009188844822347164,0.002111624926328659,-0.007206801790744066
0.00753475958481431,-0.0001228160399477929,-0.002408940577879548,-0.009595339186489582,0.002101379679515958,-0.006901937071233988
0.00748551357537508,-0.00012046764459228143,-0.002510047284886241,-0.010074076242744923,0.002329984912648797,-0.0067570870742201805
0.007645610719919205,-0.00011820731742773205,-0.002303497400134802,-0.009968828409910202,0.0026652959641069174,-0.0071242074482142925
0.007325736805796623,-0.00011603019083850086,-0.0021626269444823265,-0.01028903853148222,0.002880119951441884,-0.00752559769898653
0.0075592948123812675,-0.00011393192107789218,-0.0020645223557949066,-0.01081844326108694,0.0027405396103858948,-0.0075523569248616695
0.0075592948123812675,-0.00011393192107789218,-0.0020645223557949066,-0.01081844326108694,0.0027405396103858948,-0.0075523569248616695
0.007610872387886047,-0.00011190814257133752,-0.002244471339508891,-0.010189750231802464,0.0024960541632026434,-0.0074699814431369305
0.007872769609093666,-4.313232784625143e-05,-0.0020741906482726336,-0.010355392470955849,0.0022181146778166294,-0.007409755606204271
0.007659318391233683,-3.37621386279352e-05,-0.0022327513433992863,-0.01091332733631134,0.0021110461093485355,-0.007739341352134943
0.008740251883864403,-3.3027765311999246e-05,-0.0023296584840863943,-0.010490195825695992,0.0021964546758681536,-0.007553497329354286
0.008284300565719604,-3.2431125873699784e-05,-0.002215856220573187,-0.010995343327522278,0.0021752084139734507,-0.007202608976513147
0.008085845969617367,-3.1857147405389696e-05,-0.0022054791916161776,-0.011264678090810776,0.002495720749720931,-0.0071389274671673775
0.008385533466935158,-3.130315235466696e-05,-0.0021307584829628468,-0.011657538823783398,0.0026618135161697865,-0.0077206757850945
0.008574191480875015,-1.5594001524732448e-05,-0.0023925919085741043,-0.011812739074230194,0.002666845452040434,-0.007659895811229944
0.008191431872546673,-1.5128313862078357e-05,-0.002557226922363043,-0.010910206474363804,0.002818907145410776,-0.007489469833672047
0.008135243318974972,-1.4875535271130502e-05,-0.002418470336124301,-0.010820185765624046,0.0026673816610127687,-0.007474713958799839
0.009282327257096767,-5.840083190378209e-07,-0.0024020702112466097,-0.01089187990874052,0.002658361801877618,-0.007959982380270958
0.00901732686907053,-7.835216919716004e-09,-0.002283817855641246,-0.010859387926757336,0.0027063896413892508,-0.007853283546864986
0.00878541637212038,-1.051194339907191e-10,-0.002427928615361452,-0.01208125613629818,0.0027121661696583033,-0.008032647892832756
0.009234069846570492,-1.892112700785202e-14,-0.002789217047393322,-0.01117782574146986,0.0026074228808283806,-0.007995429448783398
0.009133270010352135,-2.538510626713447e-16,-0.002613623859360814,-0.010733452625572681,0.002738808048889041,-0.00756983133032918
0.0088600292801857,-3.405736260403861e-18,-0.0026202001608908176,-0.010414332151412964,0.002789396559819579,-0.007567302789539099
0.009498406201601028,-4.569230350821565e-20,-0.0026543198619037867,-0.011042745783925056,0.0026412936858832836,-0.007622912526130676
0.009225522167980671,-6.130205530294315e-22,-0.0024965722113847733,-0.01099235936999321,0.0026720345485955477,-0.008037987165153027
0.009355761110782623,-8.224453171972575e-24,-0.0025997303891927004,-0.010403130203485489,0.0025615976192057133,-0.008264277130365372
0.009429797530174255,-1.1034153701328806e-25,-0.0027543427422642708,-0.011617842130362988,0.00264298846013844,-0.00788136851042509
0.009539789520204067,-1.4803724073220653e-27,-0.002697122050449252,-0.01126641221344471,0.002854438964277506,-0.008135764859616756
0.009395303204655647,-1.9861086347651531e-29,-0.0027724953833967447,-0.011841692961752415,0.003117089858278632,-0.007923321798443794
0.009699649177491665,-2.6646181176078066e-31,-0.002521153073757887,-0.0114813894033432,0.002996056340634823,-0.007682831026613712
0.010090766474604607,-3.574925174664249e-33,-0.0024189024697989225,-0.011460691690444946,0.0026180394925177097,-0.008082576096057892
0.009371045976877213,-4.796218702460555e-35,-0.0026764816138893366,-0.012538106180727482,0.0023855927865952253,-0.00785564910620451
0.009371045976877213,-4.796218702460555e-35,-0.0026764816138893366,-0.012538106180727482,0.0023855927865952253,-0.00785564910620451
0.00899378303438425,-6.434739678988622e-37,-0.0028714612126350403,-0.012052479200065136,0.002102296333760023,-0.008015388622879982
0.010031815618276596,0.00037775503005832434,-0.0028514855075627565,-0.012007991783320904,0.001992664998397231,-0.008098642341792583
0.009222714230418205,0.00043727937736548483,-0.0025916353333741426,-0.01256909966468811,0.0021164119243621826,-0.007802067324519157
0.009647855535149574,0.00045183379552327096,-0.0024866813328117132,-0.012007465586066246,0.002170342253521085,-0.008024437353014946
0.009910768829286098,0.0004401693877298385,-0.002625788561999798,-0.01267682109028101,0.0026995521038770676,-0.007624798454344273
0.009334436617791653,0.0004072989395353943,-0.0025562625378370285,-0.012771072797477245,0.0029501484241336584,-0.008070466108620167
0.009754844009876251,0.0003787304158322513,-0.0029499365482479334,-0.013316760770976543,0.002682953141629696,-0.00776662677526474
0.00954365637153387,0.00041044200770556927,-0.002668253844603896,-0.012821504846215248,0.0027412299532443285,-0.007814491167664528
0.009435812942683697,0.0004236715903971344,-0.002611264819279313,-0.01328729372471571,0.0030047211330384016,-0.007577953860163689
0.009889497421681881,0.00041692363447509706,-0.0027212700806558132,-0.013475635088980198,0.0030728077981621027,-0.007660930510610342
0.010777059942483902,0.0004754546389449388,-0.0031291369814425707,-0.013250862248241901,0.0029829179402440786,-0.007724865339696407
0.009814724326133728,0.0006101554608903825,-0.0030038245022296906,-0.012885068543255329,0.002722189761698246,-0.008105422370135784
0.010403609834611416,0.0010244830045849085,-0.0027668781112879515,-0.013739869929850101,0.002630598144605756,-0.008488967083394527
0.009851103648543358,0.0013241469860076904,-0.002886386588215828,-0.013595588505268097,0.0026169754564762115,-0.00837436132133007
0.009970624931156635,0.0012892339145764709,-0.0029347252566367388,-0.013664359226822853,0.0028092677239328623,-0.007915349677205086
0.009907718747854233,0.001250476110726595,-0.0034532032441347837,-0.013730905018746853,0.002889059018343687,-0.008107303641736507
0.01100869569927454,0.0012133705895394087,-0.00329837528988719,-0.014209159649908543,0.0028109934646636248,-0.008625222370028496
0.0103388587012887,0.0011553870281204581,-0.0029992260970175266,-0.013402051292359829,0.0029341839253902435,-0.008502422831952572
0.010110325179994106,0.0011266730725765228,-0.002968133892863989,-0.013859015889465809,0.0031458446756005287,-0.008066884241998196
0.01010639127343893,0.0012209452688694,-0.002909522270783782,-0.013914086855947971,0.0034368482884019613,-0.008280199021100998
0.010224413126707077,0.0012877167901024222,-0.002944287145510316,-0.014827935956418514,0.0032891472801566124,-0.008498379029333591
0.00997117254883051,0.0015070715453475714,-0.0028198303189128637,-0.014745790511369705,0.002750913379713893,-0.008145900443196297
0.010546370409429073,0.0016039586625993252,-0.0029936826322227716,-0.015194322913885117,0.002546252217143774,-0.007944348268210888
0.01036770734935999,0.0014773056609556079,-0.003019710537046194,-0.01456906646490097,0.002543024020269513,-0.007993937470018864
0.010397292673587799,0.0015599362086504698,-0.002918494865298271,-0.015065520070493221,0.0027397959493100643,-0.008755913004279137
0.010839603841304779,0.0015650419518351555,-0.002825714647769928,-0.014834413304924965,0.0028963140211999416,-0.008175233379006386
0.010839603841304779,0.0015650419518351555,-0.002825714647769928,-0.014834413304924965,0.0028963140211999416,-0.008175233379006386
0.010559779591858387,0.0017608106136322021,-0.0029022814705967903,-0.014989808201789856,0.002784805139526725,-0.008129706606268883
0.010540715418756008,0.0017978615360334516,-0.0031038084998726845,-0.014771129004657269,0.0027703819796442986,-0.008413841016590595
0.01119956187903881,0.002107714070007205,-0.003047010162845254,-0.015315324999392033,0.002841415349394083,-0.00882738083600998
0.011197664774954319,0.0021534261759370565,-0.0029950416646897793,-0.014810984954237938,0.002712335903197527,-0.008679275400936604
0.010922021232545376,0.0023884496185928583,-0.00287959398701787,-0.01525616180151701,0.002885080175474286,-0.008487217128276825
0.011254936456680298,0.00212034210562706,-0.0029928158037364483,-0.015185738913714886,0.0031445787753909826,-0.008753753267228603
0.011133333668112755,0.0022169684525579214,-0.002947091357782483,-0.015405707061290741,0.0031310466583818197,-0.008534791879355907
0.011776817962527275,0.0021596287842839956,-0.0031674448400735855,-0.015490712597966194,0.0027545723132789135,-0.008678333833813667
0.011643688194453716,0.002138268668204546,-0.0031246060971170664,-0.01589195802807808,0.0027813042979687452,-0.008992502465844154
0.011292352341115475,0.002765886951237917,-0.003485599299892783,-0.016359547153115273,0.003020539181306958,-0.008953181095421314
0.011594432406127453,0.0027584503404796124,-0.0032647240441292524,-0.016260141506791115,0.003190892282873392,-0.009080681949853897
0.011345134116709232,0.0026794197037816048,-0.00302988407202065,-0.01649150438606739,0.0033888923935592175,-0.009143413044512272
0.011507545597851276,0.002753762062638998,-0.0029145190492272377,-0.01628991961479187,0.003675062209367752,-0.009002964943647385
0.011539760045707226,0.002772437408566475,-0.0032427795231342316,-0.016160478815436363,0.00390628119930625,-0.009330322965979576
0.011591191403567791,0.003329226514324546,-0.0034431309904903173,-0.0164902675896883,0.0034709793981164694,-0.009424510411918163
0.011225166730582714,0.003114990657195449,-0.0031981314532458782,-0.016540315002202988,0.003143297042697668,-0.009323744103312492
0.011549131944775581,0.0032739664893597364,-0.0031778898555785418,-0.01590428128838539,0.0030384017154574394,-0.00944130402058363
0.01167974341660738,0.003313489956781268,-0.0032266885973513126,-0.01640424318611622,0.002842916175723076,-0.009218994528055191
0.012136932462453842,0.0035943675320595503,-0.0035125589929521084,-0.016191929578781128,0.0028242527041584253,-0.00932303536683321
0.011565156280994415,0.003884731326252222,-0.00328654027543962,-0.016965186223387718,0.0028263030108064413,-0.009504067711532116
0.011123442091047764,0.003909320570528507,-0.0030545946210622787,-0.016386432573199272,0.0031384530011564493,-0.009067353792488575
0.011354743503034115,0.003943203948438168,-0.003392484039068222,-0.01652943342924118,0.003484713612124324,-0.008711527101695538
0.011798964813351631,0.00409321254119277,-0.0031230144668370485,-0.016856292262673378,0.0036800585221499205,-0.008954494260251522
0.011342228390276432,0.00450860196724534,-0.0032753683626651764,-0.016986588016152382,0.003657640889286995,-0.00927234161645174
0.011254995130002499,0.004593833815306425,-0.003291234839707613,-0.017590666189789772,0.0034026973880827427,-0.00882304273545742
0.010984903201460838,0.0040478999726474285,-0.003060180926695466,-0.017420010641217232,0.003081667935475707,-0.008969300426542759
0.011899671517312527,0.004326445050537586,-0.0034443913027644157,-0.0176756102591753,0.0029317899607121944,-0.008965864777565002
0.011899671517312527,0.004326445050537586,-0.0034443913027644157,-0.0176756102591753,0.0029317899607121944,-0.008965864777565002
0.011447551660239697,0.004487183410674334,-0.0033340302761644125,-0.017676355317234993,0.002839771332219243,-0.008787919767200947
0.011045904830098152,0.00474228011444211,-0.003531103488057852,-0.018568946048617363,0.0030688662081956863,-0.008842047303915024
0.011498314328491688,0.00489565497264266,-0.0031464879866689444,-0.017379725351929665,0.0034437875729054213,-0.009149964898824692
0.011545239947736263,0.004916216712445021,-0.003049892606213689,-0.017338011413812637,0.0034745007287710905,-0.009201450273394585
0.011145039461553097,0.005065037868916988,-0.0033085504546761513,-0.0181888360530138,0.0035882845986634493,-0.009050656110048294
0.011658379808068275,0.004992864094674587,-0.0033425111323595047,-0.018668144941329956,0.0033626665826886892,-0.009149196557700634
0.011005250737071037,0.005151492077857256,-0.0034943840000778437,-0.018414797261357307,0.0035050492733716965,-0.009509492665529251
0.01120339147746563,0.005492517724633217,-0.0036538473796099424,-0.01823064684867859,0.0037477482110261917,-0.009351025335490704
0.011805548332631588,0.005377995315939188,-0.003338726470246911,-0.018571116030216217,0.003409541444852948,-0.009856237098574638
0.01134933065623045,0.005795489531010389,-0.003504403168335557,-0.018753480166196823,0.003203283529728651,-0.009333258494734764
0.011480464600026608,0.005660682450979948,-0.0037243852857500315,-0.019141199067234993,0.003158653387799859,-0.009403678588569164
0.011224834248423576,0.006079558283090591,-0.003312119049951434,-0.019265340641140938,0.003445292357355356,-0.009765036404132843
0.011560874059796333,0.006078414618968964,-0.0032074032351374626,-0.01919632777571678,0.00381891499273479,-0.010128806345164776
0.011673610657453537,0.006533497478812933,-0.0031893218401819468,-0.01918165571987629,0.0037849280051887035,-0.009623570367693901
0.011696824803948402,0.00638322439044714,-0.0031118534971028566,-0.018981007859110832,0.00350624555721879,-0.010111725889146328
0.011428363621234894,0.006093653850257397,-0.003386699827387929,-0.018869230523705482,0.003274580230936408,-0.009707056917250156
0.011350682005286217,0.0064333765767514706,-0.003068435937166214,-0.019670432433485985,0.0031367770861834288,-0.009413378313183784
0.011787055991590023,0.0069634560495615005,-0.003200812265276909,-0.02027231827378273,0.003241858212277293,-0.009296831674873829
0.012076710350811481,0.0066876658238470554,-0.003341384930536151,-0.020515451207756996,0.0036108859349042177,-0.00974629633128643
0.011589473113417625,0.006467800121754408,-0.0035667107440531254,-0.020125770941376686,0.004077646881341934,-0.009086795151233673
0.011588715016841888,0.007248209323734045,-0.0033208068925887346,-0.019813941791653633,0.004282040987163782,-0.009082905948162079
0.011903184466063976,0.006815971806645393,-0.0031200095545500517,-0.01953832618892193,0.004069975111633539,-0.009051242843270302
0.012502591125667095,0.006912697106599808,-0.0034006990026682615,-0.02033768780529499,0.0038651186041533947,-0.009768595919013023
0.011901161633431911,0.007360321003943682,-0.003133811056613922,-0.020679127424955368,0.003415779210627079,-0.010010640136897564
0.012097064405679703,0.007119819521903992,-0.0032102351542562246,-0.021105658262968063,0.0033059692941606045,-0.009989084675908089
0.011644910089671612,0.008068349212408066,-0.003271543188020587,-0.021115319803357124,0.003345556790009141,-0.010240214876830578
0.011644910089671612,0.008068349212408066,-0.003271543188020587,-0.021115319803357124,0.003345556790009141,-0.010240214876830578
0.012049654498696327,0.007790600880980492,-0.0036008700262755156,-0.02114926278591156,0.0035399901680648327,-0.010154684074223042
0.01151096448302269,0.0078001548536121845,-0.003907955717295408,-0.021299296990036964,0.003279841272160411,-0.010796167887747288
0.011871347203850746,0.007621777709573507,-0.003483530366793275,-0.0216972716152668,0.00401267921552062,-0.009754400700330734
0.012145637534558773,0.007976165041327477,-0.003606016980484128,-0.022169269621372223,0.0041288090869784355,-0.010012482292950153
0.011853262782096863,0.007950875908136368,-0.003330353181809187,-0.021492376923561096,0.004263091832399368,-0.010229341685771942
0.01172176655381918,0.007985076867043972,-0.0035722905304282904,-0.0211185272783041,0.004289270844310522,-0.009991757571697235
0.01175864227116108,0.008217540569603443,-0.0032920665107667446,-0.021201109513640404,0.004386864136904478,-0.009960305877029896
0.01169990748167038,0.008221713826060295,-0.003281965618953109,-0.02159758098423481,0.004380037076771259,-0.009855142794549465
0.012277285568416119,0.00839567556977272,-0.0033987564966082573,-0.022373002022504807,0.0040929606184363365,-0.010373463854193687
0.011695610359311104,0.008440397679805756,-0.0036986677441745996,-0.022021755576133728,0.0038969777524471283,-0.010097084566950798
0.011828644201159477,0.008490018546581268,-0.0037754885852336884,-0.021512286737561226,0.004146327264606953,-0.010043909773230553
0.01221864391118288,0.0084507642313838,-0.0037863438483327627,-0.022352619096636772,0.0038684962783008814,-0.010111001320183277
0.012519371695816517,0.008678456768393517,-0.003876708447933197,-0.022142041474580765,0.00422013271600008,-0.009676607325673103
0.012469062581658363,0.009336416609585285,-0.0037283666897565126,-0.021931247785687447,0.0041302405297756195,-0.009836125187575817
0.012773830443620682,0.009267219342291355,-0.0035217516124248505,-0.022969014942646027,0.004532188177108765,-0.01002096850425005
0.0125535037368536,0.008456328883767128,-0.003608006052672863,-0.022473076358437538,0.0046552796848118305,-0.010762926191091537
0.012174281291663647,0.009402535855770111,-0.004058416001498699,-0.022221367806196213,0.004342853557318449,-0.010431778617203236
0.012515753507614136,0.008996785618364811,-0.0041658394038677216,-0.022606099024415016,0.004014905076473951,-0.010495416820049286
0.012921239249408245,0.008796635083854198,-0.003926388919353485,-0.022981001064181328,0.00401080260053277,-0.010161716490983963
0.012449917383491993,0.009284154511988163,-0.004228072706609964,-0.023276202380657196,0.003591848537325859,-0.010184592567384243
0.01248759962618351,0.009416346438229084,-0.00412000622600317,-0.02396545745432377,0.0033592828549444675,-0.010577726177871227
0.01248759962618351,0.009416346438229084,-0.00412000622600317,-0.02396545745432377,0.0033592828549444675,-0.010577726177871227
0.01242013368755579,0.009526611305773258,-0.0035022783558815718,-0.023258954286575317,0.004149241838604212,-0.010607179254293442
0.012630531564354897,0.009624679572880268,-0.00414413632825017,-0.023766200989484787,0.004451299551874399,-0.01018320582807064
0.012630531564354897,0.009624679572880268,-0.00414413632825017,-0.023766200989484787,0.004451299551874399,-0.01018320582807064
0.012632153928279877,0.009642623364925385,-0.004570298828184605,-0.023993633687496185,0.0042856051586568356,-0.010421769693493843
0.012904198840260506,0.009419821202754974,-0.004402695223689079,-0.024063728749752045,0.004341364372521639,-0.010461688041687012
0.013221947476267815,0.009281391277909279,-0.004380216356366873,-0.024345850571990013,0.003763053333386779,-0.010394256561994553
0.01220946479588747,0.009209711104631424,-0.004259993322193623,-0.025324959307909012,0.0033334605395793915,-0.010726025328040123
0.012915077619254589,0.00901036337018013,-0.004087517969310284,-0.02489410527050495,0.0032363433856517076,-0.011072437278926373
0.012254055589437485,0.00837051123380661,-0.00385940819978714,-0.024389952421188354,0.0035565211437642574,-0.01130829006433487
0.012832129374146461,0.008012828417122364,-0.00401419447734952,-0.02331937663257122,0.004159646574407816,-0.010671594180166721
0.012802275829017162,0.008902122266590595,-0.004072208423167467,-0.023371191695332527,0.005093153566122055,-0.010763869620859623
0.013138050213456154,0.009066659957170486,-0.003952522296458483,-0.024243948981165886,0.0052302321419119835,-0.01095052994787693
0.013117759488523006,0.009356007911264896,-0.004202398471534252,-0.02468855120241642,0.00474453903734684,-0.011104571633040905
0.013072557747364044,0.009382500313222408,-0.004072055220603943,-0.023888329043984413,0.004290398210287094,-0.010796167887747288
0.013609936460852623,0.009453215636312962,-0.003975020255893469,-0.023931771516799927,0.003922228701412678,-0.010966533794999123
0.013319524005055428,0.00939017441123724,-0.004387861583381891,-0.024658208712935448,0.003834546310827136,-0.011187850497663021
0.013741271570324898,0.008984836749732494,-0.004116832744330168,-0.024774517863988876,0.004359984304755926,-0.010734138078987598
0.013257250189781189,0.009497242979705334,-0.003915491513907909,-0.024071047082543373,0.004702774342149496,-0.011393453925848007
0.013538955710828304,0.009946976788341999,-0.00435055373236537,-0.023672396317124367,0.0047182347625494,-0.011284957639873028
0.013626963831484318,0.009447159245610237,-0.004039628431200981,-0.02462940849363804,0.004115178249776363,-0.010931666940450668
0.013112067244946957,0.009918397292494774,-0.003909597173333168,-0.024698417633771896,0.0038795219734311104,-0.01071638148277998
0.013711142353713512,0.009446618147194386,-0.0038401472847908735,-0.024321310222148895,0.003587024984881282,-0.010993964970111847
0.013508589006960392,0.009417393244802952,-0.0037886626087129116,-0.024801939725875854,0.0038587606977671385,-0.011666269972920418
0.013756399042904377,0.010619277134537697,-0.003788543865084648,-0.025285137817263603,0.004568243864923716,-0.011244532652199268
0.013695481233298779,0.009726831689476967,-0.004499728325754404,-0.025405365973711014,0.004690013825893402,-0.011153213679790497
0.014040419831871986,0.010260075330734253,-0.0046570454724133015,-0.0251667071133852,0.004381120204925537,-0.011279377155005932
0.014042329974472523,0.010162564925849438,-0.004281350877135992,-0.024300584569573402,0.004429414868354797,-0.01120409183204174
0.014227678067982197,0.009837188757956028,-0.003971212077885866,-0.024993183091282845,0.004318809602409601,-0.011609090492129326
0.01388619001954794,0.010254201479256153,-0.004217527341097593,-0.025216437876224518,0.0041449363343417645,-0.011595447547733784
0.01428461354225874,0.010324266739189625,-0.004276092629879713,-0.025098450481891632,0.003971119411289692,-0.011916885152459145
0.015714656561613083,0.009929132647812366,-0.0040528117679059505,-0.02546481043100357,0.004370903130620718,-0.01141225267201662
0.01599058136343956,0.010463225655257702,-0.004166726488620043,-0.02562367171049118,0.004591816570609808,-0.011217931285500526
0.015234973281621933,0.010439867153763771,-0.0040772901847958565,-0.025786694139242172,0.004907271824777126,-0.011291992850601673
0.015234973281621933,0.010439867153763771,-0.0040772901847958565,-0.025786694139242172,0.004907271824777126,-0.011291992850601673
0.015475771389901638,0.01023856084793806,-0.00425504706799984,-0.025815360248088837,0.004490457940846682,-0.011434615589678288
0.015247958712279797,0.010619157925248146,-0.0040503512136638165,-0.025758445262908936,0.00455700745806098,-0.011458354070782661
0.016057152301073074,0.010743694379925728,-0.004014025907963514,-0.026064367964863777,0.004437095485627651,-0.011602502316236496
0.015765756368637085,0.010764763690531254,-0.004058686550706625,-0.02638261951506138,0.00451796967536211,-0.011568298563361168
0.016287969425320625,0.01152986939996481,-0.0040590097196400166,-0.026464074850082397,0.004688945598900318,-0.011633934453129768
0.01584680564701557,0.011279975064098835,-0.004403124563395977,-0.0264278631657362,0.004681197926402092,-0.011499260552227497
0.01589691825211048,0.01134485937654972,-0.004379533231258392,-0.02681005373597145,0.0052551873959600925,-0.011172613129019737
0.016465498134493828,0.011315437965095043,-0.0044988240115344524,-0.027262795716524124,0.004786209668964148,-0.011497591622173786
0.016220415011048317,0.011716474778950214,-0.004194290842860937,-0.027518220245838165,0.004649464040994644,-0.011684815399348736
0.016222767531871796,0.011561861261725426,-0.004278173670172691,-0.02793610468506813,0.0044038258492946625,-0.011479465290904045
0.016387496143579483,0.01120835356414318,-0.004614054691046476,-0.02816486358642578,0.0051984102465212345,-0.01153335627168417
0.016232827678322792,0.011341938748955727,-0.004705746192485094,-0.028438035398721695,0.005062516778707504,-0.01173478551208973
0.01628130115568638,0.01115371659398079,-0.004511903505772352,-0.02856305055320263,0.004887863993644714,-0.011792555451393127
0.016420096158981323,0.011961914598941803,-0.004451301414519548,-0.02870609238743782,0.004908470902591944,-0.012352081947028637
0.016516761854290962,0.012229683808982372,-0.004495539702475071,-0.02922622486948967,0.004817747976630926,-0.01179578248411417
0.017045382410287857,0.011537921614944935,-0.004649917595088482,-0.029583048075437546,0.004479545634239912,-0.011891406029462814
0.016330845654010773,0.011608515866100788,-0.004451512824743986,-0.029363272711634636,0.004876089747995138,-0.012051204219460487
0.0166624765843153,0.0110813332721591,-0.004558126907795668,-0.02880074270069599,0.005303200334310532,-0.011871208436787128
0.016605008393526077,0.011477885767817497,-0.004303822293877602,-0.031233707442879677,0.005032824818044901,-0.01185910776257515
0.016416961327195168,0.011442559771239758,-0.004514626227319241,-0.02996870130300522,0.0049192956648766994,-0.011866901069879532
0.01660521700978279,0.010998349636793137,-0.004427733831107616,-0.02913358435034752,0.004776312969624996,-0.012021600268781185
0.016604818403720856,0.011136902496218681,-0.004533883184194565,-0.028320569545030594,0.004425154533237219,-0.012097245082259178
0.016604818403720856,0.011136902496218681,-0.004533883184194565,-0.028320569545030594,0.004425154533237219,-0.012097245082259178
0.01687607355415821,0.010857980698347092,-0.004635132849216461,-0.028307082131505013,0.004522757139056921,-0.012863177806138992
0.01683168299496174,0.0111708277836442,-0.0042762490920722485,-0.02961500734090805,0.004742407705634832,-0.01241094060242176
0.01663498766720295,0.011219323612749577,-0.004414534196257591,-0.029713647440075874,0.005076543893665075,-0.01202381681650877
0.016622215509414673,0.011778909713029861,-0.005084324162453413,-0.029974820092320442,0.00511313509196043,-0.012575492262840271
0.017019206658005714,0.01136783417314291,-0.005020154640078545,-0.030995173379778862,0.005215642508119345,-0.012617258355021477
0.017420396208763123,0.010997813194990158,-0.004328645765781403,-0.031311310827732086,0.004892261698842049,-0.012536853551864624
0.0170049499720335,0.011650094762444496,-0.004373210947960615,-0.030488241463899612,0.004764333367347717,-0.012881092727184296
0.017227299511432648,0.011570126749575138,-0.004992349538952112,-0.030090369284152985,0.0046528843231499195,-0.013053742237389088
0.0169460978358984,0.01110643520951271,-0.0049944533966481686,-0.031240416690707207,0.005079020280390978,-0.012526198290288448
0.01701618731021881,0.012553288601338863,-0.004930566065013409,-0.03234061226248741,0.005000692792236805,-0.013059571385383606
0.016862155869603157,0.012198049575090408,-0.005040100309997797,-0.032717954367399216,0.004940572194755077,-0.013467537239193916
0.016907207667827606,0.012012592516839504,-0.004948632791638374,-0.032325148582458496,0.005354838911443949,-0.013592646457254887
0.017254097387194633,0.012103717774152756,-0.005163280759006739,-0.0324849933385849,0.005246555432677269,-0.013843550346791744
0.017436837777495384,0.011702246963977814,-0.004916767124086618,-0.03228763863444328,0.005023634526878595,-0.013469754718244076
0.015472881495952606,0.012093436904251575,-0.0048858728259801865,-0.03220595791935921,0.00503640016540885,-0.013289593160152435
0.0180953536182642,0.011633820831775665,-0.004956888500601053,-0.032746464014053345,0.00508957589045167,-0.013057447038590908
0.01719016209244728,0.01156177930533886,-0.004840926267206669,-0.03233722969889641,0.005400016903877258,-0.013218185864388943
0.017261313274502754,0.011673317290842533,-0.005078295711427927,-0.03315110132098198,0.0047885458916425705,-0.013231834396719933
0.017395900562405586,0.012774957343935966,-0.0050249346531927586,-0.03297199681401253,0.004820288624614477,-0.013433033600449562
0.01733880490064621,0.011881516315042973,-0.004812018480151892,-0.03273981437087059,0.005295663606375456,-0.013822071254253387
0.017321551218628883,0.012702629901468754,-0.004829983692616224,-0.032192230224609375,0.005527897272258997,-0.013834910467267036
0.017871981486678123,0.012051843106746674,-0.005642046220600605,-0.03186871111392975,0.005786553490906954,-0.013434945605695248
0.017670540139079094,0.012038487941026688,-0.005187968257814646,-0.0325637087225914,0.005517353303730488,-0.01367659866809845
0.01780046336352825,0.012419057078659534,-0.004915871191769838,-0.03395986184477806,0.005199505481868982,-0.013265758752822876
0.01807992346584797,0.011992123909294605,-0.004815226886421442,-0.034214526414871216,0.005095081869512796,-0.013406599871814251
0.017921244725584984,0.01260013785213232,-0.004810953512787819,-0.032969798892736435,0.0056328726932406425,-0.013490629382431507
0.017921244725584984,0.01260013785213232,-0.004810953512787819,-0.032969798892736435,0.0056328726932406425,-0.013490629382431507
0.018017208203673363,0.01268006768077612,-0.005511579103767872,-0.033267732709646225,0.005297784693539143,-0.013951721601188183
0.017651507630944252,0.013013727962970734,-0.004952029325067997,-0.03289244696497917,0.005453692749142647,-0.014069072902202606
0.017651507630944252,0.013013727962970734,-0.004952029325067997,-0.03289244696497917,0.005453692749142647,-0.014069072902202606
0.01816190406680107,0.01287597045302391,-0.005143825896084309,-0.03464319556951523,0.004815869033336639,-0.013880240730941296
0.017961924895644188,0.012387329712510109,-0.005182217340916395,-0.03423795476555824,0.005144061520695686,-0.013915949501097202
0.017961924895644188,0.012387329712510109,-0.005182217340916395,-0.03423795476555824,0.005144061520695686,-0.013915949501097202
0.018327122554183006,0.012723303399980068,-0.005884945392608643,-0.0327947698533535,0.005677997600287199,-0.014230427332222462
0.018259543925523758,0.012477808631956577,-0.005299422424286604,-0.03264298662543297,0.005870767869055271,-0.014107312075793743
0.018562257289886475,0.012934833765029907,-0.004835625644773245,-0.03394055366516113,0.005518517456948757,-0.014345582574605942
0.018788080662488937,0.012780423276126385,-0.00542917475104332,-0.03433337062597275,0.005005313083529472,-0.014154682867228985
0.018575958907604218,0.013250184245407581,-0.005357570946216583,-0.034732479602098465,0.0049560838378965855,-0.014212695881724358
0.018811095505952835,0.01295675989240408,-0.005647800862789154,-0.03473793715238571,0.005537389311939478,-0.014163250103592873
0.018821921199560165,0.013105367310345173,-0.0054360912181437016,-0.034315310418605804,0.00576886348426342,-0.014560976065695286
0.018869638442993164,0.013298211619257927,-0.0051631866954267025,-0.03454095497727394,0.006103478372097015,-0.01418236456811428
0.018972720950841904,0.012917782180011272,-0.004932696465402842,-0.03528163954615593,0.005658791866153479,-0.014450165443122387
0.01897946186363697,0.013019770383834839,-0.005908765364438295,-0.03664623573422432,0.0053232042118906975,-0.014382574707269669
0.018849315121769905,0.013135137967765331,-0.005434704478830099,-0.03568335250020027,0.005085939075797796,-0.014784680679440498
0.019472531974315643,0.01379986759275198,-0.005381780210882425,-0.03605559468269348,0.0057445550337433815,-0.014608321711421013
0.019559169188141823,0.01331767812371254,-0.005575734656304121,-0.03642686456441879,0.006091206334531307,-0.01476768497377634
0.01940378174185753,0.013297955505549908,-0.005912070628255606,-0.03648461773991585,0.0055725229904055595,-0.014996231533586979
0.019296806305646896,0.013357189483940601,-0.006310071796178818,-0.03677305206656456,0.005300294142216444,-0.014595698565244675
0.018891314044594765,0.013309058733284473,-0.005705920048058033,-0.03704266995191574,0.005076288711279631,-0.016227995976805687
0.019464213401079178,0.01372599508613348,-0.0057723792269825935,-0.036934614181518555,0.005241228733211756,-0.014723258092999458
0.019710596650838852,0.01394845824688673,-0.005194158758968115,-0.03703541308641434,0.005785650108009577,-0.014723115600645542
0.019696900621056557,0.013920982368290424,-0.005934982094913721,-0.03697461262345314,0.006034728139638901,-0.01501697488129139
0.020135095342993736,0.014261242933571339,-0.005655793938785791,-0.036911699920892715,0.005828372202813625,-0.015312602743506432
0.020218653604388237,0.013919683173298836,-0.005832461640238762,-0.03669251874089241,0.005904447287321091,-0.015184362418949604
0.0194341279566288,0.014459989964962006,-0.0057518621906638145,-0.03717709705233574,0.0056038363836705685,-0.01546945795416832
0.019055413082242012,0.015202940441668034,-0.005675578955560923,-0.036987192928791046,0.005756977945566177,-0.015291349962353706
0.019905610010027885,0.015145715326070786,-0.005215985234826803,-0.03770840913057327,0.00580770056694746,-0.01564594730734825
0.01987382210791111,0.015166419558227062,-0.0059155686758458614,-0.0390508733689785,0.00587892159819603,-0.015203520655632019
0.020332718268036842,0.015139510855078697,-0.005938959773629904,-0.03957661986351013,0.006440191064029932,-0.015598466619849205
0.01998273842036724,0.015430539846420288,-0.006217944901436567,-0.03732142597436905,0.0060065933503210545,-0.015592423267662525
0.01993740350008011,0.015373079106211662,-0.005466278176754713,-0.038455624133348465,0.00602421909570694,-0.01548152044415474
0.020070765167474747,0.015795549377799034,-0.005357439164072275,-0.03937164694070816,0.0057043214328587055,-0.015595139004290104
0.020697645843029022,0.015151125378906727,-0.005248179659247398,-0.04070916399359703,0.005759844556450844,-0.015560612082481384
0.020697645843029022,0.015151125378906727,-0.005248179659247398,-0.04070916399359703,0.005759844556450844,-0.015560612082481384
0.021014485508203506,0.01526266522705555,-0.005849339999258518,-0.040288783609867096,0.005656087771058083,-0.015881355851888657
0.02053462341427803,0.015071666799485683,-0.005833401344716549,-0.03869054093956947,0.005821425002068281,-0.015520383603870869
0.02050129696726799,0.015421086922287941,-0.005578973330557346,-0.038419969379901886,0.006394654046744108,-0.015230120159685612
0.020371850579977036,0.015390672720968723,-0.005065001547336578,-0.039635710418224335,0.006560677196830511,-0.015119158662855625
0.02015538327395916,0.015810305252671242,-0.005737463477998972,-0.0396103672683239,0.0061569190584123135,-0.01566382870078087
0.020933972671628,0.015915047377347946,-0.005500558763742447,-0.039347633719444275,0.00625417148694396,-0.015745505690574646
0.021654024720191956,0.01610439084470272,-0.006082960404455662,-0.040015965700149536,0.006534918677061796,-0.016345154494047165
0.02168993465602398,0.016331424936652184,-0.0060620433650910854,-0.04023582115769386,0.006683462765067816,-0.016198862344026566
0.021478645503520966,0.015729287639260292,-0.005566003732383251,-0.040316347032785416,0.006627159658819437,-0.016184823587536812
0.021251413971185684,0.016145512461662292,-0.005102364346385002,-0.040343984961509705,0.006306986790150404,-0.016635539010167122
0.021954840049147606,0.016119884327054024,-0.005871775094419718,-0.04000762850046158,0.0059106373228132725,-0.016658352687954903
0.02181166037917137,0.015983739867806435,-0.0063445898704230785,-0.04026414826512337,0.006238835398107767,-0.01681341789662838
0.02168518491089344,0.016281528398394585,-0.005596550181508064,-0.039991118013858795,0.006141939200460911,-0.01635725237429142
0.02202649414539337,0.016270065680146217,-0.005215938203036785,-0.039532896131277084,0.006266459356993437,-0.01592039316892624
0.022338559851050377,0.016353407874703407,-0.005269450135529041,-0.03943268209695816,0.006334339268505573,-0.01612434908747673
0.022580832242965698,0.016654541715979576,-0.005663116928189993,-0.040105752646923065,0.006289663724601269,-0.016139598563313484
0.022695323452353477,0.016436465084552765,-0.006040639244019985,-0.041834756731987,0.006328051444143057,-0.01602506823837757
0.022336501628160477,0.016872910782694817,-0.00598702160641551,-0.04145373776555061,0.0064667523838579655,-0.016557684168219566
0.02260049246251583,0.016370095312595367,-0.005452505312860012,-0.03959398344159126,0.006492244079709053,-0.017074860632419586
0.02304529957473278,0.016931403428316116,-0.005573311820626259,-0.04102279990911484,0.006242173723876476,-0.017126889899373055
0.023272722959518433,0.016492635011672974,-0.006075667683035135,-0.04101862758398056,0.006383115891367197,-0.01690073125064373
0.022829385474324226,0.016604306176304817,-0.005993803963065147,-0.04162396490573883,0.006596073042601347,-0.017534827813506126
0.022586969658732414,0.017352981492877007,-0.006438534241169691,-0.0432160347700119,0.006445716600865126,-0.016597529873251915
0.023048508912324905,0.016777677461504936,-0.006379019934684038,-0.041483283042907715,0.006881342735141516,-0.016188230365514755
0.023048508912324905,0.016777677461504936,-0.006379019934684038,-0.041483283042907715,0.006881342735141516,-0.016188230365514755
0.023384910076856613,0.017465461045503616,-0.005634773056954145,-0.042527783662080765,0.007347384467720985,-0.01679033786058426
0.023537999019026756,0.017269453033804893,-0.005901863798499107,-0.04363405704498291,0.007344418205320835,-0.016992175951600075
0.023514969274401665,0.01739487051963806,-0.007268526591360569,-0.04396636784076691,0.006886301562190056,-0.017406195402145386
0.023428870365023613,0.01744028925895691,-0.006465882528573275,-0.04369404911994934,0.006741268094629049,-0.017480526119470596
0.023987440392374992,0.01747768186032772,-0.00569787947461009,-0.04388263449072838,0.006570246070623398,-0.017125029116868973
0.024332283064723015,0.01789051480591297,-0.005527590401470661,-0.04405051842331886,0.00699949637055397,-0.017252249643206596
0.02355566807091236,0.017615310847759247,-0.006127883214503527,-0.04436012730002403,0.00666119484230876,-0.017170296981930733
0.024098437279462814,0.017809394747018814,-0.006879957392811775,-0.04477499797940254,0.0064333057962358,-0.017392456531524658
0.025060201063752174,0.01828949898481369,-0.006661794614046812,-0.04532264545559883,0.006625541485846043,-0.017820851877331734
0.02438841201364994,0.017794204875826836,-0.006146806757897139,-0.0448620468378067,0.007369094528257847,-0.017951512709259987
0.024646282196044922,0.017966553568840027,-0.005494766402989626,-0.045061178505420685,0.007180481683462858,-0.017999939620494843
0.02419036440551281,0.017820565029978752,-0.006537057459354401,-0.04527108371257782,0.006537217181175947,-0.017656007781624794
0.02587135322391987,0.01868489757180214,-0.007241164334118366,-0.04608194902539253,0.007244511507451534,-0.01819775626063347
0.025150923058390617,0.01853010058403015,-0.006099539343267679,-0.0461244210600853,0.007604345213621855,-0.01822422444820404
0.024250663816928864,0.018224284052848816,-0.005782856605947018,-0.0458294041454792,0.006877170410007238,-0.017986949533224106
0.024701429530978203,0.019142722710967064,-0.00567969772964716,-0.04585389047861099,0.006640858948230743,-0.018100928515195847
0.02527947537600994,0.018850579857826233,-0.006464873440563679,-0.04737323895096779,0.006663468200713396,-0.018368246033787727
0.02519909292459488,0.018727358430624008,-0.006774791516363621,-0.04676700383424759,0.006645657122135162,-0.01793156936764717
0.02541341818869114,0.019238561391830444,-0.006067016161978245,-0.04513560235500336,0.007165070157498121,-0.018022503703832626
0.02470962516963482,0.018987534567713737,-0.005981312599033117,-0.04504953697323799,0.007367127109318972,-0.01866435632109642
0.024750718846917152,0.019098909571766853,-0.00653519481420517,-0.04641376808285713,0.007193081080913544,-0.019066961482167244
0.025224879384040833,0.019216131418943405,-0.006659397855401039,-0.04728853702545166,0.007194955833256245,-0.018579471856355667
0.025485482066869736,0.019451135769486427,-0.0063627250492572784,-0.04780147969722748,0.007001311518251896,-0.018473757430911064
0.025287212803959846,0.01959243230521679,-0.006389849353581667,-0.04524843767285347,0.006900050677359104,-0.01864863745868206
0.02529350109398365,0.019647283479571342,-0.006095005199313164,-0.04577883332967758,0.006527158431708813,-0.018587131053209305
0.025205247104167938,0.01962040178477764,-0.00642034038901329,-0.04680832475423813,0.007021913304924965,-0.01881711184978485
0.025923889130353928,0.019703282043337822,-0.006123872008174658,-0.04681054502725601,0.006945332046598196,-0.01981566846370697
0.025923889130353928,0.019703282043337822,-0.006123872008174658,-0.04681054502725601,0.006945332046598196,-0.01981566846370697
0.025837916880846024,0.019807880744338036,-0.006111891940236092,-0.04613402485847473,0.0065343924798071384,-0.017927119508385658
0.025837916880846024,0.019807880744338036,-0.006111891940236092,-0.04613402485847473,0.0065343924798071384,-0.017927119508385658
0.025974461808800697,0.019778484478592873,-0.0061544394120574,-0.046406783163547516,0.006851692218333483,-0.018454013392329216
0.026191633194684982,0.019966725260019302,-0.006586038041859865,-0.046773381531238556,0.007443366572260857,-0.019034216180443764
0.026130426675081253,0.02050207555294037,-0.006006775423884392,-0.047020573168992996,0.007590280845761299,-0.01926875300705433
0.0264358539134264,0.020044555887579918,-0.005888019688427448,-0.04731736332178116,0.0075712683610618114,-0.01913691870868206
0.026289518922567368,0.020319275557994843,-0.00666017085313797,-0.04768979549407959,0.007577504031360149,-0.019444216042757034
0.026141449809074402,0.020644111558794975,-0.006879508029669523,-0.04820600524544716,0.007733876351267099,-0.01932261884212494
0.02636553905904293,0.02047048695385456,-0.006506439298391342,-0.04847957566380501,0.007809952832758427,-0.019155867397785187
0.026812737807631493,0.021084275096654892,-0.006429922301322222,-0.048843804746866226,0.007759074214845896,-0.019774055108428
0.026495154947042465,0.02148166298866272,-0.006312747020274401,-0.05074946582317352,0.007707595359534025,-0.01994052343070507
0.02679756097495556,0.021450340747833252,-0.00711899483576417,-0.04825986549258232,0.007890180684626102,-0.019517378881573677
0.0266829002648592,0.021307047456502914,-0.006776248104870319,-0.04833323508501053,0.007843508385121822,-0.01942649483680725
0.02657846361398697,0.021728165447711945,-0.005708568729460239,-0.05012449994683266,0.007753618992865086,-0.019689712673425674
0.02683316171169281,0.021477453410625458,-0.005963795352727175,-0.050969719886779785,0.0076705594547092915,-0.0199099350720644
0.026996836066246033,0.020627329126000404,-0.007065135054290295,-0.049875032156705856,0.007522721774876118,-0.020503412932157516
0.02651086635887623,0.020714793354272842,-0.007137521635740995,-0.048978473991155624,0.007394815795123577,-0.020670173689723015
0.026756197214126587,0.021783554926514626,-0.006116232834756374,-0.05039393529295921,0.007425383664667606,-0.019826818257570267
0.026853244751691818,0.022061748430132866,-0.005994051229208708,-0.050955262035131454,0.007890265434980392,-0.019921034574508667
0.026848342269659042,0.02093128114938736,-0.0065925586968660355,-0.05101306736469269,0.008719348348677158,-0.019669445231556892
0.025390220806002617,0.02198551595211029,-0.0071245520375669,-0.051028426736593246,0.00765641126781702,-0.01972173899412155
0.027342267334461212,0.02244836464524269,-0.006951549090445042,-0.051650434732437134,0.007335434667766094,-0.01985890232026577
0.027670416980981827,0.022233344614505768,-0.006103311665356159,-0.051544319838285446,0.007501992397010326,-0.02097119763493538
0.02773105911910534,0.022013012319803238,-0.006174394860863686,-0.05189117416739464,0.0075530014000833035,-0.020949026569724083
0.027749473229050636,0.02180674485862255,-0.006648879963904619,-0.05211653560400009,0.007586671505123377,-0.02114861272275448
0.027749473229050636,0.02180674485862255,-0.006648879963904619,-0.05211653560400009,0.007586671505123377,-0.02114861272275448
0.02709031105041504,0.021715007722377777,-0.007601836696267128,-0.05269603803753853,0.007456905674189329,-0.02061407081782818
0.026835743337869644,0.022596653550863266,-0.006898617837578058,-0.05297539010643959,0.0074261026456952095,-0.020930681377649307
0.02778831496834755,0.022724399343132973,-0.006043774075806141,-0.05288194119930267,0.00798895675688982,-0.021188002079725266
0.02815176546573639,0.022549185901880264,-0.0061157396994531155,-0.05261990427970886,0.007746745832264423,-0.020511265844106674
0.027515357360243797,0.022367483004927635,-0.006207764148712158,-0.05269152671098709,0.008016123436391354,-0.020249374210834503
0.028051644563674927,0.022884465754032135,-0.007248845417052507,-0.05315589904785156,0.00793997012078762,-0.02010779269039631
0.028011374175548553,0.022579839453101158,-0.006991267204284668,-0.05454885959625244,0.007661526557058096,-0.02020956762135029
0.02751997858285904,0.022879041731357574,-0.006176008842885494,-0.05145268514752388,0.007522241212427616,-0.0205753892660141
0.027778757736086845,0.022916646674275398,-0.0058507174253463745,-0.051878854632377625,0.007476832717657089,-0.021002566441893578
0.02757667750120163,0.023008499294519424,-0.007247635629028082,-0.05499649420380592,0.007576604839414358,-0.020439429208636284
0.028016410768032074,0.02280685305595398,-0.0066613140515983105,-0.052161481231451035,0.007376753259450197,-0.02034306712448597
0.028023887425661087,0.02311798371374607,-0.006194335408508778,-0.05309008061885834,0.007914848625659943,-0.020947273820638657
0.027463724836707115,0.022793781012296677,-0.006103202700614929,-0.05412164703011513,0.007861259393393993,-0.021124325692653656
0.027788134291768074,0.02345442958176136,-0.006869538687169552,-0.05476995185017586,0.008041336201131344,-0.020727913826704025
0.027915501967072487,0.023747630417346954,-0.007024670951068401,-0.05470229685306549,0.008358151651918888,-0.021076014265418053
0.027693625539541245,0.02389395982027054,-0.006567514035850763,-0.05520429089665413,0.008047926239669323,-0.021538784727454185
0.027759425342082977,0.023980116471648216,-0.006338011473417282,-0.055182456970214844,0.007572810165584087,-0.021304966881871223
0.027847984805703163,0.023438507691025734,-0.006201346404850483,-0.055364012718200684,0.007807377725839615,-0.020966818556189537
0.02748468890786171,0.02371073327958584,-0.006821670103818178,-0.055774807929992676,0.007715342100709677,-0.021145863458514214
0.02748468890786171,0.02371073327958584,-0.006821670103818178,-0.055774807929992676,0.007715342100709677,-0.021145863458514214
0.02799358405172825,0.024304846301674843,-0.006986174266785383,-0.05614586919546127,0.007925523445010185,-0.021010829135775566
0.02751420997083187,0.024395745247602463,-0.006887183990329504,-0.05579160153865814,0.0077841258607804775,-0.020920155569911003
0.0278759952634573,0.024270713329315186,-0.0062591321766376495,-0.057275619357824326,0.008128970861434937,-0.021191589534282684
0.02775418944656849,0.023727435618638992,-0.006282698828727007,-0.055282242596149445,0.008246435783803463,-0.02279657870531082
0.027318717911839485,0.024027332663536072,-0.006679002661257982,-0.058270812034606934,0.007882604375481606,-0.020744506269693375
0.02861621044576168,0.024604830890893936,-0.006952881347388029,-0.05674998462200165,0.00779363326728344,-0.02078951522707939
0.02861621044576168,0.024604830890893936,-0.006952881347388029,-0.05674998462200165,0.00779363326728344,-0.02078951522707939
0.02813052013516426,0.025164294987916946,-0.0065237306989729404,-0.05751533433794975,0.008056305348873138,-0.021288003772497177
0.028644343838095665,0.024784361943602562,-0.006551183294504881,-0.05993141606450081,0.007998489774763584,-0.02216186560690403
0.028581736609339714,0.02393222413957119,-0.0065353005193173885,-0.057351671159267426,0.008093324489891529,-0.02206602692604065
0.02914262004196644,0.02401786670088768,-0.006672142073512077,-0.057900570333004,0.008236072957515717,-0.021171825006604195
0.02995569445192814,0.02419290877878666,-0.006556050386279821,-0.0587468296289444,0.008070730604231358,-0.02093091420829296
0.029501279816031456,0.02451387234032154,-0.007168782874941826,-0.058603234589099884,0.007970050908625126,-0.020825419574975967
0.02832171320915222,0.024618804454803467,-0.006877186242491007,-0.05839162319898605,0.008007563650608063,-0.021215254440903664
0.029836038127541542,0.024890633299946785,-0.006514941807836294,-0.05859874188899994,0.008639966137707233,-0.0217220950871706
0.02947615087032318,0.025620512664318085,-0.007729826029390097,-0.05850136652588844,0.008584228344261646,-0.021140018478035927
0.029631000012159348,0.024232080206274986,-0.007835601456463337,-0.057892344892024994,0.008290691301226616,-0.021491462364792824
0.030404619872570038,0.024644577875733376,-0.00784387532621622,-0.05849810317158699,0.008353381417691708,-0.022433970123529434
0.03060062788426876,0.0243998896330595,-0.007663152180612087,-0.05803913623094559,0.008327823132276535,-0.02246307209134102
0.03010125830769539,0.024368006736040115,-0.008283956907689571,-0.05818482115864754,0.008299179375171661,-0.021302808076143265
0.029672587290406227,0.025470178574323654,-0.00804386381059885,-0.058008648455142975,0.008780939504504204,-0.020984191447496414
0.02992062084376812,0.025365378707647324,-0.00799695122987032,-0.05700978636741638,0.008685799315571785,-0.021388696506619453
0.03057243302464485,0.025051947683095932,-0.00769555801525712,-0.058564092963933945,0.007928173989057541,-0.021604707464575768
0.03075178526341915,0.025007789954543114,-0.007863705977797508,-0.058102674782276154,0.008373884484171867,-0.022192180156707764
0.0311225987970829,0.024802125990390778,-0.007464733440428972,-0.058254994451999664,0.00858297199010849,-0.02250175178050995
0.030840802937746048,0.024900207296013832,-0.008062951266765594,-0.05899159237742424,0.008470037952065468,-0.022657228633761406
0.03098919428884983,0.0251887459307909,-0.008364109322428703,-0.06099012494087219,0.008726049214601517,-0.021735182031989098
0.031409669667482376,0.025426901876926422,-0.008382418192923069,-0.05853522568941116,0.008587997406721115,-0.021876346319913864
0.03146583214402199,0.025948893278837204,-0.007588313426822424,-0.06002527102828026,0.008603665977716446,-0.022436916828155518
0.03250652551651001,0.026041798293590546,-0.007599313743412495,-0.060946691781282425,0.008487775921821594,-0.022639766335487366
0.03250652551651001,0.026041798293590546,-0.007599313743412495,-0.060946691781282425,0.008487775921821594,-0.022639766335487366
