davideferrari95/blind_handover_controller/data/Test 128 - [2024-02-07 -- 16-37-31]/joint_states_data.csv
shoulder_pan_joint,shoulder_lift_joint,elbow_joint,wrist_1_joint,wrist_2_joint,wrist_3_joint
0.0060422420501708984,0.00887010432779789,-0.013114949688315392,0.004435368813574314,0.0,0.007031437009572983
0.006107596680521965,0.008978566154837608,-0.01358850859105587,0.004380341153591871,0.0,0.007291915360838175
0.006107596680521965,0.008978566154837608,-0.01358850859105587,0.004380341153591871,0.0,0.007291915360838175
0.005975951440632343,0.00946261826902628,-0.013405067846179008,0.0048227692022919655,0.0,0.007344113662838936
0.005874831695109606,0.008803335949778557,-0.013163784518837929,0.004454895853996277,0.0,0.007408495061099529
0.00592427933588624,0.008881920948624611,-0.01348669920116663,0.004489970859140158,0.0,0.0069530801847577095
0.006515336688607931,0.009482184424996376,-0.0131907407194376,0.004356525372713804,0.0,0.006792828440666199
0.005954694002866745,0.0076352134346961975,-0.013056622818112373,0.004006046336144209,0.0,0.006631171330809593
0.006312698591500521,0.00908888690173626,-0.012303701601922512,0.004267510958015919,0.0,0.006869281642138958
0.005594263784587383,0.008272483013570309,-0.013355904258787632,0.004394783638417721,0.0,0.0067087095230817795
0.0059614344500005245,0.00900138821452856,-0.014139718376100063,0.0045707933604717255,0.0,0.006816788110882044
0.0061956895515322685,0.009329407475888729,-0.013066279701888561,0.0044169011525809765,0.0,0.006441012490540743
0.006103712599724531,0.00901444535702467,-0.0131770558655262,0.004034834448248148,0.0,0.006786549463868141
0.005657661706209183,0.008948261849582195,-0.01300479844212532,0.0040237633511424065,0.0,0.006514845881611109
0.0056623793207108974,0.009135864675045013,-0.013684232719242573,0.004074062220752239,0.0,0.007085034158080816
0.006165048107504845,0.009343283250927925,-0.013608680106699467,0.00399682205170393,0.0,0.006733819376677275
0.006212604697793722,0.009188715368509293,-0.013539807870984077,0.004268324468284845,0.0,0.0064920722506940365
0.006291609723120928,0.009323269128799438,-0.01347951591014862,0.004497884307056665,0.0,0.006652145180851221
0.0062987711280584335,0.010060670785605907,-0.013198429718613625,0.0049117873422801495,0.0,0.007086656522005796
0.006018015556037426,0.008944027125835419,-0.013514986261725426,0.004774157423526049,0.0,0.007431718520820141
0.00632565189152956,0.009944319725036621,-0.013343379832804203,0.004426897037774324,0.0,0.0069398279301822186
0.00632565189152956,0.009944319725036621,-0.013343379832804203,0.004426897037774324,0.0,0.0069398279301822186
0.006262062583118677,0.009755625389516354,-0.013517011888325214,0.004361438099294901,0.0,0.006652114447206259
0.006101555190980434,0.00909716822206974,-0.012682477943599224,0.004519701469689608,0.0,0.006694047711789608
0.006188307888805866,0.009633845649659634,-0.013237448409199715,0.00449767243117094,0.0,0.007026358973234892
0.006188307888805866,0.009633845649659634,-0.013237448409199715,0.00449767243117094,0.0,0.007026358973234892
0.006167763378471136,0.009349741972982883,-0.013364902697503567,0.004507649224251509,0.0,0.006558177061378956
0.006502999924123287,0.009194787591695786,-0.01305675134062767,0.0046287416480481625,0.0,0.006425780244171619
0.006340470630675554,0.00988693442195654,-0.013434331864118576,0.004662598017603159,0.0,0.006749788299202919
0.005929083563387394,0.009252776391804218,-0.01304512470960617,0.004714634269475937,0.0,0.007025062572211027
0.006038597319275141,0.009351852349936962,-0.013327639549970627,0.004585799761116505,0.0,0.006712003611028194
0.006504015065729618,0.009575307369232178,-0.013255001045763493,0.004206516779959202,0.0,0.006828323006629944
0.0060541206039488316,0.008859901688992977,-0.013211228884756565,0.004104390740394592,0.0,0.006465713493525982
0.006020461209118366,0.009755581617355347,-0.012772907502949238,0.004021966829895973,0.0,0.006423762068152428
0.005461681634187698,0.009413017891347408,-0.013475212268531322,0.004269070457667112,0.0,0.006728658452630043
0.006110572721809149,0.009308341890573502,-0.012897972948849201,0.004662756342440844,0.0,0.006677711382508278
0.00609612837433815,0.009495707228779793,-0.013613023795187473,0.004587109666317701,0.0,0.006493954453617334
0.006196106784045696,0.009149291552603245,-0.012913503684103489,0.004428599961102009,0.0,0.006554410792887211
0.006186218466609716,0.009042049758136272,-0.013409758917987347,0.004184711258858442,0.0,0.0065000103786587715
0.005674899090081453,0.009363382123410702,-0.013104196637868881,0.004337249789386988,0.0,0.006579694338142872
0.006471395026892424,0.00923648476600647,-0.013462887145578861,0.004144212231040001,0.0,0.006420268677175045
0.006713533774018288,0.009501758962869644,-0.013056617230176926,0.004364855587482452,0.0,0.006954869255423546
0.0062285070307552814,0.008918399922549725,-0.013008136302232742,0.0044714417308568954,0.0,0.006747974082827568
0.005748487543314695,0.009804881177842617,-0.013288427144289017,0.004480800125747919,0.0,0.006454352755099535
0.0057936361990869045,0.00951597560197115,-0.01295918133109808,0.00453223567456007,0.0,0.005994888953864574
0.0057936361990869045,0.00951597560197115,-0.01295918133109808,0.00453223567456007,0.0,0.005994888953864574
0.006628710310906172,0.009415383450686932,-0.012647484429180622,0.0041275108233094215,0.0,0.006577734835445881
0.006628710310906172,0.009415383450686932,-0.012647484429180622,0.0041275108233094215,0.0,0.006577734835445881
0.006697842385619879,0.009193390607833862,-0.013435274362564087,0.003869958920404315,0.0,0.0064613050781190395
0.0062628695741295815,0.008918900042772293,-0.012786432169377804,0.00433239946141839,0.0,0.006304721813648939
0.006448416505008936,0.009704292751848698,-0.013544938527047634,0.0046427296474576,0.0,0.0065646423026919365
0.006815309636294842,0.009376880712807178,-0.013243594206869602,0.004752729088068008,0.0,0.006818681489676237
0.006195542868226767,0.008929613046348095,-0.012965661473572254,0.004190320149064064,0.0,0.006677499506622553
0.006387876812368631,0.010033427737653255,-0.013144240714609623,0.0042380401864647865,0.0,0.006581143941730261
0.0066102189011871815,0.008938830345869064,-0.01339480560272932,0.004241618327796459,0.0,0.006839183159172535
0.0066102189011871815,0.008938830345869064,-0.01339480560272932,0.004241618327796459,0.0,0.006839183159172535
0.007232728414237499,0.009157637134194374,-0.013314648531377316,0.004522977862507105,0.0,0.006760952528566122
0.006588280200958252,0.008877972140908241,-0.01357096154242754,0.004748326260596514,0.0,0.006358413491398096
0.006338885519653559,0.008534403517842293,-0.012979370541870594,0.005111295264214277,0.0,0.006288330070674419
0.006902605760842562,0.008562586270272732,-0.013739524409174919,0.004930694121867418,0.0,0.006646640133112669
0.006915136240422726,0.009193474426865578,-0.013277849182486534,0.0047014267183840275,0.0,0.006936505902558565
0.006497576832771301,0.008930293843150139,-0.013785665854811668,0.0046274615451693535,0.0,0.006473481189459562
0.00670027919113636,0.008732053451240063,-0.013324415311217308,0.004728343337774277,0.0,0.0068259392865002155
0.0072533427737653255,0.009222596883773804,-0.013417059555649757,0.005139750894159079,0.0,0.006808243226259947
0.006934876553714275,0.008588428609073162,-0.014322955161333084,0.005061251111328602,0.0,0.006131437607109547
0.007350021041929722,0.008358852937817574,-0.01386138703674078,0.004788518417626619,0.0,0.005943199619650841
0.006837764754891396,0.009205851703882217,-0.013760002329945564,0.00459908414632082,0.0,0.0061245025135576725
0.0068117533810436726,0.008878588676452637,-0.013347038067877293,0.004678025841712952,0.0,0.006487014703452587
0.006640052888542414,0.008984152227640152,-0.013701734133064747,0.004814604297280312,0.0,0.00702907657250762
0.006826736964285374,0.009345942176878452,-0.013871679082512856,0.004896709695458412,0.0,0.007008830085396767
0.006711328402161598,0.009372768923640251,-0.013102411292493343,0.005102749913930893,0.0,0.006368571426719427
0.007350500673055649,0.008439682424068451,-0.013366983272135258,0.00497099943459034,0.0,0.006214717403054237
0.0070059821009635925,0.008450751192867756,-0.013125891797244549,0.004813280887901783,0.0,0.0063791475258767605
0.006764181889593601,0.00836349930614233,-0.012997268699109554,0.004748647566884756,0.0,0.007048803847283125
0.006598949898034334,0.008216064423322678,-0.01359263900667429,0.005227622576057911,0.0,0.007008920889347792
0.006766284815967083,0.008136946707963943,-0.013896188698709011,0.0051583596505224705,0.0,0.006502125412225723
0.0067786844447255135,0.00842194352298975,-0.012985504232347012,0.005290038418024778,0.0,0.006301836110651493
0.006435358431190252,0.008677668869495392,-0.013494792394340038,0.005137251224368811,0.0,0.006456569768488407
0.006093461997807026,0.008366628549993038,-0.013120323419570923,0.0049180141650140285,0.0,0.0068461173214018345
0.006093461997807026,0.008366628549993038,-0.013120323419570923,0.0049180141650140285,0.0,0.0068461173214018345
0.006414743140339851,0.008435675874352455,-0.014132536016404629,0.0049840593710541725,0.0,0.0064065298065543175
0.006774202920496464,0.008990982547402382,-0.013437129557132721,0.0048592109233140945,0.0,0.006172051653265953
0.006338534876704216,0.008397732861340046,-0.013382592238485813,0.004914526361972094,0.0,0.006161458324640989
0.006424806080758572,0.008500326424837112,-0.013294569216668606,0.004925736226141453,0.0,0.006684074178338051
0.006403823848813772,0.00897329580038786,-0.014007934369146824,0.004988460335880518,0.0,0.006858531851321459
0.0060651362873613834,0.008385970257222652,-0.013401269912719727,0.004970650188624859,0.0,0.006430122070014477
0.006517111789435148,0.008162876591086388,-0.01295433659106493,0.004364357329905033,0.0,0.0063763633370399475
0.0068106334656476974,0.008674731478095055,-0.013368972577154636,0.004246217664331198,0.0,0.00681354571133852
0.006147554609924555,0.008135671727359295,-0.013463537208735943,0.005178174003958702,0.0,0.006604068446904421
0.006401129066944122,0.007875663228332996,-0.01294238306581974,0.004862034227699041,0.0,0.006419849116355181
0.006456900388002396,0.008852090686559677,-0.013463994488120079,0.004650173708796501,0.0,0.00630231061950326
0.006450875196605921,0.008612406440079212,-0.012833604589104652,0.004828733392059803,0.0,0.006231619510799646
0.0064877113327383995,0.007902000099420547,-0.01311786100268364,0.004809287376701832,0.0,0.006539975292980671
0.006360988598316908,0.008552680723369122,-0.013081567361950874,0.005050354637205601,0.0,0.006655448582023382
0.0065418994054198265,0.008541876450181007,-0.013723588548600674,0.00530747277662158,0.0,0.006365151610225439
0.007150012534111738,0.00842767208814621,-0.012958500534296036,0.004669466055929661,0.0,0.005634753964841366
0.006618531420826912,0.008025302551686764,-0.013132751919329166,0.0043464768677949905,0.0,0.006261876318603754
0.006525959819555283,0.008722026832401752,-0.013075550086796284,0.004311615601181984,0.0,0.0066652968525886536
0.006527534686028957,0.008716580457985401,-0.012930127792060375,0.004084646701812744,0.0,0.006592731457203627
0.0071493093855679035,0.008427881635725498,-0.013344344682991505,0.004080040380358696,0.0,0.006196150556206703
0.006828781217336655,0.008531331084668636,-0.012593698687851429,0.004267734941095114,0.0,0.0065047647804021835
0.006504351738840342,0.008781040087342262,-0.012968961149454117,0.004877388942986727,0.0,0.006803787779062986
0.006209079641848803,0.008181041106581688,-0.01266141701489687,0.005089281592518091,0.0,0.007287243381142616
0.006697360426187515,0.00844392366707325,-0.013036227785050869,0.004541679285466671,0.0,0.006773300468921661
0.0073003568686544895,0.008480940945446491,-0.012607923708856106,0.004430864937603474,0.0,0.006407984532415867
0.007428272161632776,0.008234702982008457,-0.012696558609604836,0.004423931706696749,0.0,0.006781002040952444
0.006804991513490677,0.008234593085944653,-0.012626604177057743,0.00464432081207633,0.0,0.006727137602865696
0.007272769697010517,0.008942012675106525,-0.012396475300192833,0.004903942812234163,0.0,0.00656646303832531
0.007272769697010517,0.008942012675106525,-0.012396475300192833,0.004903942812234163,0.0,0.00656646303832531
0.006875395309180021,0.008606343530118465,-0.012541034258902073,0.005185138434171677,0.0,0.006233178079128265
0.006956007331609726,0.008258054032921791,-0.012003079056739807,0.00486096041277051,0.0,0.006534966640174389
0.006747077219188213,0.008311551064252853,-0.012451084330677986,0.004399791359901428,0.0,0.006617746315896511
0.007334953639656305,0.008867691271007061,-0.01236198004335165,0.004485141020268202,0.0,0.006157314404845238
0.007058858871459961,0.008432296104729176,-0.012806861661374569,0.004544692579656839,0.0,0.006306840572506189
0.0065330760553479195,0.0081618158146739,-0.012829960323870182,0.004834326449781656,0.0,0.006202156189829111
0.00667276605963707,0.009058326482772827,-0.012225395068526268,0.004853591788560152,0.0,0.006358373910188675
0.0065605840645730495,0.00815786886960268,-0.01267276518046856,0.004697631113231182,0.0,0.006142349448055029
0.007039799354970455,0.007969341240823269,-0.012438652105629444,0.004435006994754076,0.0,0.006458074785768986
0.0070185973308980465,0.008141542784869671,-0.012489883229136467,0.004841644782572985,0.0,0.006615724880248308
0.00644310750067234,0.008450471796095371,-0.012952526099979877,0.005008775275200605,0.0,0.006478451192378998
0.006291646976023912,0.008219115436077118,-0.01286427304148674,0.004994765389710665,0.0,0.006806640885770321
0.007142249494791031,0.00918383989483118,-0.01226835511624813,0.005242607556283474,0.0,0.006850709207355976
0.00744319474324584,0.008779145777225494,-0.012819665484130383,0.004695912357419729,0.0,0.006404504179954529
0.006370805203914642,0.008444325998425484,-0.012189497239887714,0.004560612142086029,0.0,0.006628298666328192
0.006455318536609411,0.008850899524986744,-0.01280558668076992,0.004450043197721243,0.0,0.006473479326814413
0.007014883682131767,0.008788937702775002,-0.012207051739096642,0.004793079569935799,0.0,0.006303695030510426
0.007282522041350603,0.008628320880234241,-0.012586559168994427,0.005232805851846933,0.0,0.006353247910737991
0.007126234006136656,0.008346706628799438,-0.012595519423484802,0.005025273654609919,0.0,0.006595204584300518
0.006937764585018158,0.009021272882819176,-0.012526609003543854,0.004326547496020794,0.0,0.00671745277941227
0.006874155253171921,0.00906375516206026,-0.012916318140923977,0.004392694216221571,0.0,0.0068233744241297245
0.0073089865036308765,0.00808946043252945,-0.012472438625991344,0.0047629536129534245,0.0,0.006791889201849699
0.007546205539256334,0.008374255150556564,-0.012844974175095558,0.005507301539182663,0.0,0.006518329493701458
0.007546205539256334,0.008374255150556564,-0.012844974175095558,0.005507301539182663,0.0,0.006518329493701458
0.00699260551482439,0.008950463496148586,-0.01235000416636467,0.005369383376091719,0.0,0.0067297955974936485
0.006615860853344202,0.008676163852214813,-0.013013530522584915,0.005155852530151606,0.0,0.006764015182852745
0.008053564466536045,0.00802027527242899,-0.012972637079656124,0.005034006666392088,0.0,0.006418066564947367
0.007860023528337479,0.008747176267206669,-0.013159699738025665,0.0048592835664749146,0.0,0.006522324867546558
0.0066447872668504715,0.008794968947768211,-0.013186322525143623,0.0046522533521056175,0.0,0.00667537422850728
0.006577550899237394,0.008585508912801743,-0.012745729647576809,0.004690838512033224,0.0,0.006755555979907513
0.007214325480163097,0.009698102250695229,-0.012749242596328259,0.004833211190998554,0.0,0.007564128842204809
0.00755432341247797,0.008671152405440807,-0.012675810605287552,0.0051649343222379684,0.0,0.007595352828502655
0.006911951582878828,0.008649026043713093,-0.013421270065009594,0.005065034609287977,0.0,0.006173339206725359
0.00703576160594821,0.008904341608285904,-0.01237473264336586,0.004860491491854191,0.0,0.006069864146411419
0.007480102125555277,0.008981025777757168,-0.012736232951283455,0.004787919577211142,0.0,0.00712993647903204
0.007188263349235058,0.00840562954545021,-0.012477785348892212,0.004792242776602507,0.0,0.0071231587789952755
0.007393945939838886,0.008587753400206566,-0.01279367320239544,0.005192067474126816,0.0,0.007095508277416229
0.007706119678914547,0.008624943904578686,-0.012578279711306095,0.0048409681767225266,0.0,0.006953078787773848
0.007736932951956987,0.008416569791734219,-0.011485445313155651,0.004806261043995619,0.0,0.007289174944162369
0.007686251308768988,0.008073573932051659,-0.01298280619084835,0.005131203215569258,0.0,0.007735393010079861
0.007120945490896702,0.008653845638036728,-0.013106663711369038,0.005087488796561956,0.0,0.0071051958948373795
0.007589892018586397,0.008905655704438686,-0.012067741714417934,0.005424682516604662,0.0,0.007003421429544687
0.007632158696651459,0.008350695483386517,-0.012830023653805256,0.005339727737009525,0.0,0.007165665738284588
0.007627580314874649,0.008809860795736313,-0.012502274475991726,0.00508431950584054,0.0,0.0074376859702169895
0.006903180852532387,0.008686084300279617,-0.012856421060860157,0.004815723747014999,0.0,0.007415351457893848
0.007056345231831074,0.008331386372447014,-0.012694277800619602,0.004714359063655138,0.0,0.007133149076253176
0.00823280494660139,0.008403037674725056,-0.012073374353349209,0.0042157224379479885,0.0,0.0072939726524055
0.007889463566243649,0.008884796872735023,-0.01255038008093834,0.005237277131527662,0.0,0.007554769515991211
0.006905946880578995,0.008137864992022514,-0.012294980697333813,0.005743770394474268,0.0,0.007157816085964441
0.006905946880578995,0.008137864992022514,-0.012294980697333813,0.005743770394474268,0.0,0.007157816085964441
0.0069742086343467236,0.008064944297075272,-0.012655568309128284,0.005349159240722656,0.0,0.007161297835409641
0.007380918599665165,0.008796950802206993,-0.01233571209013462,0.004903241991996765,0.0,0.007304852362722158
0.007355203852057457,0.007850978523492813,-0.012637176550924778,0.004701161757111549,0.0,0.0069792852737009525
0.00718441978096962,0.008081873878836632,-0.012584486044943333,0.005145242903381586,0.0,0.006863635499030352
0.00811341218650341,0.007911540567874908,-0.012371446937322617,0.005177794024348259,0.0,0.006688703317195177
0.007809629663825035,0.007991029880940914,-0.012413175776600838,0.005004820879548788,0.0,0.006796650588512421
0.007443325128406286,0.007764413952827454,-0.012090087868273258,0.005072957370430231,0.0,0.006695689633488655
0.007244197651743889,0.007707817945629358,-0.012343858368694782,0.004992898087948561,0.0,0.0071304976008832455
0.008020768873393536,0.008790524676442146,-0.012061789631843567,0.00465736398473382,0.0,0.006892617326229811
0.007825029082596302,0.008223381824791431,-0.01223492156714201,0.004780517425388098,0.0,0.0069380649365484715
0.007619477808475494,0.00764794647693634,-0.012567373923957348,0.005266631953418255,0.0,0.006832613609731197
0.007451128214597702,0.0075194644741714,-0.011903461068868637,0.005063374526798725,0.0,0.007108994759619236
0.007663924712687731,0.008476607501506805,-0.012277286499738693,0.005198414903134108,0.0,0.0074967993423342705
0.0073425378650426865,0.007756434381008148,-0.012692230753600597,0.005008251406252384,0.0,0.007233284879475832
0.007339491508901119,0.007691175676882267,-0.012470351532101631,0.005372606683522463,0.0,0.007171990815550089
0.007815942168235779,0.007943903096020222,-0.012512353248894215,0.0052978601306676865,0.0,0.007341064978390932
0.007618094328790903,0.007580805569887161,-0.012505332939326763,0.0050245109014213085,0.0,0.0075554694049060345
0.007226014509797096,0.007323580794036388,-0.012084467336535454,0.004786452278494835,0.0,0.007104238495230675
0.006956258788704872,0.0075597623363137245,-0.012646033428609371,0.004726685583591461,0.0,0.006676593795418739
0.007823842577636242,0.007744136266410351,-0.012243674136698246,0.004766388330608606,0.0,0.006682511419057846
0.007717670872807503,0.007425888907164335,-0.012529130093753338,0.005534756928682327,0.0,0.007302829530090094
0.007265389431267977,0.007040748372673988,-0.012365773320198059,0.0054721832275390625,0.0,0.007161100395023823
0.007270146161317825,0.007814052514731884,-0.01265573501586914,0.005486327689141035,0.0,0.006855466403067112
0.007568939123302698,0.007898258045315742,-0.012565565295517445,0.005312586203217506,0.0,0.006891064345836639
0.00818105973303318,0.008104055188596249,-0.011863209307193756,0.005131643731147051,0.0,0.007395155727863312
0.00818105973303318,0.008104055188596249,-0.011863209307193756,0.005131643731147051,0.0,0.007395155727863312
0.007894312962889671,0.007778042461723089,-0.012581102550029755,0.004860986489802599,0.0,0.007292270194739103
0.007796137593686581,0.0078828614205122,-0.01254376582801342,0.0053458986803889275,0.0,0.0071995132602751255
0.007607287261635065,0.007638356648385525,-0.012636935338377953,0.005515604745596647,0.0,0.006905524991452694
0.008027466014027596,0.007540653459727764,-0.012724430300295353,0.005462365690618753,0.0,0.006806954275816679
0.007892746478319168,0.008093655109405518,-0.012327354401350021,0.00506768561899662,0.0,0.007336065173149109
0.007763990201056004,0.008024528622627258,-0.012300783768296242,0.004957984201610088,0.0,0.007325800135731697
0.007748663891106844,0.007535057608038187,-0.0119719123467803,0.004746902268379927,0.0,0.007315098773688078
0.00786716677248478,0.007722546346485615,-0.012658296152949333,0.005095972679555416,0.0,0.007152026053518057
0.007367538753896952,0.007529831025749445,-0.01235521212220192,0.005587897729128599,0.0,0.0072988783940672874
0.0077437786385416985,0.007584040518850088,-0.01281007006764412,0.0052250828593969345,0.0,0.007258928846567869
0.007700091693550348,0.007819284684956074,-0.012709422968327999,0.004989747889339924,0.0,0.007111271843314171
0.007467797491699457,0.007558191195130348,-0.012351521290838718,0.005121381487697363,0.0,0.006795015651732683
0.007947627454996109,0.007605282589793205,-0.012406411580741405,0.005565758794546127,0.0,0.007328608073294163
0.008180659264326096,0.007255498319864273,-0.012804051861166954,0.005236040335148573,0.0,0.007747831754386425
0.007827280089259148,0.007268545217812061,-0.012067853473126888,0.005245682783424854,0.0,0.007400071248412132
0.007741242181509733,0.007385805249214172,-0.01271660067141056,0.00542816799134016,0.0,0.007489352952688932
0.007855432108044624,0.0076143029145896435,-0.01244030985981226,0.005076384637504816,0.0,0.007430955767631531
0.008136107586324215,0.008200454525649548,-0.012538617476820946,0.004950644448399544,0.0,0.007736115250736475
0.007902644574642181,0.007985477335751057,-0.012277571484446526,0.005458021070808172,0.0,0.0077872732654213905
0.008194449357688427,0.007870600558817387,-0.0121923191472888,0.005600942298769951,0.0,0.008218019269406796
0.007925773970782757,0.007343883626163006,-0.012043563649058342,0.0050757150165736675,0.0,0.007110431790351868
0.007925773970782757,0.007343883626163006,-0.012043563649058342,0.0050757150165736675,0.0,0.007110431790351868
0.007488626055419445,0.007376845460385084,-0.012922007590532303,0.004533545579761267,0.0,0.007320786360651255
0.007843405939638615,0.008083506487309933,-0.012415586039423943,0.004823764320462942,0.0,0.008892988786101341
0.007606391794979572,0.00785798579454422,-0.012762218713760376,0.005209888331592083,0.0,0.007604638580232859
0.00795786827802658,0.007341349497437477,-0.012648120522499084,0.005644022952765226,0.0,0.006649233400821686
0.00795786827802658,0.007341349497437477,-0.012648120522499084,0.005644022952765226,0.0,0.006649233400821686
0.007767476607114077,0.007337101735174656,-0.012653262354433537,0.005333721172064543,0.0,0.006724838633090258
0.008770321495831013,0.007951921783387661,-0.012994249351322651,0.0052288370206952095,0.0,0.00748974597081542
0.008070062845945358,0.007653329521417618,-0.012733131647109985,0.004922383930534124,0.0,0.007569222245365381
0.007991742342710495,0.006989848334342241,-0.013233385048806667,0.004922789055854082,0.0,0.007474859710782766
0.008028345182538033,0.006878834683448076,-0.012439352460205555,0.005050763487815857,0.0,0.007973432540893555
0.008405106142163277,0.0072202421724796295,-0.012995613738894463,0.0052856700494885445,0.0,0.007928001694381237
0.008538862690329552,0.00787679199129343,-0.012503943406045437,0.00510606961324811,0.0,0.008068270981311798
0.007963131181895733,0.007329314015805721,-0.013202734291553497,0.005366345401853323,0.0,0.007753217592835426
0.008151066489517689,0.007275731302797794,-0.013167394325137138,0.005180123262107372,0.0,0.007570439018309116
0.008378496393561363,0.007543502375483513,-0.01313637476414442,0.005319308955222368,0.0,0.007592792622745037
0.008188559673726559,0.007498677354305983,-0.0128977932035923,0.005604419391602278,0.0,0.007931521162390709
0.007893002592027187,0.007215146906673908,-0.01340093556791544,0.005302016157656908,0.0,0.007971215061843395
0.00805505272001028,0.008005887269973755,-0.012650683522224426,0.005008361302316189,0.0,0.0081299664452672
0.007928187027573586,0.008139871060848236,-0.013269521296024323,0.005037769675254822,0.0,0.007776445243507624
0.007651721592992544,0.007448320742696524,-0.0129757234826684,0.005321346689015627,0.0,0.007054263260215521
0.008631988428533077,0.006889438722282648,-0.0137323047965765,0.0050148325972259045,0.0,0.007920956239104271
0.008457537740468979,0.007402037736028433,-0.012908309698104858,0.004896046128123999,0.0,0.008490822277963161
0.008068934082984924,0.007742594927549362,-0.013221515342593193,0.004786840174347162,0.0,0.007864122278988361
0.007867613807320595,0.006858909036964178,-0.0126169603317976,0.004897377919405699,0.0,0.007772392127662897
0.008725381456315517,0.006863231770694256,-0.012375088408589363,0.005837245844304562,0.0,0.007842049933969975
0.0080737778916955,0.007152375765144825,-0.012603415176272392,0.0063222553580999374,0.0,0.007910793647170067
0.007987442426383495,0.007887698709964752,-0.012123393826186657,0.006159367971122265,0.0,0.008137373253703117
0.008432145230472088,0.007086906582117081,-0.013085643760859966,0.005487887654453516,0.0,0.008489393629133701
0.008432145230472088,0.007086906582117081,-0.013085643760859966,0.005487887654453516,0.0,0.008489393629133701
0.00824649352580309,0.0071580479852855206,-0.012982487678527832,0.005158631131052971,0.0,0.008344397880136967
0.0082672955468297,0.006988940294831991,-0.013288324698805809,0.005028340965509415,0.0,0.00807636696845293
0.008113883435726166,0.007971729151904583,-0.012577617540955544,0.005850953049957752,0.0,0.007722392678260803
0.008580891415476799,0.007183479610830545,-0.011628353036940098,0.005639637354761362,0.0,0.008157267235219479
0.008975809440016747,0.007347926031798124,-0.013713444583117962,0.0057678441517055035,0.0,0.008409888483583927
0.007998836226761341,0.006892259232699871,-0.013553799130022526,0.005732339341193438,0.0,0.008065124973654747
0.00873459130525589,0.0071417465806007385,-0.01328959595412016,0.005574636626988649,0.0,0.00807812437415123
0.009304978884756565,0.007193905301392078,-0.012594197876751423,0.005853656679391861,0.0,0.00844124797731638
0.008171673864126205,0.0071951462887227535,-0.013309805653989315,0.006103710271418095,0.0,0.008141755126416683
0.008385607972741127,0.00711851567029953,-0.012872500345110893,0.005668932106345892,0.0,0.008229676634073257
0.008653420023620129,0.007234860211610794,-0.013494514860212803,0.005290181841701269,0.0,0.007895111106336117
0.008857829496264458,0.007127065677195787,-0.01272311620414257,0.004969371948391199,0.0,0.00818112026900053
0.008664088323712349,0.006775865331292152,-0.0131681552156806,0.00535157136619091,0.0,0.008113488554954529
0.00891051720827818,0.007135562598705292,-0.013199971057474613,0.0060819704085588455,0.0,0.00821893010288477
0.008314022794365883,0.0073628188110888,-0.013173265382647514,0.005793326999992132,0.0,0.008095530793070793
0.008751806803047657,0.007381172850728035,-0.013401602394878864,0.005769161973148584,0.0,0.008240103721618652
0.009245241992175579,0.006893473211675882,-0.013069522567093372,0.0062459977343678474,0.0,0.008202177472412586
0.008795534260571003,0.0073014539666473866,-0.012415503151714802,0.0064118970185518265,0.0,0.008441566489636898
0.008856276050209999,0.007538946345448494,-0.013093617744743824,0.0063150981441140175,0.0,0.008281540125608444
0.00897452887147665,0.0067905886098742485,-0.012531111016869545,0.0056257592514157295,0.0,0.008321358822286129
0.008767225779592991,0.006886531598865986,-0.013274735771119595,0.005549734923988581,0.0,0.009007886983454227
0.009292243979871273,0.006822844501584768,-0.012768193148076534,0.005521509796380997,0.0,0.008480447344481945
0.008904301561415195,0.007067492697387934,-0.013161835260689259,0.005858140531927347,0.0,0.008489015512168407
0.008505143225193024,0.006927209440618753,-0.01283988356590271,0.0061202272772789,0.0,0.009066211991012096
0.00922187976539135,0.006721865385770798,-0.01281894650310278,0.006140951067209244,0.0,0.009005073457956314
0.009749261662364006,0.007310131564736366,-0.01281999796628952,0.005924650467932224,0.0,0.008850010111927986
0.009555414319038391,0.007747299503535032,-0.012784491293132305,0.005543916020542383,0.0,0.00858401507139206
0.009555414319038391,0.007747299503535032,-0.012784491293132305,0.005543916020542383,0.0,0.00858401507139206
0.008701613172888756,0.0069156670942902565,-0.013491366058588028,0.005978614557534456,0.0,0.008420967496931553
0.009205612353980541,0.00710014533251524,-0.012738487683236599,0.0062420000322163105,0.0,0.008227954618632793
0.009639651514589787,0.007217428646981716,-0.013373450376093388,0.005790532100945711,0.0,0.008377522230148315
0.009626870043575764,0.007501040585339069,-0.012891672551631927,0.005828716326504946,0.0,0.008753303438425064
0.009475497528910637,0.0072253067046403885,-0.013262864202260971,0.0059423139318823814,0.0,0.00885595753788948
0.009265001863241196,0.007137627806514502,-0.012767843902111053,0.0062859756872057915,0.0,0.00872986763715744
0.00938368123024702,0.006833571009337902,-0.012964101508259773,0.006616401020437479,0.0,0.008465880528092384
0.00961216352880001,0.0072994539514184,-0.012992634437978268,0.006301076617091894,0.0,0.008691403083503246
0.010215599089860916,0.007117375265806913,-0.013723328709602356,0.0060615078546106815,0.0,0.009224935434758663
0.009276517666876316,0.00714934803545475,-0.013551066629588604,0.006438049487769604,0.0,0.008306428790092468
0.009660700336098671,0.007117017172276974,-0.012852544896304607,0.006791894324123859,0.0,0.008460150100290775
0.010620084591209888,0.007470474578440189,-0.013332118280231953,0.006610732059925795,0.0,0.008960886858403683
0.009749060496687889,0.007440243847668171,-0.012281513772904873,0.006491989828646183,0.0,0.009212198667228222
0.010050967335700989,0.00709283072501421,-0.01306824665516615,0.005795750301331282,0.0,0.009144547395408154
0.010671830736100674,0.007924537174403667,-0.013466151431202888,0.006226262077689171,0.0,0.009107616730034351
0.010389497503638268,0.007174848113209009,-0.013097687624394894,0.006046094000339508,0.0,0.008665041998028755
0.010484201833605766,0.007323107682168484,-0.012823421508073807,0.006373738870024681,0.0,0.009745181538164616
0.009904460050165653,0.006893192417919636,-0.012801390141248703,0.006285053212195635,-9.459059810978943e-07,0.009263799525797367
0.010326501913368702,0.007032341323792934,-0.012853922322392464,0.006509541068226099,-6.176090039389237e-08,0.00939380843192339
0.010275409556925297,0.007250715978443623,-0.013373753987252712,0.0064575932919979095,-4.032545408705346e-09,0.009256774559617043
0.009898856282234192,0.0069406828843057156,-0.013592202216386795,0.006252849940210581,-2.63296384694911e-10,0.009643813595175743
0.010561157017946243,0.006810004357248545,-0.013788241893053055,0.006151873152703047,-1.7191373324898507e-11,0.009093442931771278
0.010443069972097874,0.0070841326378285885,-0.01262367982417345,0.005856732372194529,-1.122473750232722e-12,0.009444942697882652
0.010074632242321968,0.007110503502190113,-0.01345636136829853,0.00637673819437623,-7.328951898491476e-14,0.009000915102660656
0.010367164388298988,0.006870652083307505,-0.01260317862033844,0.006477958057075739,-4.785282142327069e-15,0.009550918824970722
0.010306471958756447,0.006708367727696896,-0.013264909386634827,0.006135920062661171,-3.1244472561633855e-16,0.009361457079648972
0.010243063792586327,0.007200621534138918,-0.013235216960310936,0.006315551232546568,-2.0400406377176824e-17,0.009466012939810753
0.010369504801928997,0.0075384471565485,-0.01348120253533125,0.006071069277822971,-1.332000668588015e-18,0.009144848212599754
0.009789673611521721,0.007530822418630123,-0.013472368009388447,0.006470137275755405,-8.697013149534332e-20,0.009175430051982403
0.009789673611521721,0.007530822418630123,-0.013472368009388447,0.006470137275755405,-8.697013149534332e-20,0.009175430051982403
0.00999960582703352,0.006734759546816349,-0.013586879707872868,0.006694129668176174,-5.6785278583104784e-21,0.009091841988265514
0.010748757049441338,0.006615424063056707,-0.0135699063539505,0.006840481422841549,-3.707672760265171e-22,0.009523074142634869
0.0100056491792202,0.007090912200510502,-0.012993525713682175,0.0066327182576060295,-2.420845301889568e-23,0.00968718621879816
0.010546017438173294,0.007097882218658924,-0.013288503512740135,0.006486019119620323,-1.580639018069531e-24,0.009982344694435596
0.010227257385849953,0.007026836276054382,-0.013226787559688091,0.006962053943425417,-1.032044412328174e-25,0.009825712069869041
0.009906976483762264,0.006936428602784872,-0.013633796945214272,0.006832841783761978,-6.738513022900059e-27,0.009613288566470146
0.010543766431510448,0.006683335639536381,-0.01300547830760479,0.006546498741954565,-4.39976721717071e-28,0.009832036681473255
0.010162401013076305,0.0069198571145534515,-0.014110300689935684,0.007035489194095135,-2.872733355081907e-29,0.009755939245223999
0.01020000595599413,0.006648906506597996,-0.01335830893367529,0.006936112884432077,-1.8756896919912835e-30,0.009612103924155235
0.010288136079907417,0.006771635729819536,-0.013421318493783474,0.006639959756284952,-7.996359096186152e-33,0.009795840829610825
0.010164912790060043,0.007178593892604113,-0.014234574511647224,0.006563302129507065,-5.22105137220579e-34,0.00972331129014492
0.010724751278758049,0.007398249115794897,-0.013627302832901478,0.006809216924011707,-3.4089735084282774e-35,0.010169067420065403
0.011047710664570332,0.006677617318928242,-0.013983252458274364,0.007225841749459505,-2.2258160235502158e-36,0.009668250568211079
0.010378912091255188,0.006423637270927429,-0.013360167853534222,0.0068968781270086765,-1.4532987445699996e-37,0.009412583895027637
0.010427461005747318,0.006975573021918535,-0.013622649945318699,0.007063727360218763,-0.00012411086936481297,0.010164025239646435
0.010217954404652119,0.007059639785438776,-0.013791979290544987,0.007692434825003147,-0.00015775368956383318,0.010170185938477516
0.01038395892828703,0.006887716706842184,-0.014086935669183731,0.007043545600026846,-0.00015480890579055995,0.009897667914628983
0.010579039342701435,0.006551232188940048,-0.013792365789413452,0.006605520844459534,-0.00014981672575231642,0.009910658933222294
0.01039362233132124,0.0067618414759635925,-0.013937714509665966,0.006721022073179483,-0.00014499919780064374,0.009928618557751179
0.010187258012592793,0.006697472184896469,-0.014139003120362759,0.0069510675966739655,-0.00016667417366988957,0.010043704882264137
0.01058137509971857,0.006540931295603514,-0.013482117094099522,0.007301708217710257,-0.00016334133397322148,0.010144026018679142
0.010175785049796104,0.006786928977817297,-0.013450387865304947,0.006999340374022722,-0.000158653172547929,0.009753135032951832
0.010493126697838306,0.007333836518228054,-0.013624223880469799,0.006613528355956078,-0.00016674111247994006,0.009529582224786282
0.010317637585103512,0.0068029919639229774,-0.01398787647485733,0.006608124822378159,-0.00017397652845829725,0.010354516096413136
0.01016488391906023,0.006915926933288574,-0.01344576571136713,0.006692002527415752,-0.00017005357949528843,0.010112008079886436
0.010932983830571175,0.006550700403749943,-0.014146323315799236,0.006884228438138962,-0.00016563304234296083,0.009820749051868916
0.010932983830571175,0.006550700403749943,-0.014146323315799236,0.006884228438138962,-0.00016563304234296083,0.009820749051868916
0.010212215594947338,0.006810708902776241,-0.013609876856207848,0.006351642310619354,-0.00016139294893946499,0.009999752044677734
0.010481043718755245,0.006907822098582983,-0.014065240509808064,0.006102423649281263,-0.00017833642777986825,0.010414974763989449
0.010406430810689926,0.006588841788470745,-0.013244517147541046,0.006795117165893316,-0.00017536057566758245,0.01002785749733448
0.010316050611436367,0.006264179479330778,-0.013827933929860592,0.006981403101235628,-0.00017127828323282301,0.010022040456533432
0.010292822495102882,0.006562061607837677,-0.013490872457623482,0.007139856461435556,-0.00024572687107138336,0.010205145925283432
0.010622751899063587,0.00728282704949379,-0.014135140925645828,0.006407449953258038,-0.0002571058867033571,0.01108474563807249
0.010791823267936707,0.0070435162633657455,-0.013503164052963257,0.00635722978040576,-0.00024478122941218317,0.009944231249392033
0.011581560596823692,0.007159899920225143,-0.013863136060535908,0.006865340750664473,-0.00023225185577757657,0.009459110908210278
0.01219170168042183,0.006656717509031296,-0.013608141802251339,0.0071577755734324455,-0.00021052162628620863,0.010634668171405792
0.011913024820387363,0.007068357430398464,-0.013781285844743252,0.0068288263864815235,-0.00022077062749303877,0.010499786585569382
0.011382263153791428,0.007049173582345247,-0.014133282005786896,0.007173723075538874,-0.00022966433607507497,0.010702097788453102
0.012084616348147392,0.006860881578177214,-0.013844354078173637,0.007535770535469055,-0.00022144052491057664,0.010124930180609226
0.011514663696289062,0.006730346009135246,-0.013775656931102276,0.007060855161398649,-0.00021279101201798767,0.009765522554516792
0.011728347279131413,0.007428589276969433,-0.013706954196095467,0.006479187868535519,-0.00020472753385547549,0.010405673645436764
0.012113383039832115,0.006912728305906057,-0.01340635959059,0.007028648164123297,-0.0001972488098545,0.010197393596172333
0.011534377001225948,0.006367095746099949,-0.013544507324695587,0.007399044465273619,-0.00019029612303711474,0.009784786030650139
0.012233283370733261,0.006782416254281998,-0.01338639110326767,0.0067420476116240025,-0.00021039345301687717,0.010360597632825375
0.011773541569709778,0.007142999209463596,-0.013868768699467182,0.006387549918144941,-0.00020712832338176668,0.010112113319337368
0.011988122947514057,0.007496176287531853,-0.01311766542494297,0.007027117535471916,-0.00020076568762306124,0.01014180202037096
0.012255501002073288,0.006894304417073727,-0.013541160151362419,0.0077690742909908295,-0.00019457984308246523,0.010500291362404823
0.012079618871212006,0.006770467851310968,-0.013168612495064735,0.007180013228207827,-0.00018875079695135355,0.010786861181259155
0.012019638903439045,0.006763756740838289,-0.013818471692502499,0.006938789039850235,-0.000183259675395675,0.010447589680552483
0.012057570740580559,0.007162374909967184,-0.013402802869677544,0.007173238787800074,-0.0001780792372301221,0.010698061436414719
0.0126613425090909,0.0066894362680613995,-0.013550570234656334,0.007622332777827978,-0.00019626354333013296,0.010387788526713848
0.012623829767107964,0.006788174156099558,-0.012991013936698437,0.007448446471244097,-0.0001925200194818899,0.010482286103069782
0.012657997198402882,0.00676592905074358,-0.01339317113161087,0.006933277007192373,-0.00018760203965939581,0.010356678627431393
0.012307348661124706,0.0076821488328278065,-0.013499989174306393,0.007066504564136267,-0.0001828439999371767,0.010175743140280247
0.012307348661124706,0.0076821488328278065,-0.013499989174306393,0.007066504564136267,-0.0001828439999371767,0.010175743140280247
0.012131967581808567,0.006811424158513546,-0.013759404420852661,0.00755052175372839,-0.00018331305182073265,0.010856425389647484
0.012770936824381351,0.006459088996052742,-0.01355762779712677,0.0076086875051259995,-0.0001770846574800089,0.011260809376835823
0.012094042263925076,0.006764376536011696,-0.012712962925434113,0.007403282448649406,-0.00017044084961526096,0.010900666937232018
0.012772525660693645,0.007271589711308479,-0.013184786774218082,0.007077533286064863,-0.00018031267973128706,0.010705361142754555
0.012249411083757877,0.007033358793705702,-0.013033491559326649,0.007160038221627474,-0.00018903598538599908,0.01060112752020359
0.012653185985982418,0.006454522255808115,-0.013589148409664631,0.0071873595006763935,-0.00018359105160925537,0.011043188162147999
0.01256795134395361,0.006288689095526934,-0.013172256760299206,0.0069086854346096516,-0.0001776157587300986,0.010689090006053448
0.012586959637701511,0.006897639483213425,-0.012584186159074306,0.00693829171359539,-0.00019256021187175065,0.011045042425394058
0.012571296654641628,0.006527876015752554,-0.013071376830339432,0.00798557698726654,-0.0001884881785372272,0.010994539596140385
0.01306709460914135,0.006533293053507805,-0.013127208687365055,0.008264055475592613,-0.00018311948224436492,0.011604377999901772
0.012675514444708824,0.006538512650877237,-0.01334018912166357,0.00781838409602642,-0.00017795390158426017,0.011401400901377201
0.012643435969948769,0.006849398836493492,-0.013392191380262375,0.0077247582376003265,-0.00018520424782764167,0.011298113502562046
0.012690539471805096,0.007390670478343964,-0.013200762681663036,0.00817080121487379,-0.00019167913706041873,0.0115695521235466
0.012959858402609825,0.0068864538334310055,-0.013306532986462116,0.008219797164201736,-0.00018743389227893203,0.01144339982420206
0.013034097850322723,0.006492076441645622,-0.013242034241557121,0.008249601349234581,-0.00018272572197020054,0.01135959941893816
0.012885959818959236,0.006367468740791082,-0.013579200953245163,0.00845274142920971,-0.00025941047351807356,0.011307891458272934
0.013209187425673008,0.006949989125132561,-0.012660222128033638,0.007814611308276653,-0.0002563786692917347,0.011463426984846592
0.013209187425673008,0.006949989125132561,-0.012660222128033638,0.007814611308276653,-0.0002563786692917347,0.011463426984846592
0.012847238220274448,0.006934320088475943,-0.013538850471377373,0.0073705390095710754,-0.00024328185827471316,0.012087703682482243
0.01316012255847454,0.006820817943662405,-0.013166980817914009,0.007785457652062178,-0.0002308482362423092,0.011626632884144783
0.012634942308068275,0.006310025230050087,-0.0138230100274086,0.007347396574914455,-0.0002519961562938988,0.011366971768438816
0.012988151051104069,0.006674811244010925,-0.013469896279275417,0.00832031387835741,-0.00025048598763532937,0.01126976776868105
0.012797561474144459,0.006807523313909769,-0.013699989765882492,0.008359234780073166,-0.0002400166413281113,0.011252721771597862
0.013228509575128555,0.00650978134945035,-0.013479681685566902,0.007897360250353813,-0.0002298420004080981,0.011230384930968285
0.013029164634644985,0.0063200113363564014,-0.013878067024052143,0.00783237349241972,-0.00022045931837055832,0.011517600156366825
0.013210664503276348,0.00625828979536891,-0.013825612142682076,0.007425331044942141,-0.00021181035845074803,0.011875513941049576
0.013166666030883789,0.006923011504113674,-0.013584142550826073,0.007214364595711231,-0.00020381502690725029,0.01150656770914793
0.012694972567260265,0.007007073611021042,-0.013970975764095783,0.00760385999456048,-0.0002206138742621988,0.011313553899526596
0.013609450310468674,0.006849635858088732,-0.01387467235326767,0.007512406446039677,-0.00022053541033528745,0.012192992493510246
0.013233653269708157,0.006314408499747515,-0.013793375343084335,0.0075418995693326,-0.00021355853823479265,0.011274113319814205
0.01365148276090622,0.006508553400635719,-0.014044576324522495,0.007555068004876375,-0.00020658729772549123,0.011369766667485237
0.013353790156543255,0.006981765851378441,-0.014453597366809845,0.008196367882192135,-0.00020002934616059065,0.012349856086075306
0.013213119469583035,0.006421084515750408,-0.014066931791603565,0.00755733996629715,-0.0002114041562890634,0.012362421490252018
0.013468003831803799,0.0064849271439015865,-0.013806216418743134,0.007795852608978748,-0.0002084910374833271,0.011987724341452122
0.01344264391809702,0.006955303717404604,-0.014069977216422558,0.007909252308309078,-0.00020282636978663504,0.011496024206280708
0.013724129647016525,0.006647758185863495,-0.013523812405765057,0.0075666410848498344,-0.00019728274492081255,0.011919843032956123
0.013633274473249912,0.0063553061336278915,-0.014030810445547104,0.007346372120082378,-0.00020408195268828422,0.012157135643064976
0.013624545186758041,0.006563376635313034,-0.013425313867628574,0.007466472219675779,-0.00019924646767321974,0.01234606746584177
0.013426320627331734,0.006444919388741255,-0.014054832980036736,0.008044359274208546,-0.00019105945830233395,0.012219615280628204
0.01373562403023243,0.006582394242286682,-0.013366655446588993,0.008168362081050873,-0.00020123051945120096,0.012342875823378563
0.013954165391623974,0.00633245287463069,-0.01389947161078453,0.007602482568472624,-0.00021012105571571738,0.012460279278457165
0.013679669238626957,0.006118176970630884,-0.013645188882946968,0.008055317215621471,-0.00020330294501036406,0.012149862945079803
0.013974894769489765,0.00615014648064971,-0.014360406436026096,0.00836572889238596,-0.00019599442020989954,0.011948080733418465
0.013882318511605263,0.006168736144900322,-0.013681884855031967,0.007973122410476208,-0.00018913333769887686,0.01192017737776041
0.014126328751444817,0.006426132749766111,-0.014293944463133812,0.00800578948110342,-0.00018273275054525584,0.012390729039907455
0.014126328751444817,0.006426132749766111,-0.014293944463133812,0.00800578948110342,-0.00018273275054525584,0.012390729039907455
0.013913610018789768,0.006587057840079069,-0.013983134180307388,0.008544132113456726,-0.00020422089437488467,0.012376133352518082
0.01393753569573164,0.006659470032900572,-0.014062690548598766,0.008932850323617458,-0.00019954339950345457,0.012238560244441032
0.013320689089596272,0.006443566642701626,-0.013737534172832966,0.008212667889893055,-0.00019352971867192537,0.012339341454207897
0.013948404230177402,0.006751585751771927,-0.014348338358104229,0.008326875977218151,-0.00020093117200303823,0.012350061908364296
0.01385140884667635,0.006623255088925362,-0.013419813476502895,0.00928761437535286,-0.0002074902440654114,0.012563815340399742
0.014417578466236591,0.006782176438719034,-0.01401443500071764,0.008986937813460827,-0.00020246229541953653,0.01224783156067133
0.013657971285283566,0.006625734735280275,-0.014102309942245483,0.00884949415922165,-0.0001969761069631204,0.01270484458655119
0.014304259791970253,0.007123289629817009,-0.014080427587032318,0.008814710192382336,-0.00019173356122337282,0.01272538397461176
0.013995302841067314,0.006650314666330814,-0.013880514539778233,0.008930377662181854,-0.00022067078680265695,0.012634914368391037
0.014023859053850174,0.006148126907646656,-0.014391547068953514,0.008916381746530533,-0.00024110008962452412,0.01305511686950922
0.013784882612526417,0.006578637752681971,-0.013863280415534973,0.008786595426499844,-0.0002308390539838001,0.012849309481680393
0.014958093874156475,0.00621141167357564,-0.014186681248247623,0.008488962426781654,-0.0002521355345379561,0.013094538822770119
0.014182500541210175,0.005566221661865711,-0.0138019360601902,0.008582471869885921,-0.0002506276941858232,0.012392251752316952
0.014279287308454514,0.005086691118776798,-0.013945686630904675,0.009473826736211777,-0.00026567434542812407,0.012944976799190044
0.014237322844564915,0.005561731290072203,-0.013642439618706703,0.008969016373157501,-0.00025715993251651525,0.012268384918570518
0.012390509247779846,0.005360031500458717,-0.014155993238091469,0.008400690741837025,-0.00027783706900663674,0.012855157256126404
0.015465828590095043,0.0053834798745810986,-0.01373301912099123,0.009009567089378834,-0.00027157002477906644,0.012587318196892738
0.015060030855238438,0.005447862204164267,-0.013657400384545326,0.008931716904044151,-0.0003470603551249951,0.012855369597673416
0.014618795365095139,0.005482192616909742,-0.013126707635819912,0.008474310860037804,-0.00039656186709180474,0.012449855916202068
0.014289877377450466,0.00522515457123518,-0.013906771317124367,0.00853697769343853,-0.00036925970925949514,0.013257987797260284
0.014578309841454029,0.005886566359549761,-0.013555388897657394,0.008339405059814453,-0.00039172175456769764,0.013104169629514217
0.01415939535945654,0.005474806297570467,-0.0141745675355196,0.008158988319337368,-0.0003797721874434501,0.013036123476922512
0.015198787674307823,0.00592065928503871,-0.013892759568989277,0.00805105920881033,-0.0003557617892511189,0.012932062149047852
0.01476359087973833,0.005293810740113258,-0.014189054258167744,0.008879918605089188,-0.00033382378751412034,0.012698817066848278
0.015379664488136768,0.004976219497621059,-0.013715400360524654,0.009015539661049843,-0.00033990072552114725,0.013150529004633427
0.015136489644646645,0.005589155945926905,-0.014426831156015396,0.008899703621864319,-0.00034483891795389354,0.012833802960813046
0.015379237942397594,0.005361767020076513,-0.013973596505820751,0.009371012449264526,-0.0003283998230472207,0.013056340627372265
0.015379237942397594,0.005361767020076513,-0.013973596505820751,0.009371012449264526,-0.0003283998230472207,0.013056340627372265
0.014873706735670567,0.005344322882592678,-0.014394838362932205,0.009399845264852047,-0.0003122212365269661,0.01299237459897995
0.015276174992322922,0.005417116917669773,-0.013974008150398731,0.0088042002171278,-0.0002974797098431736,0.014068438671529293
0.015025731176137924,0.005017786752432585,-0.014893203973770142,0.008790046907961369,-0.00032186979660764337,0.012911808677017689
0.015156195499002934,0.005303205456584692,-0.014358218759298325,0.008858074434101582,-0.0003104534116573632,0.012691176496446133
0.015352620743215084,0.005071417894214392,-0.014435512945055962,0.008553165942430496,-0.0002977727563120425,0.013113045133650303
0.015292292460799217,0.005263318307697773,-0.013772036880254745,0.008752048946917057,-0.0002867325092665851,0.013510028831660748
0.015637299045920372,0.0056223743595182896,-0.014651824720203876,0.00929521955549717,-0.0002787350967992097,0.013502963818609715
0.015249739401042461,0.006116712931543589,-0.014374913647770882,0.009157895110547543,-0.0002630731323733926,0.013263742439448833
0.015569892711937428,0.00542397191748023,-0.015287340618669987,0.008736948482692242,-0.0002915930817835033,0.013673397712409496
0.015713226050138474,0.00559469498693943,-0.014321153983473778,0.010116759687662125,-0.00026858062483370304,0.013803000561892986
0.015650654211640358,0.0060161021538078785,-0.013508950360119343,0.00906611979007721,-0.0002928108733613044,0.013463607057929039
0.016268983483314514,0.0056849997490644455,-0.014374782331287861,0.009738977067172527,-0.00028464183560572565,0.013760426081717014
0.016359198838472366,0.005766548216342926,-0.014172464609146118,0.009141508489847183,-0.0002916998346336186,0.013600224629044533
0.016538064926862717,0.005301442462950945,-0.014720439910888672,0.00874802190810442,-0.0002973969094455242,0.013944937847554684
0.016605807468295097,0.00542894983664155,-0.014551391825079918,0.009475049562752247,-0.00028671379550360143,0.013993032276630402
0.01645108312368393,0.005703610833734274,-0.01522421557456255,0.01011095941066742,-0.0003932541876565665,0.014036135748028755
0.01663508079946041,0.006249760277569294,-0.014097540639340878,0.009193094447255135,-0.0003776503726840019,0.013655328191816807
0.016329949721693993,0.005748354364186525,-0.015101109631359577,0.00884478259831667,-0.00038331220275722444,0.013858141377568245
0.016986805945634842,0.005887497682124376,-0.014501125551760197,0.009024044498801231,-0.0003868280618917197,0.013835201039910316
0.01657450571656227,0.005565649829804897,-0.014884170144796371,0.009047731757164001,-0.00036285154055804014,0.014274203218519688
0.01657450571656227,0.005565649829804897,-0.014884170144796371,0.009047731757164001,-0.00036285154055804014,0.014274203218519688
0.016511350870132446,0.0062952544540166855,-0.014938008971512318,0.009229183197021484,-0.0003730334574356675,0.014151577837765217
0.016511350870132446,0.0062952544540166855,-0.014938008971512318,0.009229183197021484,-0.0003730334574356675,0.014151577837765217
0.01649622432887554,0.005910487845540047,-0.014790447428822517,0.009235765784978867,-0.00035238696727901697,0.014082996174693108
0.01690918765962124,0.005454428493976593,-0.015378622338175774,0.009671935811638832,-0.00036888790782541037,0.014169538393616676
0.01668383739888668,0.0056612384505569935,-0.01522411685436964,0.009848633781075478,-0.0003613927692640573,0.013983877375721931
0.017235541716217995,0.006087108980864286,-0.015225685201585293,0.009470039047300816,-0.000344802625477314,0.014087988995015621
0.017106320708990097,0.006025068461894989,-0.014938662759959698,0.009036445058882236,-0.00036988509236834943,0.014338666573166847
0.017012039199471474,0.006065779365599155,-0.015074014663696289,0.009487157687544823,-0.00035502674290910363,0.014863290823996067
0.017050260677933693,0.0058019463904201984,-0.015552249737083912,0.009998415596783161,-0.00037841254379600286,0.014355774037539959
0.016620274633169174,0.005821542348712683,-0.015824774280190468,0.00913258921355009,-0.0003677715139929205,0.014269033446907997
0.01722067967057228,0.006168857682496309,-0.01592467539012432,0.009576836600899696,-0.00034523874637670815,0.014297650195658207
0.017100200057029724,0.006051212083548307,-0.015739835798740387,0.009662944823503494,-0.00035087240394204855,0.013823535293340683
0.01734520122408867,0.006255858577787876,-0.016236314550042152,0.009500578045845032,-0.0003553525311872363,0.01400892436504364
0.01746450737118721,0.005687720142304897,-0.015018841251730919,0.009786074981093407,-0.0003378769033588469,0.014283229596912861
0.01716122031211853,0.005984764080494642,-0.015949081629514694,0.009613856673240662,-0.0003207710396964103,0.014474545605480671
0.017911244183778763,0.006334302481263876,-0.015642449259757996,0.010385556146502495,-0.0003312565095257014,0.015043801628053188
0.017663802951574326,0.006330222822725773,-0.01583663374185562,0.010116779245436192,-0.0003179191262461245,0.015032485127449036
0.018244246020913124,0.006287261378020048,-0.016050657257437706,0.009606764651834965,-0.0003045534249395132,0.014557698741555214
0.017710620537400246,0.005887825507670641,-0.01621738262474537,0.010178158059716225,-0.00029219649150036275,0.01448975782841444
0.017745893448591232,0.005761627573519945,-0.01564270630478859,0.010545912198722363,-0.00030727777630090714,0.014364040456712246
0.018003404140472412,0.0062962486408650875,-0.01570434868335724,0.009885895065963268,-0.0002917612437158823,0.014572376385331154
0.017700012773275375,0.006123741623014212,-0.015552224591374397,0.009780509397387505,-0.00027425994630903006,0.015066280029714108
0.018156766891479492,0.005798844620585442,-0.01613415777683258,0.010011399164795876,-0.00028370044310577214,0.015149027109146118
0.01783726178109646,0.005612851586192846,-0.01564997434616089,0.00897915568202734,-0.0002916287339758128,0.014608737081289291
0.017798058688640594,0.005993779748678207,-0.016021227464079857,0.009760485962033272,-0.00027812577900476754,0.014878371730446815
0.01714971475303173,0.006832784973084927,-0.01571723446249962,0.009730180725455284,-0.00028612345340661705,0.014704202301800251
0.017984304577112198,0.00626304280012846,-0.016264991834759712,0.009343231096863747,-0.00029280289891175926,0.014858859591186047
0.01877332665026188,0.0057633016258478165,-0.01592177525162697,0.010003676638007164,-0.00028104629018343985,0.015188075602054596
0.01848147250711918,0.005850555375218391,-0.01565854251384735,0.009880905039608479,-0.00026912280009128153,0.0141886156052351
0.01816675439476967,0.006120496429502964,-0.015776339918375015,0.009348087012767792,-0.00027613938436843455,0.014451720751821995
0.01835375651717186,0.006358557380735874,-0.015478292480111122,0.010326274670660496,-0.00028213212499395013,0.015286511741578579
0.018700413405895233,0.006174939684569836,-0.01604580320417881,0.009978043846786022,-0.0002725500089582056,0.014964030124247074
0.018700413405895233,0.006174939684569836,-0.01604580320417881,0.009978043846786022,-0.0002725500089582056,0.014964030124247074
0.01822473667562008,0.005998746491968632,-0.015232968144118786,0.009363388642668724,-0.00026369927218183875,0.015468927100300789
0.018057484179735184,0.005577347707003355,-0.015813317149877548,0.00964850839227438,-0.00030351500026881695,0.015207357704639435
0.01781584694981575,0.0056963348761200905,-0.015530378557741642,0.00988527201116085,-0.0002878656378015876,0.01531783677637577
0.018284225836396217,0.006052245385944843,-0.01586098223924637,0.010195189155638218,-0.000310672156047076,0.015151011757552624
0.018521200865507126,0.006010899320244789,-0.01530476100742817,0.010263636708259583,-0.0003055753477383405,0.015392722561955452
0.018509570509195328,0.00588407414034009,-0.015813350677490234,0.009942661039531231,-0.00028997843037359416,0.015336927957832813
0.0183167215436697,0.00580382626503706,-0.015643388032913208,0.009684223681688309,-0.0002752457221504301,0.015396966598927975
0.01862763799726963,0.005799461156129837,-0.01558887679129839,0.010780077427625656,-0.0003025498299393803,0.015466499142348766
0.01902773790061474,0.005962767172604799,-0.01611095294356346,0.011242897249758244,-0.00029123315471224487,0.015619478188455105
0.019938306882977486,0.005874221213161945,-0.016028285026550293,0.011264199391007423,-0.00027851079357787967,0.016022993251681328
0.018268700689077377,0.005505486391484737,-0.01548840757459402,0.010808640159666538,-0.00029318241286091506,0.015997039154171944
0.019130641594529152,0.005880987737327814,-0.015819285064935684,0.010854280553758144,-0.00036884681321680546,0.01576715148985386
0.01904808171093464,0.00610936526209116,-0.015130613930523396,0.011019949801266193,-0.00040689745219424367,0.015929222106933594
0.01833660900592804,0.005822327919304371,-0.015832621604204178,0.010639676824212074,-0.0003863676975015551,0.015717169269919395
0.01880296878516674,0.0054853265173733234,-0.015850961208343506,0.010300014168024063,-0.00036109008942730725,0.016068557277321815
0.019258808344602585,0.005509168840944767,-0.015865685418248177,0.010057116858661175,-0.00039095498505048454,0.01597648859024048
0.01916942000389099,0.005297189112752676,-0.016016706824302673,0.010429516434669495,-0.00037132875877432525,0.016122857108712196
0.019353536888957024,0.005788805894553661,-0.01593840681016445,0.011125754565000534,-0.0003752903430722654,0.016292165964841843
0.019147496670484543,0.005671006161719561,-0.015898901969194412,0.010495513677597046,-0.0003781638515647501,0.016170838847756386
0.018991217017173767,0.0056782071478664875,-0.015495543368160725,0.01005536038428545,-0.0003617152979131788,0.016554569825530052
0.019434772431850433,0.005158561281859875,-0.016187170520424843,0.01055329479277134,-0.0004457112809177488,0.016050664708018303
0.0192129984498024,0.005382575560361147,-0.015270153060555458,0.010684574954211712,-0.00041268474888056517,0.01630076952278614
0.018979983404278755,0.005186188500374556,-0.016147341579198837,0.010562483221292496,-0.000448817212600261,0.016372082754969597
0.01964135281741619,0.005984119139611721,-0.015864357352256775,0.010562132112681866,-0.0004698497068602592,0.016644669696688652
0.019244981929659843,0.005517394281923771,-0.015915388241410255,0.01031502615660429,-0.00045230583054944873,0.01630263961851597
0.01895662024617195,0.005447363015264273,-0.015620031394064426,0.010017168708145618,-0.0004752448876388371,0.01618093252182007
0.019679198041558266,0.005682995542883873,-0.015767786651849747,0.010100753046572208,-0.00045252960990183055,0.016438305377960205
0.019392576068639755,0.005580873228609562,-0.01605093665421009,0.010074739344418049,-0.0005498159443959594,0.016585959121584892
0.019392576068639755,0.005580873228609562,-0.01605093665421009,0.010074739344418049,-0.0005498159443959594,0.016585959121584892
0.01885196939110756,0.0057602450251579285,-0.015640730038285255,0.01034821942448616,-0.0005814434844069183,0.016694150865077972
0.019574357196688652,0.005593268666416407,-0.016287893056869507,0.01086068619042635,-0.00054655916756019,0.016915345564484596
0.019459152594208717,0.005485387519001961,-0.015654150396585464,0.01019386388361454,-0.0005746837705373764,0.017093492671847343
0.019114399328827858,0.00517372228205204,-0.016094541177153587,0.010363495908677578,-0.0005680968752130866,0.017242953181266785
0.019925376400351524,0.00534609891474247,-0.015579082071781158,0.01068123523145914,-0.0005578262498602271,0.01682993955910206
0.020107818767428398,0.005230067763477564,-0.016111768782138824,0.010509118437767029,-0.0006287764990702271,0.01738579198718071
0.019782885909080505,0.005863851867616177,-0.015802448615431786,0.010712390765547752,-0.0005859010270796716,0.017230398952960968
0.02082945965230465,0.005586458835750818,-0.01662202924489975,0.010874191299080849,-0.0005590350483544171,0.01736545003950596
0.019863108173012733,0.005233024712651968,-0.016033507883548737,0.011492875404655933,-0.0005856961361132562,0.017296453937888145
0.019962362945079803,0.0054014078341424465,-0.016800591722130775,0.011033626273274422,-0.0005405857809819281,0.01748301088809967
0.020426368340849876,0.0057493033818900585,-0.015853747725486755,0.011114238761365414,-0.0005595346447080374,0.016947219148278236
0.02015383169054985,0.0060564675368368626,-0.016654618084430695,0.01153476256877184,-0.0005269425455480814,0.01726287603378296
0.01997588388621807,0.005351748783141375,-0.0162206944078207,0.01109675969928503,-0.000524860923178494,0.01784488745033741
0.020173124969005585,0.0049209194257855415,-0.016454970464110374,0.01166563481092453,-0.00048243417404592037,0.017561543732881546
0.020394600927829742,0.00528201786801219,-0.016277385875582695,0.011078817769885063,-0.0005116313113830984,0.01735622063279152
0.021041402593255043,0.005317019764333963,-0.016291368752717972,0.011158820241689682,-0.0004766883794218302,0.017169255763292313
0.02108241617679596,0.0063224672339856625,-0.01691354066133499,0.011408350430428982,-0.0005065087461844087,0.01726645976305008
0.021470464766025543,0.0056991069577634335,-0.01642594300210476,0.010827824473381042,-0.000505718111526221,0.017759259790182114
0.020625213161110878,0.005355444271117449,-0.016355976462364197,0.011434029787778854,-0.000500786118209362,0.016896352171897888
0.019491642713546753,0.0051738545298576355,-0.015947025269269943,0.011191193014383316,-0.00047005602391436696,0.01725240796804428
0.020976148545742035,0.005811223294585943,-0.016680724918842316,0.01097887847572565,-0.0005112533108331263,0.017808647826313972
0.021179331466555595,0.005915381014347076,-0.016894305124878883,0.011473200283944607,-0.0004817637673113495,0.018185751512646675
0.021132754161953926,0.006134616676717997,-0.01682918705046177,0.011023988015949726,-0.0004366220091469586,0.018548697233200073
0.020926499739289284,0.0055265529081225395,-0.016988340765237808,0.011718167923390865,-0.0004719541175290942,0.017800262197852135
0.020926499739289284,0.0055265529081225395,-0.016988340765237808,0.011718167923390865,-0.0004719541175290942,0.017800262197852135
0.02147308737039566,0.005374740343540907,-0.016089364886283875,0.011720459908246994,-0.00047384187928400934,0.01738618314266205
0.021465256810188293,0.005037885624915361,-0.017027050256729126,0.011732825078070164,-0.00047096499474719167,0.017481518909335136
0.021555086597800255,0.00589511776342988,-0.016427241265773773,0.011758781038224697,-0.0004986515850760043,0.018301736563444138
0.021327126771211624,0.005807830486446619,-0.01643080823123455,0.010815941728651524,-0.00053718953859061,0.019258493557572365
0.02176864817738533,0.005802500527352095,-0.01653585024178028,0.011169000528752804,-0.0005385680124163628,0.019002970308065414
0.02131323330104351,0.005245188716799021,-0.01671723648905754,0.011575814336538315,-0.00048479551333002746,0.0185046698898077
0.021599020808935165,0.00596843846142292,-0.017378240823745728,0.011257773265242577,-0.0005190548836253583,0.018558086827397346
0.021433070302009583,0.005494291428476572,-0.0164566058665514,0.011234158650040627,-0.00047837189049459994,0.01854899898171425
0.02219783142209053,0.006045031826943159,-0.0168341975659132,0.010949904099106789,-0.00043972866842523217,0.019683226943016052
0.02247471548616886,0.005492598284035921,-0.0162988118827343,0.011846370063722134,-0.00046958154416643083,0.01935020089149475
0.022043993696570396,0.0054798126220703125,-0.01703612320125103,0.011604409664869308,-0.0004122353275306523,0.018334895372390747
0.022208193317055702,0.005940086208283901,-0.016559448093175888,0.011712430976331234,-0.0004138122603762895,0.018145272508263588
0.022448372095823288,0.0055450028739869595,-0.01691976748406887,0.011701604351401329,-0.00041474710451439023,0.018275713548064232
0.02234995737671852,0.005917401518672705,-0.016464903950691223,0.0112990103662014,-0.00039368224679492414,0.019275538623332977
0.022158991545438766,0.00576603040099144,-0.016812054440379143,0.011343712918460369,-0.0003749583556782454,0.019633550196886063
0.02145294100046158,0.005595938768237829,-0.017550187185406685,0.011070402339100838,-0.0003434884420130402,0.019100377336144447
0.023086316883563995,0.005603640805929899,-0.016831407323479652,0.011895675212144852,-0.00031893973937258124,0.019246913492679596
0.023243553936481476,0.006188231520354748,-0.01723620668053627,0.011344945058226585,-0.00035319302696734667,0.019460482522845268
0.02260821871459484,0.005999388173222542,-0.01629679463803768,0.01152799278497696,-0.000375993549823761,0.01933780126273632
0.022748056799173355,0.005822961218655109,-0.016833968460559845,0.01239117793738842,-0.00036718969931825995,0.019516363739967346
0.023438027128577232,0.005237808916717768,-0.01718517392873764,0.012150358408689499,-0.0003907644422724843,0.01963729038834572
0.02320655807852745,0.005169506184756756,-0.017144005745649338,0.012062783353030682,-0.0005031393375247717,0.019127847626805305
0.023385686799883842,0.004909320268779993,-0.017055226489901543,0.01205979473888874,-0.0006147545063868165,0.019099190831184387
0.023349585011601448,0.005046505946666002,-0.0164211206138134,0.012714884243905544,-0.0006024923059158027,0.019593240693211555
0.023289360105991364,0.005272194277495146,-0.017063288018107414,0.012880752794444561,-0.000589042145293206,0.019207092002034187
0.02393152005970478,0.005026002414524555,-0.016758348792791367,0.012309315614402294,-0.0005749308620579541,0.019466018304228783
0.023794377222657204,0.004828487988561392,-0.016676675528287888,0.011868303641676903,-0.0005657641449943185,0.019602781161665916
0.023453589528799057,0.0050945766270160675,-0.016949474811553955,0.011705514043569565,-0.0005555276875384152,0.01991664618253708
0.023453589528799057,0.0050945766270160675,-0.016949474811553955,0.011705514043569565,-0.0005555276875384152,0.01991664618253708
0.02375643327832222,0.00497099943459034,-0.016681844368577003,0.01266911718994379,-0.0005714387516491115,0.01985379494726658
0.024053089320659637,0.0049697356298565865,-0.016882726922631264,0.012756052426993847,-0.0005563398008234799,0.019595341756939888
0.023591523990035057,0.0051159984432160854,-0.016457678750157356,0.012556741945445538,-0.0005839643999934196,0.019828815013170242
0.024288872256875038,0.004835046362131834,-0.017049485817551613,0.01277074683457613,-0.0005376074695959687,0.019849248230457306
0.02459562011063099,0.004308872390538454,-0.016957391053438187,0.01284551341086626,-0.0005653281696140766,0.019899817183613777
0.023826997727155685,0.0044898949563503265,-0.016718538478016853,0.012941529043018818,-0.0005781947984360158,0.019813552498817444
0.02439718507230282,0.00506128603592515,-0.016736896708607674,0.0123855359852314,-0.00055122742196545,0.01953371986746788
0.02474818378686905,0.004528896417468786,-0.017318135127425194,0.012233422137796879,-0.0005618137656711042,0.020073093473911285
0.024761904031038284,0.0044207824394106865,-0.017479809001088142,0.012571380473673344,-0.0005734439473599195,0.019765691831707954
0.024720562621951103,0.004966136999428272,-0.01750265248119831,0.012285400182008743,-0.000538647931534797,0.020001493394374847
0.025067750364542007,0.004975023679435253,-0.017827501520514488,0.012945638038218021,-0.0005670661339536309,0.019835755228996277
0.025097398087382317,0.004618209321051836,-0.017291592434048653,0.012664719484746456,-0.0005611290689557791,0.020087823271751404
0.025561729446053505,0.004964243620634079,-0.01757149025797844,0.012178774923086166,-0.000551479053683579,0.020625606179237366
0.025679757818579674,0.005349440965801477,-0.01716768369078636,0.012626527808606625,-0.0005181849119253457,0.02093045972287655
0.025633258745074272,0.005045625381171703,-0.01769913360476494,0.012484916485846043,-0.0005220420425757766,0.020774230360984802
0.025429215282201767,0.004769466817378998,-0.018389007076621056,0.012955921702086926,-0.0005168536445125937,0.020039591938257217
0.022855712100863457,0.00476218294352293,-0.017997270449995995,0.012978197075426579,-0.0005091662751510739,0.019587595015764236
0.02576390840113163,0.00493987649679184,-0.01745370402932167,0.013451045379042625,-0.0005349342827685177,0.019435564056038857
0.02576390840113163,0.00493987649679184,-0.01745370402932167,0.013451045379042625,-0.0005349342827685177,0.019435564056038857
0.026174811646342278,0.005400467664003372,-0.017596188932657242,0.01319956500083208,-0.0005016331560909748,0.019295575097203255
0.02585683763027191,0.005596760660409927,-0.017885318025946617,0.012995585799217224,-0.00052694819169119,0.020213857293128967
0.025520989671349525,0.004977635107934475,-0.0190280694514513,0.012496369890868664,-0.0004947876441292465,0.0208011195063591
0.02633550576865673,0.004535441752523184,-0.017900248989462852,0.012287266552448273,-0.0005090050981380045,0.020349333062767982
0.026708588004112244,0.004883478861302137,-0.017757857218384743,0.013136620633304119,-0.0004991740570403636,0.020675692707300186
0.025979407131671906,0.0050237043760716915,-0.01868572272360325,0.013177788816392422,-0.00045204220805317163,0.021103519946336746
0.02547401934862137,0.004899134859442711,-0.017818603664636612,0.013783445581793785,-0.00048718712059780955,0.020842617377638817
0.025169502943754196,0.005165804643183947,-0.01746334135532379,0.013041852973401546,-0.00045142226736061275,0.020738594233989716
0.026133999228477478,0.004965031985193491,-0.018037976697087288,0.013303669169545174,-0.0004678826662711799,0.020578736439347267
0.026718810200691223,0.0047332351095974445,-0.01783788949251175,0.013010692782700062,-0.0004502871888689697,0.02025042474269867
0.026450464501976967,0.005000264383852482,-0.018255949020385742,0.013317919336259365,-0.00046547382953576744,0.02011091820895672
0.026676254346966743,0.005104638170450926,-0.01773037016391754,0.013000082224607468,-0.00045022633275948465,0.02051669731736183
0.026423461735248566,0.0049206106923520565,-0.017853541299700737,0.013241380453109741,-0.00045725004747509956,0.021349292248487473
0.026611266657710075,0.005299128592014313,-0.01807965710759163,0.013579055666923523,-0.00044609481119550765,0.02134000137448311
0.026529990136623383,0.0050933025777339935,-0.017417678609490395,0.013283341191709042,-0.0004078711790498346,0.02094210684299469
0.026571571826934814,0.004619428422302008,-0.018143514171242714,0.013522084802389145,-0.0004289434291422367,0.020770488306879997
0.026120468974113464,0.004852259997278452,-0.018191203474998474,0.01310617383569479,-0.00041311772656627,0.020738454535603523
0.026418711990118027,0.004850681871175766,-0.017942843958735466,0.013146664947271347,-0.00041097032953985035,0.020875541493296623
0.026195162907242775,0.005155013408511877,-0.01756846159696579,0.013336870819330215,-0.0003924274642486125,0.021038707345724106
0.02635757252573967,0.005272726062685251,-0.017601387575268745,0.0128275565803051,-0.0004155425704084337,0.021193092688918114
0.026601118966937065,0.004634143318980932,-0.017869586125016212,0.013136835768818855,-0.0003987972449976951,0.021099146455526352
0.02639840915799141,0.004971493501216173,-0.017539555206894875,0.012839785777032375,-0.0004282458103261888,0.021220145747065544
0.02719779685139656,0.00487374747171998,-0.01802881434559822,0.013103841803967953,-0.0004076419572811574,0.021408846601843834
0.02717709355056286,0.00484688114374876,-0.01759786158800125,0.012975168414413929,-0.00044449506094679236,0.021440988406538963
0.026571303606033325,0.005358909722417593,-0.017392944544553757,0.013487421907484531,-0.0004149405867792666,0.021515503525733948
0.026578441262245178,0.005464243236929178,-0.01784486509859562,0.013610389083623886,-0.000441087584476918,0.021452097222208977
0.027878614142537117,0.004681693855673075,-0.01745620369911194,0.013562056235969067,-0.00041930636507458985,0.02142578922212124
0.02792937122285366,0.004975101910531521,-0.01808137632906437,0.01379440352320671,-0.00043499446474015713,0.021895816549658775
0.02731812745332718,0.005019458942115307,-0.01794372871518135,0.01348464097827673,-0.00042242638301104307,0.020884964615106583
0.02628130093216896,0.005005140323191881,-0.017671015113592148,0.013887771405279636,-0.0005029612802900374,0.021170970052480698
0.02628130093216896,0.005005140323191881,-0.017671015113592148,0.013887771405279636,-0.0005029612802900374,0.021170970052480698
0.026840412989258766,0.005264488980174065,-0.01789041981101036,0.014110065065324306,-0.0005147919873706996,0.021996162831783295
0.026840412989258766,0.005264488980174065,-0.01789041981101036,0.014110065065324306,-0.0005147919873706996,0.021996162831783295
0.027446376159787178,0.004739510361105204,-0.017786726355552673,0.013637278228998184,-0.0004794641281478107,0.021597905084490776
0.026718076318502426,0.004765521269291639,-0.018342290073633194,0.014178087934851646,-0.0004948714631609619,0.021882422268390656
0.0272739939391613,0.004925577435642481,-0.01786743476986885,0.013721553608775139,-0.0004743530589621514,0.022081654518842697
0.02779834158718586,0.004938940517604351,-0.0182637982070446,0.013682499527931213,-0.0004727996129076928,0.022009240463376045
0.027334319427609444,0.005738772917538881,-0.018022583797574043,0.013004682958126068,-0.00047009935951791704,0.021724531427025795
0.027382681146264076,0.005309462547302246,-0.017576811835169792,0.01362213958054781,-0.00048733907169662416,0.021442800760269165
0.026903534308075905,0.004874368663877249,-0.01801837608218193,0.013661762699484825,-0.00047838158207014203,0.021818185225129128
0.026964498683810234,0.005094002932310104,-0.017906328663229942,0.013835862278938293,-0.00050981534877792,0.02169458009302616
0.02726442925632,0.005097225774079561,-0.017979707568883896,0.014042755588889122,-0.00047526744310744107,0.021437643095850945
0.027506396174430847,0.0048363422974944115,-0.01819608174264431,0.0139107471331954,-0.000500294438097626,0.021654456853866577
0.027761071920394897,0.005384242162108421,-0.017500650137662888,0.013548982329666615,-0.0005041309050284326,0.022124767303466797
0.027686890214681625,0.005188849754631519,-0.01819591224193573,0.013721884228289127,-0.0004995907656848431,0.022455362603068352
0.027494316920638084,0.004652224946767092,-0.018329795449972153,0.013614574447274208,-0.0005983475712127984,0.022175250574946404
0.02731221541762352,0.004903652239590883,-0.01834813505411148,0.01359730213880539,-0.0006571280537173152,0.022254198789596558
0.027503833174705505,0.005008019041270018,-0.017957299947738647,0.013593916781246662,-0.0006153027061372995,0.022231077775359154
0.027799092233181,0.004529105499386787,-0.018181758001446724,0.014126312918961048,-0.0006310015451163054,0.022757912054657936
0.02742125280201435,0.004942229483276606,-0.01861109398305416,0.014347722753882408,-0.0005888539017178118,0.022761816158890724
0.02774958126246929,0.0048448373563587666,-0.017896469682455063,0.014538133516907692,-0.0006423443555831909,0.022540157660841942
0.02796425297856331,0.004855745006352663,-0.018248939886689186,0.014439322985708714,-0.0006787641905248165,0.02193460427224636
0.02820700965821743,0.00473120016977191,-0.01849234476685524,0.014903411269187927,-0.0006282891845330596,0.021869348362088203
0.02775915525853634,0.0046380553394556046,-0.018632987514138222,0.014748373068869114,-0.0006331136100925505,0.02256312407553196
0.027640486136078835,0.004649128764867783,-0.019553834572434425,0.014611744321882725,-0.0005945497541688383,0.023311931639909744
0.02826240286231041,0.004887956194579601,-0.019137805327773094,0.014721279963850975,-0.0005445046117529273,0.023192329332232475
0.028074517846107483,0.0048897527158260345,-0.0180743969976902,0.014802888035774231,-0.0005677587469108403,0.022871052846312523
0.02797422558069229,0.005109380930662155,-0.018556348979473114,0.014845600351691246,-0.0005302635254338384,0.023479923605918884
0.02797422558069229,0.005109380930662155,-0.018556348979473114,0.014845600351691246,-0.0005302635254338384,0.023479923605918884
0.028085608035326004,0.0048968675546348095,-0.018299898132681847,0.014533198438584805,-0.0005240708705969155,0.023905189707875252
0.02848457545042038,0.004516729153692722,-0.018357688561081886,0.014274717308580875,-0.000556662620510906,0.023188311606645584
0.028601031750440598,0.005024222657084465,-0.019369671121239662,0.014040124602615833,-0.000589024624787271,0.02169039472937584
0.0285587590187788,0.005471444223076105,-0.01901434175670147,0.014492587186396122,-0.0005864235572516918,0.022398151457309723
0.02863442152738571,0.004880969878286123,-0.018410831689834595,0.014714273624122143,-0.0005747236427851021,0.023310452699661255
0.02908240631222725,0.00497521972283721,-0.01916036196053028,0.01467073243111372,-0.0007485758396796882,0.023748818784952164
0.0290156789124012,0.004899329971522093,-0.018659979104995728,0.014498812146484852,-0.00078620295971632,0.023421188816428185
0.02900056540966034,0.004744766280055046,-0.019170647487044334,0.01435025129467249,-0.0007016333984211087,0.02281055971980095
0.029272396117448807,0.004602096043527126,-0.01902977004647255,0.014446179382503033,-0.0006218372727744281,0.02275652065873146
0.029337991029024124,0.00499931164085865,-0.018582552671432495,0.014584295451641083,-0.0005575907416641712,0.023251216858625412
0.029259072616696358,0.004970589652657509,-0.019138485193252563,0.014624466188251972,-0.0005834914627484977,0.02296965941786766
0.029392892494797707,0.00474522216245532,-0.01910606399178505,0.014283842407166958,-0.0005386612610891461,0.02308081090450287
0.02948819100856781,0.004664151463657618,-0.018373768776655197,0.01432949397712946,-0.0005624136538244784,0.02343425154685974
0.030054762959480286,0.004668126814067364,-0.018112007528543472,0.014390580356121063,-0.0005256448057480156,0.02331278659403324
0.029903331771492958,0.004697009455412626,-0.018866270780563354,0.01502996776252985,-0.00042249681428074837,0.023611266165971756
0.028973130509257317,0.004865757189691067,-0.018710916861891747,0.015079171396791935,-0.0004571557219605893,0.023540573194622993
0.029846541583538055,0.004812327213585377,-0.01903683692216873,0.014783455990254879,-0.00046010001096874475,0.02333902195096016
0.030723609030246735,0.004741320386528969,-0.01891382597386837,0.01484721526503563,-0.00045828972361050546,0.023657534271478653
0.03044082783162594,0.004594478756189346,-0.019242022186517715,0.015247374773025513,-0.00045891301124356687,0.023806830868124962
0.031241225078701973,0.004734116606414318,-0.01906237192451954,0.014918053522706032,-0.00045723136281594634,0.023883545771241188
0.03090484067797661,0.004784040153026581,-0.018370095640420914,0.015186692588031292,-0.0005660578026436269,0.02379750646650791
0.030750678852200508,0.004864602815359831,-0.01889229565858841,0.01476381067186594,-0.0006233043386600912,0.02384904772043228
0.030297139659523964,0.004533495754003525,-0.018798809498548508,0.015336098149418831,-0.0006544988136738539,0.024027250707149506
0.030472638085484505,0.004266882780939341,-0.018650904297828674,0.014875752851366997,-0.0006786544108763337,0.023975884541869164
0.031222928315401077,0.004401464015245438,-0.019521847367286682,0.015351292677223682,-0.0006396955577656627,0.02444806881248951
0.030914396047592163,0.0046272315084934235,-0.019234605133533478,0.014716297388076782,-0.000804217008408159,0.024153321981430054
0.030324624851346016,0.004621018655598164,-0.018584787845611572,0.015008388087153435,-0.0007121416856534779,0.023983709514141083
0.03141488879919052,0.00463520921766758,-0.01913316734135151,0.014717262238264084,-0.0007061173673719168,0.023828336969017982
0.03141488879919052,0.00463520921766758,-0.01913316734135151,0.014717262238264084,-0.0007061173673719168,0.023828336969017982
0.031332843005657196,0.0046514119021594524,-0.018732991069555283,0.01520049199461937,-0.0006485194899141788,0.023972786962985992
0.03064044564962387,0.004586866125464439,-0.018546512350440025,0.01478925533592701,-0.0006269694422371686,0.024238772690296173
0.031515467911958694,0.0043374039232730865,-0.019153542816638947,0.014791467227041721,-0.0006082493928261101,0.025226732715964317
0.03181162849068642,0.0045074839144945145,-0.01910678669810295,0.014684618450701237,-0.0005571548826992512,0.0250276830047369
0.03125959262251854,0.004475500900298357,-0.01883517950773239,0.015400220640003681,-0.0005750897107645869,0.024720551446080208
0.031521495431661606,0.004645490553230047,-0.0192625243216753,0.015371392481029034,-0.00054049032041803,0.02386505715548992
0.03147395700216293,0.0046881502494215965,-0.018620651215314865,0.01569867506623268,-0.0005041332333348691,0.024010837078094482
0.03155508264899254,0.00485222227871418,-0.018811674788594246,0.015737244859337807,-0.00042713500442914665,0.024963058531284332
0.031656425446271896,0.0043289316818118095,-0.018848031759262085,0.015745051205158234,-0.00042582760215736926,0.024796945974230766
0.03137781098484993,0.004376458004117012,-0.018517212942242622,0.01590575836598873,-0.0004261653230059892,0.024706445634365082
0.03221561759710312,0.00460559967905283,-0.01893843524158001,0.01550719328224659,-0.00044567714212462306,0.025195201858878136
0.03253714740276337,0.004626131150871515,-0.019310809671878815,0.015618196688592434,-0.0004304814792703837,0.02602231316268444
0.030768686905503273,0.004578257445245981,-0.01938815973699093,0.01552028488367796,-0.0004333064134698361,0.02512427046895027
0.03204723447561264,0.004279279615730047,-0.01897306926548481,0.015545198693871498,-0.0005512894131243229,0.024665914475917816
0.03215144947171211,0.004302593879401684,-0.0187489353120327,0.01600293442606926,-0.0005599691648967564,0.02461685612797737
0.031838029623031616,0.004608729854226112,-0.019014744088053703,0.016379063948988914,-0.0005485148867592216,0.025941580533981323
0.03277349844574928,0.004695406649261713,-0.019501980394124985,0.016080671921372414,-0.0005724806105718017,0.026283230632543564
0.03225748986005783,0.004574073012918234,-0.018858902156352997,0.015799980610609055,-0.0005708130192942917,0.025478018447756767
0.0315970778465271,0.0047007836401462555,-0.019568873569369316,0.015435717068612576,-0.0005605741171166301,0.02530978061258793
0.030839722603559494,0.004205324221402407,-0.019310053437948227,0.015212314203381538,-0.0006536075961776078,0.02526073157787323
0.03260347247123718,0.004333116114139557,-0.018744846805930138,0.01450397726148367,-0.0006756334914825857,0.025195132941007614
0.03299960866570473,0.004339857492595911,-0.019169699400663376,0.015390642918646336,-0.000624943058937788,0.024907035753130913
0.03299960866570473,0.004339857492595911,-0.019169699400663376,0.015390642918646336,-0.000624943058937788,0.024907035753130913
0.03256122022867203,0.004435798618942499,-0.019222840666770935,0.01591314747929573,-0.0006421624566428363,0.02538176253437996
0.03239627927541733,0.00433075288310647,-0.018615826964378357,0.01671135611832142,-0.0006336068036034703,0.025636347010731697
0.0324397049844265,0.004042640328407288,-0.018733607605099678,0.016645099967718124,-0.0006169839180074632,0.025812262669205666
0.03220389783382416,0.004173794761300087,-0.01928243599832058,0.01684202067553997,-0.0006580394110642374,0.02573016658425331
0.032519690692424774,0.004144274163991213,-0.019187621772289276,0.016547484323382378,-0.0006971464026719332,0.025932084769010544
0.03206014260649681,0.004190242383629084,-0.019744746387004852,0.017050132155418396,-0.000732925720512867,0.026029150933027267
0.03206014260649681,0.004190242383629084,-0.019744746387004852,0.017050132155418396,-0.000732925720512867,0.026029150933027267
0.03254741430282593,0.003995778039097786,-0.01911068893969059,0.01663314178586006,-0.000896030105650425,0.02644418552517891
0.03299345821142197,0.004291130695492029,-0.01973133347928524,0.01648576930165291,-0.001038806396536529,0.026767225936055183
0.033072151243686676,0.00424693850800395,-0.01961177960038185,0.015531589277088642,-0.0010271486826241016,0.026432635262608528
0.03273798152804375,0.004477531649172306,-0.0192230474203825,0.01587666943669319,-0.0009537642472423613,0.026194622740149498
0.032522086054086685,0.004233816638588905,-0.019767610356211662,0.015858128666877747,-0.0008535286178812385,0.02645379677414894
0.03271860256791115,0.004250383470207453,-0.020505594089627266,0.016243163496255875,-0.000814112601801753,0.02604963816702366
0.03251447156071663,0.0040039378218352795,-0.019790859892964363,0.016468364745378494,-0.0008144003804773092,0.026391535997390747
0.03172921761870384,0.003777007106691599,-0.019412092864513397,0.01675235852599144,-0.0008092935895547271,0.02663370594382286
0.033513542264699936,0.0037695399951189756,-0.0197573471814394,0.017300140112638474,-0.0008189713698811829,0.026303362101316452
0.03280140087008476,0.004539040848612785,-0.01992226578295231,0.01666238345205784,-0.0007541420054621994,0.025275999680161476
0.03270271047949791,0.004333849996328354,-0.020062187686562538,0.0163774061948061,-0.0006525737699121237,0.026607276871800423
0.03274011239409447,0.004321137443184853,-0.019939839839935303,0.016410304233431816,-0.0006679402431473136,0.02654561959207058
0.032995931804180145,0.004258844535797834,-0.019413456320762634,0.01676083169877529,-0.0006060997839085758,0.02620970644056797
0.033197108656167984,0.004087298177182674,-0.01933588832616806,0.016330623999238014,-0.0006238606292754412,0.026538504287600517
0.03360521420836449,0.004190725740045309,-0.019696878269314766,0.016808658838272095,-0.0005773112643510103,0.027190441265702248
0.0332808718085289,0.004143018275499344,-0.019593581557273865,0.016688277944922447,-0.0005849084700457752,0.02673235908150673
0.03312571346759796,0.004411518108099699,-0.020077403634786606,0.016888655722141266,-0.0005568620981648564,0.026080237701535225
0.033251091837882996,0.004712655674666166,-0.019747251644730568,0.01674213446676731,-0.0005112792132422328,0.026087099686264992
0.03295412287116051,0.0042502377182245255,-0.019429801031947136,0.016492266207933426,-0.0004603867419064045,0.026576315984129906
0.03453320637345314,0.004350294824689627,-0.019647561013698578,0.016650550067424774,-0.0004896284081041813,0.02709042653441429
0.03450945019721985,0.004160549957305193,-0.01948482170701027,0.01646277867257595,-0.0004578618973027915,0.026464112102985382
0.03450945019721985,0.004160549957305193,-0.01948482170701027,0.01646277867257595,-0.0004578618973027915,0.026464112102985382
0.03274903818964958,0.004304435104131699,-0.019282083958387375,0.016716623678803444,-0.00048341654473915696,0.027587946504354477
0.03237124904990196,0.004597008228302002,-0.01970669999718666,0.016118889674544334,-0.0005046798032708466,0.02770543284714222
0.033543042838573456,0.0041824872605502605,-0.01989348977804184,0.016598841175436974,-0.0004860746266786009,0.027265992015600204
0.032760437577962875,0.004428728949278593,-0.019326137378811836,0.016667287796735764,-0.0005952060455456376,0.02652105875313282
0.033890604972839355,0.004105645697563887,-0.019578225910663605,0.016184289008378983,-0.0005450966418720782,0.026102939620614052
0.03465493023395538,0.004387508146464825,-0.01956847682595253,0.016324544325470924,-0.000571193580981344,0.026781365275382996
0.03419116884469986,0.004125610459595919,-0.01911894790828228,0.015900814905762672,-0.0005268562817946076,0.02774866484105587
0.032846976071596146,0.003876493079587817,-0.019178345799446106,0.016523659229278564,-0.0005550309433601797,0.027687666937708855
0.03364935144782066,0.003915681038051844,-0.019911855459213257,0.016463683918118477,-0.0005145674222148955,0.027276162058115005
0.03415299579501152,0.003967794589698315,-0.019210485741496086,0.016866810619831085,-0.000505152449477464,0.02697760984301567
0.03415299579501152,0.003967794589698315,-0.019210485741496086,0.016866810619831085,-0.000505152449477464,0.02697760984301567
0.034415435045957565,0.004408616106957197,-0.019446462392807007,0.016827285289764404,-0.000502985087223351,0.02699364721775055
0.03420814126729965,0.004177386872470379,-0.019605716690421104,0.016939274966716766,-0.00046338632819242775,0.027619296684861183
0.033854831010103226,0.003930848557502031,-0.019105397164821625,0.016486575827002525,-0.0004932799492962658,0.02762884646654129
0.0341956727206707,0.004297141917049885,-0.019589319825172424,0.016665088012814522,-0.0004982288810424507,0.027615999802947044
0.03405599668622017,0.004359920509159565,-0.019533280283212662,0.01683085970580578,-0.000520927831530571,0.027217121794819832
0.034143153578042984,0.004285695496946573,-0.019448282197117805,0.017079390585422516,-0.0006379513652063906,0.027494335547089577
0.03419638052582741,0.004026280716061592,-0.019529517740011215,0.016693470999598503,-0.0006039936561137438,0.02805519849061966
0.03416184335947037,0.004058243241161108,-0.019209448248147964,0.016795173287391663,-0.0006345997098833323,0.027980783954262733
0.03476506099104881,0.00402472261339426,-0.020091937854886055,0.016778578981757164,-0.0006197823095135391,0.02770586684346199
0.03505448251962662,0.0043815867975354195,-0.021382339298725128,0.01731438748538494,-0.0006439451244659722,0.02896954119205475
0.03385860100388527,0.004219347145408392,-0.020594511181116104,0.018166031688451767,-0.0006281554815359414,0.028337042778730392
0.03367656096816063,0.004467241931706667,-0.020597485825419426,0.01741868630051613,-0.0006956222932785749,0.027993759140372276
0.03454642370343208,0.004647774156183004,-0.020393354818224907,0.017825821414589882,-0.0006794637301936746,0.028065523132681847
0.03392132744193077,0.004327339120209217,-0.02038867212831974,0.016851825639605522,-0.0006511436658911407,0.02796649932861328
0.03501731902360916,0.0039953249506652355,-0.02024371549487114,0.01620584726333618,-0.0006744014681316912,0.02834111824631691
0.03557494655251503,0.004161466378718615,-0.020764287561178207,0.01636730507016182,-0.0006789190811105072,0.02751230075955391
0.034029170870780945,0.00460390979424119,-0.020588748157024384,0.017278756946325302,-0.0006424393504858017,0.027719294652342796
0.032996974885463715,0.0048042950220406055,-0.020147493109107018,0.018016086891293526,-0.0007486749091185629,0.029188210144639015
0.032996974885463715,0.0048042950220406055,-0.020147493109107018,0.018016086891293526,-0.0007486749091185629,0.029188210144639015
0.034698717296123505,0.004804813768714666,-0.02062860317528248,0.017784982919692993,-0.0008035042556002736,0.029114218428730965
0.03553125262260437,0.004453875590115786,-0.021249547600746155,0.017428142949938774,-0.0008172523230314255,0.028610555455088615
0.03521493077278137,0.004470508079975843,-0.02084210515022278,0.017736464738845825,-0.0010315126273781061,0.02735719084739685
0.035103265196084976,0.00444777449592948,-0.020160986110568047,0.01768769882619381,-0.001052763545885682,0.027789952233433723
0.035014741122722626,0.004540475085377693,-0.02041465975344181,0.01857675611972809,-0.0010501480428501964,0.028635015711188316
0.0348874069750309,0.004601866472512484,-0.020371658727526665,0.018469184637069702,-0.0010297020198777318,0.028692543506622314
0.03558474779129028,0.004417487885802984,-0.02032274380326271,0.017695682123303413,-0.0009740738314576447,0.029206885024905205
0.035513754934072495,0.004331895615905523,-0.020265400409698486,0.01771223358809948,-0.0008532056817784905,0.02967609278857708
0.034870412200689316,0.004425089340656996,-0.02104761078953743,0.01692618988454342,-0.0008532502106390893,0.028586525470018387
0.03512190654873848,0.004435824695974588,-0.020928727462887764,0.01748257875442505,-0.0008034466882236302,0.02817617543041706
0.035715050995349884,0.004244243260473013,-0.020157648250460625,0.017684433609247208,-0.0007593051414005458,0.027852576225996017
0.03585725650191307,0.004015077371150255,-0.02046414464712143,0.017666073516011238,-0.0007516129990108311,0.028781872242689133
0.03558116778731346,0.0044286516495049,-0.020383669063448906,0.0177242923527956,-0.0006273481994867325,0.02854059636592865
0.03558116778731346,0.0044286516495049,-0.020383669063448906,0.0177242923527956,-0.0006273481994867325,0.02854059636592865
0.03617606684565544,0.004357052035629749,-0.020777810364961624,0.01766076870262623,-0.0005827633431181312,0.030528059229254723
0.03573516383767128,0.004545478615909815,-0.020855918526649475,0.0171961709856987,-0.0006562056951224804,0.029987554997205734
0.035868819802999496,0.004529479891061783,-0.020209169015288353,0.01751021109521389,-0.0007922091754153371,0.0294629018753767
0.03649839013814926,0.004378986079245806,-0.020660188049077988,0.016966884955763817,-0.0009379674447700381,0.0296567901968956
0.03653819486498833,0.004449829459190369,-0.02078557200729847,0.016771182417869568,-0.0009501156164333224,0.029502613469958305
0.03588671237230301,0.004616978112608194,-0.020159197971224785,0.0166690181940794,-0.0009445246541872621,0.029367541894316673
0.03623661771416664,0.004716385621577501,-0.02055489458143711,0.01628497987985611,-0.0010315048275515437,0.02938000112771988
0.03659825772047043,0.004892969969660044,-0.020630057901144028,0.016890937462449074,-0.0010254400549456477,0.029662208631634712
0.03658391535282135,0.004322155844420195,-0.020842580124735832,0.01686314307153225,-0.0008975931559689343,0.029831301420927048
0.03669440373778343,0.004198651295155287,-0.02031780406832695,0.017566146329045296,-0.0008817641064524651,0.029858004301786423
0.036823537200689316,0.004068420734256506,-0.0203518345952034,0.017503835260868073,-0.0007864728104323149,0.02999916672706604
0.03683609142899513,0.004371390677988529,-0.020611990243196487,0.017539402469992638,-0.0007728423224762082,0.02970893308520317
0.03683609142899513,0.004371390677988529,-0.020611990243196487,0.017539402469992638,-0.0007728423224762082,0.02970893308520317
0.03637390211224556,0.00459479121491313,-0.020304108038544655,0.018203211948275566,-0.000718093360774219,0.030190421268343925
0.0378958061337471,0.004707641899585724,-0.020255357027053833,0.017636066302657127,-0.0006291156751103699,0.030157141387462616
0.038311902433633804,0.004521331749856472,-0.020432231947779655,0.017814012244343758,-0.0005350452265702188,0.030221888795495033
0.036350127309560776,0.004166718572378159,-0.0201705489307642,0.01788848638534546,-0.0005589383654296398,0.030487414449453354
0.035596515983343124,0.003931996412575245,-0.019999276846647263,0.01738869398832321,-0.0005164555041119456,0.03060065396130085
0.03773225098848343,0.00431017903611064,-0.02080952376127243,0.01783677563071251,-0.0005450318567454815,0.030694367364048958
0.037664566189050674,0.004707657266408205,-0.020827343687415123,0.018018094822764397,-0.0005591141525655985,0.030516907572746277
0.037696145474910736,0.004783885087817907,-0.020143423229455948,0.01823495887219906,-0.0005356024485081434,0.03005901165306568
0.03896994888782501,0.004590774420648813,-0.020334381610155106,0.018597278743982315,-0.0006194824236445129,0.03170228749513626
0.036836180835962296,0.004400530830025673,-0.02085362747311592,0.01795891672372818,-0.00065621203975752,0.03218689560890198
0.0381900891661644,0.004622609354555607,-0.020406750962138176,0.018353475257754326,-0.0006985358777455986,0.02957998216152191
0.037844590842723846,0.004746820777654648,-0.02088835835456848,0.017604392021894455,-0.0006488058716058731,0.03054177016019821
0.03796396777033806,0.004704667255282402,-0.02178502082824707,0.01789248175919056,-0.0007592479232698679,0.03132113441824913
0.037501491606235504,0.0050406986847519875,-0.02118808403611183,0.017978304997086525,-0.0007844062056392431,0.03136714920401573
0.03799789398908615,0.005107022821903229,-0.02119126170873642,0.018125280737876892,-0.0007994737243279815,0.03232309967279434
0.03784829378128052,0.004468956962227821,-0.020892096683382988,0.018398264423012733,-0.0008108682231977582,0.03207549825310707
0.03814322128891945,0.004479016177356243,-0.020789673551917076,0.01800941303372383,-0.0009862754959613085,0.03171711042523384
0.0376812219619751,0.004929902032017708,-0.020915132015943527,0.017697082832455635,-0.0009222039370797575,0.03023076243698597
0.03809799626469612,0.004981855861842632,-0.0214199498295784,0.018221721053123474,-0.0009063341422006488,0.03065132349729538
0.03956705331802368,0.004792619496583939,-0.021221017464995384,0.01857301965355873,-0.0008058400708250701,0.03184305876493454
0.038268089294433594,0.004770457744598389,-0.021175261586904526,0.018808243796229362,-0.0007896939641796052,0.03187349811196327
0.037219494581222534,0.004641844891011715,-0.021451683714985847,0.01894870027899742,-0.0007321688462980092,0.03192834183573723
0.03872542455792427,0.004604602698236704,-0.02231409214437008,0.018884189426898956,-0.0006643550586886704,0.031635262072086334
0.03883088380098343,0.004396338947117329,-0.021409055218100548,0.019017118960618973,-0.0005833637551404536,0.030614234507083893
0.039859626442193985,0.004299398045986891,-0.02082613855600357,0.018933720886707306,-0.0005918972892686725,0.03214237466454506
0.03921918198466301,0.004439689218997955,-0.020925551652908325,0.01911499910056591,-0.0005541706341318786,0.03242391347885132
0.038037728518247604,0.004613155499100685,-0.021712252870202065,0.019838672131299973,-0.0005653947009705007,0.03219979256391525
0.038037728518247604,0.004613155499100685,-0.021712252870202065,0.019838672131299973,-0.0005653947009705007,0.03219979256391525
0.03786098212003708,0.004449446685612202,-0.021434396505355835,0.019528953358530998,-0.0005363018135540187,0.03212070092558861
0.03956742584705353,0.004546819720417261,-0.021797291934490204,0.018513310700654984,-0.0005611140513792634,0.0321517288684845
0.03960488736629486,0.004258616361767054,-0.021828552708029747,0.018440458923578262,-0.0005245775100775063,0.03248894214630127
0.03882775083184242,0.0034512528218328953,-0.021804241463541985,0.018567325547337532,-0.0005361903458833694,0.0325181782245636
0.03872039541602135,0.0035156807862222195,-0.021755168214440346,0.01881212368607521,-0.0004954098258167505,0.0326111763715744
0.0393621027469635,0.0038192947395145893,-0.020902246236801147,0.019429676234722137,-0.0005302898352965713,0.03211323916912079
0.03966158628463745,0.003907207865267992,-0.020944826304912567,0.019555477425456047,-0.0005633671535179019,0.032423146069049835
0.03949222341179848,0.0039111291989684105,-0.0215397160500288,0.018788591027259827,-0.0005912567139603198,0.03243944048881531
0.03961849585175514,0.0038566880393773317,-0.021816493943333626,0.018793120980262756,-0.0007577045471407473,0.03277268260717392
0.03913775086402893,0.0037265997380018234,-0.021984105929732323,0.018585894256830215,-0.0008305528317578137,0.03244641423225403
0.04019705206155777,0.003760557621717453,-0.022025903686881065,0.019534843042492867,-0.000836374587379396,0.033584874123334885
0.040067706257104874,0.003923662938177586,-0.02237561158835888,0.018889470025897026,-0.0007717604166828096,0.033077042549848557
0.040251437574625015,0.0035318094305694103,-0.022196991369128227,0.018617937341332436,-0.0007827029912732542,0.03258559852838516
0.040258873254060745,0.0035776167642325163,-0.021975209936499596,0.01858549937605858,-0.0008132802904583514,0.03266531229019165
0.0402909554541111,0.0042499033734202385,-0.022098496556282043,0.01853574812412262,-0.0008257445879280567,0.033454664051532745
0.04039827734231949,0.004103328566998243,-0.022300871089100838,0.01890130713582039,-0.0008345710812136531,0.033099882304668427
