davideferrari95/blind_handover_controller/data/Test 237 - [2024-02-08 -- 12-32-02]/joint_states_data.csv
shoulder_pan_joint,shoulder_lift_joint,elbow_joint,wrist_1_joint,wrist_2_joint,wrist_3_joint
0.005363124888390303,0.008073912002146244,-0.010626096278429031,0.004783755633980036,-0.00011748864926630631,0.005904683377593756
0.005363124888390303,0.008073912002146244,-0.010626096278429031,0.004783755633980036,-0.00011748864926630631,0.005904683377593756
0.005403157323598862,0.007759355008602142,-0.010964876040816307,0.004858693107962608,-0.00011537150567164645,0.005460995715111494
0.005370926111936569,0.007021740078926086,-0.010755385272204876,0.004707675892859697,-0.00011329888366162777,0.005720478016883135
0.005353049375116825,0.007318028248846531,-0.010607062838971615,0.004350493662059307,-0.00011912410263903439,0.005740709602832794
0.005622276104986668,0.007772728800773621,-0.010853066109120846,0.004530056845396757,-0.00012282183161005378,0.005771319381892681
0.005166461691260338,0.007018910720944405,-0.011009898968040943,0.004631908144801855,-0.00012079282168997452,0.005297061055898666
0.005373762920498848,0.006876906380057335,-0.010738460347056389,0.004757422488182783,-0.00011880179226864129,0.0049994937144219875
0.005480196792632341,0.007299868389964104,-0.010074104182422161,0.004721368197351694,-0.00011687338701449335,0.004846145864576101
0.005093527492135763,0.007386299781501293,-0.010891388170421124,0.004685914609581232,-0.00011500666732899845,0.005490369163453579
0.005788381211459637,0.007234135642647743,-0.010201777331531048,0.004726218059659004,-0.00011319849727442488,0.005588476080447435
0.005650389473885298,0.007012055721133947,-0.011027498170733452,0.004704162012785673,-0.00011144632298965007,0.005678264424204826
0.0058273146860301495,0.006896690931171179,-0.010721992701292038,0.004666108172386885,-0.00014033180195838213,0.005392635706812143
0.0058273146860301495,0.006896690931171179,-0.010721992701292038,0.004666108172386885,-0.00014033180195838213,0.005392635706812143
0.005849507637321949,0.007180945482105017,-0.009921103715896606,0.004477036651223898,-0.00014576141256839037,0.00524477381259203
0.005631616339087486,0.007219373714178801,-0.011092198081314564,0.004989268258213997,-0.0001418191532138735,0.005104736890643835
0.00539864506572485,0.007052732165902853,-0.01147531159222126,0.004979838151484728,-0.00013752702216152102,0.005384187679737806
0.005954419262707233,0.007216917350888252,-0.01033407635986805,0.004807200748473406,-0.00013345101615414023,0.005633003078401089
0.005799103528261185,0.006929205264896154,-0.010813114233314991,0.004207343328744173,-0.00012960746244061738,0.005533300805836916
0.005680397152900696,0.007420302834361792,-0.010371902957558632,0.004137604963034391,-0.0001259786367882043,0.00550640095025301
0.0060066650621593,0.00679204473271966,-0.010357498191297054,0.004117073956876993,-0.00014070751785766333,0.00505492789670825
0.005910409614443779,0.006616892293095589,-0.010868999175727367,0.0043664369732141495,-0.00014274369459599257,0.005141755100339651
0.005946074612438679,0.007049663458019495,-0.010714689269661903,0.004179579205811024,-0.0001394339051330462,0.005162462126463652
0.005212861578911543,0.0067540062591433525,-0.010130481794476509,0.004254793748259544,-0.00013594800839200616,0.005289286840707064
0.005440305918455124,0.006535163149237633,-0.010711034759879112,0.004297552164644003,-0.00013261078856885433,0.005449905060231686
0.005563815589994192,0.006354416720569134,-0.01102751586586237,0.004494323395192623,-0.00012943237379658967,0.005288243759423494
0.005195789970457554,0.0066797249019145966,-0.010376263409852982,0.004103872459381819,-0.00014469950110651553,0.005255379714071751
0.005685381591320038,0.0066818357445299625,-0.010820901021361351,0.004064034204930067,-0.00014391550212167203,0.00513864029198885
0.0057304659858345985,0.006731811910867691,-0.01023124810308218,0.00405564159154892,-0.0001408624812029302,0.005131026729941368
0.005609951913356781,0.006710443180054426,-0.01065092533826828,0.003981407266110182,-0.00013779211440123618,0.005565820261836052
0.005364550743252039,0.006325973197817802,-0.010675237514078617,0.004263176582753658,-0.00013484354713000357,0.005467893555760384
0.005732773337513208,0.006488758604973555,-0.010016181506216526,0.004465124569833279,-0.00014600707800127566,0.005309007130563259
0.005699189379811287,0.005998255219310522,-0.010932457633316517,0.004446505568921566,-0.00014478755474556237,0.005581593606621027
0.005605821963399649,0.006136918906122446,-0.010109255090355873,0.004362948704510927,-0.00014195202675182372,0.005317294970154762
0.006029841490089893,0.006217231974005699,-0.010830838233232498,0.0044580972753465176,-0.00013920846686232835,0.005028740968555212
0.0056245895102620125,0.006120962556451559,-0.01026434451341629,0.0042461515404284,-0.00013656816736329347,0.0055344076827168465
0.005967570003122091,0.006231036968529224,-0.009786780923604965,0.004038735292851925,-0.000134025962324813,0.005271808709949255
0.006422317121177912,0.00623888848349452,-0.010447307489812374,0.004261125810444355,-0.00017149571795016527,0.0054369219578802586
0.005786714144051075,0.0062561254017055035,-0.00998422410339117,0.004364510998129845,-0.00017074990319088101,0.0053576878271996975
0.005786714144051075,0.0062561254017055035,-0.00998422410339117,0.004364510998129845,-0.00017074990319088101,0.0053576878271996975
0.005863731261342764,0.006309248972684145,-0.01022478099912405,0.004589993041008711,-0.00016487012908328325,0.005346609279513359
0.005695975851267576,0.006524713709950447,-0.010236430913209915,0.0041736275888979435,-0.00015906621410977095,0.00530333211645484
0.00604312913492322,0.005755619611591101,-0.00983843207359314,0.003843693993985653,-0.00015363637066911906,0.005102777387946844
0.006523732095956802,0.005928580649197102,-0.010622735135257244,0.004072272684425116,-0.00017055601347237825,0.004860915243625641
0.006089682225137949,0.006394785363227129,-0.011082370765507221,0.00401097908616066,-0.00017207396740559489,0.005112211219966412
0.006098421290516853,0.006293601356446743,-0.010110672563314438,0.003931880462914705,-0.00016719993436709046,0.005038755480200052
0.005824945401400328,0.006244721356779337,-0.010344849899411201,0.004264901392161846,-0.00016220709949266165,0.004975773859769106
0.005847045220434666,0.0062438794411718845,-0.010372082702815533,0.004352709278464317,-0.0001574783818796277,0.0047924574464559555
0.006694846786558628,0.005568977445363998,-0.00992508139461279,0.0042428611777722836,-0.00015301555686164647,0.004876591265201569
0.006281654816120863,0.005976138636469841,-0.010144870728254318,0.003951944410800934,-0.00014879911032039672,0.005032510031014681
0.005878819618374109,0.006255771964788437,-0.01053523551672697,0.003778214566409588,-0.000144808494951576,0.0053074597381055355
0.005447389092296362,0.006024901755154133,-0.010009463876485825,0.0037040014285594225,-0.000162955213454552,0.005493690259754658
0.0055010621435940266,0.005430553108453751,-0.010542548261582851,0.0041063809767365456,-0.00016024004435166717,0.00541186798363924
0.0058867475017905235,0.0055189477279782295,-0.00992188323289156,0.00415840046480298,-0.00015635644376743585,0.004991205409169197
0.005816098302602768,0.006138271652162075,-0.00962650217115879,0.004357140511274338,-0.00015257576887961477,0.004681159742176533
0.006026919931173325,0.006095005664974451,-0.010435069911181927,0.00428819889202714,-0.00014896820357535034,0.004660297650843859
0.005364470183849335,0.006135236471891403,-0.010083979927003384,0.004405051004141569,-0.0001455271412851289,0.005251071881502867
0.005422393325716257,0.005776458885520697,-0.010111053474247456,0.00449706893414259,-0.00014224105689208955,0.0052203224040567875
0.005774587858468294,0.005707248579710722,-0.010356429032981396,0.0038064615800976753,-0.00013910062261857092,0.005148760043084621
0.006077595055103302,0.006215753965079784,-0.009718352928757668,0.0035037698689848185,-0.00013609559391625226,0.004947395529597998
0.005876545328646898,0.006501669995486736,-0.010622064583003521,0.004260814283043146,-0.00013045890955254436,0.005091962404549122
0.005513364914804697,0.006222052033990622,-0.010378994978964329,0.004507188685238361,-0.0001448539987904951,0.004854893311858177
0.005927629768848419,0.005728624295443296,-0.010438486933708191,0.004392052534967661,-0.0001430869597243145,0.004771560896188021
0.006218998692929745,0.006072838790714741,-0.010471785441040993,0.004311217460781336,-0.00014037001528777182,0.005159630440175533
0.005875641945749521,0.006773324217647314,-0.009613537229597569,0.004418551456183195,-0.00013769026554655284,0.00519536854699254
0.005766549147665501,0.006566365249454975,-0.01017529983073473,0.0043871705420315266,-0.0001351067767245695,0.004933485761284828
0.005326089449226856,0.0058977603912353516,-0.010334685444831848,0.004259195644408464,-0.0001326182682532817,0.0048028407618403435
0.0062964363023638725,0.00569928390905261,-0.010062706656754017,0.0039925589226186275,-0.00013021967606619,0.00469839945435524
0.0062964363023638725,0.00569928390905261,-0.010062706656754017,0.0039925589226186275,-0.00013021967606619,0.00469839945435524
0.005900850519537926,0.006549451500177383,-0.010293303057551384,0.004268121439963579,-0.0001256738178199157,0.004778085742145777
0.005900850519537926,0.006549451500177383,-0.010293303057551384,0.004268121439963579,-0.0001256738178199157,0.004778085742145777
0.006123537663370371,0.00656498596072197,-0.009794098325073719,0.004192319232970476,-0.00013255626254249364,0.004729383159428835
0.005518559366464615,0.005797767546027899,-0.010564487427473068,0.004352751187980175,-0.00013009684334974736,0.004689701832830906
0.006415876559913158,0.005904004909098148,-0.010307536460459232,0.004395004361867905,-0.0001265281898668036,0.004662513267248869
0.006117750890552998,0.006285241339355707,-0.010543566197156906,0.00421665795147419,-0.0001230735651915893,0.004307163413614035
0.005999271292239428,0.0065544042736291885,-0.01078429352492094,0.004324025008827448,-0.00011979708506260067,0.003834240837022662
0.006092762108892202,0.006123964674770832,-0.010646144859492779,0.004301830194890499,-0.00011669034574879333,0.004286785610020161
0.005755627062171698,0.005896206945180893,-0.010371613316237926,0.004458365496248007,-0.00011374089808668941,0.005154137499630451
0.006289283744990826,0.005881298799067736,-0.010604199953377247,0.0042521837167441845,-0.00012183827493572608,0.00507170706987381
0.006041602231562138,0.006239128764718771,-0.010545921511948109,0.004283527843654156,-0.00012918407446704805,0.0049360147677361965
0.005892823915928602,0.006929026450961828,-0.011222882196307182,0.004177839495241642,-0.00012682056694757193,0.00472773052752018
0.005945607088506222,0.006124586332589388,-0.01030400674790144,0.004373800940811634,-0.0001239531411556527,0.004581645596772432
0.0057386718690395355,0.005841413512825966,-0.010324795730412006,0.004555351100862026,-0.00012117445294279605,0.004519851878285408
0.006293234881013632,0.005965647287666798,-0.01084492914378643,0.004367353394627571,-0.00011851506133098155,0.0043666004203259945
0.006350228562951088,0.006031623110175133,-0.010538607835769653,0.004263514187186956,-0.00013276044046506286,0.004136344417929649
0.006173521745949984,0.006226242054253817,-0.010677233338356018,0.004246969241648912,-0.00013228775060269982,0.0045057074166834354
0.006290179677307606,0.006138516124337912,-0.011020239442586899,0.0041309986263513565,-0.0001297152484767139,0.00462771812453866
0.0059062642976641655,0.005414112936705351,-0.010406446643173695,0.0043165311217308044,-0.0001271078799618408,0.004332726821303368
0.005995361600071192,0.005934218876063824,-0.010685345157980919,0.004507357720285654,-0.00012459461868274957,0.004429987166076899
0.0061580343171954155,0.006479156669229269,-0.010947336442768574,0.004722706042230129,-0.00011985397577518597,0.004279136657714844
0.005901817232370377,0.006547040771692991,-0.010366440750658512,0.00428835628554225,-0.00013008466339670122,0.004342000465840101
0.0062011308036744595,0.00575261889025569,-0.009967973455786705,0.00436768215149641,-0.00013167202996555716,0.0045766523107886314
0.006180497817695141,0.00584541168063879,-0.01015415508300066,0.0045644361525774,-0.00012956172577105463,0.004462236072868109
0.0062736873514950275,0.005555142182856798,-0.01079502422362566,0.004146216437220573,-0.00012728806177619845,0.0045733074657619
0.006346144247800112,0.006317800842225552,-0.009878896176815033,0.004198456183075905,-0.00012507804785855114,0.004175190348178148
0.00584566593170166,0.005832905415445566,-0.010688981972634792,0.004274182952940464,-0.0001229423505719751,0.004154335241764784
0.005652830004692078,0.005685367621481419,-0.010807955637574196,0.004504704382270575,-0.0001208782268804498,0.004050801508128643
0.007001559715718031,0.005301718600094318,-0.010087423957884312,0.0041641048155725,-0.00011888235167134553,0.004036732949316502
0.006565327290445566,0.005335092544555664,-0.010479111224412918,0.0040528494864702225,-0.000116951392556075,0.004705630708485842
0.006231324281543493,0.005577762611210346,-0.010349485091865063,0.004179317969828844,-0.0001152001423179172,0.00476282462477684
0.006242523901164532,0.0060842945240437984,-0.010001113638281822,0.004467249382287264,-0.0001440784108126536,0.004437227267771959
0.006242523901164532,0.0060842945240437984,-0.010001113638281822,0.004467249382287264,-0.0001440784108126536,0.004437227267771959
0.006066848523914814,0.0055787828750908375,-0.010482254438102245,0.0045928084291517735,-0.00014166960318107158,0.0040488471277058125
0.006664665415883064,0.0053629339672625065,-0.010616010054945946,0.00455539720132947,-0.00013748006313107908,0.0037746361922472715
0.006738404743373394,0.005472301039844751,-0.010693913325667381,0.004406302236020565,-0.0001334127300651744,0.003698421875014901
0.0065569509752094746,0.006005055736750364,-0.010267130099236965,0.004330115858465433,-0.0001295718248002231,0.0038354762364178896
0.0061908988282084465,0.0055315387435257435,-0.010167697444558144,0.004435426089912653,-0.000125945036415942,0.004048326052725315
0.006579603999853134,0.005700899288058281,-0.010297267697751522,0.0042189196683466434,-0.00012251581938471645,0.003986478317528963
0.006762407720088959,0.0055230832658708096,-0.010467952117323875,0.004431967623531818,-0.00011926875595236197,0.004200723022222519
0.006557526998221874,0.005749396979808807,-0.010369553230702877,0.00459990045055747,-0.00013786903582513332,0.004178057424724102
0.006366193760186434,0.00546734593808651,-0.009710177779197693,0.004548096563667059,-0.00013581545499619097,0.004033674020320177
0.006474636495113373,0.005915181245654821,-0.010170252062380314,0.004468006547540426,-0.00013257312821224332,0.003899636911228299
0.006750389002263546,0.0055326661095023155,-0.009881889447569847,0.004448545631021261,-0.0001294022222282365,0.0038504719268530607
0.006990805268287659,0.005427364259958267,-0.010590142570436,0.004541353322565556,-0.00012637412874028087,0.004287621006369591
0.006441286765038967,0.0054215616546571255,-0.010342054069042206,0.004662207327783108,-0.00012348429299890995,0.004612739663571119
0.006140525918453932,0.006116758566349745,-0.010239504277706146,0.005068048369139433,-0.00012072368554072455,0.004298374988138676
0.006662233266979456,0.005619761999696493,-0.01037939265370369,0.004958407487720251,-0.00011808340059360489,0.004219302907586098
0.006844446994364262,0.0052268910221755505,-0.010876704007387161,0.004781186114996672,-0.00012984128261450678,0.0040671732276678085
0.0070073227398097515,0.005054670851677656,-0.010175052098929882,0.004534090403467417,-0.00013166664575692266,0.003782554529607296
0.006368614733219147,0.00539872981607914,-0.010691262781620026,0.004339250735938549,-0.00012668155250139534,0.0035392800346016884
0.006798689719289541,0.005414899438619614,-0.009801357984542847,0.004511531442403793,-0.00012418570986483246,0.004024902358651161
0.00677137216553092,0.005612795706838369,-0.010183874517679214,0.004592507146298885,-0.00012178514589322731,0.004128722473978996
0.0068709757179021835,0.005209019873291254,-0.010435279458761215,0.004479447845369577,-0.00011947547318413854,0.004304161295294762
0.007094246800988913,0.005659313406795263,-0.009960386902093887,0.004398618824779987,-0.00011725186777766794,0.004062914755195379
0.00705994525924325,0.005504992790520191,-0.010738943703472614,0.004778413102030754,-0.00011510947661008686,0.00384890497662127
0.006817498244345188,0.005926765035837889,-0.010138923302292824,0.004756923299282789,-0.00011304405052214861,0.003439663676545024
0.006824868731200695,0.006300983484834433,-0.01006786897778511,0.004497614689171314,-0.00012282583338674158,0.003112118924036622
0.006605451460927725,0.005518189165741205,-0.010197697207331657,0.0044586025178432465,-0.00012445035099517554,0.003220104379579425
0.006974847987294197,0.005930150393396616,-0.009879040531814098,0.004673692397773266,-0.00012257635535206646,0.0032065310515463352
0.007012886460870504,0.0054413434118032455,-0.010955541394650936,0.004535213578492403,-0.00012054028047714382,0.0035520484670996666
0.007257476449012756,0.006062474101781845,-0.010486922226846218,0.004997836425900459,-0.00011855637421831489,0.0037387958727777004
0.007257476449012756,0.006062474101781845,-0.010486922226846218,0.004997836425900459,-0.00011855637421831489,0.0037387958727777004
0.007026060950011015,0.005763813853263855,-0.009774919599294662,0.005223787855356932,-0.00011663601617328823,0.0035550601314753294
0.006667037028819323,0.005769608076661825,-0.01001738477498293,0.005008070729672909,-0.00011477657972136512,0.0034101333003491163
0.007149071898311377,0.005238241516053677,-0.010376064106822014,0.004724354017525911,-0.00011297562741674483,0.0036130580119788647
0.007242150139063597,0.00585434352979064,-0.00998653657734394,0.0047533572651445866,-0.00011123045260319486,0.003447615774348378
0.0067978729493916035,0.0058832718059420586,-0.009729662910103798,0.004757013637572527,-0.00010953812306979671,0.0032434321474283934
0.006834253203123808,0.006240523885935545,-0.010266410186886787,0.0046971929259598255,-0.00010789668158395216,0.002974411239847541
0.007302672602236271,0.006427541375160217,-0.010004018433392048,0.004380840342491865,-0.00010630356700858101,0.0030918167904019356
0.007163511123508215,0.00557723781093955,-0.009729943238198757,0.004303073976188898,-0.00011421467206673697,0.0035646758042275906
0.007017791736871004,0.006005205679684877,-0.009742137044668198,0.004437421448528767,-0.00011276752775302157,0.0034047781955450773
0.0068953619338572025,0.005751450080424547,-0.009822050109505653,0.004609439056366682,-0.0001101009183912538,0.0035055906046181917
0.007029844913631678,0.006598670966923237,-0.009759705513715744,0.004832422360777855,-0.00010747717169579118,0.00317855691537261
0.007203338667750359,0.006620809435844421,-0.01005032192915678,0.004644475877285004,-0.00010497032053535804,0.0032699706498533487
0.007231319323182106,0.005793680436909199,-0.010028889402747154,0.004647179041057825,-0.0001025774545269087,0.0033232970163226128
0.006977315992116928,0.005841405130922794,-0.00981787871569395,0.004626556299626827,-0.00010029126133304089,0.003114488674327731
0.007283974438905716,0.005757366307079792,-0.009854007512331009,0.004651897121220827,-9.810468327486888e-05,0.0031682311091572046
0.007124756928533316,0.0061582219786942005,-0.00925219152122736,0.0045897215604782104,-9.400580893270671e-05,0.003589898580685258
0.006935891695320606,0.0055281370878219604,-0.010097237303853035,0.004980030469596386,-0.0001092708989745006,0.003230936359614134
0.007240466773509979,0.006288895383477211,-0.010091405361890793,0.004547937773168087,-0.00010820266470545903,0.003117914777249098
0.007848735898733139,0.0059402091428637505,-0.009971853345632553,0.004537373315542936,-0.0001061487928382121,0.0029917454812675714
0.00737342145293951,0.006074917037039995,-0.010476133786141872,0.004328263457864523,-0.00010410705726826563,0.0029334838036447763
0.006985953543335199,0.006010347045958042,-0.00970420055091381,0.004399644210934639,-0.00010213832865701988,0.002870267955586314
0.007209409959614277,0.005753892939537764,-0.010205698199570179,0.00462963106110692,-0.00010024224320659414,0.003142803907394409
0.007364824414253235,0.006187447812408209,-0.010902748443186283,0.004713614471256733,-9.841527207754552e-05,0.0032376449089497328
0.007677251007407904,0.005708617623895407,-0.010029975324869156,0.004689621273428202,-0.00010458275210112333,0.0031203790567815304
0.007677251007407904,0.005708617623895407,-0.010029975324869156,0.004689621273428202,-0.00010458275210112333,0.0031203790567815304
0.007041655946522951,0.00595255708321929,-0.010432234033942223,0.004294949118047953,-0.0001102457899833098,0.0029922069516032934
0.007431517820805311,0.005559234414249659,-0.009980564936995506,0.0043083978816866875,-0.00010701401333790272,0.0029174534138292074
0.007431517820805311,0.005559234414249659,-0.009980564936995506,0.0043083978816866875,-0.00010701401333790272,0.0029174534138292074
0.007397672161459923,0.006069618742913008,-0.010730494745075703,0.004374709911644459,-0.00010522866068640724,0.002656626282259822
0.007414510939270258,0.0056325411424040794,-0.010120808146893978,0.004649400245398283,-0.00010350002412451431,0.002517784247174859
0.007160946726799011,0.0063386582769453526,-0.010046486742794514,0.005131825339049101,-0.00010182717960560694,0.0026362850330770016
0.007468338590115309,0.005770296324044466,-0.010443572886288166,0.005060525145381689,-0.0001002075441647321,0.002861067885532975
0.007830320857465267,0.005814459174871445,-0.010004737414419651,0.004673927556723356,-9.863854938885197e-05,0.003292693756520748
0.007325165905058384,0.0055429209023714066,-0.010462059639394283,0.0046622259542346,-9.711801976663992e-05,0.003221721388399601
0.007101496681571007,0.0058764382265508175,-0.011173227801918983,0.004715774208307266,-9.564355423208326e-05,0.0029441898223012686
0.007382489740848541,0.005915032234042883,-0.010404976084828377,0.005482265260070562,-9.421336289960891e-05,0.0027002147398889065
0.00760991033166647,0.005764870438724756,-0.010660640895366669,0.005447699688374996,-0.00010267216566717252,0.0025477090384811163
0.007052413187921047,0.005955916363745928,-0.010722959414124489,0.005252165254205465,-0.00010432265844428912,0.0024375389330089092
0.007294268812984228,0.005959831643849611,-0.009976771660149097,0.005035971757024527,-0.0001030346320476383,0.0028310217894613743
0.007477714214473963,0.006160874385386705,-0.010606131516397,0.0048886691220104694,-0.00010159421799471602,0.002964610466733575
0.007840120233595371,0.006586081814020872,-0.010361741296947002,0.0048469011671841145,-0.00010018153989221901,0.002952632261440158
0.007342906668782234,0.0062807402573525906,-0.010376331396400928,0.005116963293403387,-9.880679863272235e-05,0.0027659537736326456
0.007354667875915766,0.006153778173029423,-0.011434871703386307,0.0049983845092356205,-9.746921568876132e-05,0.0026753114070743322
0.0075369058176875114,0.006023385562002659,-0.011227423325181007,0.004971243441104889,-9.616737224860117e-05,0.0026998776011168957
0.0071875364519655704,0.006616127211600542,-0.011100202798843384,0.00493084080517292,-9.366532322019339e-05,0.002789881080389023
0.007518613710999489,0.006724250037223101,-0.010451377369463444,0.004569978918880224,-9.246247645933181e-05,0.0027989742811769247
0.0077471439726650715,0.006232281215488911,-0.01069829985499382,0.004809156991541386,-0.00010078418563352898,0.002601922256872058
0.007534301374107599,0.006385745946317911,-0.010698750615119934,0.004988136701285839,-0.00010754130926216021,0.002726811682805419
0.007306225132197142,0.0065969424322247505,-0.010498703457415104,0.005259566940367222,-0.00010561581439105794,0.0027086965274065733
0.007528399582952261,0.006397254765033722,-0.010430794209241867,0.0054662711918354034,-0.00010323221795260906,0.00266355206258595
0.007712014950811863,0.006248930469155312,-0.010552842170000076,0.005073756445199251,-0.00010091938747791573,0.0024272273294627666
0.008236130699515343,0.006271990016102791,-0.010115600191056728,0.004944192245602608,-9.870590292848647e-05,0.0022739418782293797
0.00792664848268032,0.005797821097075939,-0.010809918865561485,0.0048256563022732735,-9.65871149674058e-05,0.0022168089635670185
0.008081403560936451,0.006400932092219591,-0.010401628911495209,0.005377478897571564,-9.4557624834124e-05,0.002331538125872612
0.007828375324606895,0.006663931999355555,-0.010428162291646004,0.005543053150177002,-9.261150262318552e-05,0.0021681389771401882
0.00826167780905962,0.0058424212038517,-0.009584754705429077,0.00551137700676918,-0.00010651242337189615,0.0022873450070619583
0.00783805176615715,0.0063577257096767426,-0.011210096068680286,0.0054389676079154015,-0.00010658473911462352,0.0025224064011126757
0.007788454182446003,0.006789067760109901,-0.011202269233763218,0.005450454540550709,-0.0001046610705088824,0.0023271713871508837
0.007788454182446003,0.006789067760109901,-0.011202269233763218,0.005450454540550709,-0.0001046610705088824,0.0023271713871508837
0.007956183515489101,0.006573990918695927,-0.010850180871784687,0.00556837348267436,-0.00010268014739267528,0.002469163155183196
0.007956591434776783,0.006486846134066582,-0.010360290296375751,0.005605754442512989,-0.0001007647515507415,0.002365998225286603
0.008253186009824276,0.0065620956011116505,-0.01104614045470953,0.005469040013849735,-9.891890658764169e-05,0.002319830236956477
0.008370780386030674,0.006226736586540937,-0.010426826775074005,0.005363309755921364,-9.71394547377713e-05,0.002354750642552972
0.00742881977930665,0.006221036426723003,-0.01015731506049633,0.005110790953040123,-9.54229399212636e-05,0.0022363243624567986
0.008061149157583714,0.006767145358026028,-0.010811084881424904,0.00536539638414979,-9.3765978817828e-05,0.0023375104647129774
0.00920931901782751,0.006285572424530983,-0.011166991665959358,0.005271002650260925,-9.216550824930891e-05,0.0022811228409409523
0.008466079831123352,0.005896457936614752,-0.010610303841531277,0.005257012788206339,-9.061895252671093e-05,0.0022910155821591616
0.008108116686344147,0.006231856998056173,-0.010724684223532677,0.004998932592570782,-8.912333578336984e-05,0.0024695820175111294
0.008511759340763092,0.0063669332303106785,-0.010522065684199333,0.005095777101814747,-8.767629333306104e-05,0.00246805208735168
0.00857599638402462,0.007065974175930023,-0.010564034804701805,0.005213688127696514,-8.627548231743276e-05,0.0023337013553828
0.008592688478529453,0.005984244402498007,-0.01042603887617588,0.00520938029512763,-8.491881453664973e-05,0.0021394183859229088
0.008111552335321903,0.006437636446207762,-0.009949802421033382,0.005725770257413387,-8.360399078810588e-05,0.0020506069995462894
0.008485664613544941,0.006619740277528763,-0.010147590190172195,0.005384089890867472,-8.775048627285287e-05,0.002070247894152999
0.008539607748389244,0.006566610652953386,-0.010228398256003857,0.005307572893798351,-9.276100172428414e-05,0.002323916181921959
0.008621604181826115,0.006226551253348589,-0.011032546870410442,0.005496141966432333,-9.1820620582439e-05,0.0022730990312993526
0.008638996630907059,0.0058878399431705475,-0.01080536562949419,0.005324502941220999,-9.052817040355876e-05,0.0022401378955692053
0.008380387909710407,0.006241061724722385,-0.010531806387007236,0.005699492990970612,-8.92473544809036e-05,0.0019889476243406534
0.0082710487768054,0.006616700906306505,-0.010887415148317814,0.005443579517304897,-8.800087380222976e-05,0.0019159199437126517
0.00915648601949215,0.006352340802550316,-0.010326307266950607,0.005800597835332155,-8.678873564349487e-05,0.0018322629621252418
0.008733559399843216,0.006002567708492279,-0.010771423578262329,0.0058130486868321896,-8.56092810863629e-05,0.0018712107557803392
0.008434164337813854,0.006236493121832609,-0.011115560308098793,0.006223038304597139,-8.44616224640049e-05,0.002089460613206029
0.008676333352923393,0.006184906233102083,-0.010205144062638283,0.0057447804138064384,-8.33442245493643e-05,0.002013028832152486
0.009046033024787903,0.006879896856844425,-0.011018983088433743,0.0054080369882285595,-8.225610508816317e-05,0.0018459667917340994
0.00924697332084179,0.006607909221202135,-0.010708226822316647,0.005132938269525766,-8.119591802824289e-05,0.0016327700577676296
0.008776946924626827,0.00636448385193944,-0.010542881675064564,0.005787608679383993,-8.01627611508593e-05,0.001576114445924759
0.008776946924626827,0.00636448385193944,-0.010542881675064564,0.005787608679383993,-8.01627611508593e-05,0.001576114445924759
0.00889943353831768,0.006392851937562227,-0.010657557286322117,0.005950387567281723,-8.64695175550878e-05,0.001293565728701651
0.008917968720197678,0.006725428160279989,-0.011198644526302814,0.005503880325704813,-8.805858669802547e-05,0.0013560615479946136
0.008917968720197678,0.006725428160279989,-0.011198644526302814,0.005503880325704813,-8.805858669802547e-05,0.0013560615479946136
0.009267824701964855,0.006329244934022427,-0.011270473711192608,0.005770501680672169,-8.716535376152024e-05,0.0013389952946454287
0.00891759991645813,0.0060536814853549,-0.01036439836025238,0.005464931018650532,-8.613385580247268e-05,0.0014431232120841742
0.00880907941609621,0.006350807845592499,-0.011952534317970276,0.005138246342539787,-8.511635678587481e-05,0.001389958430081606
0.00907010119408369,0.00635953014716506,-0.011647410690784454,0.005701919086277485,-8.412198803853244e-05,0.0016908759716898203
0.009385831654071808,0.006437348201870918,-0.01033913716673851,0.005532093346118927,-8.315052400575951e-05,0.0016325904289260507
0.008625351823866367,0.006551052443683147,-0.01105050090700388,0.0053044757805764675,-8.220124436775222e-05,0.001746762660332024
0.008371646516025066,0.00604323111474514,-0.010739711113274097,0.005369676277041435,-8.127331238938496e-05,0.0017052722396329045
0.008936932310461998,0.005963458679616451,-0.010844236239790916,0.005564531311392784,-9.018568380270153e-05,0.0015357667580246925
0.009044067934155464,0.006710054352879524,-0.010987497866153717,0.005333107430487871,-8.981372229754925e-05,0.0013911774149164557
0.00911002792418003,0.00673585245385766,-0.010576856322586536,0.005781088024377823,-8.814763714326546e-05,0.0013128762366250157
0.009164870716631413,0.006187706720083952,-0.011207671836018562,0.005541560705751181,-8.646016794955358e-05,0.0012525570346042514
0.009515933692455292,0.005579172167927027,-0.011112784035503864,0.005742514040321112,-8.483062993036583e-05,0.0012678095372393727
0.009715331718325615,0.005706009455025196,-0.011618715710937977,0.006054215133190155,-9.795588266570121e-05,0.0011756165185943246
0.009054909460246563,0.004150257911533117,-0.011071067303419113,0.006645658053457737,-9.633856097934768e-05,0.0013420569011941552
0.008963263593614101,0.005106884520500898,-0.011229951865971088,0.00612113019451499,-9.465845505474135e-05,0.0013023694045841694
0.008800696581602097,0.006095314864069223,-0.01119665801525116,0.0058649154379963875,-0.00010066096001537517,0.001258287113159895
0.008964656852185726,0.0053917416371405125,-0.010979666374623775,0.005656213965266943,-0.00010488438419997692,0.0013119003269821405
0.008964656852185726,0.0053917416371405125,-0.010979666374623775,0.005656213965266943,-0.00010488438419997692,0.0013119003269821405
0.008904610760509968,0.005447243340313435,-0.011917723342776299,0.00562713760882616,-0.00011045647988794371,0.0012625777162611485
0.009277631528675556,0.005534729920327663,-0.01065935380756855,0.005781763233244419,-0.00011555258242879063,0.0012634021695703268
0.009596025571227074,0.00554439052939415,-0.01185096800327301,0.005691141355782747,-0.00011416880442993715,0.0011945953592658043
0.009019022807478905,0.005557564087212086,-0.011517515406012535,0.005591093096882105,-0.0002649037342052907,0.001071824342943728
0.009468466974794865,0.005263272672891617,-0.010529513470828533,0.005512054078280926,-0.00027037470135837793,0.001041567069478333
0.009332177229225636,0.0059336526319384575,-0.010789839550852776,0.006048568524420261,-0.0002563663583714515,0.0009234714088961482
0.009332177229225636,0.0059336526319384575,-0.010789839550852776,0.006048568524420261,-0.0002563663583714515,0.0009234714088961482
0.009848443791270256,0.0054002986289560795,-0.01084745954722166,0.005885591730475426,-0.00024263041268568486,0.0009884154424071312
0.00931051466614008,0.005370826926082373,-0.012126464396715164,0.005681868176907301,-0.00023021902597974986,0.0009801931446418166
0.009533450938761234,0.005455882288515568,-0.011302532628178596,0.005390157923102379,-0.0002190114901168272,0.001059006666764617
0.009451537393033504,0.005178666207939386,-0.011111308820545673,0.005587272346019745,-0.00020884379046037793,0.0011410044971853495
0.009610003791749477,0.005432823672890663,-0.011449377052485943,0.006070851814001799,-0.00019957913900725543,0.0011927739251405
0.01010452676564455,0.005389776546508074,-0.011122921481728554,0.006079071667045355,-0.00019110171706415713,0.0013072469737380743
0.008981321938335896,0.005460151471197605,-0.01144113764166832,0.005768219940364361,-0.00018331567116547376,0.0014397752238437533
0.01000083889812231,0.005257606506347656,-0.011190047487616539,0.00521084712818265,-0.00020667795615736395,0.001373102655634284
0.009837504476308823,0.00567252840846777,-0.010673100128769875,0.005207703914493322,-0.00020309732644818723,0.0012946267379447818
0.009164187125861645,0.005430424585938454,-0.011174268089234829,0.005731864832341671,-0.00019599850929807872,0.001241420628502965
0.009348836727440357,0.005362887866795063,-0.010792196728289127,0.0064472658559679985,-0.0001891503925435245,0.0012585859512910247
0.009760776534676552,0.0055322605185210705,-0.011161256581544876,0.006455341354012489,-0.00018274938338436186,0.0011505144648253918
0.009931501932442188,0.005598906427621841,-0.012429577298462391,0.006152639165520668,-0.00017676642164587975,0.0010103300446644425
0.010558568872511387,0.00573895126581192,-0.011421562172472477,0.006107385270297527,-0.00018515321426093578,0.0009836764074862003
0.010079866275191307,0.005580700933933258,-0.011285023763775826,0.006110383663326502,-0.00019260551198385656,0.0009419150301255286
0.010498386807739735,0.005937001667916775,-0.011004095897078514,0.00651592155918479,-0.00018234476738143712,0.000825556693598628
0.010011768899857998,0.005324050784111023,-0.011704736389219761,0.005973409861326218,-0.0001772189134499058,0.000764097785577178
0.009558453224599361,0.005726910661906004,-0.011432025581598282,0.005880151875317097,-0.00017237030260730535,0.000655899930279702
0.010466711595654488,0.005879072472453117,-0.011866993270814419,0.006452637258917093,-0.00016777920245658606,0.0006783694843761623
0.009916477836668491,0.006174969021230936,-0.01179282832890749,0.006649770773947239,-0.0001634268555790186,0.0006959360325708985
0.009916477836668491,0.006174969021230936,-0.01179282832890749,0.006649770773947239,-0.0001634268555790186,0.0006959360325708985
0.011174144223332405,0.005441164597868919,-0.011628804728388786,0.006244640331715345,-0.0001553656329633668,0.0007857821765355766
0.011174144223332405,0.005441164597868919,-0.011628804728388786,0.006244640331715345,-0.0001553656329633668,0.0007857821765355766
0.011109564453363419,0.005995315965265036,-0.011602085083723068,0.006479807198047638,-0.0001704374881228432,0.0008813260938040912
0.010860237292945385,0.00578464986756444,-0.012449873611330986,0.0067745097912848,-0.00016902826610021293,0.0007931647705845535
0.0113356439396739,0.006553614977747202,-0.01192112173885107,0.006413683295249939,-0.00016531631990801543,0.0008007408468984067
0.011142381466925144,0.00570746511220932,-0.011694524437189102,0.006424817722290754,-0.00015806897135917097,0.0006437831907533109
0.011084873229265213,0.006078983191400766,-0.01135845948010683,0.006273490842431784,-0.0001546734565636143,0.0006559024914167821
0.011084873229265213,0.006078983191400766,-0.01135845948010683,0.006273490842431784,-0.0001546734565636143,0.0006559024914167821
0.010883398354053497,0.005594558082520962,-0.012506899423897266,0.006507907062768936,-0.0001514203759143129,0.0006100431201048195
0.011301297694444656,0.00638204999268055,-0.011702538467943668,0.006296663545072079,-0.00013549815048463643,0.0005629410734400153
0.010878932662308216,0.005870428867638111,-0.012206867337226868,0.005756705533713102,-0.00012992745905648917,0.0005221319734118879
0.010576048865914345,0.005686882883310318,-0.012532705441117287,0.005786854308098555,-0.00012617590255104005,0.0004643526335712522
0.011288541369140148,0.005800046492367983,-0.011702301912009716,0.006018548272550106,-0.00012272749154362828,0.00040278982487507164
0.010990804061293602,0.0058334991335868835,-0.012490757741034031,0.006935349199920893,-0.00011946830636588857,0.0003684574621729553
0.011018563061952591,0.006041049957275391,-0.012171695940196514,0.007224714383482933,-0.0001336286950390786,0.0003992395068053156
0.0112654073163867,0.005305883940309286,-0.01210404746234417,0.006738157477229834,-0.0001357400615233928,0.00037919345777481794
0.010776231996715069,0.005304941441863775,-0.012073619291186333,0.006371322087943554,-0.00013275997480377555,0.0004097943310625851
0.011196764186024666,0.005628385115414858,-0.011375483125448227,0.006967715919017792,-0.00012959717423655093,0.0003881581360474229
0.011851614341139793,0.006143046077340841,-0.012061326764523983,0.006537810433655977,-0.000144881138112396,0.00036584449117071927
0.011481178924441338,0.005709652788937092,-0.011397791095077991,0.006479770876467228,-0.00014409222058020532,0.00034577137557789683
0.011252938769757748,0.005735529586672783,-0.011837383732199669,0.006761559750884771,-0.00014103141438681632,0.0003277763316873461
0.011079136282205582,0.0052560544572770596,-0.012274131178855896,0.007440127898007631,-0.00013795382983516902,0.0003115614817943424
0.011397366411983967,0.004933452233672142,-0.011685998179018497,0.007125903852283955,-0.0001349983358522877,0.00029687539790757
0.010899050161242485,0.0055403271690011024,-0.011011404916644096,0.006333245895802975,-0.00014778145123273134,0.00030741235241293907
0.011527921073138714,0.006064889021217823,-0.009933759458363056,0.006416883785277605,-0.00014495407231152058,0.00029708215151913464
0.011526089161634445,0.005334802903234959,-0.012198667973279953,0.0065372297540307045,-0.00014210260997060686,0.0002854552003555
0.011312340386211872,0.005355230066925287,-0.011845621280372143,0.006460154894739389,-0.00022685354633722454,0.00027457790565676987
0.01185158733278513,0.005252310540527105,-0.011808367446064949,0.006185137201100588,-0.0002278047613799572,0.0002644900814630091
0.011192276142537594,0.005150183569639921,-0.011601932346820831,0.006431806366890669,-0.00021760040544904768,0.00025511690182611346
0.0112937455996871,0.0058542885817587376,-0.012111097574234009,0.006301460787653923,-0.00020761216001119465,0.00024638589820824564
0.0112937455996871,0.0058542885817587376,-0.012111097574234009,0.006301460787653923,-0.00020761216001119465,0.00024638589820824564
0.011120249517261982,0.005618690047413111,-0.011895975098013878,0.006467756815254688,-0.00019845683709718287,0.00023823279479984194
0.011227581650018692,0.005521468818187714,-0.011469426564872265,0.006391114089637995,-0.00019007260561920702,0.00023060162493493408
0.011248363181948662,0.005101647228002548,-0.012072655372321606,0.005968066863715649,-0.00018236834148410708,0.0002234444546047598
0.011035855859518051,0.005349015351384878,-0.011374947614967823,0.005774457938969135,-0.0002079354162560776,0.00021671834110748023
0.01113419234752655,0.005402269307523966,-0.012493708170950413,0.006137867923825979,-0.00020227607456035912,0.00021038569684606045
0.011145339347422123,0.006021441891789436,-0.01142340712249279,0.006248169578611851,-0.00019510588026605546,0.0002044120046775788
0.011124775744974613,0.005421501584351063,-0.01158920582383871,0.006234497297555208,-0.00021757232025265694,0.00019876858277712017
0.011504653841257095,0.005417468026280403,-0.012240377254784107,0.0061503523029387,-0.00021215298329479992,0.00019342810264788568
0.011536023579537868,0.00504862517118454,-0.011401222087442875,0.005952213890850544,-0.00021974639093969017,0.0001709176431177184
0.011319548822939396,0.005085850600153208,-0.011904288083314896,0.006445922888815403,-0.00022632212494499981,0.0001610171893844381
0.01126653328537941,0.005864966660737991,-0.011576722376048565,0.006923298817127943,-0.0002202784817200154,0.00015665202226955444
0.011079089716076851,0.005824668798595667,-0.011648866347968578,0.007272961549460888,-0.00021379489044193178,0.00015282789536286145
0.011651708744466305,0.005720668006688356,-0.012680977582931519,0.006863935384899378,-0.00025230535538867116,0.00014920659305062145
0.011826427653431892,0.005072232335805893,-0.01159368921071291,0.007343366742134094,-0.0002529212215449661,0.00014575463137589395
0.012132635340094566,0.005422735121101141,-0.012131034396588802,0.006981309503316879,-0.0002403764519840479,0.0001424584334017709
0.011824188753962517,0.005249860230833292,-0.011935541406273842,0.0071548400446772575,-0.0002505167794879526,0.00013930840941611677
0.011435963213443756,0.006004557013511658,-0.011989390477538109,0.007139316760003567,-0.0002591446100268513,0.00013629456225316972
0.012153934687376022,0.0054580033756792545,-0.011885528452694416,0.007316648494452238,-0.00024856452364474535,0.0001334083208348602
0.011855599470436573,0.004867665935307741,-0.011838349513709545,0.007464549504220486,-0.00023770889674779028,8.95811608643271e-05
0.011768314056098461,0.004740267526358366,-0.012339917942881584,0.007386809680610895,-0.00026305069332011044,4.868924952461384e-05
0.011545233428478241,0.00522919325158,-0.011506423354148865,0.007499731611460447,-0.000244964990997687,4.369960879557766e-05
0.012236771173775196,0.0059908186085522175,-0.01149809267371893,0.0074507989920675755,-0.00026720561436377466,2.4131462851073593e-05
0.011358623392879963,0.005535929463803768,-0.011312512680888176,0.006976418197154999,-0.0002602389722596854,2.1015745005570352e-05
0.01187453418970108,0.005319653544574976,-0.012060769833624363,0.006474449299275875,-0.0003530654648784548,2.0373230654513463e-05
0.011917578056454659,0.005362038966268301,-0.011808212846517563,0.006744150072336197,-0.000392053829273209,1.3302262686920585e-06
0.01155758835375309,0.005630925763398409,-0.012228003703057766,0.006910562515258789,-0.00041913313907571137,8.685426422516684e-08
0.012000225484371185,0.0057286545634269714,-0.012186676263809204,0.006682478357106447,-0.000406877399655059,5.6709632545448585e-09
0.012000225484371185,0.0057286545634269714,-0.012186676263809204,0.006682478357106447,-0.000406877399655059,5.6709632545448585e-09
0.01200156845152378,0.006168524269014597,-0.01184779591858387,0.006555171217769384,-0.0004340273153502494,3.702733952781756e-10
0.012354662641882896,0.005612766370177269,-0.012217999435961246,0.006471382454037666,-0.0006625702371820807,2.4176206175896553e-11
0.011819059029221535,0.0053540440276265144,-0.011700927279889584,0.007073899265378714,-0.0007116460474207997,1.5785335278489798e-12
0.011872094124555588,0.005181030835956335,-0.01243345532566309,0.007160368375480175,-0.0006820361013524234,1.0306695546937611e-13
0.012325319461524487,0.0057312846183776855,-0.012355253100395203,0.0067182849161326885,-0.0006089756498113275,6.729535734949698e-15
0.011845516972243786,0.006130802910774946,-0.012534720823168755,0.006602175068110228,-0.00063200609292835,-0.00023264670744538307
0.012121629901230335,0.005976906977593899,-0.012533515691757202,0.006747029721736908,-0.0005793651798740029,-0.0008285379153676331
0.01215693261474371,0.005256727337837219,-0.01179537083953619,0.006930399686098099,-0.0005308580584824085,-0.0008885774877853692
0.012517698109149933,0.005132551304996014,-0.012145943939685822,0.006714226678013802,-0.0005545772728510201,-0.000795687607023865
0.01275757048279047,0.0054652937687933445,-0.012206979095935822,0.006650849711149931,-0.0005188320646993816,-0.0007074426393955946
0.011983097530901432,0.00565195782110095,-0.012573582120239735,0.00679048802703619,-0.0004806587821803987,-0.0007023908547125757
0.012356328777968884,0.005496146157383919,-0.012341816909611225,0.007291707210242748,-0.00043554772855713964,-0.0006585254450328648
0.01216911431401968,0.005471661686897278,-0.012319137342274189,0.007532745134085417,-0.000470901548396796,-0.0006091832765378058
0.01237567700445652,0.0055035753175616264,-0.012257512658834457,0.0072493222542107105,-0.0004375368298497051,-0.0005767930997535586
0.012103631161153316,0.005560239776968956,-0.011886071413755417,0.007085222285240889,-0.00046327311429195106,-0.0006583765498362482
0.012328621000051498,0.005293814465403557,-0.012247057631611824,0.006903090048581362,-0.0004389426321722567,-0.0006861857837066054
0.012405261397361755,0.005935231223702431,-0.012204835191369057,0.0071000815369188786,-0.00046541905612684786,-0.000877160404343158
0.012186664156615734,0.005539425648748875,-0.012923019006848335,0.0069603282026946545,-0.0005109601770527661,-0.0011536789825186133
0.012579436413943768,0.005770174786448479,-0.012318647466599941,0.007313578389585018,-0.0005210844101384282,-0.0011671760585159063
0.01257731206715107,0.0056970627047121525,-0.013105183839797974,0.00773843377828598,-0.000558443833142519,-0.0012822506250813603
0.01265806145966053,0.006067256443202496,-0.012061758898198605,0.007165754213929176,-0.0005114989471621811,-0.0012560319155454636
0.012388120405375957,0.005920518189668655,-0.012891124002635479,0.006849538069218397,-0.0005016395589336753,-0.0010179084492847323
0.012765482999384403,0.006129212211817503,-0.01246562134474516,0.00713255675509572,-0.0005266405059956014,-0.000994095578789711
0.01252490933984518,0.005712220445275307,-0.01329411007463932,0.007325874641537666,-0.0004944978281855583,-0.0009273719042539597
0.012763208709657192,0.0058787669986486435,-0.012884262949228287,0.007257202640175819,-0.0004629491886589676,-0.0009538992890156806
0.012454125098884106,0.005981589201837778,-0.012616578489542007,0.007283312268555164,-0.0004349825903773308,-0.0012629290577024221
0.012454125098884106,0.005981589201837778,-0.012616578489542007,0.007283312268555164,-0.0004349825903773308,-0.0012629290577024221
0.012945422902703285,0.00585912773385644,-0.012791510671377182,0.007623681798577309,-0.0004101915401406586,-0.0017197822453454137
0.012509430758655071,0.005466618109494448,-0.01230575144290924,0.008114758878946304,-0.00038911099545657635,-0.0021304888650774956
0.013068181462585926,0.006024581380188465,-0.012536045163869858,0.007270883768796921,-0.0003729187010321766,-0.0021453716326504946
0.012412945739924908,0.00632767379283905,-0.012044298462569714,0.006977335549890995,-0.0003453316166996956,-0.002035899553447962
0.01328660361468792,0.0060096625238657,-0.013214703649282455,0.007380709983408451,-0.00032076594652608037,-0.0017503692070022225
0.013054297305643559,0.005741022527217865,-0.012946494854986668,0.008018291555345058,-0.0002994142414536327,-0.0016064192168414593
0.012776103802025318,0.0055742464028298855,-0.013333708047866821,0.007818433456122875,-0.00028072568238712847,-0.0014383295783773065
0.013398151844739914,0.00620817206799984,-0.013467359356582165,0.007510239724069834,-0.0003099380701314658,-0.0013638929231092334
0.012887327000498772,0.006064213812351227,-0.012940412387251854,0.008144954219460487,-0.00029902075766585767,-0.001280991011299193
0.012734873220324516,0.006382213905453682,-0.01290376391261816,0.0077971201390028,-0.00028371455846354365,-0.0011964458972215652
0.011614583432674408,0.006337046157568693,-0.012765029445290565,0.00763859786093235,-0.00026957300724461675,-0.0012751085450872779
0.013928860425949097,0.005304477643221617,-0.01358773559331894,0.007088814862072468,-0.00025675343931652606,-0.0017675668932497501
0.014178906567394733,0.005457466933876276,-0.012612489983439445,0.007336461916565895,-0.00024509691866114736,-0.0021174319554120302
0.014042776077985764,0.0052568865939974785,-0.01284831389784813,0.007962538860738277,-0.00023445278930012137,-0.0029635541141033173
0.013886713422834873,0.006056335289031267,-0.012277993373572826,0.008064487017691135,-0.00022469559917226434,-0.0027561106253415346
0.013947146944701672,0.005451313219964504,-0.012931549921631813,0.007661194074898958,-0.0002157176350010559,-0.002456353511661291
0.013591519556939602,0.005213137250393629,-0.012805293314158916,0.007619334850460291,-0.00022435390565078706,-0.001985820010304451
0.014155702665448189,0.00557416956871748,-0.013378933072090149,0.007947634905576706,-0.0002246581861982122,-0.00188728841021657
0.01358119584619999,0.005778964143246412,-0.012891371734440327,0.008248344995081425,-0.00021698675118386745,-0.0019944689702242613
0.014190534129738808,0.005589427892118692,-0.013318564742803574,0.008350195363163948,-0.00020976545056328177,-0.0027042431756854057
0.014325195923447609,0.005485698580741882,-0.012932278215885162,0.008183298632502556,-0.0002030060422839597,-0.0029267333447933197
0.01419169083237648,0.005211268551647663,-0.013212853111326694,0.007583268918097019,-0.0001966679992619902,-0.0026003760285675526
0.013707232661545277,0.005448660813271999,-0.012720991857349873,0.007510425988584757,-0.0001907138794194907,-0.0023164935410022736
0.01417483389377594,0.005454328842461109,-0.013621293939650059,0.00765741104260087,-0.00018510955851525068,-0.0020820682402700186
0.01375749334692955,0.006092422176152468,-0.013079334050416946,0.007431246805936098,-0.00017982548160944134,-0.0019518069457262754
0.01375749334692955,0.006092422176152468,-0.013079334050416946,0.007431246805936098,-0.00017982548160944134,-0.0019518069457262754
0.013946035876870155,0.005334434099495411,-0.013529423624277115,0.0069802976213395596,-0.00017483475676272064,-0.002236429136246443
0.013783670030534267,0.005444668233394623,-0.013443985022604465,0.007198496721684933,-0.0001701134315226227,-0.0023890251759439707
0.014216577634215355,0.005261964164674282,-0.013439728878438473,0.00798447523266077,-0.00016564052202738822,-0.002944100648164749
0.014270298182964325,0.005367533303797245,-0.012868661433458328,0.008037138730287552,-0.0001613968051970005,-0.002939684549346566
0.014348720200359821,0.005547512788325548,-0.012730072252452374,0.007634010631591082,-0.00015736538625787944,-0.0025868876837193966
0.013709676451981068,0.005471320357173681,-0.013454032130539417,0.008158206008374691,-0.0001535300543764606,-0.002526922384276986
0.014348934404551983,0.005293923895806074,-0.013498990796506405,0.007984214462339878,-0.0001498773490311578,-0.0026879352517426014
0.014125779271125793,0.004943107254803181,-0.013338666409254074,0.007898268289864063,-0.00014639455184806138,-0.0025974931195378304
0.01454241294413805,0.005469856783747673,-0.01283943559974432,0.007964091375470161,-0.0001430698175681755,-0.002787610748782754
0.01409485749900341,0.0052514998242259026,-0.0132079953327775,0.008672189898788929,-0.00013989285798743367,-0.0030676880851387978
0.014675043523311615,0.005415021907538176,-0.012609000317752361,0.008419089019298553,-0.00013685383601114154,-0.003430319018661976
0.014395259320735931,0.00564893614500761,-0.012967973947525024,0.008014757186174393,-0.000133944078697823,-0.0032792137935757637
0.014790619723498821,0.005170274991542101,-0.013324844650924206,0.008274302817881107,-0.00013115558249410242,-0.0032583423890173435
0.01453093346208334,0.005127607379108667,-0.013441720977425575,0.008602606132626534,-0.0001284806930925697,-0.0029453106690198183
0.015086809173226357,0.0050978707149624825,-0.013228795491158962,0.008422370068728924,-0.00012591283302754164,-0.00289445579983294
0.014719146303832531,0.005747044458985329,-0.013023284263908863,0.007796278223395348,-0.00012344542483333498,-0.0027638920582830906
0.015031361021101475,0.005604161880910397,-0.012918573804199696,0.00837637484073639,-0.00011879039084305987,-0.0031844046898186207
0.015149982646107674,0.005120204295963049,-0.013410386629402637,0.008064650930464268,-0.00011659192387014627,-0.0034731822088360786
0.014764233492314816,0.005367965437471867,-0.012609953060746193,0.008211154490709305,-0.00011447320139268413,-0.003637932939454913
0.014839175157248974,0.0056855869479477406,-0.013576492667198181,0.008494270965456963,-0.00011243038898101076,-0.0037451153621077538
0.014994210563600063,0.005692788865417242,-0.013203403912484646,0.008393083699047565,-0.00012417335528880358,-0.0033224360086023808
0.014974657446146011,0.0055595687590539455,-0.01329521182924509,0.008302018977701664,-0.0001239288249053061,-0.003302627243101597
0.014974657446146011,0.0055595687590539455,-0.01329521182924509,0.008302018977701664,-0.0001239288249053061,-0.003302627243101597
0.01532509084790945,0.0052082734182477,-0.012867473997175694,0.008505226112902164,-0.00012195332237752154,-0.0033402524422854185
0.015132403932511806,0.0053411913104355335,-0.013016561046242714,0.00822567380964756,-0.00011993005318799987,-0.003560947021469474
0.015211564488708973,0.005208256188780069,-0.01328356098383665,0.007947978563606739,-0.00011796556646004319,-0.0038158816751092672
0.014939961954951286,0.005029582884162664,-0.013186926953494549,0.007910276763141155,-0.00011606414773268625,-0.003448618110269308
0.015165532007813454,0.0058576264418661594,-0.01323914434760809,0.008437197655439377,-0.00011422275565564632,-0.003538385732099414
0.015226982533931732,0.00551250297576189,-0.012699210084974766,0.008389430120587349,-0.00011243905464652926,-0.0033396214712411165
0.015565699897706509,0.005243634805083275,-0.013248179107904434,0.007770000025629997,-0.0001107100979425013,-0.0034604414831846952
0.014935947023332119,0.005247049033641815,-0.012560042552649975,0.008015792816877365,-0.00010903363727265969,-0.004242670722305775
0.015463044866919518,0.005626959260553122,-0.013445237651467323,0.008362146094441414,-0.00010740699508460239,-0.004179288167506456
0.015162746421992779,0.00538772065192461,-0.012924760580062866,0.008315427228808403,-0.00010582834511296824,-0.0035516307689249516
0.015417075715959072,0.005929622799158096,-0.013289517723023891,0.007571810390800238,-0.00010429544636281207,-0.003483862616121769
0.015192617662250996,0.0054033249616622925,-0.013060003519058228,0.00818758923560381,-0.00010280615242663771,-0.0036223053466528654
0.015536610037088394,0.0050382851622998714,-0.01302291452884674,0.008981171995401382,-0.00010135886259377003,-0.003804642939940095
0.01535911113023758,0.005268796347081661,-0.01279301568865776,0.00828313734382391,-9.995191794587299e-05,-0.0038893981836736202
0.01570199429988861,0.005381152033805847,-0.012890858575701714,0.007675423286855221,-8.584379975218326e-05,-0.0035060725640505552
0.015520584769546986,0.006116719450801611,-0.013075921684503555,0.008233614265918732,-7.24625788279809e-05,-0.0034992771688848734
0.015278874896466732,0.005486720707267523,-0.012647703289985657,0.008131774142384529,-7.054278103169054e-05,-0.004118797369301319
0.015752891078591347,0.005344213452190161,-0.013349710032343864,0.008306639268994331,-6.940367893548682e-05,-0.004086033441126347
0.015524670481681824,0.0051684011705219746,-0.012592540122568607,0.008934872224926949,-6.834618397988379e-05,-0.004252286162227392
0.015388238243758678,0.005823604762554169,-0.012768058106303215,0.008663426153361797,-6.633104931097478e-05,-0.0039728544652462006
0.016112051904201508,0.006162992678582668,-0.013156849890947342,0.008327607996761799,-6.536762521136552e-05,-0.0039464207366108894
0.01582951843738556,0.0054657612927258015,-0.012959185987710953,0.008699559606611729,-6.443164602387697e-05,-0.0039715515449643135
0.01618845947086811,0.00549453916028142,-0.013442480936646461,0.00887250155210495,-7.456790626747534e-05,-0.004003342241048813
0.016010504215955734,0.005591394379734993,-0.013434106484055519,0.00839991495013237,-7.505722169298679e-05,-0.0043977308087050915
0.016189832240343094,0.005361307878047228,-0.012692991644144058,0.008379222825169563,-7.412658305838704e-05,-0.004507385194301605
0.016396446153521538,0.005801782943308353,-0.013545489870011806,0.008811553940176964,-7.312923116842285e-05,-0.00467726681381464
0.015690460801124573,0.005749276839196682,-0.012809800915420055,0.008767596445977688,-7.215255027404055e-05,-0.004240290727466345
0.016767973080277443,0.005571302957832813,-0.013576352037489414,0.009062312543392181,-7.120122609194368e-05,-0.003898878116160631
0.016767973080277443,0.005571302957832813,-0.013576352037489414,0.009062312543392181,-7.120122609194368e-05,-0.003898878116160631
0.016276877373456955,0.005270048044621944,-0.0132388761267066,0.008194833993911743,-8.121221617329866e-05,-0.004062676336616278
0.016360746696591377,0.005350538995116949,-0.013903806917369366,0.009141294285655022,-8.088321919785812e-05,-0.004265697672963142
0.016562476754188538,0.005606724880635738,-0.013508192263543606,0.009617454372346401,-8.55303296702914e-05,-0.004636785946786404
0.01659831590950489,0.005587389692664146,-0.014082342386245728,0.009976718574762344,-8.980060374597088e-05,-0.004635138902813196
0.016915231943130493,0.005384049378335476,-0.012520975433290005,0.009228916838765144,-0.00016068026889115572,-0.004724074155092239
0.016713090240955353,0.005571931134909391,-0.01410666387528181,0.009493543766438961,-0.000219981768168509,-0.004677393473684788
0.016222963109612465,0.005283380392938852,-0.014614162035286427,0.01048932783305645,-0.0002538233529776335,-0.004650088958442211
0.015789777040481567,0.005950051359832287,-0.013482662849128246,0.009895196184515953,-0.00024518658756278455,-0.004656328819692135
0.016678951680660248,0.005538092460483313,-0.013484906405210495,0.009299459867179394,-0.00027116702403873205,-0.005079301074147224
0.016772136092185974,0.005290889646857977,-0.01477046962827444,0.00960081908851862,-0.0002622661995701492,-0.00498634297400713
0.017214562743902206,0.005350220948457718,-0.014211529865860939,0.009398004040122032,-0.0002519322733860463,-0.005311728920787573
0.016852358356118202,0.005216721445322037,-0.013949660584330559,0.008982259780168533,-0.00027225696248933673,-0.005288023967295885
0.016163295134902,0.0052796960808336735,-0.013904844410717487,0.009035838767886162,-0.0002663079940248281,-0.004630866460502148
0.01679965853691101,0.005505065433681011,-0.013898978941142559,0.009184492751955986,-0.0003669817524496466,-0.004384217318147421
0.01662597805261612,0.005446362774819136,-0.013860133476555347,0.008518214337527752,-0.000434236106229946,-0.004639177117496729
0.01800033450126648,0.005152598489075899,-0.013567366637289524,0.00870385393500328,-0.00040214849286712706,-0.004764273297041655
0.017217636108398438,0.005724008660763502,-0.014147702604532242,0.009023230522871017,-0.0004332741955295205,-0.0053323861211538315
0.016956619918346405,0.0053819529712200165,-0.014069676399230957,0.008809920400381088,-0.00045928824692964554,-0.005658595822751522
0.017103472724556923,0.005834721494466066,-0.01390809752047062,0.00973629578948021,-0.00047012593131512403,-0.0048720622435212135
0.017107611522078514,0.005316589027643204,-0.014009648934006691,0.010064520873129368,-0.0005775634199380875,-0.005154949612915516
0.01716514304280281,0.005110820755362511,-0.014004671946167946,0.009356693364679813,-0.0005524875596165657,-0.00522312568500638
0.01731075718998909,0.004943792708218098,-0.014260985888540745,0.009658537805080414,-0.0005797248450107872,-0.005770681891590357
0.01763901300728321,0.005274432711303234,-0.013413301669061184,0.009777464903891087,-0.0005340476054698229,-0.005297251045703888
0.01778394542634487,0.005474739242345095,-0.014488738030195236,0.009443419054150581,-0.0005460409447550774,-0.005157839972525835
0.01785689778625965,0.005186190828680992,-0.014174261130392551,0.009751602075994015,-0.0005193989491090178,-0.005579800345003605
0.01803632266819477,0.004764596000313759,-0.014230282045900822,0.009481416083872318,-0.0005402233800850809,-0.005270950961858034
0.017547857016324997,0.004669973626732826,-0.01386016234755516,0.009306974709033966,-0.0005123497685417533,-0.005777583457529545
0.017547857016324997,0.004669973626732826,-0.01386016234755516,0.009306974709033966,-0.0005123497685417533,-0.005777583457529545
0.01795404590666294,0.005038352217525244,-0.014573442749679089,0.010374472476541996,-0.0005371645092964172,-0.005900660529732704
0.0180524792522192,0.005553470924496651,-0.013361687771975994,0.0098912063986063,-0.0005557247786782682,-0.005661757197231054
0.01801256835460663,0.005338145419955254,-0.01421681884676218,0.009337381459772587,-0.0005238819867372513,-0.005124408286064863
0.017909415066242218,0.005286949686706066,-0.013692713342607021,0.010345812886953354,-0.000478830625070259,-0.005306282080709934
0.017644010484218597,0.005387096665799618,-0.014304031617939472,0.010075758211314678,-0.0005079819238744676,-0.005240387283265591
0.018010661005973816,0.005162002984434366,-0.013983221724629402,0.009895101189613342,-0.00047417249879799783,-0.005868172738701105
0.018323199823498726,0.005278525408357382,-0.01463577151298523,0.010232316330075264,-0.00049984036013484,-0.005813180934637785
0.01765153743326664,0.005096656270325184,-0.01378510519862175,0.01050824485719204,-0.00047264990280382335,-0.005911465734243393
0.018221667036414146,0.0059542167000472546,-0.014265780337154865,0.010941080749034882,-0.0005015521892346442,-0.005621302407234907
0.01807599887251854,0.005371792707592249,-0.013944773003458977,0.010600000619888306,-0.0005406998097896576,-0.005631685256958008
0.0182170607149601,0.0048490469343960285,-0.014549486339092255,0.009923726320266724,-0.0004967927234247327,-0.0053315237164497375
0.018101846799254417,0.004779894836246967,-0.013980347663164139,0.01039725262671709,-0.0004919383209198713,-0.005820062011480331
0.017757343128323555,0.005169625859707594,-0.014505608007311821,0.010171816684305668,-0.00048726366367191076,-0.005833779461681843
0.018496401607990265,0.004959329031407833,-0.01423829048871994,0.009828111156821251,-0.0004542940587271005,-0.006366047542542219
0.01844807155430317,0.005424592178314924,-0.014642702415585518,0.010427921079099178,-0.0004801665781997144,-0.005967709701508284
0.017995910719037056,0.0051350900903344154,-0.014170115813612938,0.010320406407117844,-0.000455831759609282,-0.005923098884522915
0.017972780391573906,0.004430871456861496,-0.01480577327311039,0.009924604557454586,-0.0005013333866372705,-0.006139417178928852
0.019506290555000305,0.004329061135649681,-0.014588003978133202,0.010382846929132938,-0.0005353944725356996,-0.006388474255800247
0.018633173778653145,0.004486073274165392,-0.014502079226076603,0.010641105473041534,-0.0004971490707248449,-0.006566832773387432
0.01861395873129368,0.004613332450389862,-0.01400577463209629,0.011065609753131866,-0.0005213705007918179,-0.006328236777335405
0.01880604587495327,0.00470571406185627,-0.014230548404157162,0.010418263264000416,-0.0005153878009878099,-0.006196148227900267
0.019128408282995224,0.0045652552507817745,-0.014609595760703087,0.009856616146862507,-0.0005611241795122623,-0.006990620866417885
0.018740376457571983,0.004568205215036869,-0.014264460653066635,0.01036051008850336,-0.0005645138444378972,-0.0073570990934967995
0.018903009593486786,0.004662348888814449,-0.014741265214979649,0.010874368250370026,-0.0005796565674245358,-0.0070725856348872185
0.01936369575560093,0.004528384190052748,-0.01415832806378603,0.011271042749285698,-0.000544130161870271,-0.00701708672568202
0.01973903179168701,0.004859396256506443,-0.014973048120737076,0.010587726719677448,-0.0004956364864483476,-0.006830177735537291
0.01973903179168701,0.004859396256506443,-0.014973048120737076,0.010587726719677448,-0.0004956364864483476,-0.006830177735537291
0.019343627616763115,0.005354618653655052,-0.014459341764450073,0.01008883211761713,-0.0005192519165575504,-0.007332890294492245
0.020111745223402977,0.0048800078220665455,-0.014815774746239185,0.010773761197924614,-0.00048789684660732746,-0.007611603941768408
0.019366465508937836,0.004436612594872713,-0.0143114123493433,0.01082574762403965,-0.0005092700594104826,-0.0067617702297866344
0.018417108803987503,0.00439993804320693,-0.015018841251730919,0.009842992760241032,-0.0004827710799872875,-0.005820418708026409
0.01987881027162075,0.004614876117557287,-0.014344537630677223,0.01039990782737732,-0.00045288997353054583,-0.0059115709736943245
0.01971331611275673,0.004706453997641802,-0.015181321650743484,0.010176906362175941,-0.0004261057183612138,-0.006415658630430698
0.0195392444729805,0.005218823440372944,-0.014301798306405544,0.009768180549144745,-0.00040228970465250313,-0.006702889688313007
0.01975267566740513,0.004930178169161081,-0.01512316707521677,0.01055285707116127,-0.00037089205579832196,-0.006604226306080818
0.019782761111855507,0.004680677782744169,-0.014396710321307182,0.010386462323367596,-0.0003421891597099602,-0.006463463418185711
0.019842561334371567,0.004412747919559479,-0.01475278940051794,0.010162378661334515,-0.0003179617633577436,-0.0064372592605650425
0.020509634166955948,0.0045431237667799,-0.014425304718315601,0.010176271200180054,-0.00035220340942032635,-0.00651942053809762
0.0204633716493845,0.004471870139241219,-0.015165489166975021,0.010511495172977448,-0.00033401206019334495,-0.007006147876381874
0.020158417522907257,0.004977868869900703,-0.015272838994860649,0.010344373062252998,-0.00031476948061026633,-0.006697399076074362
0.020272519439458847,0.004860357381403446,-0.01510956697165966,0.010840321891009808,-0.0002974392846226692,-0.0070558516308665276
0.02001548372209072,0.004444892518222332,-0.01438837219029665,0.010379821993410587,-0.00028190654120408,-0.006782295182347298
0.020589811727404594,0.004435958806425333,-0.015140550211071968,0.010309609584510326,-0.000267915049334988,-0.0069232177920639515
0.020948030054569244,0.004504455719143152,-0.014943184331059456,0.009794986806809902,-0.0002841547830030322,-0.006991195026785135
0.021018875762820244,0.004631225485354662,-0.015196472406387329,0.009943097829818726,-0.00027205049991607666,-0.007269900757819414
0.02083301544189453,0.0047960439696908,-0.015515381470322609,0.010297123342752457,-0.0002607969508972019,-0.007461171131581068
0.02080393396317959,0.005104521289467812,-0.015879465267062187,0.010432944633066654,-0.00025042903143912554,-0.0073122684843838215
0.0212996918708086,0.004502164665609598,-0.0157322958111763,0.010702970437705517,-0.0002729246625676751,-0.007285517640411854
0.0212996918708086,0.004502164665609598,-0.0157322958111763,0.010702970437705517,-0.0002729246625676751,-0.007285517640411854
0.021187731996178627,0.004513579420745373,-0.01591605320572853,0.01083044521510601,-0.00026497081853449345,-0.007036526687443256
0.02090427838265896,0.004498146940022707,-0.015306132845580578,0.010798344388604164,-0.00025605756673030555,-0.006927058100700378
0.02099229395389557,0.004727312363684177,-0.01628704182803631,0.01046410296112299,-0.00025330542121082544,-0.0073140156455338
0.02093077264726162,0.004843027330935001,-0.015824992209672928,0.010655750520527363,-0.00024052530352491885,-0.007440210785716772
0.02018413506448269,0.004776095040142536,-0.016609415411949158,0.010301188565790653,-0.00022836486459709704,-0.008068252354860306
0.021914344280958176,0.004443297162652016,-0.016080910339951515,0.010742236860096455,-0.0002549760101828724,-0.007799455430358648
0.021924074739217758,0.004203143063932657,-0.0163196362555027,0.01025180984288454,-0.00024840323021635413,-0.007513664197176695
0.021685222163796425,0.00443305866792798,-0.01665853150188923,0.010119438171386719,-0.00023779940966051072,-0.007981262169778347
0.021863799542188644,0.004698632750660181,-0.016184953972697258,0.01057490985840559,-0.00026068821898661554,-0.008338202722370625
0.021487729623913765,0.004431067034602165,-0.016912532970309258,0.00998765416443348,-0.0002724879013840109,-0.008844875730574131
0.02176538109779358,0.0045520104467868805,-0.016126805916428566,0.010585810989141464,-0.0002788483980111778,-0.008566519245505333
0.02214951626956463,0.004527827724814415,-0.016645394265651703,0.01106894388794899,-0.0003584120131563395,-0.008131759241223335
0.021969713270664215,0.004681550431996584,-0.01666582003235817,0.011710199527442455,-0.000409670639783144,-0.008156673051416874
0.022078873589634895,0.004732117988169193,-0.01664961874485016,0.012251262553036213,-0.00044619335676543415,-0.008673915639519691
0.022714033722877502,0.004430314525961876,-0.01672932133078575,0.011974422261118889,-0.00042070812196470797,-0.008595284074544907
0.022767340764403343,0.004503925796598196,-0.016302525997161865,0.011873028241097927,-0.00043871832895092666,-0.008715786971151829
0.02239895425736904,0.004401773680001497,-0.01683308370411396,0.011744260787963867,-0.00042410724563524127,-0.009351605549454689
0.02250240556895733,0.004860359709709883,-0.01640111580491066,0.01193842664361,-0.00039826237480156124,-0.008634007535874844
0.022532831877470016,0.004808634985238314,-0.016801094636321068,0.01185047347098589,-0.0004140542878303677,-0.008777623996138573
0.022511934861540794,0.004419870674610138,-0.016797835007309914,0.011590910144150257,-0.00040319215622730553,-0.008906723000109196
0.022785039618611336,0.004439073149114847,-0.01636578142642975,0.012015078216791153,-0.0004632812924683094,-0.008434589952230453
0.02272118255496025,0.004446372389793396,-0.016740921884775162,0.01220100186765194,-0.00048227826482616365,-0.008961952291429043
0.02301570028066635,0.004666983615607023,-0.01766306161880493,0.012106949463486671,-0.00048343828530050814,-0.009408349171280861
0.023236015811562538,0.0048104338347911835,-0.016833050176501274,0.011774690821766853,-0.00047978994552977383,-0.009075651876628399
0.023376887664198875,0.004748265724629164,-0.01674247346818447,0.012377563863992691,-0.0005031040636822581,-0.010061901062726974
0.023686688393354416,0.004308243747800589,-0.017189742997288704,0.012055033817887306,-0.00047741085290908813,-0.009335678070783615
0.023577019572257996,0.0042914836667478085,-0.016575057059526443,0.011969495564699173,-0.0005610622465610504,-0.009638266637921333
0.02363540232181549,0.004736854694783688,-0.01689913682639599,0.012028421275317669,-0.0005335362511686981,-0.009317089803516865
0.02363540232181549,0.004736854694783688,-0.01689913682639599,0.012028421275317669,-0.0005335362511686981,-0.009317089803516865
0.023704897612333298,0.004751109052449465,-0.016952278092503548,0.011839888989925385,-0.0005680794711224735,-0.009481936693191528
0.02387276664376259,0.004356538876891136,-0.016889669001102448,0.012194561772048473,-0.0005193576798774302,-0.00986787024885416
0.02443581260740757,0.00456212880089879,-0.016887851059436798,0.01160326600074768,-0.0005319963674992323,-0.010266859084367752
0.02516103908419609,0.00441886018961668,-0.017083005979657173,0.012021128088235855,-0.000507080927491188,-0.010008309036493301
0.02495601400732994,0.0047775027342140675,-0.017184436321258545,0.012208162806928158,-0.0004703696758951992,-0.009944607503712177
0.02431045100092888,0.004784883465617895,-0.01608460582792759,0.012464417144656181,-0.0004958863719366491,-0.010697895660996437
0.02164691500365734,0.004364642780274153,-0.016845181584358215,0.012042980641126633,-0.0004683067090809345,-0.010333377867937088
0.024482080712914467,0.004490284249186516,-0.017019804567098618,0.011575897224247456,-0.00047715503023937345,-0.010089573450386524
0.025062188506126404,0.004626234993338585,-0.01674940064549446,0.012157965451478958,-0.00043484847992658615,-0.010357153601944447
0.02462148107588291,0.004688099958002567,-0.016908273100852966,0.011676580645143986,-0.00043504295172169805,-0.010002573020756245
0.02406660094857216,0.004534600302577019,-0.01639341190457344,0.01155168004333973,-0.0004347980720922351,-0.009768861345946789
0.024587292224168777,0.004324167501181364,-0.017120517790317535,0.012022684328258038,-0.0004371816758066416,-0.010119856335222721
0.024588754400610924,0.0045343851670622826,-0.016834212467074394,0.011933987960219383,-0.00043689407175406814,-0.010346846655011177
0.02477581426501274,0.004611295182257891,-0.01696624606847763,0.012255380861461163,-0.00041038787458091974,-0.010240014642477036
0.024283627048134804,0.00466825719922781,-0.017320575192570686,0.012063432484865189,-0.00043300274410285056,-0.010479058139026165
0.02375151589512825,0.00478840246796608,-0.017040247097611427,0.012391656637191772,-0.000414575741160661,-0.010585320182144642
0.02452799677848816,0.00481191324070096,-0.017250603064894676,0.012571682222187519,-0.0003923996991943568,-0.010367742739617825
0.024997174739837646,0.004324259236454964,-0.01677640527486801,0.012282860465347767,-0.0004094109172001481,-0.010691341012716293
0.024666832759976387,0.004360289312899113,-0.017069416120648384,0.012520715594291687,-0.00038122976548038423,-0.01066183764487505
0.024470070376992226,0.004603193141520023,-0.017142005264759064,0.012252486310899258,-0.00041721275192685425,-0.010806906037032604
0.025077570229768753,0.0045616962015628815,-0.01670408621430397,0.012380996719002724,-0.0003912599349860102,-0.011020959354937077
0.02473648078739643,0.004650873132050037,-0.01673176698386669,0.012564796023070812,-0.000440626812633127,-0.010667627677321434
0.024984365329146385,0.004334179684519768,-0.017065849155187607,0.012541485019028187,-0.0004277801781427115,-0.010771836154162884
0.02518489770591259,0.004396029748022556,-0.016711480915546417,0.012947268784046173,-0.0004046050598844886,-0.011086027137935162
0.025095852091908455,0.004565667361021042,-0.01721426472067833,0.012897382490336895,-0.00044798842282034457,-0.011054212227463722
0.02467489428818226,0.00490195257589221,-0.01777976006269455,0.01267804205417633,-0.0004636082740034908,-0.010872694663703442
0.02488870732486248,0.004784062970429659,-0.016598407179117203,0.012639099732041359,-0.0005026889266446233,-0.011320791207253933
0.025126898661255836,0.004788573365658522,-0.017189085483551025,0.012267445214092731,-0.0005022597033530474,-0.011065968312323093
0.025529207661747932,0.0047346060164272785,-0.016721263527870178,0.012716404162347317,-0.0004970167065039277,-0.010731017217040062
0.025529207661747932,0.0047346060164272785,-0.016721263527870178,0.012716404162347317,-0.0004970167065039277,-0.010731017217040062
0.025533180683851242,0.00422660494223237,-0.017435789108276367,0.012779993936419487,-0.0004948116256855428,-0.011151129379868507
0.02525671012699604,0.00442552100867033,-0.017672652378678322,0.01262616366147995,-0.0004905755631625652,-0.011308601126074791
0.025480270385742188,0.004524393938481808,-0.01698307693004608,0.012737705372273922,-0.000576755846850574,-0.010949907824397087
0.025365430861711502,0.004686529748141766,-0.017298560589551926,0.012777439318597317,-0.0005471714539453387,-0.010880708694458008
0.025437135249376297,0.004764907993376255,-0.01792185567319393,0.013427486643195152,-0.0005810352158732712,-0.01083582453429699
0.024430187419056892,0.004750588443130255,-0.01777607575058937,0.012671670876443386,-0.0005300506600178778,-0.011615670286118984
0.025743884965777397,0.004239970352500677,-0.01811995543539524,0.012957443483173847,-0.0005419512162916362,-0.011301661841571331
0.02625088579952717,0.004211411811411381,-0.017296185716986656,0.012681831605732441,-0.0005157996201887727,-0.011124283075332642
0.026796463876962662,0.004049007780849934,-0.017565300688147545,0.013066527433693409,-0.0005367665435187519,-0.011466726660728455
0.02631012722849846,0.004343884531408548,-0.017605967819690704,0.012908666394650936,-0.0005070528131909668,-0.01132976170629263
0.025305988267064095,0.005003492347896099,-0.017308171838521957,0.013031000271439552,-0.0005230021197348833,-0.011064779944717884
0.025848008692264557,0.004901023581624031,-0.018145641312003136,0.01302796509116888,-0.0005317733739502728,-0.01085969340056181
0.02569730393588543,0.004857787396758795,-0.017734909430146217,0.012822163291275501,-0.0005233787815086544,-0.011443454772233963
0.02663068100810051,0.0043150633573532104,-0.01762244664132595,0.013357534073293209,-0.0005183002795092762,-0.011455132625997066
0.026021163910627365,0.003966181073337793,-0.018020574003458023,0.013147729448974133,-0.0005114285741001368,-0.01098293624818325
0.02597792074084282,0.004399176687002182,-0.017814690247178078,0.013291594572365284,-0.0005337445181794465,-0.01115249190479517
0.026826336979866028,0.004758524242788553,-0.018575424328446388,0.01277696993201971,-0.0005065673612989485,-0.011547816917300224
0.02678285725414753,0.004781163763254881,-0.01764904148876667,0.01325334794819355,-0.0006297658546827734,-0.011352840811014175
0.02625076286494732,0.004207876976579428,-0.018497740849852562,0.013726379722356796,-0.0005757272010669112,-0.010944429785013199
0.026265738531947136,0.004449541214853525,-0.01759653352200985,0.012773965485394001,-0.0005957135581411421,-0.011137577705085278
0.026879804208874702,0.004557779058814049,-0.017692090943455696,0.012973630800843239,-0.0005535315722227097,-0.011574357748031616
0.026852207258343697,0.004365383181720972,-0.018139095976948738,0.013035736046731472,-0.0005721695488318801,-0.011098163202404976
0.027124036103487015,0.004396576434373856,-0.018095199018716812,0.01311053242534399,-0.000590356532484293,-0.010853257961571217
0.027149731293320656,0.004574870225042105,-0.018408378586173058,0.013062851503491402,-0.0005690313992090523,-0.011259810999035835
0.02723735198378563,0.00474350294098258,-0.01799388974905014,0.012806767597794533,-0.0005823311512358487,-0.011262658052146435
0.02655973844230175,0.004706861916929483,-0.018058061599731445,0.013415936380624771,-0.0005902607808820903,-0.011310839094221592
0.02655973844230175,0.004706861916929483,-0.018058061599731445,0.013415936380624771,-0.0005902607808820903,-0.011310839094221592
0.026683226227760315,0.0044088419526815414,-0.018412450328469276,0.013470414094626904,-0.0005772590520791709,-0.011497756466269493
0.027227075770497322,0.00408875523135066,-0.018062030896544456,0.014403043314814568,-0.0005312402499839664,-0.01157533098012209
0.02752547711133957,0.003898253431543708,-0.01832224614918232,0.014426789246499538,-0.0005551083013415337,-0.011769493110477924
0.027246857061982155,0.004363120999187231,-0.018518146127462387,0.014857049100100994,-0.0005194487748667598,-0.01130420621484518
0.027618370950222015,0.004842505790293217,-0.01781456358730793,0.01431332528591156,-0.0005487797898240387,-0.011448603123426437
0.027575600892305374,0.0048127504996955395,-0.018413517624139786,0.014652528800070286,-0.0005795630859211087,-0.011120879091322422
0.02798810414969921,0.004479994997382164,-0.018677854910492897,0.014093901962041855,-0.0005770409479737282,-0.011045221239328384
0.027931520715355873,0.004279679618775845,-0.017914319410920143,0.014753478579223156,-0.0005647994694299996,-0.011762001551687717
0.027284210547804832,0.00443796394392848,-0.018265292048454285,0.014043621718883514,-0.0005848357104696333,-0.011346157640218735
0.028350912034511566,0.004531166981905699,-0.018258150666952133,0.01404377818107605,-0.0007120324298739433,-0.011612610891461372
0.02820623479783535,0.004331566393375397,-0.018009988591074944,0.013281891122460365,-0.0007607079460285604,-0.011772717349231243
0.028224483132362366,0.0046163396909832954,-0.018588734790682793,0.013943159952759743,-0.0006956415018066764,-0.011823710985481739
0.027940617874264717,0.004707579035311937,-0.01795066148042679,0.013396993279457092,-0.0007065136451274157,-0.01194365881383419
0.028397707268595695,0.004720078781247139,-0.01812075823545456,0.013627824373543262,-0.0006905485643073916,-0.011501135304570198
0.028792578727006912,0.004196573048830032,-0.018182408064603806,0.013207493349909782,-0.0006673256284557283,-0.011233958415687084
0.028689080849289894,0.004435168579220772,-0.01795225962996483,0.013586561195552349,-0.0006884770118631423,-0.011661821976304054
0.02866998128592968,0.004170355387032032,-0.018188059329986572,0.01346082054078579,-0.0006682176608592272,-0.011734453029930592
0.02902154251933098,0.004408350680023432,-0.017970439046621323,0.014019602909684181,-0.000641294289380312,-0.011901947669684887
0.029165707528591156,0.004954748786985874,-0.018434854224324226,0.014995545148849487,-0.0006043347530066967,-0.012211557477712631
0.029032431542873383,0.0044512092135846615,-0.01825832389295101,0.014734060503542423,-0.000622095656581223,-0.011950541287660599
0.029239248484373093,0.003993777558207512,-0.01838597282767296,0.014922340400516987,-0.0006283896509557962,-0.012089847587049007
0.029410511255264282,0.004334695637226105,-0.018746457993984222,0.014328869991004467,-0.0006834252271801233,-0.012235310859978199
0.029035847634077072,0.004425537306815386,-0.018027717247605324,0.0147957568988204,-0.0006838463596068323,-0.011953546665608883
0.028868554159998894,0.0047159502282738686,-0.01833634078502655,0.014399384148418903,-0.0006594894221052527,-0.0120284678414464
0.029575597494840622,0.004806820303201675,-0.018716750666499138,0.014444192871451378,-0.0006735292263329029,-0.011760031804442406
0.030138473957777023,0.0048659429885447025,-0.0183846578001976,0.014068243093788624,-0.0006280156085267663,-0.012224053032696247
0.030229441821575165,0.0045130071230232716,-0.01935659907758236,0.014425051398575306,-0.0007340682786889374,-0.01215419452637434
0.028741609305143356,0.004322998225688934,-0.019300952553749084,0.014412929303944111,-0.0007529847207479179,-0.01203109696507454
0.029419492930173874,0.004450255073606968,-0.01850627176463604,0.014795729890465736,-0.0007283524028025568,-0.011948028579354286
0.030352795496582985,0.00454815523698926,-0.018602604046463966,0.01433557365089655,-0.0006966524524614215,-0.011468433775007725
0.030352795496582985,0.00454815523698926,-0.018602604046463966,0.01433557365089655,-0.0006966524524614215,-0.011468433775007725
0.02943185344338417,0.00466333469375968,-0.018677422776818275,0.014422545209527016,-0.0006734501803293824,-0.011589430272579193
0.03032556362450123,0.0047182366251945496,-0.019247671589255333,0.014008057303726673,-0.0006517358706332743,-0.011440691538155079
0.03103375993669033,0.004733444657176733,-0.019653920084238052,0.014181040227413177,-0.0005999604472890496,-0.012154655531048775
0.029925672337412834,0.004733170382678509,-0.01945384405553341,0.014032911509275436,-0.0005660232855007052,-0.012215103022754192
0.02983109839260578,0.004764148499816656,-0.018551260232925415,0.014528114348649979,-0.0005087990430183709,-0.012094023637473583
0.02990027703344822,0.004321347922086716,-0.01960548758506775,0.014190439134836197,-0.0005361441290006042,-0.01215869840234518
0.030882200226187706,0.00433026859536767,-0.01993464305996895,0.014511648565530777,-0.0004974143812432885,-0.011977422051131725
0.031142093241214752,0.004605668596923351,-0.019328251481056213,0.014504057355225086,-0.0005266598309390247,-0.012114172801375389
0.028891539201140404,0.00466474425047636,-0.018940027803182602,0.01497858390212059,-0.0004902969812974334,-0.01210662629455328
0.03142291307449341,0.0046934448182582855,-0.01951148547232151,0.01439303532242775,-0.0004866965755354613,-0.011788892559707165
0.03117382898926735,0.004271088633686304,-0.019287437200546265,0.014547117985785007,-0.0004829402023460716,-0.011940051801502705
0.0305340476334095,0.004162940662354231,-0.01860770583152771,0.014197800308465958,-0.000520227593369782,-0.011730441823601723
0.030483359470963478,0.004171810578554869,-0.01878100074827671,0.014566645957529545,-0.0005222858744673431,-0.012267827056348324
0.030852019786834717,0.004487946629524231,-0.019092725589871407,0.014336064457893372,-0.0005144744645804167,-0.012352735735476017
0.03051791340112686,0.004686507396399975,-0.019789239391684532,0.014790750108659267,-0.0005298962350934744,-0.011997121386229992
0.030945733189582825,0.0042947945185005665,-0.018941586837172508,0.01524436566978693,-0.0005367965204641223,-0.012281978502869606
0.031060757115483284,0.0043241167441010475,-0.019464591518044472,0.01497224997729063,-0.0006561595946550369,-0.01255175843834877
0.030640538781881332,0.0045832679606974125,-0.019563879817724228,0.015000598505139351,-0.0006398083060048521,-0.012474148534238338
0.030765779316425323,0.004613503813743591,-0.019084567204117775,0.014889108017086983,-0.0006170466658659279,-0.012603330425918102
0.03094526007771492,0.004677523393183947,-0.019692152738571167,0.015252095647156239,-0.0006244757096283138,-0.01267215982079506
0.031959645450115204,0.004422403872013092,-0.019921444356441498,0.014770859852433205,-0.0006488518556579947,-0.011574300937354565
0.032460086047649384,0.0043796394020318985,-0.0191219300031662,0.015207205899059772,-0.0006171305431053042,-0.013017640449106693
0.030464060604572296,0.00465575372800231,-0.01961122453212738,0.014661644585430622,-0.0006484879413619637,-0.013080478645861149
0.03058856539428234,0.004794244654476643,-0.019767742604017258,0.015029732137918472,-0.0006798856193199754,-0.012918312102556229
0.03209562227129936,0.004234733525663614,-0.018853038549423218,0.014748772606253624,-0.0007047184044495225,-0.012810410000383854
0.03125070407986641,0.004351524636149406,-0.019409967586398125,0.015226165764033794,-0.0007245418382808566,-0.012622821144759655
0.03125070407986641,0.004351524636149406,-0.019409967586398125,0.015226165764033794,-0.0007245418382808566,-0.012622821144759655
0.031083395704627037,0.004505453165620565,-0.019915802404284477,0.015671884641051292,-0.0008801180520094931,-0.012438284233212471
0.03210955858230591,0.004741605371236801,-0.019534355029463768,0.015855861827731133,-0.0008975698729045689,-0.012784088030457497
0.032071955502033234,0.004762626718729734,-0.01985720545053482,0.015783244743943214,-0.0007865335792303085,-0.012988194823265076
0.031083591282367706,0.004715268965810537,-0.019902333617210388,0.015714097768068314,-0.0007934609311632812,-0.013024427928030491
0.030904704704880714,0.004615978803485632,-0.019073698669672012,0.015448542311787605,-0.0007980813970789313,-0.013454425148665905
0.03240954130887985,0.004701611585915089,-0.01962536759674549,0.014780736528337002,-0.0007651031482964754,-0.013039722107350826
0.03222821652889252,0.004771563224494457,-0.01993095688521862,0.01535086426883936,-0.0007333601242862642,-0.012889360077679157
0.03156821057200432,0.004961234051734209,-0.019351541996002197,0.015368382446467876,-0.0006959284655749798,-0.01327607687562704
0.03197657689452171,0.00481259822845459,-0.019280582666397095,0.015978148207068443,-0.0006950059323571622,-0.013686886988580227
0.03183240070939064,0.00470301229506731,-0.019751103594899178,0.015666430816054344,-0.0006914358818903565,-0.013674180954694748
0.03189169615507126,0.004646168556064367,-0.019484253600239754,0.016003509983420372,-0.0006698989891447127,-0.014026627875864506
0.03143097087740898,0.004684490151703358,-0.019406016916036606,0.016008634120225906,-0.0006985109648667276,-0.013785588555037975
0.031825438141822815,0.0046961549669504166,-0.01975909247994423,0.016273263841867447,-0.0007170091266743839,-0.013814043253660202
0.03203368932008743,0.005177919752895832,-0.019763672724366188,0.01548223476856947,-0.000745681521948427,-0.013235552236437798
0.032237809151411057,0.004534225445240736,-0.01971248909831047,0.015506484545767307,-0.0007436457672156394,-0.013400940224528313
0.03216397389769554,0.004507983569055796,-0.019964342936873436,0.01536116749048233,-0.0008012591279111803,-0.013242000713944435
0.03242890536785126,0.004592518322169781,-0.020013127475976944,0.015026786364614964,-0.0008463459671474993,-0.0133005790412426
0.03222815692424774,0.004889561329036951,-0.019830841571092606,0.01549014262855053,-0.0007948114071041346,-0.013729735277593136
0.03253040835261345,0.004502258263528347,-0.020015457645058632,0.016156738623976707,-0.0007670721388421953,-0.013622579164803028
0.03228484466671944,0.004572858102619648,-0.019453978165984154,0.015790807083249092,-0.000733786728233099,-0.01380855031311512
0.031711142510175705,0.004451684653759003,-0.02017565257847309,0.01623488962650299,-0.0007189968600869179,-0.01378888450562954
0.032939158380031586,0.004490653984248638,-0.020232217386364937,0.01631908118724823,-0.0007003032369539142,-0.013533584773540497
0.033522702753543854,0.004813312087208033,-0.0200959462672472,0.01646696776151657,-0.0006687436834909022,-0.013971996493637562
0.033211600035429,0.004895429592579603,-0.020407957956194878,0.016098326072096825,-0.0006838694680482149,-0.01380551140755415
0.032839689403772354,0.005094882100820541,-0.02032698504626751,0.016176100820302963,-0.0006707359571009874,-0.013853127136826515
0.032839689403772354,0.005094882100820541,-0.02032698504626751,0.016176100820302963,-0.0006707359571009874,-0.013853127136826515
0.03291349485516548,0.0049284291453659534,-0.0202155914157629,0.016094457358121872,-0.0006499036680907011,-0.014057702384889126
0.033244434744119644,0.004586073569953442,-0.020282169803977013,0.01566772162914276,-0.0006002816371619701,-0.01424209214746952
0.03345312550663948,0.00468146288767457,-0.02080041542649269,0.015983181074261665,-0.0006115464493632317,-0.014125924557447433
0.03390756621956825,0.004979806486517191,-0.020915204659104347,0.015552022494375706,-0.0006370387854985893,-0.014217962510883808
0.03357938677072525,0.004884327761828899,-0.019984716549515724,0.015830202028155327,-0.0006280169473029673,-0.014096684753894806
0.0335201732814312,0.004602659959346056,-0.020182400941848755,0.01541806198656559,-0.0006098944577388465,-0.014185598120093346
0.03361235558986664,0.00470559298992157,-0.020647672936320305,0.015688205137848854,-0.0006273502367548645,-0.014003593474626541
0.03372298926115036,0.004602983593940735,-0.020731741562485695,0.0159060750156641,-0.0005858027143403888,-0.014245531521737576
0.035335395485162735,0.004568326752632856,-0.020909780636429787,0.015972010791301727,-0.0006404831074178219,-0.014715003781020641
0.034987498074769974,0.004434490576386452,-0.020611057057976723,0.015938440337777138,-0.0006592541467398405,-0.01494360901415348
0.033181797713041306,0.0047545889392495155,-0.021289721131324768,0.015677938237786293,-0.0006602263310924172,-0.01448880136013031
0.03293794393539429,0.004786669742316008,-0.020932694897055626,0.01608428545296192,-0.0006388613255694509,-0.014629564248025417
0.034516505897045135,0.004422478377819061,-0.02133556827902794,0.01543010026216507,-0.000654420058708638,-0.014463318511843681
0.03441448137164116,0.004547242075204849,-0.021210867911577225,0.015806585550308228,-0.0006089640082791448,-0.014645280316472054
0.036046117544174194,0.004487104248255491,-0.02121923491358757,0.01507924310863018,-0.000562039203941822,-0.014782542362809181
0.034427039325237274,0.004303978756070137,-0.02239139750599861,0.016149677336215973,-0.0006074437987990677,-0.014933000318706036
0.03320400416851044,0.004531952552497387,-0.020616630092263222,0.01671036146581173,-0.0006374275544658303,-0.014680312015116215
0.03530982509255409,0.004643487278372049,-0.02115378901362419,0.01686093397438526,-0.000630091642960906,-0.014235350303351879
0.03593014180660248,0.004552244208753109,-0.021200865507125854,0.016604524105787277,-0.0006139006000012159,-0.014647230505943298
0.03593014180660248,0.004552244208753109,-0.021200865507125854,0.016604524105787277,-0.0006139006000012159,-0.014647230505943298
0.035367995500564575,0.004781694617122412,-0.02099476382136345,0.017576325684785843,-0.0005679070600308478,-0.014819268137216568
0.03511395305395126,0.004299152176827192,-0.02156040258705616,0.017002390697598457,-0.0006329069728963077,-0.01646890677511692
0.03524179384112358,0.0045078289695084095,-0.021339520812034607,0.01699398085474968,-0.0006450194050557911,-0.014585629105567932
0.03536692634224892,0.004212201107293367,-0.02117443084716797,0.016734924167394638,-0.0006231397856026888,-0.014558151364326477
0.03554519638419151,0.004447736777365208,-0.02095351740717888,0.01660393737256527,-0.000606730580329895,-0.014728817157447338
0.0350823700428009,0.004420827608555555,-0.021115023642778397,0.016927095130085945,-0.0005905601428821683,-0.015175217762589455
0.034947365522384644,0.004761131014674902,-0.02097470499575138,0.01639520563185215,-0.0006091511459089816,-0.01500192005187273
0.03541845455765724,0.004320678301155567,-0.02113226056098938,0.017065640538930893,-0.0005701409536413848,-0.014993086457252502
0.03519844636321068,0.004460667725652456,-0.021810010075569153,0.017057232558727264,-0.0006041975575499237,-0.015223758295178413
0.03554370999336243,0.00451546860858798,-0.021519510075449944,0.017185145989060402,-0.0006238743662834167,-0.015477927401661873
0.0362108051776886,0.004375769756734371,-0.020456066355109215,0.017361674457788467,-0.0006284650880843401,-0.015741199254989624
0.035701241344213486,0.004267812240868807,-0.021198660135269165,0.01714152842760086,-0.0006533587002195418,-0.015704629942774773
0.034617625176906586,0.004832664970308542,-0.02137058973312378,0.017125878483057022,-0.000636609154753387,-0.015936076641082764
0.03578866645693779,0.004837863612920046,-0.021481012925505638,0.01678217202425003,-0.0007616651710122824,-0.015912579372525215
0.03515404462814331,0.004843681585043669,-0.021307935938239098,0.017229415476322174,-0.0007922051008790731,-0.016119377687573433
0.03593219071626663,0.0043254513293504715,-0.021321183070540428,0.01729445904493332,-0.0007059830822981894,-0.015753766521811485
0.03740312531590462,0.0041726031340658665,-0.02141149900853634,0.017067858949303627,-0.000721741293091327,-0.015801934525370598
0.03547542914748192,0.003850116627290845,-0.021066462621092796,0.017738843336701393,-0.0006531888502649963,-0.015876520425081253
0.034229278564453125,0.0034928126260638237,-0.0208700243383646,0.017438216134905815,-0.0006649623974226415,-0.01602521352469921
0.03587140515446663,0.0035670697689056396,-0.021380718797445297,0.017577653750777245,-0.0006177794421091676,-0.015840180218219757
0.036475807428359985,0.003949083387851715,-0.02161771059036255,0.017545420676469803,-0.0005826083943247795,-0.015931755304336548
0.035834670066833496,0.003543575992807746,-0.02133340947329998,0.019027946516871452,-0.0005585968028753996,-0.016065241768956184
0.03591598942875862,0.0035353151615709066,-0.02144433744251728,0.018967902287840843,-0.0005876104114577174,-0.016069212928414345
0.0364345908164978,0.0037389013450592756,-0.021245310083031654,0.01818566583096981,-0.0005797851481474936,-0.015660839155316353
0.03639807179570198,0.003838589880615473,-0.02119416929781437,0.017956333234906197,-0.0005705328076146543,-0.016009991988539696
0.03644639253616333,0.003819580189883709,-0.021570445969700813,0.017404863610863686,-0.0007530947914347053,-0.01591155119240284
0.03644639253616333,0.003819580189883709,-0.021570445969700813,0.017404863610863686,-0.0007530947914347053,-0.01591155119240284
0.03604089468717575,0.0038166202139109373,-0.022289177402853966,0.01729610376060009,-0.0007239306578412652,-0.016061458736658096
0.03618606552481651,0.004124555271118879,-0.021885471418499947,0.01717316173017025,-0.0007343204924836755,-0.016411641612648964
0.036392033100128174,0.004146511200815439,-0.021079542115330696,0.017315924167633057,-0.0007512582815252244,-0.016559991985559464
0.036784522235393524,0.0038354923017323017,-0.020676162093877792,0.017793288454413414,-0.0008533921791240573,-0.01668049767613411
0.03665846213698387,0.003644353011623025,-0.021534819155931473,0.01740729808807373,-0.0008412845199927688,-0.016097571700811386
0.036934953182935715,0.0036440936382859945,-0.0221367496997118,0.017540669068694115,-0.000786030781455338,-0.01595442183315754
0.03740868717432022,0.004285487812012434,-0.021837446838617325,0.017833448946475983,-0.0006898370338603854,-0.01613340899348259
0.03686501830816269,0.004136108793318272,-0.021362634375691414,0.017519189044833183,-0.0006861424189992249,-0.01616774871945381
0.03693298622965813,0.004009527154266834,-0.021720388904213905,0.018050801008939743,-0.0006392316427081823,-0.016101345419883728
0.03702719882130623,0.0043326024897396564,-0.02239426225423813,0.018024098128080368,-0.0006424812600016594,-0.01626701094210148
0.037059467285871506,0.0042685242369771,-0.022140512242913246,0.017428025603294373,-0.0006071425159461796,-0.016333799809217453
0.037401165813207626,0.004084522370249033,-0.02134993113577366,0.01730596274137497,-0.0005463329143822193,-0.016091803088784218
0.03713381290435791,0.004011578857898712,-0.022147737443447113,0.016994506120681763,-0.0005587057094089687,-0.016488365828990936
0.037421293556690216,0.004025852773338556,-0.021975992247462273,0.01757415197789669,-0.0005260951002128422,-0.016678089275956154
0.03751055523753166,0.003929859958589077,-0.021409254521131516,0.0180892925709486,-0.0005393456667661667,-0.01671425625681877
0.03754567727446556,0.00434620026499033,-0.021340610459446907,0.018431859090924263,-0.0005135870887897909,-0.016161473467946053
0.03812297061085701,0.004141137935221195,-0.02221461571753025,0.01777462847530842,-0.0005391547456383705,-0.01609771139919758
0.037523142993450165,0.004251477308571339,-0.022206341847777367,0.01711459271609783,-0.0005875999922864139,-0.016049785539507866
0.03847331926226616,0.004264793358743191,-0.021625768393278122,0.017560863867402077,-0.0006769084720872343,-0.015779895707964897
0.038896556943655014,0.004022376611828804,-0.02170819602906704,0.01750846579670906,-0.0006551576079800725,-0.015993285924196243
0.038226477801799774,0.004298977553844452,-0.021912086755037308,0.01781322993338108,-0.0006753515917807817,-0.016364244744181633
0.03711063414812088,0.004332027863711119,-0.02188790589570999,0.01752939261496067,-0.0006254150066524744,-0.016451140865683556
0.03836870566010475,0.0045869965106248856,-0.02177511155605316,0.017886968329548836,-0.00071187864523381,-0.01651226542890072
0.03877067565917969,0.004297011531889439,-0.021811814978718758,0.018083499744534492,-0.0006847031763754785,-0.01628611609339714
0.03877067565917969,0.004297011531889439,-0.021811814978718758,0.018083499744534492,-0.0006847031763754785,-0.01628611609339714
0.03915772587060928,0.004181465599685907,-0.021914198994636536,0.01790437661111355,-0.000655008596368134,-0.01661355420947075
0.04020531475543976,0.0040162475779652596,-0.02180468663573265,0.018156159669160843,-0.0006713259499520063,-0.01683976873755455
0.03798539191484451,0.003939200658351183,-0.02125529572367668,0.01822909526526928,-0.0006171225104480982,-0.0167775209993124
0.03789235278964043,0.004281173460185528,-0.021587513387203217,0.01830793172121048,-0.0006215887260623276,-0.01651788130402565
0.0393134281039238,0.0044178431853652,-0.022605815902352333,0.018705371767282486,-0.0005889563472010195,-0.016594592481851578
0.039016369730234146,0.004821845795959234,-0.02224528044462204,0.018205733969807625,-0.0005629471852444112,-0.016635194420814514
0.039034366607666016,0.004420083481818438,-0.021610457450151443,0.01803557761013508,-0.0005820583901368082,-0.01719828136265278
0.03884268179535866,0.004274164792150259,-0.021912792697548866,0.018551276996731758,-0.0006131595000624657,-0.016981372609734535
0.0394139289855957,0.004087923094630241,-0.02226855419576168,0.01865067332983017,-0.0006395734963007271,-0.01725052297115326
0.03936900570988655,0.004379861056804657,-0.02212524600327015,0.018731780350208282,-0.0008863371331244707,-0.017203375697135925
0.03932154178619385,0.004668248817324638,-0.021737009286880493,0.01911632902920246,-0.0009625059319660068,-0.017150787636637688
0.03900613263249397,0.004610951989889145,-0.021941328421235085,0.01824234053492546,-0.0009576738229952753,-0.01703384518623352
0.03972558304667473,0.0043802568688988686,-0.022161027416586876,0.018169714137911797,-0.0009501871536485851,-0.016938786953687668
0.041342753916978836,0.004442818462848663,-0.022270429879426956,0.018263181671500206,-0.0009813528740778565,-0.017704814672470093
0.03844784200191498,0.004655440803617239,-0.021943174302577972,0.018263254314661026,-0.0009297610376961529,-0.017605606466531754
0.038375891745090485,0.00463257497176528,-0.021463748067617416,0.01880226656794548,-0.0008548031328245997,-0.01756948046386242
0.03988201171159744,0.004325944930315018,-0.021721061319112778,0.01861555501818657,-0.0008477221708744764,-0.017461607232689857
0.041046563535928726,0.004288529045879841,-0.022277645766735077,0.01891244947910309,-0.0008065139991231263,-0.017733052372932434
0.040801018476486206,0.004456452094018459,-0.021908095106482506,0.0186449084430933,-0.0007192255579866469,-0.017707204446196556
0.03881490230560303,0.00491076335310936,-0.022309040650725365,0.01890106312930584,-0.0007372976397164166,-0.017627805471420288
0.04042556881904602,0.004436653573065996,-0.02214767411351204,0.01935196854174137,-0.0007491406868211925,-0.017791613936424255
