davideferrari95/blind_handover_controller/data/Test 215 - [2024-02-08 -- 12-11-32]/joint_states_data.csv
shoulder_pan_joint,shoulder_lift_joint,elbow_joint,wrist_1_joint,wrist_2_joint,wrist_3_joint
0.004208426922559738,0.007048458326607943,-0.010386679321527481,-0.0044411481358110905,-0.0,0.005011874251067638
0.004099898971617222,0.007786600850522518,-0.009055474773049355,-0.003716452047228813,-0.0,0.004801647271960974
0.004099898971617222,0.007786600850522518,-0.009055474773049355,-0.003716452047228813,-0.0,0.004801647271960974
0.004019636195152998,0.008052299730479717,-0.009034019894897938,-0.0028269358444958925,-0.0,0.004176598507910967
0.004014522302895784,0.008053728379309177,-0.009454647079110146,-0.00195175816770643,-0.0,0.003883141092956066
0.0039026502054184675,0.008783051744103432,-0.00929942075163126,-0.0015120627358555794,-0.0,0.0038124837446957827
0.0041833603754639626,0.008793298155069351,-0.009878446348011494,-0.0015277245547622442,-0.0,0.0038536882493644953
0.004061788786202669,0.008961603976786137,-0.009823426604270935,-0.0019994238391518593,-0.0,0.0038511576130986214
0.0042205448262393475,0.008992169983685017,-0.009487852454185486,-0.0027851976919919252,-0.0,0.004314097575843334
0.003618592629209161,0.009136675857007504,-0.01003254484385252,-0.0030566188506782055,-0.0,0.004455598071217537
0.004088896792382002,0.008620659820735455,-0.010655507445335388,-0.0029347159434109926,-0.0,0.004397936165332794
0.004201789852231741,0.008542736060917377,-0.010069229640066624,-0.0026416280306875706,-0.0,0.003606995800510049
0.004496797453612089,0.009097098372876644,-0.011041739024221897,-0.002238450339064002,-0.0,0.003553855000063777
0.004199845716357231,0.008361227810382843,-0.009994219057261944,-0.002206124598160386,-0.0,0.0037665562704205513
0.003963982220739126,0.00813517440110445,-0.009791329503059387,-0.0021671645808964968,-0.0,0.003953924402594566
0.0039038690738379955,0.009369952604174614,-0.010963871143758297,-0.00226870970800519,-0.0,0.003689592471346259
0.003845987608656287,0.008575599640607834,-0.011076929979026318,-0.0026467565912753344,-0.0,0.0035027351696044207
0.003845987608656287,0.008575599640607834,-0.011076929979026318,-0.0026467565912753344,-0.0,0.0035027351696044207
0.00427193334326148,0.008481514640152454,-0.009961760602891445,-0.002465319586917758,-0.0,0.0035958674270659685
0.004171027801930904,0.009261412546038628,-0.009766459465026855,-0.002094961702823639,-0.0,0.0037289545871317387
0.003927508369088173,0.009439794346690178,-0.009511246345937252,-0.001843046979047358,-0.0,0.004242283292114735
0.0036765059921890497,0.008615551516413689,-0.009413022547960281,-0.0015469578793272376,-0.0,0.0041689821518957615
0.003803172381594777,0.00842871144413948,-0.010643615387380123,-0.0015189091209322214,-0.0,0.003543987637385726
0.003946258220821619,0.008982133120298386,-0.009816431440412998,-0.0016720218118280172,-0.0,0.0034928005188703537
0.003780533792451024,0.009048025123775005,-0.00922322366386652,-0.0016061610076576471,-0.0,0.003675864078104496
0.0036510371137410402,0.008425446227192879,-0.00993950292468071,-0.0016479553887620568,-0.0,0.003836975432932377
0.0037418098654597998,0.008832937106490135,-0.010060028173029423,-0.0016898633912205696,-0.0,0.004324175883084536
0.003893262706696987,0.009899365715682507,-0.009662406519055367,-0.0016576499911025167,-0.0,0.003858860582113266
0.0037850518710911274,0.008396564051508904,-0.009386757388710976,-0.0016302046133205295,-0.0,0.0036894676741212606
0.004367610439658165,0.008766616694629192,-0.008909683674573898,-0.0015107509680092335,-0.0,0.0033128876239061356
0.004243117291480303,0.009293437004089355,-0.009377976879477501,-0.0015499211149290204,-0.0,0.0034186951816082
0.00395439937710762,0.00877631176263094,-0.00978935044258833,-0.0015017013065516949,-0.0,0.0036113932728767395
0.0039250957779586315,0.009174571372568607,-0.009464887902140617,-0.0016687795286998153,-0.0,0.004179998766630888
0.003978905733674765,0.008954666554927826,-0.01010187529027462,-0.001676081446930766,-0.0,0.004106482956558466
0.004057593178004026,0.008876841515302658,-0.010210641659796238,-0.001954573206603527,-0.0,0.0030875583179295063
0.003900147508829832,0.009132902137935162,-0.009049382992088795,-0.001870952663011849,-0.0,0.003271415363997221
0.004302577115595341,0.008523800410330296,-0.00957623589783907,-0.0018817934906110168,-0.0,0.003277234500274062
0.004154094494879246,0.0083180982619524,-0.009439526125788689,-0.0018005577148869634,-0.0,0.0032693210523575544
0.003930147271603346,0.0088613610714674,-0.009147118777036667,-0.0015719113871455193,-0.0,0.0031803345773369074
0.003296957118436694,0.009142514318227768,-0.009281139820814133,-0.0015408043982461095,-0.0,0.003107353113591671
0.0027950117364525795,0.008584132418036461,-0.009754875674843788,-0.0014918884262442589,-0.0,0.0033290188293904066
0.002686995780095458,0.008506592363119125,-0.009249001741409302,-0.001581343705765903,-0.0,0.003728582989424467
0.0031884154304862022,0.00900755450129509,-0.009211014024913311,-0.0016334127867594361,-0.0,0.003469074610620737
0.0031884154304862022,0.00900755450129509,-0.009211014024913311,-0.0016334127867594361,-0.0,0.003469074610620737
0.0036858872044831514,0.008537987247109413,-0.00901222974061966,-0.0017993098590523005,-0.0,0.003567730775102973
0.003804924199357629,0.008404224179685116,-0.008996156975626945,-0.0018246698891744018,-0.0,0.0036867414601147175
0.0033701315987855196,0.009007509797811508,-0.009454510174691677,-0.0015937592834234238,-0.0,0.003286450169980526
0.00301319919526577,0.00917291920632124,-0.009380131959915161,-0.0013947796542197466,-0.0,0.003182558109983802
0.0029669974464923143,0.008817711845040321,-0.009122282266616821,-0.0012397149112075567,-0.0,0.003339475952088833
0.0033004528377205133,0.008839086629450321,-0.008951139636337757,-0.0011018220102414489,-0.0,0.0036728756967931986
0.003252820810303092,0.00913357362151146,-0.009373301640152931,-0.001066053519025445,-0.0,0.00389024056494236
0.003114052815362811,0.008529538288712502,-0.008831492625176907,-0.0008988136542029679,-0.0,0.00395263871178031
0.002944384468719363,0.00835696142166853,-0.008750218898057938,-0.0008274104329757392,-0.0,0.0036418545059859753
0.003068452700972557,0.008926351554691792,-0.009165185503661633,-0.0008489189785905182,-0.0,0.0034179098438471556
0.0032346933148801327,0.008370257914066315,-0.008818470872938633,-0.0008632697281427681,-0.0,0.0031550449784845114
0.0034355013631284237,0.008272663690149784,-0.00894981063902378,-0.0011659555602818727,-0.0,0.0029521770775318146
0.0035601689014583826,0.009341240860521793,-0.009200369007885456,-0.0011461444664746523,-0.0,0.003291358472779393
0.0033516157418489456,0.008242188952863216,-0.008404456079006195,-0.0012884618481621146,-0.0,0.003627799218520522
0.003541722660884261,0.008214433677494526,-0.008821512572467327,-0.0012828774051740766,-0.0,0.003819704055786133
0.0037317981477826834,0.009550086222589016,-0.00914953462779522,-0.0012204621452838182,-0.0,0.0035007642582058907
0.0033361362293362617,0.008908531628549099,-0.00877700187265873,-0.0011362822260707617,-0.0,0.0035365400835871696
0.003417577128857374,0.008698787540197372,-0.00869730208069086,-0.0010506357066333294,-0.0,0.003796315984800458
0.003587572369724512,0.008685269393026829,-0.009149570018053055,-0.0010217003291472793,-0.0,0.0038125545252114534
0.003614717395976186,0.008530561812222004,-0.009048341773450375,-0.0010033536236733198,-0.0,0.0038455198518931866
0.003543513361364603,0.008465021848678589,-0.008228113874793053,-0.0009426340111531317,-0.0,0.0033886414021253586
0.0033223398495465517,0.00860200822353363,-0.00908528733998537,-0.000984539627097547,-0.0,0.0035614536609500647
0.003160372143611312,0.00844100583344698,-0.008962653577327728,-0.0010622130939736962,-0.0,0.0032960213720798492
0.0033204348292201757,0.008109906688332558,-0.008650358766317368,-0.0013633816270157695,-0.0,0.0034236034844070673
0.0036625764332711697,0.00786782056093216,-0.009272592142224312,-0.0015318539226427674,-0.0,0.0036038027610629797
0.0037667234428226948,0.008204644545912743,-0.008763470686972141,-0.0014457475626841187,-0.0,0.0036639540921896696
0.0037667234428226948,0.008204644545912743,-0.008763470686972141,-0.0014457475626841187,-0.0,0.0036639540921896696
0.003729243064299226,0.008199277333915234,-0.008774538524448872,-0.0014122172724455595,-0.0,0.0034239597152918577
0.003809285582974553,0.00809396244585514,-0.009018340148031712,-0.0013420470058918,-0.0,0.003241895930841565
0.0035442830994725227,0.00889374315738678,-0.008735982701182365,-0.0013390769017860293,-0.0,0.003321558004245162
0.0035442830994725227,0.00889374315738678,-0.008735982701182365,-0.0013390769017860293,-0.0,0.003321558004245162
0.003479548031464219,0.008120297454297543,-0.008435952477157116,-0.0013337834971025586,-0.0,0.0036565749906003475
0.0036288672126829624,0.008079705759882927,-0.009069683030247688,-0.001287879073061049,-0.0,0.0033947518095374107
0.0041319262236356735,0.008826268836855888,-0.008518542163074017,-0.0013840169413015246,-0.0,0.0032015375327318907
0.004220201168209314,0.008601187728345394,-0.0082395039498806,-0.0014229407534003258,-0.0,0.003174466546624899
0.0040832520462572575,0.008393337018787861,-0.009685080498456955,-0.0013814117992296815,-0.0,0.003214233787730336
0.00398886576294899,0.008610717952251434,-0.009098882786929607,-0.001462334650568664,-0.0,0.003103647381067276
0.004204438999295235,0.00872048269957304,-0.008619369938969612,-0.0015258556231856346,-0.0,0.0032062537502497435
0.004204438999295235,0.00872048269957304,-0.008619369938969612,-0.0015258556231856346,-0.0,0.0032062537502497435
0.003454336430877447,0.008836939930915833,-0.009059125557541847,-0.0013897932367399335,-0.0,0.0030006400775164366
0.0035063079558312893,0.008525880984961987,-0.008582578971982002,-0.001438294886611402,-0.0,0.0028578774072229862
0.0037594963796436787,0.008026856929063797,-0.00974304135888815,-0.0013579190708696842,-0.0,0.0025983741506934166
0.003879415336996317,0.008728190325200558,-0.008517185226082802,-0.0012884365860372782,-0.0,0.0027260533533990383
0.004278413485735655,0.00884805154055357,-0.008462389931082726,-0.0012743512634187937,-0.0,0.003058381611481309
0.004155256319791079,0.008653199300169945,-0.009317068383097649,-0.0012082674074918032,-0.0,0.0032464892137795687
0.004067057743668556,0.008442956022918224,-0.009133132174611092,-0.0011557030957192183,-0.0,0.003074475098401308
0.004057179670780897,0.00867373961955309,-0.009365536272525787,-0.0011139822890982032,-0.0,0.0027801140677183867
0.004112536553293467,0.008359725587069988,-0.008636128157377243,-0.001207289402373135,-0.0,0.002489051315933466
0.004065798129886389,0.008233420550823212,-0.009193184785544872,-0.001213585608638823,-0.0,0.0024156146682798862
0.004306606948375702,0.008470781147480011,-0.008524656295776367,-0.0018216421594843268,-0.0,0.0023613341618329287
0.004345813766121864,0.008682693354785442,-0.008364666253328323,-0.0017731103580445051,-0.0,0.002862948924303055
0.003993737976998091,0.008394085802137852,-0.009431007318198681,-0.0020449873991310596,-0.0,0.003294704481959343
0.004103606101125479,0.008450414054095745,-0.009197758510708809,-0.0018544226186349988,-0.0,0.0031139589846134186
0.004015785176306963,0.008950725197792053,-0.008468733169138432,-0.0016828486695885658,-0.0,0.0028576888144016266
0.004337965976446867,0.008538701571524143,-0.00852734874933958,-0.001554226502776146,-0.0,0.0027286375407129526
0.004172706976532936,0.008385076187551022,-0.008411957882344723,-0.0014483383856713772,-0.0,0.0027228519320487976
0.00397705752402544,0.00855844933539629,-0.008719494566321373,-0.0014330596895888448,-0.0,0.002789886901155114
0.004410937428474426,0.009345420636236668,-0.008581399917602539,-0.0014474167255684733,-0.0,0.0027362736873328686
0.004143962636590004,0.00845227763056755,-0.008759093470871449,-0.0016925340751186013,-0.0,0.0029335287399590015
0.004408879671245813,0.008664026856422424,-0.008599364198744297,-0.0018612979911267757,-0.0,0.002898365492001176
0.004408879671245813,0.008664026856422424,-0.008599364198744297,-0.0018612979911267757,-0.0,0.002898365492001176
0.004258153028786182,0.009107603691518307,-0.008435413241386414,-0.0019176664063706994,-0.0,0.002613846678286791
0.004114908166229725,0.00879381038248539,-0.008627235889434814,-0.0017740062903612852,-0.0,0.0027066951151937246
0.004111933521926403,0.008426439948379993,-0.00827870424836874,-0.0016495658783242106,-0.0,0.002710769884288311
0.004519442096352577,0.00926213152706623,-0.008188202977180481,-0.0016063556540757418,-0.0,0.0026636484544724226
0.004688843619078398,0.008877884596586227,-0.008501348085701466,-0.0015249490970745683,-0.0,0.0025074072182178497
0.004493813030421734,0.008613308891654015,-0.008324440568685532,-0.0014736498706042767,-0.0,0.002666198881343007
0.0044394913129508495,0.0094792190939188,-0.00804454181343317,-0.0013900493504479527,-0.0,0.0028026029467582703
0.004275803454220295,0.008658931590616703,-0.008507102727890015,-0.0013972411397844553,-0.0,0.0029019094072282314
0.004452820867300034,0.009310832247138023,-0.008672837167978287,-0.0013558289501816034,-0.0,0.002688250271603465
0.0045980606228113174,0.009145650081336498,-0.008392531424760818,-0.0013297076802700758,-0.0,0.0024555870331823826
0.004895959049463272,0.008754135109484196,-0.008449103683233261,-0.0015704570105299354,-0.0,0.0025062751956284046
0.004563625436276197,0.008645443245768547,-0.00858092587441206,-0.0015376232331618667,-0.0,0.00243086414411664
0.004396342672407627,0.009435080923140049,-0.008747520856559277,-0.0018924938049167395,-0.0,0.0023707153741270304
0.004844938404858112,0.008997539058327675,-0.008479801937937737,-0.0018287374405190349,-0.0,0.0023571515921503305
0.004464054014533758,0.008499052375555038,-0.00872624758630991,-0.0020564475562423468,-0.0,0.0020978248212486506
0.004009395372122526,0.009437795728445053,-0.00845401268452406,-0.00206607673317194,-0.0,0.0019326756009832025
0.004262182395905256,0.009489010088145733,-0.008042063564062119,-0.002219450892880559,-3.610094836403732e-06,0.0019512458238750696
0.0043775481171905994,0.009012853726744652,-0.00827797967940569,-0.002246627351269126,-2.3571340079797665e-07,0.0019907949026674032
0.004302510060369968,0.009110299870371819,-0.008439316414296627,-0.002234986750409007,-1.5390400065484755e-08,0.0021974367555230856
0.004482308868318796,0.009122578427195549,-0.008221517316997051,-0.0023320296313613653,-1.0048831766695798e-09,0.0022185193374753
0.00415878975763917,0.009173429571092129,-0.0082567622885108,-0.0023504593409597874,-6.561168969243525e-11,0.0024651784915477037
0.004411273170262575,0.009321486577391624,-0.008915578946471214,-0.002513529034331441,-4.283974650715061e-12,0.0023271613754332066
0.004147907719016075,0.009342695586383343,-0.008837487548589706,-0.0023853450547903776,-2.797129390087749e-13,0.0022130815777927637
0.004147907719016075,0.009342695586383343,-0.008837487548589706,-0.0023853450547903776,-2.797129390087749e-13,0.0022130815777927637
0.004399385303258896,0.009227091446518898,-0.008653314784169197,-0.0022236669901758432,-1.8263255152444445e-14,0.0019412834662944078
0.004436683375388384,0.008545849472284317,-0.008237291127443314,-0.002035965211689472,-1.1924600770455373e-15,0.0016812528483569622
0.0041284458711743355,0.010092146694660187,-0.008648373186588287,-0.001972267869859934,-7.785911631038258e-17,0.0016949705313891172
0.003976436797529459,0.009195688180625439,-0.008316079154610634,-0.002136249328032136,-5.083644008826851e-18,0.0019001576583832502
0.0043230983428657055,0.009551722556352615,-0.00818680226802826,-0.002174499211832881,-3.3192560783250907e-19,0.002155938884243369
0.004603460896760225,0.00933986995369196,-0.008975673466920853,-0.0024771466851234436,-2.1672369540198007e-20,0.0024367293808609247
0.004672095645219088,0.009579041041433811,-0.008437703363597393,-0.002767141442745924,-1.4150508662852712e-21,0.002308606868609786
0.004481694661080837,0.009082695469260216,-0.008148642256855965,-0.0027037758845835924,-9.239270819491843e-23,0.0020416106563061476
0.0043818531557917595,0.009526561014354229,-0.008328291587531567,-0.0025458456948399544,-6.032583819723816e-24,0.0018102845642715693
0.004523775540292263,0.009092370979487896,-0.008447306230664253,-0.0021584464702755213,-2.571785158633651e-26,0.0015216614119708538
0.0046342164278030396,0.00950669962912798,-0.007884223945438862,-0.002431748900562525,-1.679191933270993e-27,0.001613299478776753
0.004300922621041536,0.009286296553909779,-0.008925546891987324,-0.0028685308061540127,-1.096392315405172e-28,0.0016905056545510888
0.004500712268054485,0.0090143121778965,-0.008752310648560524,-0.003075242741033435,-7.158658281479435e-30,0.002377822296693921
0.0051308851689100266,0.009482871741056442,-0.008453765884041786,-0.0030746052507311106,-4.674092326298944e-31,0.002389784436672926
0.004842791706323624,0.009549024514853954,-0.00859872531145811,-0.002424626611173153,-3.051848408710769e-32,0.0023428210988640785
0.004564344882965088,0.009184461086988449,-0.008775303140282631,-0.0022444433998316526,-1.9926386977834237e-33,0.0019960561767220497
0.0042531490325927734,0.009358255192637444,-0.008366658352315426,-0.002427783329039812,-1.3010506932257911e-34,0.0016792109236121178
0.004381841514259577,0.009654512628912926,-0.008429381065070629,-0.003010936314240098,-8.49493190983063e-36,0.0014898391673341393
0.0046864771284163,0.009137236513197422,-0.009372117929160595,-0.003111613215878606,-5.546583259834296e-37,0.001411078148521483
0.004790361505001783,0.009130164049565792,-0.00865431409329176,-0.0030876074451953173,-3.621522757693379e-38,0.0013042590580880642
0.004793030675500631,0.009606343694031239,-0.008968557231128216,-0.003064544405788183,-2.3645958702525547e-39,0.001365327276289463
0.0045157670974731445,0.009133893996477127,-0.008657742291688919,-0.0029709504451602697,-1.5439086090391537e-40,0.0016001624753698707
0.0049993558786809444,0.00874765869230032,-0.008684742264449596,-0.002689419314265251,-1.0080941152352734e-41,0.0016841540345922112
0.004605056252330542,0.00893510039895773,-0.008822324685752392,-0.002486224751919508,-6.58610278232664e-43,0.0016597267240285873
0.004474653396755457,0.008738153614103794,-0.00880950503051281,-0.0025437853764742613,-4.344025239406933e-44,0.001704698777757585
0.005110979545861483,0.008621331304311752,-0.009490656666457653,-0.00263729365542531,-2.802596928649634e-45,0.0015860589919611812
0.005168326199054718,0.00948072038590908,-0.008679521270096302,-0.002588053699582815,-0.0,0.0015438445843756199
0.00533660314977169,0.009238201193511486,-0.00808747485280037,-0.0029502995312213898,-0.0,0.0014319089241325855
0.00533660314977169,0.009238201193511486,-0.00808747485280037,-0.0029502995312213898,-0.0,0.0014319089241325855
0.004945413675159216,0.008574267849326134,-0.008684114553034306,-0.0030052948277443647,-0.0,0.001352929975837469
0.0043938313610851765,0.009085752069950104,-0.008551567792892456,-0.0029587792232632637,-0.0,0.001332051819190383
0.004519927781075239,0.009692542254924774,-0.008240409195423126,-0.0027975961565971375,-0.0,0.0013605240965262055
0.005202903412282467,0.008909609168767929,-0.008440017700195312,-0.003032049862667918,-0.0,0.0016113216988742352
0.005025854799896479,0.009708434343338013,-0.008784844540059566,-0.0034209878649562597,-0.0,0.0017971264896914363
0.004744571167975664,0.0091622993350029,-0.008493921719491482,-0.0033053213264793158,-0.0,0.001978282816708088
0.004694477189332247,0.008881681598722935,-0.00839669443666935,-0.0035519965458661318,-0.0,0.001789640635251999
0.004992303438484669,0.00863676704466343,-0.008953792043030262,-0.0032917088828980923,-0.0,0.0014448476722463965
0.0048710135743021965,0.008853335864841938,-0.009021920152008533,-0.0032960334792733192,7.871925481595099e-05,0.0009914900874719024
0.005322050303220749,0.008499219082295895,-0.008483093231916428,-0.0034199170768260956,0.0004281924047973007,0.0009609798435121775
0.005204800516366959,0.009629788808524609,-0.008651415817439556,-0.003535204567015171,0.000412330700783059,0.0008649067021906376
0.005147830117493868,0.00934178102761507,-0.008281590417027473,-0.0036246299277991056,0.00044953604810871184,0.0006643569213338196
0.005376444198191166,0.00933751929551363,-0.008263655006885529,-0.0036573356483131647,0.00041930473526008427,0.0006783789140172303
0.00503122853115201,0.009257620200514793,-0.008603670634329319,-0.003716183127835393,0.00044538892689161,0.0007242629071697593
0.005317073781043291,0.009683499112725258,-0.008742542006075382,-0.003787379479035735,0.00042312275036238134,0.0010181633988395333
0.005511654540896416,0.00859975814819336,-0.008400737307965755,-0.003790759714320302,0.0004497107001952827,0.0011835865443572402
0.0056844670325517654,0.008692753501236439,-0.008613988757133484,-0.003828162094578147,0.0004279674030840397,0.0011862694518640637
0.005244515370577574,0.009247483685612679,-0.008809000253677368,-0.003764742985367775,0.00049403595039621,0.0010570234153419733
0.004944000858813524,0.008546602912247181,-0.008409337140619755,-0.003691733116284013,0.000517958658747375,0.0010004902724176645
0.005690826568752527,0.009193428792059422,-0.0079463766887784,-0.004188711289316416,0.0005312829161994159,0.0009054417605511844
0.005647735204547644,0.009128788486123085,-0.008385054767131805,-0.004074061755090952,0.0005243574269115925,0.0008333025616593659
0.005736067891120911,0.00901286955922842,-0.009399515576660633,-0.0038988012820482254,0.0005508793401531875,0.0007255380041897297
0.005385906435549259,0.008658956736326218,-0.007450722623616457,-0.0042729550041258335,0.000630619004368782,0.0007383896154351532
0.005312465131282806,0.009174356237053871,-0.008309849537909031,-0.00415585283190012,0.0007113755564205348,0.0007485374226234853
0.005400562193244696,0.00921069085597992,-0.008600898087024689,-0.004030989948660135,0.0006835237145423889,0.0006887604249641299
0.00602857768535614,0.008733466267585754,-0.00804976187646389,-0.003948612604290247,0.0007045264355838299,0.0005791789153590798
0.005841386038810015,0.008985447697341442,-0.007914829067885876,-0.004274048376828432,0.0007179883541539311,0.0005863833939656615
0.00578283192589879,0.009311361238360405,-0.008852526545524597,-0.0042431349866092205,0.0008061947301030159,0.0005494123906828463
0.005275569390505552,0.008842325769364834,-0.00845616590231657,-0.003985138610005379,0.0007982893730513752,0.0005773291341029108
0.005275569390505552,0.008842325769364834,-0.00845616590231657,-0.003985138610005379,0.0007982893730513752,0.0005773291341029108
0.005262960214167833,0.008832425810396671,-0.007686309982091188,-0.003532581962645054,0.0007511426229029894,0.0006043761968612671
0.005492420867085457,0.009255767799913883,-0.008082439191639423,-0.003510483307763934,0.0008181614684872329,0.0007459480548277497
0.006209387443959713,0.008405876345932484,-0.008269578218460083,-0.004156052600592375,0.0007926777470856905,0.0007892885478213429
0.006284269969910383,0.008514592424035072,-0.00826264638453722,-0.004569930490106344,0.0009598097531124949,0.0007528149290010333
0.005606153979897499,0.00980268232524395,-0.008476401679217815,-0.004637418780475855,0.0010470155393704772,0.0007170037715695798
0.005849853623658419,0.009170386008918285,-0.008779420517385006,-0.004119471646845341,0.0012016238179057837,0.0006465977057814598
0.005488179158419371,0.009012007154524326,-0.008942422457039356,-0.004296665079891682,0.0012840498238801956,0.0006642894586548209
0.005849943496286869,0.009435667656362057,-0.008038931526243687,-0.003957231529057026,0.001196295372210443,0.000576441700104624
0.005621285643428564,0.009110423736274242,-0.008264192380011082,-0.004453156143426895,0.001084308372810483,0.0005224671913310885
0.005508312024176121,0.009335808455944061,-0.008084687404334545,-0.004704405553638935,0.001048764679580927,0.0005138943088240921
0.00545996380969882,0.010007055476307869,-0.00794221181422472,-0.005007751286029816,0.0010239265393465757,0.0005063011194579303
0.00575028732419014,0.008582893759012222,-0.0083286352455616,-0.004998375661671162,0.0010085490066558123,0.000465302262455225
0.006156133953481913,0.008793091401457787,-0.00804109126329422,-0.005131889134645462,0.0011558671249076724,0.0004809327656403184
0.006127068307250738,0.00943608209490776,-0.007632374297827482,-0.004475699737668037,0.0011420546798035502,0.0004619247920345515
0.005427056457847357,0.009143440052866936,-0.007810243405401707,-0.004424185026437044,0.0011159213026985526,0.00043134656152687967
0.00577777111902833,0.008711518719792366,-0.008395048789680004,-0.005051941145211458,0.0011497200466692448,0.0004037556645926088
0.00608042674139142,0.009278478100895882,-0.008244995027780533,-0.005510037299245596,0.0011187349446117878,0.00037943042116239667
0.005907409358769655,0.008842767216265202,-0.008020654320716858,-0.00515051418915391,0.001081658760085702,0.0003578676260076463
0.006479431875050068,0.00867554359138012,-0.008239693008363247,-0.004689670633524656,0.001054552965797484,0.0003386240277905017
0.005790685769170523,0.009325362741947174,-0.008894894272089005,-0.004847200121730566,0.000975982693489641,0.00032134560751728714
0.005910832900553942,0.009170467033982277,-0.00793722365051508,-0.005040161777287722,0.0009640913340263069,0.0003057457215618342
0.0059028021059930325,0.009357733651995659,-0.007604466285556555,-0.005837826523929834,0.0009541506296955049,0.0002915900549851358
0.006136496085673571,0.00932198017835617,-0.008714764378964901,-0.00597586901858449,0.0009529770468361676,0.00027868838515132666
0.006515789777040482,0.009539704769849777,-0.008347983472049236,-0.005449678748846054,0.0010479222983121872,0.0002668799425009638
0.00589024368673563,0.008972257375717163,-0.00830292422324419,-0.0045455521903932095,0.0010289775673300028,0.0002560315188020468
0.006404696498066187,0.009821422398090363,-0.007968425750732422,-0.004491917788982391,0.0010100525105372071,0.0002460308314766735
0.006404696498066187,0.009821422398090363,-0.007968425750732422,-0.004491917788982391,0.0010100525105372071,0.0002460308314766735
0.006797504145652056,0.009380318224430084,-0.008295920677483082,-0.005666346754878759,0.0009471246739849448,0.00023678220168221742
0.006333912722766399,0.009141997434198856,-0.00791221298277378,-0.005875372793525457,0.0010529330465942621,0.00022820394951850176
0.006385491695255041,0.009352663531899452,-0.008278511464595795,-0.005884269718080759,0.0010548628633841872,0.00022022573102731258
0.006315421778708696,0.00979000236839056,-0.008649459108710289,-0.0053186616860330105,0.0010430044494569302,0.0002127865591319278
0.005896843504160643,0.01003240142017603,-0.008633732795715332,-0.0052284374833106995,0.0013325894251465797,0.00020583358127623796
0.0067634545266628265,0.008750218898057938,-0.008687511086463928,-0.00528539577499032,0.0014132282231003046,0.0001993203622987494
0.006484857760369778,0.010140211321413517,-0.007942227646708488,-0.005375995300710201,0.0013569791335612535,0.0001932070153998211
0.006236628629267216,0.009150614030659199,-0.008429018780589104,-0.005688431207090616,0.001584680750966072,0.0001874576264526695
0.00616902532055974,0.008916577324271202,-0.007776686456054449,-0.0057559809647500515,0.001506660832092166,0.00018204063235316426
0.006995188072323799,0.009439034387469292,-0.007556319702416658,-0.005526778753846884,0.0012195672607049346,6.356410449370742e-05
0.006408479064702988,0.009167900308966637,-0.008035634644329548,-0.0059082163497805595,0.0012415320379659534,5.9731497458415106e-05
0.006261562462896109,0.00939411111176014,-0.007732042111456394,-0.006598845589905977,0.0011869590962305665,5.7703775382833555e-05
0.006537124514579773,0.009624471887946129,-0.007366761099547148,-0.006005920469760895,0.0011533736251294613,5.5904016335261986e-05
0.006503944285213947,0.009070400148630142,-0.007763764820992947,-0.005674297455698252,0.0011504277354106307,5.421942478278652e-05
0.006719368975609541,0.010104785673320293,-0.008415319956839085,-0.005502619314938784,0.0011085764272138476,5.263383354758844e-05
0.006610538810491562,0.009051721543073654,-0.007862307131290436,-0.005832864437252283,0.0011025955900549889,2.8943864890607074e-05
0.006323580164462328,0.008621593937277794,-0.007543405517935753,-0.00657645333558321,0.001214012037962675,1.2876202163170092e-05
0.007180435117334127,0.0090224863961339,-0.008365905843675137,-0.0067836628295481205,0.0011641475139185786,8.407239988628135e-07
0.006783902179449797,0.009266415610909462,-0.007979609072208405,-0.006422374397516251,0.0011220257729291916,5.48932703736682e-08
0.0069544753059744835,0.009032200090587139,-0.007511671166867018,-0.006335508543998003,0.001056332839652896,3.584138319467911e-09
0.006633447483181953,0.009522500447928905,-0.007462083827704191,-0.006635254714637995,0.0010395850986242294,2.340186378013698e-10
0.0063414303585886955,0.009611506015062332,-0.00775712076574564,-0.006822688039392233,0.0010369977680966258,1.527974448356506e-11
0.007121002301573753,0.009682754054665565,-0.007883982732892036,-0.006613212171941996,0.001018522889353335,9.976581193116285e-13
0.006768461316823959,0.008653834462165833,-0.00740480562672019,-0.005921094678342342,0.0009813153883442283,6.513994394883801e-14
0.0067400820553302765,0.009354875423014164,-0.00694252597168088,-0.005866155028343201,0.001000337884761393,4.253172656730128e-15
0.006512132007628679,0.008834807202219963,-0.007299850694835186,-0.006451336666941643,0.0009863448794931173,2.777017899303517e-16
0.006512132007628679,0.008834807202219963,-0.007299850694835186,-0.006451336666941643,0.0009863448794931173,2.777017899303517e-16
0.007328338921070099,0.009099246002733707,-0.007587821688503027,-0.006705481093376875,0.001032572123222053,-0.0006783715216442943
0.007328338921070099,0.009099246002733707,-0.007587821688503027,-0.006705481093376875,0.001032572123222053,-0.0006783715216442943
0.006964369677007198,0.008745626546442509,-0.007375682704150677,-0.006594731006771326,0.0011353249428793788,-0.0006966519868001342
0.006437992677092552,0.008653818629682064,-0.008159213699400425,-0.0067320954985916615,0.0011051822220906615,-0.0006492946413345635
0.006634789984673262,0.008826564997434616,-0.007861794903874397,-0.006831365171819925,0.0011399472132325172,-0.0006306761642917991
0.006956773344427347,0.00901738926768303,-0.00806373544037342,-0.006669980473816395,0.0011580935679376125,-0.0006137670134194195
0.007071358151733875,0.008775347843766212,-0.008014052174985409,-0.006717031355947256,0.001137126819230616,-0.0005677504232153296
0.00686237309128046,0.00886530801653862,-0.007811561692506075,-0.006727035157382488,0.0011017064098268747,-0.0006027955678291619
0.00664894375950098,0.009268572553992271,-0.008117696270346642,-0.006839677691459656,0.0011589813511818647,-0.0006441313307732344
0.007312563247978687,0.008718199096620083,-0.007822543382644653,-0.0077534690499305725,0.0011678370647132397,-0.0007187271257862449
0.007549073547124863,0.008867278695106506,-0.0077260928228497505,-0.007319646421819925,0.00114735949318856,-0.000923731189686805
0.006753683555871248,0.009066247381269932,-0.007671784143894911,-0.007241449784487486,0.0012976048747077584,-0.0012739361263811588
0.006932587828487158,0.008610512129962444,-0.007296811323612928,-0.007154103368520737,0.0012501595774665475,-0.0017662824830040336
0.007068756967782974,0.008995923213660717,-0.007843861356377602,-0.007101509720087051,0.0011914112837985158,-0.0016978791682049632
0.007041430566459894,0.008988326415419579,-0.008328578434884548,-0.007350469473749399,0.0012323498958721757,-0.0016230028122663498
0.00683837104588747,0.008551222272217274,-0.008397610858082771,-0.007931246422231197,0.0012201700592413545,-0.001518271048553288
0.00728132389485836,0.009717636741697788,-0.007993226870894432,-0.007717289961874485,0.0011637239949777722,-0.0014231972163543105
0.007090775761753321,0.009141108952462673,-0.008053099736571312,-0.007333470042794943,0.0012747201835736632,-0.001399395288899541
0.007318505551666021,0.008431960828602314,-0.007969563826918602,-0.007856514304876328,0.0012587003875523806,-0.0014774578157812357
0.0076076011173427105,0.008801929652690887,-0.00781270582228899,-0.008403618820011616,0.001299652154557407,-0.0019858472514897585
0.006887635216116905,0.009068631567060947,-0.007618387695401907,-0.00801005121320486,0.0012706517009064555,-0.0021588352974504232
0.0072473580949008465,0.008824329823255539,-0.00874630268663168,-0.007805367931723595,0.001284186146222055,-0.002428888576105237
0.007155579049140215,0.008460741490125656,-0.008056232705712318,-0.007957113906741142,0.001173563883639872,-0.0023739489261060953
0.007157519459724426,0.009019899182021618,-0.00779689522460103,-0.008185806684195995,0.0011962088756263256,-0.0022207587026059628
0.006901807617396116,0.008933458477258682,-0.00806794036179781,-0.008178520947694778,0.0011682389304041862,-0.002021057764068246
0.0073005729354918,0.00895062554627657,-0.009018804877996445,-0.007910550571978092,0.0011322086211293936,-0.001958641456440091
0.007727696560323238,0.009409449994564056,-0.007929504849016666,-0.007871031761169434,0.001240926212631166,-0.0018113149562850595
0.007304002530872822,0.008960407227277756,-0.007479798048734665,-0.008258906193077564,0.0012284272816032171,-0.0018753176555037498
0.007273421622812748,0.008275517262518406,-0.008133849129080772,-0.008242359384894371,0.001196466968394816,-0.002292399061843753
0.007513409946113825,0.008379721082746983,-0.008198298513889313,-0.008283778093755245,0.0011302694911137223,-0.0025974917225539684
0.007513409946113825,0.008379721082746983,-0.008198298513889313,-0.008283778093755245,0.0011302694911137223,-0.0025974917225539684
0.007343753706663847,0.009023151360452175,-0.007989462465047836,-0.008843139745295048,0.0010985841508954763,-0.00253724935464561
0.007154371589422226,0.009288424625992775,-0.008191604167222977,-0.008763348683714867,0.001065078773535788,-0.002461435506120324
0.0076628983952105045,0.008650428615510464,-0.008448291569948196,-0.008065396919846535,0.001040666364133358,-0.002533191815018654
0.008404471911489964,0.008992655202746391,-0.007725209929049015,-0.007920213043689728,0.0010074629681184888,-0.0023943062406033278
0.00783095695078373,0.009114762768149376,-0.0075830090790987015,-0.008547790348529816,0.0010006236843764782,-0.00248431577347219
0.00810308288782835,0.008748126216232777,-0.007690791040658951,-0.008511931635439396,0.0010634269565343857,-0.002673074835911393
0.008001490496098995,0.00939322542399168,-0.008354369550943375,-0.008252988569438457,0.0011364900274202228,-0.0026164627633988857
0.007533510681241751,0.009501188062131405,-0.008010475896298885,-0.008561227470636368,0.0013190254103392363,-0.00233322917483747
0.007649003993719816,0.008588367141783237,-0.00812348909676075,-0.008033341728150845,0.0015803321730345488,-0.002445674268528819
0.007697375491261482,0.00931270606815815,-0.008160581812262535,-0.0081971799954772,0.0016088878037407994,-0.00265957647934556
0.007869739085435867,0.008662745356559753,-0.007607860025018454,-0.008314262144267559,0.0015720220981165767,-0.003429638221859932
0.007761373184621334,0.008260281756520271,-0.00806580763310194,-0.008078623563051224,0.001632606377825141,-0.0038477135822176933
0.008204150944948196,0.009534915909171104,-0.008415951393544674,-0.0086634187027812,0.001516389544121921,-0.0039324951358139515
0.00875000562518835,0.008967223577201366,-0.008763772435486317,-0.00904707983136177,0.0015521568711847067,-0.0033668268006294966
0.008054649457335472,0.009097396396100521,-0.008501729927957058,-0.00963286217302084,0.0014495550421997905,-0.0032043326646089554
0.007599130738526583,0.008845111355185509,-0.00827496312558651,-0.00935637392103672,0.0013883066130802035,-0.0029254325199872255
0.00798688642680645,0.009112653322517872,-0.008449165150523186,-0.009330476634204388,0.0014136824756860733,-0.0033210711553692818
0.008322490379214287,0.008965919725596905,-0.007882490754127502,-0.009769757278263569,0.0013138181529939175,-0.003844921011477709
0.008011958561837673,0.00887035671621561,-0.008073702454566956,-0.009536433964967728,0.0012633833102881908,-0.004229468293488026
0.008100982755422592,0.00945668201893568,-0.008393173106014729,-0.00994465034455061,0.0012862549629062414,-0.003690919606015086
0.007868190295994282,0.009173037484288216,-0.0076065463945269585,-0.01014298852533102,0.0012398636899888515,-0.003473804332315922
0.008462130092084408,0.008866878226399422,-0.007897470146417618,-0.0099555728957057,0.0012156824814155698,-0.003518059616908431
0.007974515669047832,0.009377800859510899,-0.008327057585120201,-0.010158649645745754,0.0013540000654757023,-0.003646744880825281
0.008041227236390114,0.00895683839917183,-0.008548066020011902,-0.010219250805675983,0.0013746509794145823,-0.0037714375648647547
0.008541995659470558,0.00862642377614975,-0.007885376922786236,-0.00982078816741705,0.0013472295831888914,-0.0043069408275187016
0.00807973463088274,0.00970586109906435,-0.007004543673247099,-0.01007221732288599,0.0014504659920930862,-0.004265034571290016
0.008237447589635849,0.008654064498841763,-0.008933145552873611,-0.01000471506267786,0.0014367472613230348,-0.0042504179291427135
0.008237447589635849,0.008654064498841763,-0.008933145552873611,-0.01000471506267786,0.0014367472613230348,-0.0042504179291427135
0.007818845100700855,0.008635134436190128,-0.008110124617815018,-0.00887999590486288,0.0016304210294038057,-0.004209430888295174
0.008226292207837105,0.008977798745036125,-0.007464294321835041,-0.009602352976799011,0.0016476546879857779,-0.004044171888381243
0.008204490877687931,0.009222974069416523,-0.007486830931156874,-0.010000626556575298,0.0017611045623198152,-0.004348090384155512
0.008151896297931671,0.009038969874382019,-0.007585356943309307,-0.009276133961975574,0.0017154039815068245,-0.004471178632229567
0.008378279395401478,0.009053968824446201,-0.007279804442077875,-0.009086803533136845,0.0017648471985012293,-0.004780754446983337
0.008729983121156693,0.009307287633419037,-0.007216066587716341,-0.009427415207028389,0.0016550339059904218,-0.004381798207759857
0.008438710123300552,0.009073696099221706,-0.007801642641425133,-0.009852154180407524,0.0016723617445677519,-0.004401221871376038
0.008502195589244366,0.00927096325904131,-0.007697999477386475,-0.009420442394912243,0.0016476704040542245,-0.004364872816950083
0.008392689749598503,0.008755173534154892,-0.007265247870236635,-0.009384671226143837,0.0018200207268819213,-0.00417375098913908
0.008239076472818851,0.008736984804272652,-0.007188035640865564,-0.00965931173413992,0.001692846417427063,-0.004282910842448473
0.008860945701599121,0.010268289595842361,-0.007496921811252832,-0.010630836710333824,0.00174061325378716,-0.0046669188886880875
0.008624116890132427,0.009133783169090748,-0.00731810973957181,-0.010222559794783592,0.0016946052201092243,-0.0050866915844380856
0.008005472831428051,0.00903119146823883,-0.007121128495782614,-0.010495136491954327,0.001770652481354773,-0.0049536628648638725
0.007050681859254837,0.00928470492362976,-0.007296259980648756,-0.010902761481702328,0.0016639705281704664,-0.0049514248967170715
0.009073629975318909,0.009791379794478416,-0.00785084068775177,-0.010114484466612339,0.0016699989791959524,-0.005136770196259022
0.00878621730953455,0.00941998977214098,-0.007527794688940048,-0.010575889609754086,0.0016849535750225186,-0.004667894449084997
0.008131526410579681,0.009260149672627449,-0.007251407951116562,-0.010727612301707268,0.0016143731772899628,-0.00506587652489543
0.008796264417469501,0.009429511614143848,-0.008013703860342503,-0.010018118657171726,0.0016398468287661672,-0.005413048900663853
0.008597888983786106,0.00875640008598566,-0.008448136039078236,-0.010243980213999748,0.0015133096603676677,-0.005412059370428324
0.008754362352192402,0.008987304754555225,-0.00782655831426382,-0.010753042995929718,0.0014343420043587685,-0.005691792815923691
0.008534708060324192,0.009469406679272652,-0.006986489985138178,-0.010202956385910511,0.001540317665785551,-0.005421092733740807
0.008444339036941528,0.008974980562925339,-0.007478715851902962,-0.009947819635272026,0.001510361209511757,-0.0052287643775343895
0.008590303361415863,0.008749005384743214,-0.007629589177668095,-0.010201409459114075,0.001895810361020267,-0.0051659406162798405
0.008600281551480293,0.00958640594035387,-0.007360066287219524,-0.010332378558814526,0.0017563512083142996,-0.005670948885381222
0.00896503310650587,0.009317705407738686,-0.007568487897515297,-0.010040161199867725,0.0018162839114665985,-0.006082512438297272
0.00896503310650587,0.009317705407738686,-0.007568487897515297,-0.010040161199867725,0.0018162839114665985,-0.006082512438297272
0.009309914894402027,0.009062951430678368,-0.0077295550145208836,-0.009879015386104584,0.0018314513145014644,-0.005849476903676987
0.008747697807848454,0.009673993103206158,-0.007637929171323776,-0.010061750188469887,0.001973254606127739,-0.005272366106510162
0.00885259360074997,0.009447405114769936,-0.008011461235582829,-0.01080455631017685,0.0018743551336228848,-0.004877367056906223
0.009027349762618542,0.009199797175824642,-0.007101221475750208,-0.010641973465681076,0.0016875891014933586,-0.005121810827404261
0.008840285241603851,0.009424552321434021,-0.006656249985098839,-0.010786833241581917,0.001632200786843896,-0.005247053690254688
0.008490128442645073,0.009219661355018616,-0.008068178780376911,-0.011000366881489754,0.0015564722707495093,-0.005892572924494743
0.00862717255949974,0.008893568068742752,-0.007844327948987484,-0.010625547729432583,0.0015617979224771261,-0.005594935733824968
0.008703025989234447,0.009277869947254658,-0.006991382222622633,-0.010865742340683937,0.001554319285787642,-0.005565294064581394
0.008965160697698593,0.00930153951048851,-0.007096854969859123,-0.010736001655459404,0.0015987319638952613,-0.005615636706352234
0.009372743777930737,0.00898206327110529,-0.008216212503612041,-0.010739133693277836,0.0016693819779902697,-0.005919544026255608
0.009277526289224625,0.009227855131030083,-0.007724092807620764,-0.011140587739646435,0.0017127504106611013,-0.006617120001465082
0.009549573063850403,0.009368473663926125,-0.006826080847531557,-0.011167094111442566,0.002102768747135997,-0.005764858331531286
0.009507383219897747,0.009788877330720425,-0.0075705572962760925,-0.011817868798971176,0.0020798398181796074,-0.0062616243958473206
0.008988355286419392,0.009798213839530945,-0.007476504892110825,-0.011647365055978298,0.0018089154036715627,-0.0063445474952459335
0.00895987544208765,0.009225433692336082,-0.006952743511646986,-0.011977960355579853,0.001808397937566042,-0.005750082433223724
0.009384398348629475,0.008988969959318638,-0.006975536700338125,-0.011771724559366703,0.0016810687957331538,-0.006949727889150381
0.009364389814436436,0.009668354876339436,-0.007559625431895256,-0.012098315171897411,0.0017864115070551634,-0.007057454437017441
0.009319386444985867,0.009653114713728428,-0.007260174956172705,-0.012274151667952538,0.0019208320882171392,-0.006610209587961435
0.00948583334684372,0.009451995603740215,-0.006946577224880457,-0.012123898603022099,0.0020148151088505983,-0.006458474788814783
0.009203086607158184,0.00973376352339983,-0.006845513358712196,-0.012658941559493542,0.0019290756899863482,-0.00641254149377346
0.009814662858843803,0.009901056066155434,-0.007744132075458765,-0.01227883342653513,0.001961828675121069,-0.006320889573544264
0.0097074368968606,0.00913442112505436,-0.007562382612377405,-0.01286446675658226,0.0018341448158025742,-0.006608466152101755
0.009386315010488033,0.009576991200447083,-0.007164841052144766,-0.012660352513194084,0.0019765703473240137,-0.006422088481485844
0.010082184337079525,0.009280665777623653,-0.007025312166661024,-0.013155016116797924,0.00211746571585536,-0.006605037488043308
0.009324891492724419,0.008964776061475277,-0.007479338441044092,-0.012678702361881733,0.002087547443807125,-0.006782240234315395
0.009324891492724419,0.008964776061475277,-0.007479338441044092,-0.012678702361881733,0.002087547443807125,-0.006782240234315395
0.009495707228779793,0.00929874274879694,-0.007638526614755392,-0.01301553938537836,0.002022487111389637,-0.006860807538032532
0.009560721926391125,0.008989491499960423,-0.007142557296901941,-0.013524836860597134,0.0020648008212447166,-0.0064937649294734
0.009854317642748356,0.008862138725817204,-0.007262230385094881,-0.014078180305659771,0.0022228125017136335,-0.006150742992758751
0.009713424369692802,0.009329318068921566,-0.007791673298925161,-0.013367272913455963,0.002109348075464368,-0.006447834428399801
0.00925587397068739,0.009270130656659603,-0.007800612132996321,-0.012582781724631786,0.002392012858763337,-0.006505204830318689
0.009859040379524231,0.009032224304974079,-0.007094971835613251,-0.013463969342410564,0.0023479436058551073,-0.00689229741692543
0.009853980503976345,0.009660051204264164,-0.006554305553436279,-0.013217554427683353,0.0022252248600125313,-0.006969362031668425
0.010179439559578896,0.009480420500040054,-0.007148373872041702,-0.013802099972963333,0.0020854694303125143,-0.0071091922000050545
0.009779599495232105,0.008895446546375751,-0.007417180575430393,-0.013266223482787609,0.0020169636700302362,-0.007208914961665869
0.009654223918914795,0.009116156958043575,-0.007093206979334354,-0.013435298576951027,0.001979850698262453,-0.007797082886099815
0.00988125242292881,0.009336741641163826,-0.006914508994668722,-0.013474542647600174,0.002406713319942355,-0.007570154499262571
0.009538810700178146,0.009216096252202988,-0.0071060326881706715,-0.01358871441334486,0.0026613660156726837,-0.007339585106819868
0.009382428601384163,0.009446545504033566,-0.006684220861643553,-0.013557299971580505,0.00262668589130044,-0.007981655187904835
0.01021634228527546,0.009023570455610752,-0.007241460494697094,-0.013550430536270142,0.0025372840464115143,-0.008232766762375832
0.00978103931993246,0.00886672455817461,-0.006735071539878845,-0.013357860967516899,0.0022852858528494835,-0.007849461399018764
0.01014048419892788,0.009389433078467846,-0.007319756783545017,-0.014235938899219036,0.0021860094275325537,-0.007991036400198936
0.009972359985113144,0.009319070726633072,-0.007280542049556971,-0.013978322967886925,0.0020167252514511347,-0.00824897550046444
0.010259031318128109,0.009045272134244442,-0.006948636379092932,-0.014302910305559635,0.002136153168976307,-0.008811000734567642
0.009919052943587303,0.009564562700688839,-0.006494886241853237,-0.013993855565786362,0.0022365041077136993,-0.008429569192230701
0.010191842913627625,0.00950147770345211,-0.006890945602208376,-0.014702530577778816,0.0023737752344459295,-0.0083434097468853
0.009810269810259342,0.009708244353532791,-0.007186586502939463,-0.014474757947027683,0.0027129696682095528,-0.008234980516135693
0.00994242075830698,0.009762519970536232,-0.0069982511922717094,-0.014882608316838741,0.0027767622377723455,-0.008619116619229317
0.010129324160516262,0.009248613379895687,-0.006410444620996714,-0.014443292282521725,0.002443016739562154,-0.008476221933960915
0.01022063847631216,0.009015030227601528,-0.006778066512197256,-0.014891262166202068,0.002205717610195279,-0.008549047634005547
0.009962117299437523,0.009458637796342373,-0.0071441251784563065,-0.014885623939335346,0.0020117706153541803,-0.008720748126506805
0.010007886216044426,0.00968998298048973,-0.006810628343373537,-0.015223500318825245,0.0020634736865758896,-0.008721904829144478
0.009790845215320587,0.009570414200425148,-0.0067299469374120235,-0.014754093252122402,0.002360632875934243,-0.00842437706887722
0.011102882213890553,0.009977046400308609,-0.006442253012210131,-0.014776915311813354,0.0023857434280216694,-0.008456592448055744
0.01052918378263712,0.009402141906321049,-0.007356733549386263,-0.015018733218312263,0.0024998390581458807,-0.008956940844655037
0.009653354994952679,0.00898306630551815,-0.007351113948971033,-0.01507444866001606,0.0022775300312787294,-0.008462799713015556
0.009653354994952679,0.00898306630551815,-0.007351113948971033,-0.01507444866001606,0.0022775300312787294,-0.008462799713015556
0.00981194619089365,0.009945194236934185,-0.006971999071538448,-0.014920465648174286,0.0023592524230480194,-0.008407154120504856
0.01070666778832674,0.009794114157557487,-0.006599126849323511,-0.01510707102715969,0.0026456364430487156,-0.008996655233204365
0.009979909285902977,0.009277382865548134,-0.007312758360058069,-0.015452167950570583,0.002834221813827753,-0.009290128946304321
0.009986472316086292,0.010383950546383858,-0.007186053786426783,-0.015455867163836956,0.0026871124282479286,-0.009322966448962688
0.010219820775091648,0.009823804721236229,-0.006869744509458542,-0.015750112012028694,0.002595353638753295,-0.00915467832237482
0.010221213102340698,0.009313708171248436,-0.007317370735108852,-0.015517291612923145,0.002573247067630291,-0.009814870543777943
0.01000246312469244,0.00995272770524025,-0.007793647702783346,-0.016137942671775818,0.002471747575327754,-0.0096942950040102
0.010158425197005272,0.009474916383624077,-0.007458757143467665,-0.015824494883418083,0.002314802026376128,-0.00955183245241642
0.010218199342489243,0.009640405885875225,-0.007517397403717041,-0.016003388911485672,0.002509673358872533,-0.009585021995007992
0.010597070679068565,0.010153326205909252,-0.00779430428519845,-0.016690026968717575,0.0026600018609315157,-0.00965785700827837
0.011998896487057209,0.009782668203115463,-0.0076742940582334995,-0.017257431522011757,0.0027038820553570986,-0.01053344365209341
0.012728409841656685,0.010101985186338425,-0.0075199780985713005,-0.016776425763964653,0.0025739639531821012,-0.010175912640988827
0.011790062300860882,0.009751936420798302,-0.0075341821648180485,-0.016710033640265465,0.002522973110899329,-0.010007680393755436
0.012205005623400211,0.00984742771834135,-0.007762023713439703,-0.016391586512327194,0.002710457192733884,-0.009916512295603752
0.012767446227371693,0.010411964729428291,-0.007516387850046158,-0.016817167401313782,0.002739169169217348,-0.010622125118970871
0.012523884885013103,0.00998991820961237,-0.007687225006520748,-0.016249269247055054,0.002830601530149579,-0.01035839132964611
0.012417970225214958,0.009708335623145103,-0.007455945014953613,-0.016766952350735664,0.0028289102483540773,-0.009758802130818367
0.011866739019751549,0.010174569673836231,-0.007606853265315294,-0.01719062402844429,0.002505459589883685,-0.009713987819850445
0.012206589803099632,0.009809364564716816,-0.007323333062231541,-0.01754411682486534,0.002486619632691145,-0.010570714250206947
0.012228777632117271,0.009480299428105354,-0.007354557514190674,-0.01767721027135849,0.002582667861133814,-0.010139946825802326
0.012897306121885777,0.010165700688958168,-0.007273301016539335,-0.017093807458877563,0.0027334748301655054,-0.009691147133708
0.012655041180551052,0.009634856134653091,-0.007711778860539198,-0.017040390521287918,0.002749389735981822,-0.010147564113140106
0.012545519508421421,0.010312068276107311,-0.00755168916657567,-0.01854134164750576,0.0031734518706798553,-0.009859160520136356
0.012821591459214687,0.010137111879885197,-0.007340031675994396,-0.017535898834466934,0.003302076132968068,-0.009878656826913357
0.01240286510437727,0.009413791820406914,-0.007347958628088236,-0.017384357750415802,0.003252466442063451,-0.01015365682542324
0.01240286510437727,0.009413791820406914,-0.007347958628088236,-0.017384357750415802,0.003252466442063451,-0.01015365682542324
0.012829506769776344,0.009506451897323132,-0.00762732420116663,-0.017080213874578476,0.0033612616825848818,-0.010630520060658455
0.01192757859826088,0.01043806690722704,-0.0075324238277971745,-0.017435487359762192,0.0031659610103815794,-0.010302838869392872
0.012421783059835434,0.00986332818865776,-0.008168930187821388,-0.016830550506711006,0.002890699077397585,-0.010548219084739685
0.012226385995745659,0.009991451166570187,-0.00794131774455309,-0.016766317188739777,0.0026413302402943373,-0.010391518473625183
0.012780075892806053,0.010306384414434433,-0.00820077769458294,-0.017503991723060608,0.0023516148794442415,-0.009240389801561832
0.012581189163029194,0.009725521318614483,-0.007494975812733173,-0.0175948329269886,0.002381871920078993,-0.01059646438807249
0.012854977510869503,0.010143183171749115,-0.007979050278663635,-0.018325679004192352,0.00234376173466444,-0.010394630022346973
0.01248311996459961,0.009518743492662907,-0.007549345027655363,-0.017631802707910538,0.0027357854414731264,-0.009655007161200047
0.013027835637331009,0.009714839048683643,-0.006888848729431629,-0.01755279302597046,0.002857204992324114,-0.009388195350766182
0.01270359382033348,0.010364486835896969,-0.007171225268393755,-0.017870670184493065,0.0029590241611003876,-0.009944581426680088
0.013265454210340977,0.010153938084840775,-0.007529258728027344,-0.017597001045942307,0.0029701413586735725,-0.01055116020143032
0.012985080480575562,0.009640919975936413,-0.007376639172434807,-0.017995871603488922,0.003028492908924818,-0.010021920315921307
0.012790733948349953,0.010549540631473064,-0.007020886987447739,-0.01776334084570408,0.003133630147203803,-0.009734380058944225
0.01301578525453806,0.009768527001142502,-0.006755703128874302,-0.018052753061056137,0.0030095691327005625,-0.01007213443517685
0.012410623952746391,0.010056068189442158,-0.007249648682773113,-0.01787000335752964,0.0029276274144649506,-0.010174961760640144
0.013207283802330494,0.010201219469308853,-0.007556642405688763,-0.017743926495313644,0.0028054933063685894,-0.010499720461666584
0.012871111743152142,0.010074958205223083,-0.006762325298041105,-0.01845698058605194,0.0029251081869006157,-0.01021022628992796
0.013340790756046772,0.009711121208965778,-0.006712259259074926,-0.018365127965807915,0.0027016443200409412,-0.010358326137065887
0.01288498006761074,0.010332121513783932,-0.006828210782259703,-0.018243616446852684,0.0025651324540376663,-0.010620728135108948
0.012574108317494392,0.009828615002334118,-0.007398477755486965,-0.01874815858900547,0.0027285143733024597,-0.01046068500727415
0.01265898160636425,0.010510061867535114,-0.0070987362414598465,-0.01846909709274769,0.0028480514883995056,-0.010556358844041824
0.01310907956212759,0.010334676131606102,-0.007000951562076807,-0.018406065180897713,0.00283591216430068,-0.010748601518571377
0.013320869766175747,0.009839859791100025,-0.006942858919501305,-0.018377840518951416,0.002790491096675396,-0.010474313981831074
0.0130609767511487,0.010513496585190296,-0.007424892857670784,-0.018174132332205772,0.002845289185643196,-0.010124335996806622
0.013778244145214558,0.010953240096569061,-0.007468934636563063,-0.01879754103720188,0.0029546984005719423,-0.01008193101733923
0.012809368781745434,0.010070491582155228,-0.00684838742017746,-0.01916954480111599,0.0029111672192811966,-0.010088212788105011
0.013164958916604519,0.0101310471072793,-0.006678227335214615,-0.01888810098171234,0.0028269533067941666,-0.010204481892287731
0.01299541536718607,0.010129997506737709,-0.006912519223988056,-0.018846847116947174,0.002890703035518527,-0.010355697013437748
0.01299541536718607,0.010129997506737709,-0.006912519223988056,-0.018846847116947174,0.002890703035518527,-0.010355697013437748
0.01397041417658329,0.010231700725853443,-0.007239502388983965,-0.019144615158438683,0.003052421612665057,-0.010357259772717953
0.013411176390945911,0.010102908127009869,-0.006936660036444664,-0.018850205466151237,0.00316588650457561,-0.010786834172904491
0.013146909885108471,0.009997658431529999,-0.00659074354916811,-0.01901649869978428,0.0035610476043075323,-0.010728137567639351
0.012519249692559242,0.009995406493544579,-0.007057576905936003,-0.0191844180226326,0.0033859906252473593,-0.010676140896975994
0.012946786358952522,0.009796223603188992,-0.007488178554922342,-0.01969938725233078,0.0031713589560240507,-0.010441291145980358
0.01319064013659954,0.009741448797285557,-0.006355220917612314,-0.019774911925196648,0.0030953926034271717,-0.010636139661073685
0.013112903572618961,0.010410740040242672,-0.00649416446685791,-0.019712895154953003,0.002948027802631259,-0.01054364163428545
0.013279917649924755,0.009926284663379192,-0.0073992409743368626,-0.019932987168431282,0.0028226044960319996,-0.01073254644870758
0.013470831327140331,0.010040625929832458,-0.0068680341355502605,-0.020075425505638123,0.002773895161226392,-0.010960832238197327
0.013188640587031841,0.010351958684623241,-0.006560493726283312,-0.01991719752550125,0.0030067728366702795,-0.010849284939467907
0.013648172840476036,0.009797980077564716,-0.006606342736631632,-0.019377335906028748,0.0032001114450395107,-0.011032219976186752
0.013143067248165607,0.010003350675106049,-0.007339489180594683,-0.01984812691807747,0.003139510517939925,-0.010694265365600586
0.013590115122497082,0.010764683596789837,-0.007496087346225977,-0.01976923644542694,0.0027117333374917507,-0.010549389757215977
0.01321368757635355,0.010157748125493526,-0.006747072096914053,-0.02102685160934925,0.002721776720136404,-0.010971303097903728
0.013438723981380463,0.01069304347038269,-0.006271460093557835,-0.020411740988492966,0.003005053848028183,-0.01119391992688179
0.013267619535326958,0.01011674478650093,-0.006938908249139786,-0.019504891708493233,0.0032998232636600733,-0.01085491944104433
0.013802140019834042,0.009950113482773304,-0.007077888585627079,-0.019513893872499466,0.003418969688937068,-0.010403848253190517
0.01429149229079485,0.010789296589791775,-0.006582253146916628,-0.02100815623998642,0.0031923321075737476,-0.010926940478384495
0.013964450918138027,0.010512322187423706,-0.006477504502981901,-0.02146373689174652,0.0033660277258604765,-0.011616094037890434
0.013555429875850677,0.011061911471188068,-0.006650502327829599,-0.02045883610844612,0.0031237436924129725,-0.012080381624400616
0.014132717624306679,0.01063006091862917,-0.007240130100399256,-0.020182888954877853,0.0032856122124940157,-0.011560996994376183
0.013797375373542309,0.01040702499449253,-0.006665106862783432,-0.02016894891858101,0.0033483162987977266,-0.011674907058477402
0.013937218114733696,0.009914319030940533,-0.006790390238165855,-0.02084670588374138,0.003126847790554166,-0.011490168049931526
0.014107274822890759,0.010593376122415066,-0.006769700441509485,-0.021358409896492958,0.0034168458078056574,-0.011843230575323105
0.013695938512682915,0.01033557765185833,-0.0073345983400940895,-0.02174673043191433,0.003690492594614625,-0.01202135905623436
0.013695938512682915,0.01033557765185833,-0.0073345983400940895,-0.02174673043191433,0.003690492594614625,-0.01202135905623436
0.01396002247929573,0.011108825914561749,-0.00658557889983058,-0.021864643320441246,0.0033951648510992527,-0.012133743613958359
0.01396002247929573,0.011108825914561749,-0.00658557889983058,-0.021864643320441246,0.0033951648510992527,-0.012133743613958359
0.013868487440049648,0.010451572015881538,-0.006920243613421917,-0.0217954870313406,0.002976629650220275,-0.011845064349472523
0.013868487440049648,0.010451572015881538,-0.006920243613421917,-0.0217954870313406,0.002976629650220275,-0.011845064349472523
0.014457299374043941,0.010560225695371628,-0.007168314419686794,-0.02180040068924427,0.0030596170108765364,-0.0120696434751153
0.014334935694932938,0.009990466758608818,-0.006936274003237486,-0.021944919601082802,0.0031535059679299593,-0.011939695104956627
0.014042780734598637,0.010517160408198833,-0.006360769737511873,-0.02203812077641487,0.0037037753500044346,-0.012646540999412537
0.01423005759716034,0.010804224759340286,-0.007128273136913776,-0.022365594282746315,0.0034317581448704004,-0.012338303029537201
0.014822998084127903,0.011344724334776402,-0.006773838773369789,-0.022248568013310432,0.0031909875106066465,-0.012104775756597519
0.014716430567204952,0.010335135273635387,-0.00675787590444088,-0.022246751934289932,0.0031139820348471403,-0.012535853311419487
0.01435195654630661,0.010443332605063915,-0.007143230177462101,-0.022141167894005775,0.0032611393835395575,-0.01242339238524437
0.014910710975527763,0.010533729568123817,-0.007077569607645273,-0.02277650497853756,0.003387297736480832,-0.011228221468627453
0.014615812338888645,0.01033537182956934,-0.007204084657132626,-0.022720081731677055,0.003674163715913892,-0.01294901967048645
0.015137292444705963,0.010569881647825241,-0.007343955338001251,-0.023007765412330627,0.0034826563205569983,-0.012979581952095032
0.014920314773917198,0.010660364292562008,-0.0068510607816278934,-0.02286568097770214,0.0034727633465081453,-0.012602881528437138
0.015274349600076675,0.010435281321406364,-0.006861616857349873,-0.022657224908471107,0.0032880795188248158,-0.012713250704109669
0.014732187613844872,0.010846279561519623,-0.007033015601336956,-0.023118410259485245,0.003405644791200757,-0.012565352022647858
0.014802485704421997,0.010643715970218182,-0.006700899917632341,-0.02325873263180256,0.004187901969999075,-0.012923022732138634
0.015087727457284927,0.010644401423633099,-0.006876705680042505,-0.023302314803004265,0.003837054828181863,-0.012812471948564053
0.015472072176635265,0.011052538640797138,-0.006963362917304039,-0.0231790728867054,0.0034777477849274874,-0.013146997429430485
0.01589508354663849,0.010288648307323456,-0.007670852821320295,-0.02345859445631504,0.003133674617856741,-0.013407636433839798
0.01510112825781107,0.010422591120004654,-0.006872423924505711,-0.023749668151140213,0.003290074411779642,-0.013289890252053738
0.016068797558546066,0.01110862661153078,-0.006788673810660839,-0.023903459310531616,0.0035244226455688477,-0.013169249519705772
0.015490810386836529,0.010737074539065361,-0.006715516094118357,-0.023964079096913338,0.0036680959165096283,-0.013259226456284523
0.015213149599730968,0.01056640688329935,-0.0072753275744616985,-0.02370360866189003,0.0037662021350115538,-0.012742141261696815
0.015213149599730968,0.01056640688329935,-0.0072753275744616985,-0.02370360866189003,0.0037662021350115538,-0.012742141261696815
0.014997681602835655,0.011225799098610878,-0.007135067135095596,-0.023337848484516144,0.0038662280421704054,-0.013129811733961105
0.016116922721266747,0.010378326289355755,-0.006879802793264389,-0.023738015443086624,0.003812146605923772,-0.012985040433704853
0.015711940824985504,0.011149685829877853,-0.006663077976554632,-0.024056198075413704,0.003551905043423176,-0.013352642767131329
0.016091996803879738,0.010836039669811726,-0.006983514875173569,-0.024324879050254822,0.0035399305634200573,-0.013340339064598083
0.01625797152519226,0.010631243698298931,-0.007134847342967987,-0.023719547316432,0.003957630600780249,-0.013258789665997028
0.016085559502243996,0.011484564282000065,-0.006627678871154785,-0.02393200807273388,0.004033109173178673,-0.013830532319843769
0.016327787190675735,0.010591662488877773,-0.006647919770330191,-0.024921134114265442,0.0037600132636725903,-0.013457107357680798
0.0168608445674181,0.011473161168396473,-0.0076380521059036255,-0.0240299291908741,0.0035627970937639475,-0.013599131256341934
0.01668425276875496,0.010484673082828522,-0.006927357986569405,-0.024292845278978348,0.003965592477470636,-0.013908903114497662
0.016780085861682892,0.011135872453451157,-0.006284462753683329,-0.024402236565947533,0.004120843019336462,-0.01379206869751215
0.016706790775060654,0.011238139122724533,-0.006466574501246214,-0.02452857606112957,0.003946119919419289,-0.014051255770027637
0.016765551641583443,0.010976248420774937,-0.007138053886592388,-0.025316011160612106,0.004261427093297243,-0.013789664022624493
0.016470272094011307,0.011205986142158508,-0.006877674255520105,-0.02493976801633835,0.004065727815032005,-0.01413425337523222
0.016790861263871193,0.010824307799339294,-0.006624720059335232,-0.024855837225914,0.0039746761322021484,-0.014265730045735836
0.01724690943956375,0.011137016117572784,-0.006387562956660986,-0.025753261521458626,0.004328669514507055,-0.01436510868370533
0.017227765172719955,0.011583971790969372,-0.006885970011353493,-0.02584180422127247,0.00470521068200469,-0.014093094505369663
0.017280898988246918,0.011078350245952606,-0.007223997265100479,-0.02521306648850441,0.00439672265201807,-0.014110511168837547
0.017245767638087273,0.011375973001122475,-0.006659484002739191,-0.024302691221237183,0.0041392152197659016,-0.014289424754679203
0.016800113022327423,0.0110301049426198,-0.0068629831075668335,-0.024364914745092392,0.0040296586230397224,-0.0146092614158988
0.017310407012701035,0.01078579667955637,-0.00684366375207901,-0.024612000212073326,0.003745907684788108,-0.014655566774308681
0.01722622849047184,0.01121449563652277,-0.007334329187870026,-0.02501397579908371,0.003539992729201913,-0.01463865302503109
0.017562847584486008,0.01086433231830597,-0.00673897797241807,-0.02495298534631729,0.003653433173894882,-0.014592781662940979
0.017651578411459923,0.01099331583827734,-0.006299815606325865,-0.0246934425085783,0.004133379552513361,-0.01435893028974533
0.017243463546037674,0.010693663731217384,-0.006528384517878294,-0.025239497423171997,0.004508194513618946,-0.014604414813220501
0.017535027116537094,0.010368076153099537,-0.006843602750450373,-0.02506057731807232,0.004456242546439171,-0.014696687459945679
0.017339767888188362,0.011047596111893654,-0.00718958955258131,-0.024809053167700768,0.004371732007712126,-0.014257444068789482
0.017793502658605576,0.010725096799433231,-0.006703416351228952,-0.024824364110827446,0.004108567722141743,-0.01486489363014698
0.017817705869674683,0.010955962352454662,-0.006357529200613499,-0.025010444223880768,0.004271638114005327,-0.015255244448781013
0.018195969983935356,0.011474557220935822,-0.006855475250631571,-0.025015704333782196,0.004601431544870138,-0.016156820580363274
0.018195969983935356,0.011474557220935822,-0.006855475250631571,-0.025015704333782196,0.004601431544870138,-0.016156820580363274
0.017857905477285385,0.011194892227649689,-0.007278211414813995,-0.025733571499586105,0.004355178214609623,-0.015096088871359825
0.017653563991189003,0.01065030973404646,-0.007053021807223558,-0.025865061208605766,0.0038784488569945097,-0.01493707112967968
0.017653563991189003,0.01065030973404646,-0.007053021807223558,-0.025865061208605766,0.0038784488569945097,-0.01493707112967968
0.018517062067985535,0.010564296506345272,-0.006341615691781044,-0.025924239307641983,0.0037175139877945185,-0.015748262405395508
0.018259281292557716,0.011318736709654331,-0.006701411679387093,-0.026156749576330185,0.004130084533244371,-0.015918802469968796
0.018257681280374527,0.01101514883339405,-0.006670679897069931,-0.02614590711891651,0.004661754239350557,-0.01606358215212822
0.01791440136730671,0.011042644269764423,-0.0065643978305161,-0.026388045400381088,0.004561697598546743,-0.015467912890017033
0.018333273008465767,0.010619208216667175,-0.006861055735498667,-0.026443984359502792,0.004488996230065823,-0.015731146559119225
0.01879490725696087,0.011204013600945473,-0.007163714617490768,-0.026510989293456078,0.004448560066521168,-0.01553385704755783
0.018218480050563812,0.011095337569713593,-0.006481601390987635,-0.026843363419175148,0.004305471200495958,-0.015570822171866894
0.018358448520302773,0.011995324864983559,-0.006181091535836458,-0.027165766805410385,0.004438457079231739,-0.01587018556892872
0.0182359479367733,0.01171270664781332,-0.00712112570181489,-0.027457159012556076,0.004216558765619993,-0.016333846375346184
0.018410317599773407,0.011185310781002045,-0.007618725299835205,-0.0276199858635664,0.004354284610599279,-0.016625922173261642
0.018717095255851746,0.011652893386781216,-0.006689033936709166,-0.02762879990041256,0.004613015800714493,-0.01640728861093521
0.018488913774490356,0.011467126198112965,-0.006393183954060078,-0.028654221445322037,0.004797662142664194,-0.016588300466537476
0.01820238120853901,0.011280844919383526,-0.006677443627268076,-0.028179476037621498,0.00479297898709774,-0.0162359569221735
0.018744206055998802,0.011953567154705524,-0.007482106797397137,-0.027308842167258263,0.0045056152157485485,-0.017387159168720245
0.01855507120490074,0.01138104498386383,-0.006999209988862276,-0.026658808812499046,0.004186857026070356,-0.01689375564455986
0.01864212192595005,0.011921928264200687,-0.007190030999481678,-0.027803273871541023,0.003966018557548523,-0.016627520322799683
0.01865294948220253,0.011682448908686638,-0.0065488992258906364,-0.028604427352547646,0.004368413705378771,-0.016625095158815384
0.018617181107401848,0.011033738031983376,-0.006766004022210836,-0.02881043590605259,0.004747380036860704,-0.01660318858921528
0.018911249935626984,0.011423840187489986,-0.007164002861827612,-0.028725486248731613,0.004792952444404364,-0.01682303473353386
0.01868305169045925,0.011653930880129337,-0.007025260012596846,-0.02849181555211544,0.0045143296010792255,-0.016707856208086014
0.018751276656985283,0.011961049400269985,-0.00647625932469964,-0.028265338391065598,0.004164321813732386,-0.017320074141025543
0.018751276656985283,0.011961049400269985,-0.00647625932469964,-0.028265338391065598,0.004164321813732386,-0.017320074141025543
0.01948428899049759,0.011547657661139965,-0.007203171029686928,-0.027648137882351875,0.004214675631374121,-0.017512530088424683
0.019313175231218338,0.01096335519105196,-0.0077936663292348385,-0.02809540554881096,0.004188688937574625,-0.0173182375729084
0.019106775522232056,0.011670234613120556,-0.006960177328437567,-0.029105663299560547,0.0045239282771945,-0.0174095556139946
0.01939527876675129,0.01195154432207346,-0.006356007885187864,-0.029410390183329582,0.004805585369467735,-0.017291106283664703
0.019494270905852318,0.011556969955563545,-0.0065506380051374435,-0.029309164732694626,0.00481571676209569,-0.017580578103661537
0.019618133082985878,0.011270399205386639,-0.0072739943861961365,-0.02913610450923443,0.004507594741880894,-0.017558077350258827
0.019826561212539673,0.010942401364445686,-0.007507917936891317,-0.029473932459950447,0.004514575004577637,-0.017482642084360123
0.020395437255501747,0.011935921385884285,-0.0071057770401239395,-0.02939032018184662,0.004202909301966429,-0.017621004953980446
0.02052486129105091,0.011902526952326298,-0.006901131942868233,-0.029634054750204086,0.0043837339617311954,-0.017586035653948784
0.01856776513159275,0.012201118282973766,-0.007092295214533806,-0.030520711094141006,0.005244337022304535,-0.018147705122828484
0.019720686599612236,0.011412104591727257,-0.007064095698297024,-0.030292704701423645,0.005106154829263687,-0.01789011061191559
0.020384803414344788,0.012035253457725048,-0.006992979906499386,-0.0302486140280962,0.004691518377512693,-0.01804889738559723
0.020474348217248917,0.011720304377377033,-0.00688313040882349,-0.0303094033151865,0.004387815482914448,-0.017976272851228714
0.020279325544834137,0.012386281043291092,-0.007185422349721193,-0.03038209117949009,0.004388800356537104,-0.018090028315782547
0.020252928137779236,0.01163164246827364,-0.007085707969963551,-0.03035130351781845,0.005017662886530161,-0.018558643758296967
0.020841624587774277,0.011647477746009827,-0.007041758392006159,-0.030853869393467903,0.005054490175098181,-0.01828841120004654
0.020741216838359833,0.011790885590016842,-0.007567898835986853,-0.03078177385032177,0.005357692949473858,-0.018182169646024704
0.0210733562707901,0.011635726317763329,-0.00787279475480318,-0.03085508942604065,0.0052525075152516365,-0.018475154414772987
0.020473191514611244,0.012146283872425556,-0.007050496060401201,-0.030615994706749916,0.004935396369546652,-0.01844528317451477
0.02066316083073616,0.01193130575120449,-0.0067235250025987625,-0.03070760890841484,0.004610420670360327,-0.0186208114027977
0.020032377913594246,0.011988135986030102,-0.006897090468555689,-0.030718917027115822,0.004525500349700451,-0.01830744929611683
0.02038361132144928,0.012249821797013283,-0.007540633901953697,-0.030843079090118408,0.004812830593436956,-0.018093504011631012
0.020912207663059235,0.011827978305518627,-0.007271023467183113,-0.030909141525626183,0.0055573005229234695,-0.018462877720594406
0.021506864577531815,0.012325331568717957,-0.007015384268015623,-0.03076239302754402,0.005513873416930437,-0.018499748781323433
0.02111337147653103,0.01200170535594225,-0.007110296282917261,-0.03088214062154293,0.0048399921506643295,-0.018601924180984497
0.020786743611097336,0.012203771620988846,-0.007510664407163858,-0.03162751719355583,0.004376169294118881,-0.018459750339388847
0.021185342222452164,0.011987319216132164,-0.007308084052056074,-0.03186549246311188,0.004500556271523237,-0.01771819405257702
0.021121254190802574,0.012184757739305496,-0.007054619491100311,-0.030675262212753296,0.0050955782644450665,-0.018224867060780525
0.02134784683585167,0.012292605824768543,-0.006972955074161291,-0.029662977904081345,0.005145097617059946,-0.01925797387957573
0.020752348005771637,0.011937389150261879,-0.007400200702250004,-0.030834386125206947,0.005193009972572327,-0.019161729142069817
0.020752348005771637,0.011937389150261879,-0.007400200702250004,-0.030834386125206947,0.005193009972572327,-0.019161729142069817
0.021368201822042465,0.012211334891617298,-0.006904955953359604,-0.031022699549794197,0.005449586547911167,-0.01840224862098694
0.021450994536280632,0.011893481016159058,-0.007181086577475071,-0.031390413641929626,0.004615867044776678,-0.01854494959115982
0.02124037779867649,0.012383583933115005,-0.0074165198020637035,-0.03261058032512665,0.004473081324249506,-0.018307670950889587
0.021180137991905212,0.012164488434791565,-0.007220573257654905,-0.03270196542143822,0.004883121233433485,-0.017757436260581017
0.021708587184548378,0.012125113978981972,-0.006875915918499231,-0.031323619186878204,0.005165731534361839,-0.017793480306863785
0.021400831639766693,0.011992564424872398,-0.006400199141353369,-0.033209022134542465,0.005708696786314249,-0.01898692175745964
0.02124175988137722,0.012440929189324379,-0.006590383592993021,-0.03365502879023552,0.005255484953522682,-0.019181333482265472
0.021516134962439537,0.012235764414072037,-0.0069114649668335915,-0.03377325087785721,0.0051013692282140255,-0.018536150455474854
0.021763579919934273,0.012503331527113914,-0.006463388446718454,-0.03352466970682144,0.005080695729702711,-0.018535872921347618
0.02174820564687252,0.012455873191356659,-0.006185007747262716,-0.033966582268476486,0.005356715526431799,-0.019106503576040268
0.021605735644698143,0.012485964223742485,-0.006520445924252272,-0.03384784981608391,0.0056954724714159966,-0.019595811143517494
0.021801447495818138,0.01293201744556427,-0.007153199519962072,-0.03421318158507347,0.005509990267455578,-0.0196967925876379
0.021881014108657837,0.012258182279765606,-0.006880231201648712,-0.03409339487552643,0.005033870693296194,-0.019317682832479477
0.02107294090092182,0.013023429550230503,-0.006596618331968784,-0.033990100026130676,0.004854702856391668,-0.019422637298703194
0.02259794808924198,0.012349200434982777,-0.00633874861523509,-0.03384750336408615,0.0051563093438744545,-0.019391166046261787
0.022381862625479698,0.012770011089742184,-0.006885683164000511,-0.03407029062509537,0.005308204796165228,-0.019445881247520447
0.022713420912623405,0.01269286684691906,-0.006784687750041485,-0.03439309448003769,0.005260871723294258,-0.01985876075923443
0.022770730778574944,0.012633534148335457,-0.006750887725502253,-0.03438754007220268,0.005234576296061277,-0.020519310608506203
0.022254187613725662,0.012760428711771965,-0.006655270699411631,-0.034323763102293015,0.00506382342427969,-0.02024998515844345
0.021644633263349533,0.012089128606021404,-0.007264703046530485,-0.03457854688167572,0.005224643275141716,-0.019923271611332893
0.022618373855948448,0.012678543105721474,-0.007067088503390551,-0.03522440418601036,0.005365285556763411,-0.020224060863256454
0.022928882390260696,0.012495744042098522,-0.0062849270179867744,-0.03545072674751282,0.005423174239695072,-0.020188109949231148
0.023077648133039474,0.013126096688210964,-0.006491661071777344,-0.035934608429670334,0.0059724124148488045,-0.020174872130155563
0.022231189534068108,0.012675277888774872,-0.0071916235610842705,-0.03462480008602142,0.005318953189998865,-0.020418036729097366
0.022823186591267586,0.012791293673217297,-0.007651258260011673,-0.03650406002998352,0.0052100312896072865,-0.02031616121530533
0.023914195597171783,0.012721260078251362,-0.006926774978637695,-0.037452299147844315,0.005110796075314283,-0.020716620609164238
0.023914195597171783,0.012721260078251362,-0.006926774978637695,-0.037452299147844315,0.005110796075314283,-0.020716620609164238
0.02330048754811287,0.012322437949478626,-0.006103524938225746,-0.03571155667304993,0.0053290706127882,-0.02057783119380474
0.02299705520272255,0.013075383380055428,-0.006306902505457401,-0.03507488593459129,0.005641532596200705,-0.020556773990392685
0.022288871929049492,0.012654514983296394,-0.006785156670957804,-0.03694106638431549,0.005297528114169836,-0.020906109362840652
0.022678064182400703,0.012806043028831482,-0.007236792240291834,-0.037147156894207,0.005668924190104008,-0.020744403824210167
0.022909192368388176,0.012330381199717522,-0.006589297205209732,-0.03715698793530464,0.005592274945229292,-0.020521748811006546
0.023410852998495102,0.013012382201850414,-0.006047332659363747,-0.03759671375155449,0.005314144771546125,-0.020674090832471848
0.0228416807949543,0.012568937614560127,-0.00703824870288372,-0.036247946321964264,0.005937712732702494,-0.020457817241549492
0.023275107145309448,0.012861665338277817,-0.00744291627779603,-0.037010759115219116,0.005936088971793652,-0.0205321554094553
0.02348700910806656,0.012451131828129292,-0.006489947438240051,-0.03738240525126457,0.0058804708532989025,-0.020845910534262657
0.023272428661584854,0.012906208634376526,-0.006467707455158234,-0.03720880672335625,0.005562083330005407,-0.02081872522830963
0.02282530441880226,0.012613950297236443,-0.007029681000858545,-0.03716064244508743,0.005646085832268,-0.02090884931385517
0.022594662383198738,0.01325394120067358,-0.007514198310673237,-0.03715869411826134,0.00532514275982976,-0.02132728509604931
0.023379288613796234,0.0127637954428792,-0.007383085787296295,-0.03805594891309738,0.005599673837423325,-0.021259773522615433
0.02365761063992977,0.012727187015116215,-0.006950879469513893,-0.037623416632413864,0.005452386103570461,-0.02138335630297661
0.023524874821305275,0.012911968864500523,-0.006498175207525492,-0.037239380180835724,0.005586500279605389,-0.02176513709127903
0.023561224341392517,0.012709499336779118,-0.0071888878010213375,-0.037412215024232864,0.005255825351923704,-0.02192666009068489
0.02397225610911846,0.013186061754822731,-0.006754106841981411,-0.037896666675806046,0.005372429732233286,-0.02170584537088871
0.02374737337231636,0.012527234852313995,-0.006619314197450876,-0.03771533444523811,0.005617873277515173,-0.02206847071647644
0.02380744367837906,0.013037603348493576,-0.006663388106971979,-0.0378439798951149,0.005636234767735004,-0.022463195025920868
0.02389513887465,0.012878413312137127,-0.007536991033703089,-0.037967171519994736,0.005398133769631386,-0.022447751834988594
0.022000126540660858,0.013243294321000576,-0.006889317184686661,-0.0378277450799942,0.005793469958007336,-0.023214207962155342
0.02431265264749527,0.012924866750836372,-0.006188105791807175,-0.03778432309627533,0.005759380757808685,-0.02267894707620144
0.024416491389274597,0.013295605778694153,-0.00648706778883934,-0.03826024755835533,0.00602934043854475,-0.02125999890267849
0.024241888895630836,0.013098426163196564,-0.007396620698273182,-0.038021743297576904,0.006054208613932133,-0.021306322887539864
0.024348508566617966,0.013029813766479492,-0.0078001366928219795,-0.0379435271024704,0.005984957329928875,-0.02251163311302662
0.024312078952789307,0.013060512021183968,-0.007043950725346804,-0.03760368376970291,0.005988679360598326,-0.022688567638397217
0.024312078952789307,0.013060512021183968,-0.007043950725346804,-0.03760368376970291,0.005988679360598326,-0.022688567638397217
0.024182286113500595,0.013104685582220554,-0.006244697142392397,-0.037450920790433884,0.005391257815063,-0.022258570417761803
0.02422478422522545,0.0132290069013834,-0.006405411288142204,-0.03862221911549568,0.005328088533133268,-0.02244449406862259
0.024509122595191002,0.012684240005910397,-0.00728940824046731,-0.03937070816755295,0.005536760203540325,-0.023149041458964348
0.02410997450351715,0.01342292595654726,-0.006909106858074665,-0.037575796246528625,0.005445325281471014,-0.023653248324990273
0.024577395990490913,0.012877415865659714,-0.00660193245857954,-0.03835819289088249,0.005662114359438419,-0.02252158150076866
0.024386070668697357,0.013225994072854519,-0.007116304710507393,-0.04018399119377136,0.005536721553653479,-0.02238636650145054
0.0245305635035038,0.013514526188373566,-0.007300228346139193,-0.041215911507606506,0.005532064475119114,-0.022920044139027596
0.024442115798592567,0.013354836963117123,-0.0065777781419456005,-0.03913992643356323,0.005781743675470352,-0.023326318711042404
0.024344123899936676,0.013502409681677818,-0.006567794363945723,-0.03898376598954201,0.00613703578710556,-0.023127976804971695
0.02425736002624035,0.01303374208509922,-0.0067865378223359585,-0.040860265493392944,0.0056202528066933155,-0.023133110255002975
0.02444668859243393,0.01310624461621046,-0.00746499327942729,-0.04056059196591377,0.005874647758901119,-0.022820817306637764
0.024470994248986244,0.013351905159652233,-0.006754204165190458,-0.04050448536872864,0.006008048076182604,-0.022656582295894623
0.02420135959982872,0.012606792151927948,-0.006488913204520941,-0.04017524793744087,0.006404755637049675,-0.022697193548083305
0.024788284674286842,0.01307432260364294,-0.006523658521473408,-0.03988608345389366,0.006684735417366028,-0.02302033267915249
0.02493957430124283,0.01297221053391695,-0.007015918381512165,-0.04045290872454643,0.006090100388973951,-0.02268492802977562
0.025072909891605377,0.01346434373408556,-0.0067544132471084595,-0.03976680338382721,0.005958623252809048,-0.022722536697983742
0.025080416351556778,0.012949514202773571,-0.006439714226871729,-0.040003515779972076,0.006396599113941193,-0.023008719086647034
0.0244043730199337,0.013060369528830051,-0.006560696288943291,-0.04063127562403679,0.0062749674543738365,-0.02287629246711731
0.02474324218928814,0.012746211141347885,-0.0069293491542339325,-0.04091384634375572,0.006087328307330608,-0.023035766556859016
0.02566009946167469,0.01292312890291214,-0.007113443687558174,-0.04180600494146347,0.005995326675474644,-0.02288767136633396
0.025792045518755913,0.012796666473150253,-0.0066185905598104,-0.041961669921875,0.006424768827855587,-0.022952891886234283
0.02527826465666294,0.013005038723349571,-0.006530215032398701,-0.0421956330537796,0.0066613489761948586,-0.023398716002702713
0.025459185242652893,0.013128704391419888,-0.007189678493887186,-0.041376907378435135,0.006206445395946503,-0.02318255417048931
0.025913063436746597,0.012693832628428936,-0.007646343670785427,-0.0432344526052475,0.005848831497132778,-0.02316533960402012
0.024938121438026428,0.013591457158327103,-0.006522203329950571,-0.043436549603939056,0.005822122562676668,-0.023855578154325485
0.024938121438026428,0.013591457158327103,-0.006522203329950571,-0.043436549603939056,0.005822122562676668,-0.023855578154325485
0.025196878239512444,0.013394713401794434,-0.007011208683252335,-0.04206868261098862,0.00674127833917737,-0.023102790117263794
0.02530570514500141,0.012871800921857357,-0.007700810208916664,-0.04285896569490433,0.006411898415535688,-0.0236151572316885
0.02584255114197731,0.013310140930116177,-0.007151326164603233,-0.04391126334667206,0.006407094653695822,-0.023581266403198242
0.02584255114197731,0.013310140930116177,-0.007151326164603233,-0.04391126334667206,0.006407094653695822,-0.023581266403198242
0.026062441989779472,0.013143032789230347,-0.006496830843389034,-0.04392600804567337,0.006399858742952347,-0.02376002073287964
0.026334242895245552,0.013108139857649803,-0.006948473863303661,-0.04184332862496376,0.006298528052866459,-0.02386435680091381
0.026395857334136963,0.01255088672041893,-0.00711799506098032,-0.04274104908108711,0.006032153032720089,-0.02397385612130165
0.02573024109005928,0.012988933362066746,-0.006867621093988419,-0.04275721311569214,0.006855086889117956,-0.023646513000130653
0.025753242895007133,0.01267740037292242,-0.006749279331415892,-0.04282812401652336,0.0065832887776196,-0.02383178286254406
0.026192521676421165,0.013573311269283295,-0.006670035421848297,-0.042402107268571854,0.006255668122321367,-0.023970065638422966
0.026587318629026413,0.012927442789077759,-0.006888796575367451,-0.042904600501060486,0.0064263781532645226,-0.024047601968050003
0.026539446786046028,0.013668017461895943,-0.006514057517051697,-0.04294806346297264,0.006323578301817179,-0.023625217378139496
0.026292147114872932,0.012910657562315464,-0.006556283216923475,-0.04275781288743019,0.006114480551332235,-0.02365988865494728
0.02699369564652443,0.01336275227367878,-0.006668667308986187,-0.04324028268456459,0.006377442739903927,-0.023387132212519646
0.02714361995458603,0.013374034315347672,-0.007473924197256565,-0.04360881820321083,0.006345939356833696,-0.024185579270124435
0.02727077342569828,0.01330405380576849,-0.006955123972147703,-0.04336082190275192,0.006649811752140522,-0.02507651038467884
0.02687693201005459,0.013353364542126656,-0.00655099842697382,-0.04341474920511246,0.006837248802185059,-0.02497483789920807
0.026861971244215965,0.01270635798573494,-0.006393353920429945,-0.04391756281256676,0.006728901527822018,-0.02424413152039051
0.027043519541621208,0.013176978565752506,-0.00713135814294219,-0.0444767028093338,0.00626010587438941,-0.02396376244723797
0.027043519541621208,0.013176978565752506,-0.00713135814294219,-0.0444767028093338,0.00626010587438941,-0.02396376244723797
0.02779226005077362,0.013582069426774979,-0.006536985281854868,-0.04470357671380043,0.006498889531940222,-0.023813797160983086
0.02779226005077362,0.013582069426774979,-0.006536985281854868,-0.04470357671380043,0.006498889531940222,-0.023813797160983086
0.02657686360180378,0.013638257049024105,-0.0065868915989995,-0.04505803436040878,0.006150990258902311,-0.02426926977932453
0.027409067377448082,0.013360037468373775,-0.00706299627199769,-0.04552857205271721,0.0062606981955468655,-0.024597054347395897
0.028394227847456932,0.013866906054317951,-0.006828650366514921,-0.04697674885392189,0.006260880269110203,-0.02542140707373619
0.028394227847456932,0.013866906054317951,-0.006828650366514921,-0.04697674885392189,0.006260880269110203,-0.02542140707373619
0.028023086488246918,0.013535341247916222,-0.0062395487911999226,-0.04374329373240471,0.0065003372728824615,-0.024197401478886604
0.028023086488246918,0.013535341247916222,-0.0062395487911999226,-0.04374329373240471,0.0065003372728824615,-0.024197401478886604
0.028523968532681465,0.01349310576915741,-0.006828111130744219,-0.045240141451358795,0.006502839736640453,-0.0236971452832222
0.028317462652921677,0.013622322119772434,-0.007039873395115137,-0.046043481677770615,0.006364153232425451,-0.0237819142639637
0.02785239741206169,0.013798876665532589,-0.00655727693811059,-0.04661335423588753,0.006464734673500061,-0.02439572475850582
0.027001963928341866,0.014065919443964958,-0.0062106214463710785,-0.045541997998952866,0.006535839755088091,-0.025152141228318214
0.02801295556128025,0.013920554891228676,-0.0063035194762051105,-0.044852569699287415,0.0065600150264799595,-0.025520069524645805
0.028368134051561356,0.013448433950543404,-0.007029631175100803,-0.04702102392911911,0.00677775964140892,-0.025234989821910858
0.02795472741127014,0.013458135537803173,-0.006636188831180334,-0.046536318957805634,0.006777744274586439,-0.025564221665263176
0.02855059690773487,0.014013540931046009,-0.006523445714265108,-0.046956539154052734,0.0067998263984918594,-0.025833701714873314
0.02844315767288208,0.013479159213602543,-0.006865442264825106,-0.04706982523202896,0.0066598705016076565,-0.025757260620594025
0.028330491855740547,0.014341441914439201,-0.0071718585677444935,-0.046638261526823044,0.006435546558350325,-0.025689829140901566
0.028467779979109764,0.013588153757154942,-0.0066275158897042274,-0.04633636772632599,0.00681254081428051,-0.025773024186491966
0.028242243453860283,0.013793501071631908,-0.006605856586247683,-0.04652006924152374,0.006768463645130396,-0.02569790557026863
0.028328681364655495,0.013593047857284546,-0.006694347597658634,-0.046645499765872955,0.006687784101814032,-0.025949621573090553
0.02836299128830433,0.014062871225178242,-0.00732847023755312,-0.04484713077545166,0.006532356142997742,-0.026031240820884705
0.028685355558991432,0.01348754670470953,-0.006800197064876556,-0.04556569084525108,0.006449853535741568,-0.02548965997993946
0.028761111199855804,0.013992627151310444,-0.006376928184181452,-0.04877740144729614,0.007012943271547556,-0.025889500975608826
0.02925887145102024,0.013206885196268559,-0.0065506938844919205,-0.04739422723650932,0.006741364952176809,-0.025966979563236237
0.029072502627968788,0.013848126865923405,-0.007317830342799425,-0.044730328023433685,0.0067241014912724495,-0.025932788848876953
0.028913015499711037,0.01366446353495121,-0.007525256369262934,-0.045432791113853455,0.006614021956920624,-0.025900105014443398
0.028998125344514847,0.014329538680613041,-0.0069198086857795715,-0.04528195783495903,0.007115456275641918,-0.025959106162190437
0.029315724968910217,0.014111347496509552,-0.0066004530526697636,-0.046866562217473984,0.006645335350185633,-0.02638988196849823
0.02882388047873974,0.014219384640455246,-0.006760140880942345,-0.04532153159379959,0.006543263327330351,-0.02606368251144886
0.027700599282979965,0.013619020581245422,-0.007231211755424738,-0.04396337643265724,0.006404063664376736,-0.02641739509999752
0.02969740331172943,0.014215035364031792,-0.00690463138744235,-0.0460268072783947,0.0063938903622329235,-0.027510976418852806
0.02960202284157276,0.014080465771257877,-0.006801871582865715,-0.04638703539967537,0.006761930882930756,-0.02752024494111538
0.02873612381517887,0.014248288236558437,-0.006953697185963392,-0.04616497829556465,0.006710248999297619,-0.026076138019561768
0.02873612381517887,0.014248288236558437,-0.006953697185963392,-0.04616497829556465,0.006710248999297619,-0.026076138019561768
0.028859052807092667,0.013899755664169788,-0.00734473904594779,-0.04609289392828941,0.006870000623166561,-0.025083640590310097
0.029123730957508087,0.01386362686753273,-0.006768359802663326,-0.04681052267551422,0.006733725778758526,-0.02604009211063385
0.029241764917969704,0.014098839834332466,-0.007172152400016785,-0.04760296642780304,0.006604291032999754,-0.027315348386764526
0.02893879823386669,0.014030811376869678,-0.006553546991199255,-0.04743729904294014,0.006901490967720747,-0.026666291058063507
0.02912544459104538,0.014301428571343422,-0.007120552472770214,-0.047814179211854935,0.0065850322134792805,-0.027973514050245285
0.028927575796842575,0.014447608031332493,-0.007181249093264341,-0.047449834644794464,0.0070135993883013725,-0.027665335685014725
0.028769800439476967,0.014412684366106987,-0.007127588149160147,-0.04743700847029686,0.006938821170479059,-0.025850452482700348
0.029028385877609253,0.014512140303850174,-0.007395177148282528,-0.04787563905119896,0.007287506479769945,-0.02597229555249214
0.028626253828406334,0.014255939051508904,-0.007065264508128166,-0.04731824994087219,0.007082104682922363,-0.027357781305909157
0.02874399907886982,0.014434807002544403,-0.007344352081418037,-0.04786108806729317,0.006775169167667627,-0.027222882956266403
0.029866596683859825,0.014598418027162552,-0.007685117423534393,-0.048121605068445206,0.006699202582240105,-0.026665883138775826
0.0296085886657238,0.014545952901244164,-0.007839078083634377,-0.048370808362960815,0.007778361439704895,-0.027104459702968597
0.028207145631313324,0.014134097844362259,-0.007509578950703144,-0.04801462963223457,0.007231480907648802,-0.027125325053930283
0.028531188145279884,0.014591118320822716,-0.007349482271820307,-0.048012908548116684,0.006826858501881361,-0.02751956135034561
0.02945348061621189,0.014642063528299332,-0.006890279706567526,-0.050141267478466034,0.006581893190741539,-0.02749520167708397
0.02896866388618946,0.014941921457648277,-0.008035233244299889,-0.04905333369970322,0.006935168989002705,-0.026929637417197227
0.029493626207113266,0.014784146100282669,-0.00783556792885065,-0.04843432456254959,0.007099888753145933,-0.02711506560444832
0.030253004282712936,0.01454666256904602,-0.007523678708821535,-0.04956834018230438,0.007151590660214424,-0.02735489420592785
0.029520800337195396,0.014718943275511265,-0.007142219226807356,-0.05083034932613373,0.007063394878059626,-0.02774004451930523
0.028974521905183792,0.014498707838356495,-0.007567430380731821,-0.05118592828512192,0.006950112991034985,-0.027344675734639168
0.028540894389152527,0.016523446887731552,-0.007581877987831831,-0.04844139143824577,0.0066741821356117725,-0.027070030570030212
0.028540894389152527,0.016523446887731552,-0.007581877987831831,-0.04844139143824577,0.0066741821356117725,-0.027070030570030212
0.029750879853963852,0.015211638994514942,-0.007200227119028568,-0.050561852753162384,0.007503238040953875,-0.02732425555586815
0.029750879853963852,0.015211638994514942,-0.007200227119028568,-0.050561852753162384,0.007503238040953875,-0.02732425555586815
0.0291499812155962,0.014791560359299183,-0.007513724733144045,-0.049953147768974304,0.007490620017051697,-0.027433546259999275
0.02910720184445381,0.014512363821268082,-0.007813348434865475,-0.04930819943547249,0.0066915713250637054,-0.027221832424402237
0.029581602662801743,0.014554752968251705,-0.007360172923654318,-0.04880806803703308,0.006495513953268528,-0.02764272689819336
0.0294250026345253,0.014967041090130806,-0.007111474871635437,-0.04927545413374901,0.0066329664550721645,-0.027404053136706352
0.029112301766872406,0.014642847701907158,-0.00756596215069294,-0.04984971135854721,0.006742238532751799,-0.027529820799827576
0.029581183567643166,0.015697332099080086,-0.008032170124351978,-0.04956115037202835,0.007094933185726404,-0.027786195278167725
0.029573308303952217,0.015039868652820587,-0.007030780427157879,-0.04913944751024246,0.0068960608914494514,-0.027726970613002777
0.02992803417146206,0.01431085541844368,-0.007845841348171234,-0.05115784332156181,0.007014541421085596,-0.028034701943397522
0.029966410249471664,0.015035943128168583,-0.007032779045403004,-0.04877028986811638,0.007113670464605093,-0.027951566502451897
0.02962648496031761,0.014330859296023846,-0.00658161798492074,-0.048115942627191544,0.007202445063740015,-0.02775345742702484
0.02997937984764576,0.015099255368113518,-0.007172359619289637,-0.049398280680179596,0.007359690498560667,-0.02765676937997341
0.03115837089717388,0.014665312133729458,-0.00763685442507267,-0.05109229311347008,0.007293981034308672,-0.0275739673525095
0.031328555196523666,0.01487766858190298,-0.007630169857293367,-0.05019659921526909,0.007168401498347521,-0.027630092576146126
0.030501561239361763,0.01441733818501234,-0.007062547840178013,-0.04928029328584671,0.007199734915047884,-0.02740594930946827
0.030160946771502495,0.014713089913129807,-0.007276988122612238,-0.05088333040475845,0.00734188687056303,-0.027088712900877
0.03096112608909607,0.01454792357981205,-0.00784215983003378,-0.051281288266181946,0.007345786318182945,-0.028878845274448395
0.030606770887970924,0.014518632553517818,-0.007591337896883488,-0.05046488344669342,0.00731641286984086,-0.0280799251049757
0.030756119638681412,0.014725231565535069,-0.007265059277415276,-0.050477515906095505,0.007393027655780315,-0.027562767267227173
0.03194380924105644,0.01556807104498148,-0.00724319601431489,-0.05065258592367172,0.007476124446839094,-0.027577240020036697
0.03158215433359146,0.014999685809016228,-0.007835711352527142,-0.05036581680178642,0.007370487786829472,-0.02702089585363865
0.030564265325665474,0.01466960646212101,-0.007989510893821716,-0.05046922713518143,0.0072874948382377625,-0.027605945244431496
0.03024992160499096,0.014646085910499096,-0.007025409955531359,-0.05074110999703407,0.007075413130223751,-0.028886426240205765
0.03024992160499096,0.014646085910499096,-0.007025409955531359,-0.05074110999703407,0.007075413130223751,-0.028886426240205765
0.03162197396159172,0.015335113741457462,-0.007145124953240156,-0.051311053335666656,0.007219154853373766,-0.02867714874446392
0.03178705647587776,0.01469217799603939,-0.008340740576386452,-0.05179759860038757,0.007472272031009197,-0.028895486146211624
0.03177502006292343,0.014584421180188656,-0.008095872588455677,-0.051720261573791504,0.007886449806392193,-0.029433099552989006
0.03188113495707512,0.014667619951069355,-0.0075336117297410965,-0.052082609385252,0.0076933675445616245,-0.029095422476530075
0.03172216936945915,0.014716261997818947,-0.007414791267365217,-0.051703330129384995,0.0073059480637311935,-0.028293069452047348
0.031727615743875504,0.015019962564110756,-0.00761102931573987,-0.052399247884750366,0.007639531046152115,-0.027658594772219658
0.03205493092536926,0.015178022906184196,-0.007398255169391632,-0.0531979538500309,0.007583494298160076,-0.028824467211961746
0.032037388533353806,0.014829769730567932,-0.00737842358648777,-0.05189282447099686,0.006902675610035658,-0.028962546959519386
0.032037388533353806,0.014829769730567932,-0.00737842358648777,-0.05189282447099686,0.006902675610035658,-0.028962546959519386
0.03197063133120537,0.015170362778007984,-0.007531475275754929,-0.05237670615315437,0.0073034493252635,-0.028819527477025986
0.032068971544504166,0.014782959595322609,-0.007349682971835136,-0.053397491574287415,0.007530163042247295,-0.028958985581994057
0.03253599628806114,0.01488464418798685,-0.0076888129115104675,-0.051338013261556625,0.007642895914614201,-0.029021698981523514
0.032876912504434586,0.015148000791668892,-0.00793593842536211,-0.05256534740328789,0.007555460557341576,-0.029175279662013054
0.03226583078503609,0.015214205719530582,-0.007589086424559355,-0.05394301936030388,0.0074547454714775085,-0.02916537970304489
0.03233078867197037,0.01561799831688404,-0.007506245281547308,-0.051300011575222015,0.007415602914988995,-0.02955641783773899
0.032762691378593445,0.015041382052004337,-0.007033193483948708,-0.050103560090065,0.007325921207666397,-0.0291975699365139
0.03278634324669838,0.015390792861580849,-0.007972542196512222,-0.051493626087903976,0.007961239665746689,-0.02965513989329338
0.0326521098613739,0.014971771277487278,-0.007908000610768795,-0.051934968680143356,0.008208573795855045,-0.028825633227825165
0.033208321779966354,0.015200331807136536,-0.007465867791324854,-0.05154946818947792,0.007791998330503702,-0.028966162353754044
0.032847125083208084,0.015006559900939465,-0.007349438965320587,-0.05164085701107979,0.007933767512440681,-0.029165711253881454
0.0331253819167614,0.015301166102290154,-0.007110489532351494,-0.05153922364115715,0.007895777001976967,-0.029105668887495995
0.032795850187540054,0.01461714319884777,-0.0073769837617874146,-0.05159056931734085,0.007345148362219334,-0.029947252944111824
0.03276482969522476,0.015073682181537151,-0.007378586567938328,-0.051480017602443695,0.007739659398794174,-0.03054789826273918
0.0329141803085804,0.015447205863893032,-0.006688528694212437,-0.0510692223906517,0.007858029566705227,-0.030919717624783516
0.032863158732652664,0.015359354205429554,-0.006506877485662699,-0.05298185721039772,0.00798939261585474,-0.03002585470676422
0.03286352381110191,0.015345647931098938,-0.00696916738525033,-0.05155676230788231,0.008141017518937588,-0.02875536121428013
0.03338990733027458,0.015355617739260197,-0.007094773929566145,-0.05049196630716324,0.007896166294813156,-0.028723176568746567
0.03356202691793442,0.01563422940671444,-0.006908214185386896,-0.05128674581646919,0.007865098305046558,-0.02959759347140789
0.03356202691793442,0.01563422940671444,-0.006908214185386896,-0.05128674581646919,0.007865098305046558,-0.02959759347140789
0.03327615559101105,0.015363490208983421,-0.007224095985293388,-0.05365630239248276,0.0077565559186041355,-0.029656914994120598
0.03269750252366066,0.015736771747469902,-0.007588938809931278,-0.05097627267241478,0.007523677311837673,-0.029942963272333145
0.033947259187698364,0.015227808617055416,-0.007584414444863796,-0.05071115866303444,0.007458596955984831,-0.03088301047682762
0.034262485802173615,0.015652187168598175,-0.007050071842968464,-0.051981523633003235,0.007465093396604061,-0.03004278987646103
0.033183757215738297,0.01514161191880703,-0.006589717231690884,-0.05253608524799347,0.00785905122756958,-0.029139457270503044
