davideferrari95/blind_handover_controller/data/Test 49 - [2024-02-07 -- 15-10-31]/joint_states_data.csv
shoulder_pan_joint,shoulder_lift_joint,elbow_joint,wrist_1_joint,wrist_2_joint,wrist_3_joint
0.007928580045700073,-0.004857406951487064,-0.012623167596757412,0.015328270383179188,0.0001704050664557144,0.007545461878180504
0.007355155423283577,-0.004797931760549545,-0.01219089888036251,0.015634573996067047,0.000171523483004421,0.007475886028259993
0.007355155423283577,-0.004797931760549545,-0.01219089888036251,0.015634573996067047,0.000171523483004421,0.007475886028259993
0.00814104825258255,-0.005095676518976688,-0.012533982284367085,0.015295209363102913,0.00016786246851552278,0.007556903641670942
0.007874898612499237,-0.004994404036551714,-0.012608438730239868,0.015342548489570618,0.00016405960195697844,0.007663401775062084
0.007289305794984102,-0.004699492361396551,-0.012142970226705074,0.014817136339843273,0.00016040602349676192,0.007163170725107193
0.007006881292909384,-0.004749187268316746,-0.012737263925373554,0.015218793414533138,0.00016891588165890425,0.0072725750505924225
0.007517690770328045,-0.0048255012370646,-0.012087779119610786,0.014678009785711765,0.00017403601668775082,0.007078257389366627
0.00786115974187851,-0.005085223354399204,-0.01235876977443695,0.015149164013564587,0.00016828921798150986,0.00729628698900342
0.007502387277781963,-0.005568391177803278,-0.012322262860834599,0.014619451016187668,0.00016226932348217815,0.007498760707676411
0.007502387277781963,-0.005568391177803278,-0.012322262860834599,0.014619451016187668,0.00016226932348217815,0.007498760707676411
0.007252510637044907,-0.004500480368733406,-0.012355049140751362,0.014495535753667355,0.00015135564899537712,0.007400325499475002
0.008314060978591442,-0.004952390678226948,-0.011878845281898975,0.014791151508688927,0.0001464297965867445,0.006707048509269953
0.007954135537147522,-0.005085006356239319,-0.012270299717783928,0.014654199592769146,0.00014181462756823748,0.007173499092459679
0.007657779846340418,-0.005204360466450453,-0.012231544591486454,0.014980930835008621,0.00013748167839366943,0.007711172569543123
0.006928035523742437,-0.0056128595024347305,-0.012537527829408646,0.014710227958858013,0.00013340558507479727,0.007846793159842491
0.0071311346255242825,-0.005354648921638727,-0.012127253226935863,0.015130335465073586,0.00012956435966771096,0.007336484268307686
0.007334386929869652,-0.00479139806702733,-0.011928461492061615,0.014774877578020096,0.00014943344285711646,0.007069699466228485
0.007169920485466719,-0.00546651566401124,-0.012396092526614666,0.01500327605754137,0.00014690053649246693,0.006819842383265495
0.007287607528269291,-0.005367467179894447,-0.011708223260939121,0.0149337537586689,0.000143107317853719,0.007200327701866627
0.008179892785847187,-0.004435989540070295,-0.012225274927914143,0.014677496626973152,0.00013941869838163257,0.007249281741678715
0.008018342778086662,-0.0029295359272509813,-0.011490197852253914,0.015035617165267467,0.0001359100133413449,0.00703050009906292
0.006930188275873661,-0.0026426457334309816,-0.011961056850850582,0.01489342749118805,0.00013257334649097174,0.0071900514885783195
0.007276580668985844,-0.0028264769352972507,-0.012211463414132595,0.01468103937804699,0.00012939635780639946,0.007582596503198147
0.008088008500635624,-0.0036631575785577297,-0.01185239851474762,0.014643559232354164,0.00014602128067053854,0.007465042639523745
0.007645260076969862,-0.0038918291684240103,-0.012039422988891602,0.014799094758927822,0.00014396633196156472,0.007291306741535664
0.007635790389031172,-0.0037386424373835325,-0.011687222868204117,0.014767304062843323,0.00014083176210988313,0.00722669018432498
0.007035689894109964,-0.0034746110904961824,-0.012011134997010231,0.015131039544939995,0.0001377575536025688,0.007409598678350449
0.0070291850715875626,-0.0033322377130389214,-0.012349596247076988,0.015155081637203693,0.000134810121380724,0.007836656644940376
0.0071906112134456635,-0.003532447386533022,-0.011675811372697353,0.015492761507630348,0.00013198587112128735,0.00785817950963974
0.007124420255422592,-0.003400120884180069,-0.012240061536431313,0.015126642771065235,0.00014532252680510283,0.00762820104137063
0.007202679757028818,-0.003560011275112629,-0.011776409111917019,0.0153005076572299,0.00014461632235907018,0.0075502460822463036
0.006996347103267908,-0.0037390394136309624,-0.011970493011176586,0.014703283086419106,0.00014191078662406653,0.007190660573542118
0.007077417802065611,-0.0033025930169969797,-0.011766768991947174,0.014884687960147858,0.00013917680189479142,0.006904566660523415
0.00713165570050478,-0.0030857878737151623,-0.011732084676623344,0.01442958414554596,0.00013653804489877075,0.007222733926028013
0.007283858954906464,-0.0030728287529200315,-0.012123393826186657,0.01478244923055172,0.00013399714953266084,0.007452220190316439
0.007283858954906464,-0.0030728287529200315,-0.012123393826186657,0.01478244923055172,0.00013399714953266084,0.007452220190316439
0.00679241307079792,-0.0034593797754496336,-0.012141678482294083,0.015097462572157383,0.00014391499280463904,0.006836427841335535
0.00713296327739954,-0.0033191973343491554,-0.011494624428451061,0.014698859304189682,0.0001399821776431054,0.0073394207283854485
0.007518275175243616,-0.0036333377938717604,-0.011833969503641129,0.014919743873178959,0.00013579291407950222,0.007038782350718975
0.007594570051878691,-0.003408615943044424,-0.01196394581347704,0.014515535905957222,0.00013181734539102763,0.007865222170948982
0.007742647081613541,-0.0035091449972242117,-0.011226600036025047,0.014986008405685425,0.00012806567247025669,0.007827726192772388
0.0070670051500201225,-0.003195067634806037,-0.011996612884104252,0.014961985871195793,0.00012452165537979454,0.00762354489415884
0.0069591891951859,-0.00319176004268229,-0.011697407811880112,0.015247246250510216,0.00012116858852095902,0.007799654733389616
0.007421548943966627,-0.003468756563961506,-0.012247719801962376,0.014570610597729683,0.00013848001253791153,0.007760434411466122
0.007320008706301451,-0.0036387285217642784,-0.012110302224755287,0.014725685119628906,0.00013776870036963373,0.007506369147449732
0.007062410470098257,-0.0034928079694509506,-0.012101627886295319,0.014269474893808365,0.00013452087296172976,0.007392512634396553
0.006801985204219818,-0.0035678637214004993,-0.01213450264185667,0.01459034439176321,0.00013126287376508117,0.007913021370768547
0.007100650575011969,-0.003805643180385232,-0.011828284710645676,0.014271967113018036,0.00012814848741982132,0.007900109514594078
0.007194711361080408,-0.003895969595760107,-0.012142771854996681,0.01473800279200077,0.000140647025546059,0.007814668118953705
0.007028237916529179,-0.003908678889274597,-0.011666134931147099,0.014654234983026981,0.00014237988216336817,0.007466541603207588
0.007410254795104265,-0.003428002120926976,-0.011406652629375458,0.015167351812124252,0.00013954678433947265,0.007121869828552008
0.00781849306076765,-0.004041831009089947,-0.011870044283568859,0.015573426149785519,0.00013654321082867682,0.007340667303651571
0.007761609274893999,-0.0041473195888102055,-0.011514492332935333,0.015741266310214996,0.0001336477871518582,0.007482199463993311
0.007055163383483887,-0.003953575622290373,-0.012119089253246784,0.015325683169066906,0.00013087161642033607,0.007475593127310276
0.007410039193928242,-0.0037395814433693886,-0.012069469317793846,0.015066834166646004,0.0001417953026248142,0.007670826744288206
0.007702418603003025,-0.0037070908583700657,-0.011615513823926449,0.014369994401931763,0.00014329234545584768,0.007229986134916544
0.007565827574580908,-0.003695923602208495,-0.012119337916374207,0.014625214040279388,0.00014077298692427576,0.007151378784328699
0.007486024871468544,-0.0039225113578140736,-0.011310079135000706,0.015342731028795242,0.00013809153460897505,0.007305643986910582
0.006712490227073431,-0.00391189893707633,-0.011978589929640293,0.015330002643167973,0.0001354940322926268,0.008048404939472675
0.006712490227073431,-0.00391189893707633,-0.011978589929640293,0.015330002643167973,0.0001354940322926268,0.008048404939472675
0.00810362957417965,-0.00387947098352015,-0.012355093844234943,0.01604883186519146,0.00013057915202807635,0.0071360827423632145
0.007684699259698391,-0.004246956668794155,-0.011399435810744762,0.014940986409783363,0.00012825331941712648,0.007346700876951218
0.006913633551448584,-0.004038388840854168,-0.011078874580562115,0.014079827815294266,0.00012600865738932043,0.007624921388924122
0.0071514444425702095,-0.003937544301152229,-0.011905777268111706,0.01506804209202528,0.00012394254736136645,0.007691652979701757
0.0071514444425702095,-0.003937544301152229,-0.011905777268111706,0.01506804209202528,0.00012394254736136645,0.007691652979701757
0.00751052051782608,-0.004267338663339615,-0.011821302585303783,0.014534597285091877,0.0001446894311811775,0.0074397120624780655
0.00751052051782608,-0.004267338663339615,-0.011821302585303783,0.014534597285091877,0.0001446894311811775,0.0074397120624780655
0.007608857937157154,-0.004531891085207462,-0.010896475985646248,0.014844795688986778,0.0001401905610691756,0.008057454600930214
0.008058298379182816,-0.004272162448614836,-0.011452144011855125,0.014388436451554298,0.00013595524069387466,0.007948217913508415
0.007873189635574818,-0.004000690765678883,-0.011515647172927856,0.015085696242749691,0.00013196781219448894,0.0076571302488446236
0.0070653860457241535,-0.003872644156217575,-0.011475048027932644,0.014321058988571167,0.000150464620674029,0.006939386483281851
0.008044904097914696,-0.0041377185843884945,-0.011709644459187984,0.014569096267223358,0.00014936599473003298,0.007022095378488302
0.007905827835202217,-0.004060097970068455,-0.011468171142041683,0.014283404685556889,0.0001455406309105456,0.0073632048442959785
0.007616888266056776,-0.00434961449354887,-0.012220708653330803,0.01495153084397316,0.00014173326781019568,0.007522284518927336
0.007062624208629131,-0.0046295542269945145,-0.011420034803450108,0.015103760175406933,0.0001381086913170293,0.0075359344482421875
0.008256485685706139,-0.0051593054085969925,-0.011261850595474243,0.015561483800411224,0.00013466470409184694,0.007460324559360743
0.00804136972874403,-0.004885917063802481,-0.01160393375903368,0.015025150962173939,0.00013138813665136695,0.007478442508727312
0.007662775460630655,-0.003992172423750162,-0.011270346119999886,0.01500067487359047,0.00012826695456169546,0.0080405930057168
0.0075944578275084496,-0.003985552582889795,-0.012058337219059467,0.014684476889669895,0.00014477678632829338,0.007804332301020622
0.007936629466712475,-0.004098381381481886,-0.011639349162578583,0.014671586453914642,0.0001427667011739686,0.00898684374988079
0.007879120297729969,-0.004898306913673878,-0.012291408143937588,0.014362245798110962,0.00013968437269795686,0.007436724379658699
0.007143709808588028,-0.004911874886602163,-0.012061433866620064,0.014501179568469524,0.00013665964070241898,0.006530032493174076
0.007206045091152191,-0.00447857566177845,-0.011406071484088898,0.014774256385862827,0.00013375832349993289,0.007001780439168215
0.007461627013981342,-0.004341233056038618,-0.01238215807825327,0.014588766731321812,0.0001309773651883006,0.008030167780816555
0.007472825702279806,-0.004665785003453493,-0.011873409152030945,0.01426639873534441,0.00012830985360778868,0.008450242690742016
0.007424722891300917,-0.004778190981596708,-0.012051595374941826,0.014178505167365074,0.00012574874563142657,0.007822543382644653
0.007312161382287741,-0.004404424224048853,-0.012260429561138153,0.014274340122938156,0.00012328781303949654,0.008052966557443142
0.008204140700399876,-0.004473199602216482,-0.011749147437512875,0.014373932965099812,0.00012092140241293237,0.007987278513610363
0.007802740205079317,-0.004387652035802603,-0.012448495253920555,0.014249114319682121,0.00011864410771522671,0.007625363767147064
0.007781078107655048,-0.004433616064488888,-0.01185576245188713,0.014695433899760246,0.00011645120684988797,0.007395062129944563
0.007442048750817776,-0.004580058157444,-0.012270480394363403,0.01481228694319725,0.00011433760664658621,0.007568984758108854
0.0075080180540680885,-0.004330713767558336,-0.011829836294054985,0.01458155270665884,0.00012595743464771658,0.007646659854799509
0.00747295469045639,-0.0044636959210038185,-0.012159920297563076,0.01481033768504858,0.0001239152770722285,0.007996691390872002
0.00747295469045639,-0.0044636959210038185,-0.012159920297563076,0.01481033768504858,0.0001239152770722285,0.007996691390872002
0.007504085544496775,-0.004285130649805069,-0.01187696773558855,0.014687311835587025,0.00012182685895822942,0.007973653264343739
0.008023900911211967,-0.0041877334006130695,-0.012781831435859203,0.014747089706361294,0.00011980033741565421,0.007701021619141102
0.008207177743315697,-0.004142225254327059,-0.01195167563855648,0.014715162105858326,0.00011783961963374168,0.007101917639374733
0.00777613976970315,-0.004475712310522795,-0.011780409142374992,0.014686672948300838,0.00011594204988796264,0.007350984029471874
0.008260924369096756,-0.0046296147629618645,-0.011772018857300282,0.014681603759527206,0.00011410456500016153,0.008015795610845089
0.007951876148581505,-0.004423358011990786,-0.01210000179708004,0.014434863813221455,0.00011232454562559724,0.007909612730145454
0.007579840254038572,-0.004046397749334574,-0.012540623545646667,0.014293713495135307,0.00011059903772547841,0.0075355153530836105
0.007611822336912155,-0.004288559313863516,-0.012237456627190113,0.014124979265034199,0.00010892582940869033,0.007702169008553028
0.007605961058288813,-0.004354419652372599,-0.011820167303085327,0.014160871505737305,0.0001073026069207117,0.007732318248599768
0.007960820570588112,-0.004499805625528097,-0.011734286323189735,0.014192731119692326,0.00010572681640041992,0.007555744610726833
0.008656160905957222,-0.004501092713326216,-0.011876746080815792,0.014348852448165417,0.00010419682803330943,0.007348273880779743
0.008002886548638344,-0.0045250337570905685,-0.012331542558968067,0.014519455842673779,0.00010271043720422313,0.0074739172123372555
0.008596408180892467,-0.004403350874781609,-0.011590154841542244,0.015005822293460369,0.00010126583947567269,0.007799278479069471
0.008033287711441517,-0.004398314282298088,-0.011532329954206944,0.01520982850342989,9.986134682549164e-05,0.007502674590796232
0.008106051944196224,-0.004370095673948526,-0.011527941562235355,0.015081185847520828,9.849536581896245e-05,0.007392839528620243
0.00778936268761754,-0.004467921797186136,-0.012106528505682945,0.014799139462411404,9.716604836285114e-05,0.008183921687304974
0.008815765380859375,-0.004619223531335592,-0.011954429559409618,0.01483624242246151,9.587224485585466e-05,0.007835591211915016
0.008670121431350708,-0.004658240359276533,-0.01131033431738615,0.014669184572994709,9.46125655900687e-05,0.00748218409717083
0.007687731646001339,-0.004710345529019833,-0.011891850270330906,0.015031025744974613,9.338534437119961e-05,0.00797883328050375
0.00824439525604248,-0.0044325729832053185,-0.011799804866313934,0.014721653424203396,9.2189664428588e-05,0.007881547324359417
0.00848162081092596,-0.004054970107972622,-0.011861572973430157,0.0153198828920722,9.102412877837196e-05,0.007935244590044022
0.008049902506172657,-0.004218261688947678,-0.011850826442241669,0.014743776991963387,8.988776971818879e-05,0.00781042966991663
0.008188539184629917,-0.004540667869150639,-0.011632373556494713,0.015100986696779728,8.877949585439637e-05,0.007955355569720268
0.008083363994956017,-0.004188376944512129,-0.012082117609679699,0.014401823282241821,8.769815030973405e-05,0.008154959417879581
0.008377660997211933,-0.004454350098967552,-0.011445638723671436,0.015568220987915993,8.664276538183913e-05,0.007903877645730972
0.00847863219678402,-0.004482517018914223,-0.01157138030976057,0.01383763737976551,8.561264985473827e-05,0.007682149764150381
0.008452542126178741,-0.004323766101151705,-0.011493170633912086,0.014110257849097252,8.46065377118066e-05,0.008129914291203022
0.008323382586240768,-0.0040585859678685665,-0.011356066912412643,0.013669075444340706,8.362397056771442e-05,0.00804035272449255
0.008603755384683609,-0.00409518089145422,-0.011343365535140038,0.01435577031224966,8.172556408680975e-05,0.00777496537193656
0.008603755384683609,-0.00409518089145422,-0.011343365535140038,0.01435577031224966,8.172556408680975e-05,0.00777496537193656
0.008424520492553711,-0.004171176813542843,-0.01151128951460123,0.014733534306287766,7.991145685082301e-05,0.008060252293944359
0.008424520492553711,-0.004171176813542843,-0.01151128951460123,0.014733534306287766,7.991145685082301e-05,0.008060252293944359
0.00834492314606905,-0.004472494125366211,-0.011005578562617302,0.015164812095463276,2.0306670194258913e-05,0.00813122745603323
0.008512929081916809,-0.004568723030388355,-0.011874524876475334,0.014532357454299927,1.325880475633312e-06,0.007813366129994392
0.008342173881828785,-0.004355685319751501,-0.011943407356739044,0.015447315759956837,8.657052319449576e-08,0.008157243952155113
0.008289214223623276,-0.0042960140854120255,-0.01180891040712595,0.01480400562286377,5.6524371849775434e-09,0.007992378436028957
0.008150179870426655,-0.004274526610970497,-0.011340728960931301,0.01515643298625946,3.6906369627054403e-10,0.007794166449457407
0.008405754342675209,-0.004427028354257345,-0.011279880069196224,0.014274275861680508,2.4097220746588377e-11,0.007971731945872307
0.008504156954586506,-0.004090927541255951,-0.011764337308704853,0.014912516809999943,1.573376303375118e-12,0.008472026325762272
0.007888139225542545,-0.0043967124074697495,-0.011664866469800472,0.014225512742996216,1.0273022937965642e-13,0.00840784516185522
0.008222249336540699,-0.004208872094750404,-0.011119978502392769,0.014498332515358925,6.707550571287239e-15,0.007761170156300068
0.008652463555335999,-0.003993342164903879,-0.011124755255877972,0.014248592779040337,4.379551031251654e-16,0.008061664178967476
0.008741287514567375,-0.0040356433019042015,-0.011114614084362984,0.014743051491677761,2.85953392996601e-17,0.008924344554543495
0.008836714550852776,-0.0042968750931322575,-0.011615106835961342,0.014997660182416439,1.867071340009526e-18,0.008600229397416115
0.008539923466742039,-0.004303258843719959,-0.011456448584794998,0.015537344850599766,1.2190641485925015e-19,0.008106027729809284
0.008645902387797832,-0.0035142134875059128,-0.010933725163340569,0.014922025613486767,7.959618145712534e-21,0.008242872543632984
0.008849134668707848,-0.00267897080630064,-0.011152316816151142,0.014583989046514034,5.197062091726125e-22,0.008346871472895145
0.00840017944574356,-0.00256872596219182,-0.010879755020141602,0.014017029665410519,3.3933104273571494e-23,0.008510084822773933
0.008716114796698093,-0.0026647625491023064,-0.010903213173151016,0.014271542429924011,2.2155892163773972e-24,0.0080223698168993
0.008898996748030186,-0.003334969049319625,-0.011252978816628456,0.014188757166266441,1.4466215096414094e-25,0.00882040522992611
0.00876768957823515,-0.003342813579365611,-0.01077509205788374,0.014361959882080555,9.445405248620385e-27,0.007748695090413094
0.00932983122766018,-0.003394191851839423,-0.011314384639263153,0.014065315946936607,6.167175312282891e-28,0.007519769016653299
0.00896136462688446,-0.0031541003845632076,-0.011330953799188137,0.014530564658343792,4.026724698075111e-29,0.007979413494467735
0.009460099041461945,-0.0030896086245775223,-0.011288358829915524,0.014333591796457767,2.6291635152751412e-30,0.008344230242073536
0.009120266884565353,-0.003206737572327256,-0.011773388832807541,0.014837181195616722,1.7166559798137335e-31,0.008506637066602707
0.009675804525613785,-0.003145841648802161,-0.011150491423904896,0.014799906872212887,1.1208536265078243e-32,0.008657857775688171
0.00884829182177782,-0.0030857855454087257,-0.011356284841895103,0.014893727377057076,7.318373443895204e-34,0.008470825850963593
0.008996519260108471,-0.002870919182896614,-0.010907215997576714,0.014412126503884792,3.119937355482828e-36,0.007864551618695259
0.009247292764484882,-0.0025119727943092585,-0.01126381941139698,0.014319013804197311,2.0370960519737817e-37,0.008268719539046288
0.009247292764484882,-0.0025119727943092585,-0.01126381941139698,0.014319013804197311,2.0370960519737817e-37,0.008268719539046288
0.0090743163600564,-0.00266293715685606,-0.011602066457271576,0.014402666129171848,8.684463154745194e-40,0.008441849611699581
0.0090743163600564,-0.00266293715685606,-0.011602066457271576,0.014402666129171848,8.684463154745194e-40,0.008441849611699581
0.008992197923362255,-0.0029760960023850203,-0.011554554104804993,0.01450553722679615,5.670354235890372e-41,0.008032250218093395
0.009099932387471199,-0.0030844893772155046,-0.011781233362853527,0.014184842817485332,3.702230542746167e-42,0.008531005121767521
0.00941365398466587,-0.0028921174816787243,-0.011552555486559868,0.014904644340276718,2.4242463432819335e-43,0.008372369222342968
0.009387615136802197,-0.002851104596629739,-0.011110098101198673,0.014667820185422897,1.5414283107572988e-44,0.008323868736624718
0.00884536188095808,-0.0025607545394450426,-0.011572783812880516,0.014670796692371368,1.401298464324817e-45,0.008135952055454254
0.009541526436805725,-0.0026432990562170744,-0.011831862851977348,0.014600799418985844,0.0,0.008608019910752773
0.009308557957410812,-0.0027847010642290115,-0.011407877318561077,0.014599869027733803,0.0,0.009101117961108685
0.00907980278134346,-0.0028843360487371683,-0.011826228350400925,0.014536491595208645,0.0,0.008519554510712624
0.009587946347892284,-0.0028509143739938736,-0.011235092766582966,0.01464931108057499,0.0,0.00925496220588684
0.00947126280516386,-0.002731543267145753,-0.011582108214497566,0.014591079205274582,0.0,0.00885025504976511
0.009141785092651844,-0.0027115263510495424,-0.011949031613767147,0.01446986198425293,0.0,0.008798103779554367
0.009394911117851734,-0.002860757987946272,-0.009884542785584927,0.01461598090827465,0.0,0.008520921692252159
0.009577317163348198,-0.0032353103160858154,-0.012524365447461605,0.014647899195551872,0.0,0.008336404338479042
0.008948879316449165,-0.00313889654353261,-0.012079203501343727,0.013668695464730263,0.0,0.008633933030068874
0.01025325246155262,-0.0028777236584573984,-0.012255280278623104,0.013710812665522099,0.0,0.00864858366549015
0.009420334361493587,-0.0028809329960495234,-0.011368302628397942,0.013823849149048328,0.0,0.00875388365238905
0.009498297236859798,-0.002949184039607644,-0.011991241946816444,0.015184168703854084,0.0,0.00870894081890583
0.0096014104783535,-0.0029294525738805532,-0.012528842315077782,0.014055012725293636,0.0,0.008992450311779976
0.00970155093818903,-0.0029089879244565964,-0.011753767728805542,0.013646738603711128,0.0,0.009047577157616615
0.009440180845558643,-0.0028351566288620234,-0.012376115657389164,0.013713296502828598,0.0,0.00940957386046648
0.0094223627820611,-0.0027329432778060436,-0.012028008699417114,0.014379107393324375,0.0,0.008921519853174686
0.009522981941699982,-0.0027914168313145638,-0.01205150131136179,0.01462386641651392,0.0,0.008791252039372921
0.009213365614414215,-0.003186239395290613,-0.011348975822329521,0.014595825225114822,0.0,0.008908053860068321
0.009785772301256657,-0.003349698381498456,-0.012374664656817913,0.014783592894673347,0.0,0.009125612676143646
0.009552047587931156,-0.003100296715274453,-0.011797132901847363,0.014614162035286427,0.0,0.009048765525221825
0.009512008167803288,-0.0029986994341015816,-0.012206885032355785,0.014944884926080704,0.0,0.008857780136168003
0.009512008167803288,-0.0029986994341015816,-0.012206885032355785,0.014944884926080704,0.0,0.008857780136168003
0.010229578241705894,-0.002811407670378685,-0.012292090803384781,0.014913966879248619,0.0,0.008569212630391121
0.009791255928575993,-0.002920172642916441,-0.01168176531791687,0.015115859918296337,0.0,0.008938160724937916
0.009631162509322166,-0.003010878572240472,-0.011829812079668045,0.014574515633285046,0.0,0.00882683414965868
0.010265310294926167,-0.003196223871782422,-0.011882510967552662,0.014606483280658722,0.0,0.008618024177849293
0.009742052294313908,-0.003126398427411914,-0.012455555610358715,0.014168414287269115,0.0,0.008903199806809425
0.009583204053342342,-0.0028622825630009174,-0.012135871686041355,0.014645871706306934,0.0,0.008821317926049232
0.010324867442250252,-0.0030120203737169504,-0.011791047640144825,0.014492234215140343,0.0,0.008942266926169395
0.009741513058543205,-0.0030285669490695,-0.012361221946775913,0.014537116512656212,0.0,0.009119061753153801
0.009718961082398891,-0.0029232886154204607,-0.011890903115272522,0.014130556024610996,0.0,0.009089126251637936
0.010117728263139725,-0.0027220493648201227,-0.012047057040035725,0.014577265828847885,0.0,0.00867039617151022
0.009763875044882298,-0.002838117303326726,-0.011707388795912266,0.014420747756958008,0.0,0.00860003661364317
0.009925026446580887,-0.0028945538215339184,-0.012204272672533989,0.014663087204098701,0.0,0.008959452621638775
0.010223135352134705,-0.0029072363395243883,-0.012126771733164787,0.014727680012583733,0.0,0.008828990161418915
0.010119304992258549,-0.0026579091791063547,-0.011827017180621624,0.01470134872943163,0.0,0.008841976523399353
0.009709792211651802,-0.002690399531275034,-0.012084400281310081,0.014484567567706108,0.0,0.00916959997266531
0.009933983907103539,-0.003144912188872695,-0.011695274151861668,0.014292770996689796,0.0,0.008957518264651299
0.009999960660934448,-0.0031418108846992254,-0.012063305824995041,0.014149953611195087,0.0,0.009627047926187515
0.010326777584850788,-0.0028773092199116945,-0.011540212668478489,0.01423342153429985,0.0,0.009574842639267445
0.010398591868579388,-0.0030052396468818188,-0.01160343550145626,0.013883913867175579,0.0,0.00880495086312294
0.009777087718248367,-0.0029878602363169193,-0.011863305233418941,0.014513903297483921,0.0,0.008652451448142529
0.01026185043156147,-0.002969647292047739,-0.011323746293783188,0.01464293897151947,0.0,0.00913902185857296
0.009749227203428745,-0.0029866229742765427,-0.011603981256484985,0.014618358574807644,0.0,0.009571805596351624
0.009749227203428745,-0.0029866229742765427,-0.011603981256484985,0.014618358574807644,0.0,0.009571805596351624
0.009996548295021057,-0.0027393533382564783,-0.012539513409137726,0.014063282869756222,0.0,0.009536302648484707
0.009910781867802143,-0.002839522436261177,-0.011919906362891197,0.01441600639373064,0.0,0.009540393948554993
0.009910781867802143,-0.002839522436261177,-0.011919906362891197,0.01441600639373064,0.0,0.009540393948554993
0.01064163725823164,-0.002967583015561104,-0.0117412768304348,0.014525149017572403,0.0,0.009169154800474644
0.010071813128888607,-0.003216839162632823,-0.011832771822810173,0.014720143750309944,0.0,0.010165390558540821
0.00971226766705513,-0.0034434464760124683,-0.011816260404884815,0.014663240872323513,0.0,0.009376602247357368
0.010264278389513493,-0.003175230696797371,-0.0120293153449893,0.014550399035215378,0.0,0.009589812718331814
0.010194950737059116,-0.0034684042911976576,-0.01145428791642189,0.014144071377813816,0.0,0.009731272235512733
0.010925172828137875,-0.003286734689027071,-0.011923631653189659,0.014432651922106743,0.0,0.009305223822593689
0.011308596469461918,-0.002982144709676504,-0.011880990117788315,0.014133956283330917,0.0,0.009246458299458027
0.010233103297650814,-0.002982071368023753,-0.011861692182719707,0.014548747800290585,0.0,0.00958252977579832
0.010363269597291946,-0.0029274739790707827,-0.011832589283585548,0.015019627287983894,0.0,0.009327968582510948
0.010119514539837837,-0.0029667594935745,-0.011401105672121048,0.014917139895260334,0.0,0.009281649254262447
0.010067238472402096,-0.002899992512539029,-0.01193982269614935,0.015115486457943916,0.0,0.009897983632981777
0.010616072453558445,-0.0030510968063026667,-0.011538262479007244,0.015039054676890373,0.0,0.009721837006509304
0.010639353655278683,-0.0032166489399969578,-0.011980632320046425,0.01488061435520649,0.0,0.009392332285642624
0.01008734479546547,-0.0031347430776804686,-0.012413536198437214,0.014890092425048351,0.0,0.009238412603735924
0.01084645465016365,-0.0030587392393499613,-0.011887814849615097,0.014720909297466278,0.0,0.009510650299489498
0.011717461049556732,-0.0028397729620337486,-0.012046638876199722,0.015806715935468674,0.0,0.009778326377272606
0.010267335921525955,-0.00292905792593956,-0.011586192063987255,0.014532575383782387,2.1243959054118022e-06,0.009974215179681778
0.010615692473948002,-0.002910132985562086,-0.01251238863915205,0.01416495256125927,1.387078896186722e-07,0.009722881950438023
0.010432935319840908,-0.002527673961594701,-0.01195508148521185,0.014543594792485237,9.056633665238678e-09,0.009667984209954739
0.010432935319840908,-0.002527673961594701,-0.01195508148521185,0.014543594792485237,9.056633665238678e-09,0.009667984209954739
0.011582299135625362,-0.0025613857433199883,-0.011692331172525883,0.014617344364523888,5.913334266693937e-10,0.010456009767949581
0.010231513530015945,-0.00276197656057775,-0.011813627555966377,0.015138962306082249,3.860985142711826e-11,0.010011786594986916
0.010104616172611713,-0.0027643651701509953,-0.01244557835161686,0.015282033942639828,1.6459986043430852e-13,0.009571632370352745
0.010143616236746311,-0.002974561881273985,-0.012366901151835918,0.014593739062547684,7.017151277904053e-16,0.009662346914410591
0.010143616236746311,-0.002974561881273985,-0.012366901151835918,0.014593739062547684,7.017151277904053e-16,0.009662346914410591
0.010494942776858807,-0.0029485183767974377,-0.012183439917862415,0.014548558741807938,4.581698488138547e-17,0.009765890426933765
0.010143804363906384,-0.0027991861570626497,-0.011524181813001633,0.015196049585938454,2.991521639560023e-18,0.009713772684335709
0.010614544153213501,-0.002827980788424611,-0.012443330138921738,0.014438161626458168,1.95324988550805e-19,0.009807062335312366
0.010425197891891003,-0.002806988777592778,-0.012130560353398323,0.014900757931172848,1.275332528150053e-20,0.009832632727921009
0.010728932917118073,-0.0026711593382060528,-0.012272336520254612,0.014501267112791538,8.327009728153429e-22,0.010323836468160152
0.010672095231711864,-0.002631156472489238,-0.011845837347209454,0.01506749913096428,5.436942323664841e-23,0.009868121705949306
0.010854871943593025,-0.002866975963115692,-0.011823472566902637,0.014572572894394398,3.549935210214708e-24,0.010077252984046936
0.010688884183764458,-0.0029295983258634806,-0.01236669346690178,0.014945119619369507,2.317854037990435e-25,0.00978943519294262
0.010037651285529137,-0.0028832354582846165,-0.01226508617401123,0.014232012443244457,1.51339297696037e-26,0.009376764297485352
0.010603987611830235,-0.0026898933574557304,-0.012797553092241287,0.014589534141123295,9.881374543457424e-28,0.00931957084685564
0.010382907465100288,-0.0027514707762748003,-0.012011218816041946,0.014346806332468987,6.451831008070106e-29,0.009555451571941376
0.010684676468372345,-0.002790882484987378,-0.012815938331186771,0.014736599288880825,4.2125843104090474e-30,0.009886197745800018
0.010990523733198643,-0.002827070187777281,-0.012441089376807213,0.014532823115587234,2.7505166619975348e-31,0.009846496395766735
0.01019675750285387,-0.002699035918340087,-0.012163609266281128,0.014864715747535229,1.7958907348907264e-32,0.009768674150109291
0.010884095914661884,-0.0028729988262057304,-0.012334109283983707,0.014378652907907963,1.172588308381864e-33,0.0098261758685112
0.011035619303584099,-0.002600101288408041,-0.011908672749996185,0.01465050783008337,7.6561640286016e-35,0.010438239201903343
0.01065642386674881,-0.003002018667757511,-0.012868780642747879,0.014224465936422348,4.9989274801160146e-36,0.010909928008913994
0.010774686001241207,-0.002799380337819457,-0.012683876790106297,0.014322487637400627,3.263942722631348e-37,0.009871098212897778
0.01073889248073101,-0.003061310388147831,-0.012852941639721394,0.014069879427552223,2.1311211890861575e-38,0.009814177639782429
0.010202338919043541,-0.003051424864679575,-0.012695057317614555,0.014755263924598694,1.3914697568960428e-39,0.01055375300347805
0.010580780915915966,-0.0029628530610352755,-0.013135327026247978,0.014915458858013153,9.085318593449951e-41,0.01032994780689478
0.010591532103717327,-0.002739762654528022,-0.01299440860748291,0.015149377286434174,5.931696399486951e-42,0.010542100295424461
0.010895698331296444,-0.0028780035208910704,-0.012694092467427254,0.01464439369738102,3.867583761536495e-43,0.010771647095680237
0.010875344276428223,-0.002653764095157385,-0.012877248227596283,0.014955643564462662,2.5223372357846707e-44,0.01023392379283905
0.010483406484127045,-0.0025151881854981184,-0.01244056224822998,0.014345957897603512,1.401298464324817e-45,0.010497125796973705
0.010483406484127045,-0.0025151881854981184,-0.01244056224822998,0.014345957897603512,1.401298464324817e-45,0.010497125796973705
0.010949822142720222,-0.0024677831679582596,-0.013393575325608253,0.014236449263989925,0.0,0.010317901149392128
0.010838703252375126,-0.0024268911220133305,-0.012956139631569386,0.013765599578619003,0.0,0.010708346962928772
0.010953051038086414,-0.002530620200559497,-0.013239627704024315,0.013703247532248497,0.0,0.010845726355910301
0.010440387763082981,-0.0025516629684716463,-0.01341401319950819,0.014070878736674786,-0.0002595658297650516,0.010557571426033974
0.010591559112071991,-0.002447667298838496,-0.012896547093987465,0.01369166374206543,-0.00039034808287397027,0.010718178004026413
0.010862940922379494,-0.0024987889919430017,-0.012484987266361713,0.01428335253149271,-0.00042259428300894797,0.010757491923868656
0.011658519506454468,-0.0025062442291527987,-0.013151359744369984,0.014321953058242798,-0.0004080924263689667,0.010432529263198376
0.010720978491008282,-0.002392875961959362,-0.012663744390010834,0.015296241268515587,-0.00038046485860832036,0.010165763087570667
0.010804876685142517,-0.002522070426493883,-0.01336503867059946,0.014866127632558346,-0.00035547767765820026,0.010163514874875546
0.010983485728502274,-0.002660306403413415,-0.012831300497055054,0.015554014593362808,-0.00036055827513337135,0.01068027876317501
0.011230133473873138,-0.0024495378602296114,-0.013445597141981125,0.015120265074074268,-0.00036459483089856803,0.01103698369115591
0.010605343617498875,-0.002320230472832918,-0.012754745781421661,0.015195198357105255,-0.00034618430072441697,0.011298833414912224
0.01103056501597166,-0.00226089870557189,-0.013034237548708916,0.014357956126332283,-0.0003282485995441675,0.011446732096374035
0.01114949956536293,-0.0022913203574717045,-0.012758150696754456,0.014480583369731903,-0.00031199370278045535,0.01079434435814619
0.010717315599322319,-0.0024385699070990086,-0.013123095966875553,0.01438029482960701,-0.00033404750865884125,0.010774228721857071
0.010885375551879406,-0.0023306014481931925,-0.013177989982068539,0.013870014809072018,-0.0003240518271923065,0.010799628682434559
0.010997071862220764,-0.0024076669942587614,-0.012431786395609379,0.013377812691032887,-0.0003104073693975806,0.010771305300295353
0.01055899728089571,-0.00215933402068913,-0.013120109215378761,0.013781839981675148,-0.0002975972311105579,0.011280250735580921
0.01087279710918665,-0.002230278681963682,-0.012513440102338791,0.013957264833152294,-0.0002857833169400692,0.010651902295649052
0.010790118016302586,-0.0023716080468147993,-0.013087062165141106,0.014900701120495796,-0.0002760622592177242,0.010185723192989826
0.011187565512955189,-0.0022598127834498882,-0.012008166871964931,0.014667359180748463,-0.00026188004994764924,0.01069407444447279
0.011432122439146042,-0.002494662068784237,-0.012730129063129425,0.014819556847214699,-0.0002475901274010539,0.011040184646844864
0.01082675065845251,-0.002417727606371045,-0.012704618275165558,0.014565953984856606,-0.00023468059953302145,0.011057212948799133
0.011244980618357658,-0.00254307989962399,-0.012749407440423965,0.014258543029427528,-0.0002645895292516798,0.010759979486465454
0.011116547510027885,-0.0024485045578330755,-0.013038977980613708,0.013605360873043537,-0.0002548105549067259,0.010442190803587437
0.011077833361923695,-0.0022526350803673267,-0.012796652503311634,0.01388595625758171,-0.00027865436277352273,0.010659159161150455
0.011077833361923695,-0.0022526350803673267,-0.012796652503311634,0.01388595625758171,-0.00027865436277352273,0.010659159161150455
0.011731388978660107,-0.0022236614022403955,-0.013182290829718113,0.014052418060600758,-0.000271476834313944,0.011001331731677055
0.012544631026685238,-0.002393397968262434,-0.013019125908613205,0.014266767539083958,-0.00028534632292576134,0.010781774297356606
0.012534060515463352,-0.0023756599985063076,-0.012642471119761467,0.01442877110093832,-0.0002761948271654546,0.011225497350096703
0.012064636684954166,-0.0022974524181336164,-0.012931336648762226,0.013694212771952152,-0.0003930910606868565,0.011411286890506744
0.012239421717822552,-0.0024058441631495953,-0.012704664841294289,0.014116348698735237,-0.00043394003296270967,0.01137841772288084
0.011971942149102688,-0.002165117533877492,-0.012671965174376965,0.013773682527244091,-0.00041026482358574867,0.01114498358219862
0.012607050128281116,-0.002412984147667885,-0.013161154463887215,0.014361499808728695,-0.00044102102401666343,0.011649273335933685
0.0122590446844697,-0.002365273656323552,-0.012744921259582043,0.01380228716880083,-0.00041579859680496156,0.01109900139272213
0.01241744589060545,-0.002286671893671155,-0.013083134777843952,0.01438781525939703,-0.0004174056521151215,0.010771183297038078
0.012462511658668518,-0.002367425011470914,-0.012534517794847488,0.01404516026377678,-0.0004181541735306382,0.012768935412168503
0.012692735530436039,-0.002136416267603636,-0.013269156217575073,0.014138437807559967,-0.00039895306690596044,0.010889763943850994
0.01276178378611803,-0.0021685403771698475,-0.012609736993908882,0.013974413275718689,-0.0004915192839689553,0.010743768885731697
0.012653036043047905,-0.002025562571361661,-0.013092291541397572,0.014641664922237396,-0.0004511553270276636,0.011169190518558025
0.012977459467947483,-0.002206722041592002,-0.012928384356200695,0.01416826993227005,-0.0004105370899196714,0.011581613682210445
0.012356921099126339,-0.0025811088271439075,-0.013210782781243324,0.014455512166023254,-0.0004410874971654266,0.012021316215395927
0.012435732409358025,-0.0024675438180565834,-0.013301349245011806,0.01423228345811367,-0.0004159228701610118,0.011598723940551281
0.01246263924986124,-0.002537976950407028,-0.012999278493225574,0.014667371287941933,-0.0003866958722937852,0.01189997885376215
0.01271200180053711,-0.0023062413092702627,-0.01308197807520628,0.014368956908583641,-0.00040512019768357277,0.012172028422355652
0.012853048741817474,-0.00222372985444963,-0.012491121888160706,0.01479230634868145,-0.0003935979912057519,0.01141650602221489
0.012531709857285023,-0.002111619571223855,-0.012878394685685635,0.014237064868211746,-0.00037129459087736905,0.011818350292742252
0.012658300809562206,-0.0021425914019346237,-0.012636189348995686,0.014744933694601059,-0.0003940206952393055,0.011880060657858849
0.012284562923014164,-0.002535369247198105,-0.01309104636311531,0.014191513881087303,-0.000379198114387691,0.011698083020746708
0.012438797391951084,-0.002758387243375182,-0.012587562203407288,0.014607314020395279,-0.0003623169905040413,0.012071284465491772
0.012147448025643826,-0.002391336252912879,-0.012967903167009354,0.014214585535228252,-0.000346803804859519,0.011472116224467754
0.012641141191124916,-0.0022396990098059177,-0.013463604263961315,0.01470615342259407,-0.00032273028045892715,0.011503949761390686
0.012448879890143871,-0.0020954799838364124,-0.012859109789133072,0.014207327738404274,-0.0003011702501680702,0.011659782379865646
0.013111080043017864,-0.0020378015469759703,-0.012739968486130238,0.014849243685603142,-0.00032383145298808813,0.011805848218500614
0.012936397455632687,-0.0017588830087333918,-0.012292560189962387,0.01459419820457697,-0.00031775073148310184,0.012013192288577557
0.012768390588462353,-0.0014317412860691547,-0.012860996648669243,0.01487092487514019,-0.0003442852757871151,0.011396758258342743
0.012690132483839989,-0.0010861798655241728,-0.012485945597290993,0.014356707222759724,-0.00033212441485375166,0.011447769589722157
0.012690132483839989,-0.0010861798655241728,-0.012485945597290993,0.014356707222759724,-0.00033212441485375166,0.011447769589722157
0.013292028568685055,-0.0009991312399506569,-0.012669725343585014,0.014605045318603516,-0.0003429997304920107,0.01149431150406599
0.01268333476036787,-0.0010175498900935054,-0.01285475678741932,0.014639468863606453,-0.00032805214868858457,0.011819801293313503
0.012805761769413948,-0.001328444224782288,-0.012959406711161137,0.014220072887837887,-0.0003137972089461982,0.011829803697764874
0.012671859003603458,-0.0012976183788850904,-0.01272819098085165,0.014703759923577309,-0.00030069160857237875,0.011920358054339886
0.013019460253417492,-0.0016311397776007652,-0.013156799599528313,0.014473171904683113,-0.00028922269120812416,0.012062948197126389
0.012998086400330067,-0.001520710065960884,-0.012244549579918385,0.014613116160035133,-0.00031921721529215574,0.012323263101279736
0.0131381219252944,-0.0013580168597400188,-0.013126053847372532,0.014439590275287628,-0.00030115683330222964,0.011910704895853996
0.013109631836414337,-0.0011863481486216187,-0.012485885061323643,0.014685255475342274,-0.0002824595430865884,0.011578883044421673
0.012524125166237354,-0.0009723049006424844,-0.012868722900748253,0.01531507633626461,-0.00030494245584122837,0.012037399224936962
0.013491186313331127,-0.0009360409458167851,-0.012645119801163673,0.01462858822196722,-0.00030023319413885474,0.011802524328231812
0.012871851213276386,-0.0009412709623575211,-0.013155516237020493,0.014226945117115974,-0.00032023448147810996,0.0121214110404253
0.012870722450315952,-0.0009359852992929518,-0.012905650772154331,0.014393220655620098,-0.0003152534773107618,0.012255965732038021
0.013000455684959888,-0.0011085496516898274,-0.012573515065014362,0.014147779904305935,-0.0003009142237715423,0.012237348593771458
0.01307100709527731,-0.001078641740605235,-0.01287909783422947,0.014320719055831432,-0.00028723827563226223,0.011955924332141876
0.013268363662064075,-0.0009626662358641624,-0.012386973947286606,0.014516176655888557,-0.00027471265639178455,0.011632496491074562
0.013333752751350403,-0.0009530399111099541,-0.013142673298716545,0.015198471955955029,-0.00029102162807248533,0.012231523171067238
0.01377287320792675,-0.0009383694850839674,-0.012933801859617233,0.015072477981448174,-0.00028812867822125554,0.012008337303996086
0.013383468613028526,-0.0009306585416197777,-0.013600198552012444,0.015125119127333164,-0.00027759018121287227,0.012200992554426193
0.01347114983946085,-0.000926049193367362,-0.013075895607471466,0.014456033706665039,-0.00026731970137916505,0.012222895398736
0.013052296824753284,-0.0009259299258701503,-0.013612723909318447,0.014666707254946232,-0.00025775100220926106,0.011666661128401756
0.013702839612960815,-0.0009634615271352232,-0.013110087253153324,0.014532742090523243,-0.00024912404478527606,0.012775350362062454
0.013424348086118698,-0.0009574347059242427,-0.013027198612689972,0.014712691307067871,-0.0002649544912856072,0.01229687500745058
0.013901976868510246,-0.0009447871707379818,-0.013395294547080994,0.014853460714221,-0.0002521032001823187,0.012161370366811752
0.013487091287970543,-0.0009388147154822946,-0.013279927894473076,0.014576179906725883,-0.0002388478023931384,0.012463966384530067
0.013487091287970543,-0.0009388147154822946,-0.013279927894473076,0.014576179906725883,-0.0002388478023931384,0.012463966384530067
0.013717800378799438,-0.0009394779335707426,-0.013799857348203659,0.014546209946274757,-0.00022681396512780339,0.01261476706713438
0.013307768851518631,-0.0009417811525054276,-0.01280319131910801,0.014408428221940994,-0.00025332585209980607,0.01242829766124487
0.013582874089479446,-0.0011456351494416595,-0.013199429959058762,0.013998286798596382,-0.00026550202164798975,0.012766764499247074
0.013732790015637875,-0.0011689929524436593,-0.013989860191941261,0.013849787414073944,-0.00026357549359090626,0.012549303472042084
0.013833126984536648,-0.001121292938478291,-0.01372371893376112,0.014258098788559437,-0.0002535664534661919,0.012477405369281769
0.01387995108962059,-0.0010557578643783927,-0.013704857788980007,0.014472171664237976,-0.00027625358779914677,0.012825998477637768
0.013592127710580826,-0.0009571495465934277,-0.013008193112909794,0.01524582039564848,-0.00026808565598912537,0.012577236630022526
0.013913782313466072,-0.0008500666008330882,-0.013539801351726055,0.015117786824703217,-0.000258594227489084,0.012141029350459576
0.01393269095569849,-0.000854006502777338,-0.013637605123221874,0.014534936286509037,-0.00024963641772046685,0.01241234876215458
0.013566406443715096,-0.0008637516293674707,-0.013709006831049919,0.014208022505044937,-0.0003135637962259352,0.012820926494896412
0.013885799795389175,-0.0008811817970126867,-0.013801862485706806,0.014665829949080944,-0.0003032195381820202,0.012511584907770157
0.013865546323359013,-0.001145669724792242,-0.01352530624717474,0.014875204302370548,-0.000284731388092041,0.01269520167261362
0.014224323444068432,-0.0011054014321416616,-0.013806640170514584,0.01536791305989027,-0.00026782351778820157,0.01265667099505663
0.014211910776793957,-0.0010431198170408607,-0.013321965001523495,0.015263906680047512,-0.00025277503300458193,0.013188416138291359
0.014412764459848404,-0.0009471804951317608,-0.013719211332499981,0.014541233889758587,-0.0002807520504575223,0.01316289696842432
0.013759249821305275,-0.0008813228341750801,-0.013098631985485554,0.014461228623986244,-0.00027226426755078137,0.013044876977801323
0.014512146823108196,-0.0008734726579859853,-0.01370441447943449,0.014171195216476917,-0.00025954534066841006,0.013542087748646736
0.014202527701854706,-0.0008874195627868176,-0.012952136807143688,0.013819304294884205,-0.00024766300339251757,0.013329919427633286
0.014538057148456573,-0.0008890873868949711,-0.013630040921270847,0.014518002048134804,-0.00023680139565840364,0.0135177718475461
0.014138677157461643,-0.0009742351248860359,-0.013444002717733383,0.01483480166643858,-0.0002547907643020153,0.0133180171251297
0.014697232283651829,-0.0010717929108068347,-0.013801449909806252,0.014590700156986713,-0.0002533432561904192,0.013544032350182533
0.014137450605630875,-0.0009587286040186882,-0.013400453142821789,0.015074432827532291,-0.0002441012329654768,0.013166770339012146
0.014619753696024418,-0.0009496745187789202,-0.013900179415941238,0.014778552576899529,-0.00025986344553530216,0.013585864566266537
0.014619753696024418,-0.0009496745187789202,-0.013900179415941238,0.014778552576899529,-0.00025986344553530216,0.013585864566266537
0.014553013257682323,-0.0009399698465131223,-0.013708800077438354,0.014988661743700504,-0.0002583769091870636,0.01324998028576374
0.013954104855656624,-0.0009237293852493167,-0.0135413259267807,0.014805992133915424,-0.00026982708368450403,0.013552365824580193
0.014695852063596249,-0.0009206804679706693,-0.013811217620968819,0.014835208654403687,-0.00030326942214742303,0.013276890851557255
0.01493103802204132,-0.0009570855181664228,-0.013373485766351223,0.014156825840473175,-0.00029795715818181634,0.013147927820682526
0.01493103802204132,-0.0009570855181664228,-0.013373485766351223,0.014156825840473175,-0.00029795715818181634,0.013147927820682526
0.014559648931026459,-0.0009489119402132928,-0.01345685962587595,0.014374327845871449,-0.0003043409960810095,0.013202414847910404
0.015182467177510262,-0.0009522702312096953,-0.01335844211280346,0.014178941957652569,-0.0003119683242402971,0.013164687901735306
0.015252592973411083,-0.00118069292511791,-0.013847429305315018,0.01500698458403349,-0.00031722805579192936,0.013441896997392178
0.015118053182959557,-0.001131135504692793,-0.013485444709658623,0.014724205248057842,-0.00042139002471230924,0.013058066368103027
0.014971081167459488,-0.0010945197427645326,-0.014164232648909092,0.014822027646005154,-0.0004844966169912368,0.013315430842339993
0.015174366533756256,-0.0009879115968942642,-0.013039043173193932,0.01440214179456234,-0.00044381379848346114,0.012929495424032211
0.015469362027943134,-0.0009066793718375266,-0.013484892435371876,0.014848798513412476,-0.00040435284608975053,0.013808295130729675
0.015255504287779331,-0.0009019760182127357,-0.013226439245045185,0.014762429520487785,-0.0004254340601619333,0.012924348004162312
0.014952096156775951,-0.0008911272161640227,-0.014094471000134945,0.014309016987681389,-0.00040998656186275184,0.013074429705739021
0.014821793884038925,-0.0008921316475607455,-0.0132903466001153,0.01387172844260931,-0.0003820657730102539,0.013205792754888535
0.015258731320500374,-0.0008187694475054741,-0.013902128674089909,0.014252949506044388,-0.0003568725660443306,0.013497492298483849
0.014931349083781242,-0.000886223278939724,-0.013305168598890305,0.0142540717497468,-0.0003347424208186567,0.013740018010139465
0.015408453531563282,-0.0009197870967909694,-0.013843444176018238,0.014473461546003819,-0.0003151955606881529,0.013454635627567768
0.015207724645733833,-0.0009176772437058389,-0.01376283261924982,0.014332558959722519,-0.000344008207321167,0.013478189706802368
0.0154300257563591,-0.0010561472736299038,-0.013631907291710377,0.014660114422440529,-0.00032904912950471044,0.013237599283456802
0.015285570174455643,-0.0010509486310184002,-0.013445047661662102,0.014194482937455177,-0.0003128981916233897,0.013537639752030373
0.016129614785313606,-0.0009806376183405519,-0.01348717138171196,0.014530738815665245,-0.0002981006691697985,0.013502285815775394
0.015727614983916283,-0.0008867589058354497,-0.013626880943775177,0.01399792730808258,-0.0003146606613881886,0.013851982541382313
0.016253584995865822,-0.0008871918544173241,-0.013447134755551815,0.014464753679931164,-0.0003105339710600674,0.013816149905323982
0.015969058498740196,-0.0008216462447308004,-0.013983041979372501,0.014331923797726631,-0.0002982834121212363,0.014048526994884014
0.016181157901883125,-0.0008333559962920845,-0.013708083890378475,0.014358594082295895,-0.00026802229695022106,0.01398549322038889
0.0157913900911808,-0.0008422808605246246,-0.01394073199480772,0.014102325774729252,-0.0002480562834534794,0.014024071395397186
0.015445321798324585,-0.0008491048938594759,-0.013341289944946766,0.014726562425494194,-0.00023477025388274342,0.013502085581421852
0.015445321798324585,-0.0008491048938594759,-0.013341289944946766,0.014726562425494194,-0.00023477025388274342,0.013502085581421852
0.015706054866313934,-0.000969885615631938,-0.013775244355201721,0.014208030886948109,-0.00026173872174695134,0.01376730389893055
0.016066674143075943,-0.0009513106197118759,-0.01397424191236496,0.01418794970959425,-0.0002435402275295928,0.013995463028550148
0.01634683832526207,-0.0009078283328562975,-0.0133010009303689,0.014639085158705711,-0.00023304935893975198,0.01392878033220768
0.016603561118245125,-0.000838406034745276,-0.013858816586434841,0.014318808913230896,-0.00024162144109141082,0.014049296267330647
0.01597060263156891,-0.0007695642998442054,-0.013750119134783745,0.01419813372194767,-0.000249043689109385,0.014065303839743137
0.016229989007115364,-0.0006683681276626885,-0.014449728652834892,0.01396725233644247,-0.0002406397688901052,0.014324854128062725
0.016441378742456436,-0.000696627248544246,-0.013845536857843399,0.014340048655867577,-0.00026057648938149214,0.014482556842267513
0.016075408086180687,-0.0007169718737713993,-0.014857432805001736,0.014362967573106289,-0.00025528797414153814,0.014659198932349682
0.016621485352516174,-0.0007283856393769383,-0.01389046385884285,0.014733203686773777,-0.00033092484227381647,0.014266975224018097
0.016187740489840508,-0.0007938896887935698,-0.014449072070419788,0.014913511462509632,-0.00033408182207494974,0.014395907521247864
0.01660367101430893,-0.0008547449251636863,-0.013893493451178074,0.014720442704856396,-0.0003708470321726054,0.014220464043319225
0.016501430422067642,-0.0008717910386621952,-0.014341888017952442,0.014164659194648266,-0.0003790997143369168,0.014457627199590206
0.016731640323996544,-0.0008665500208735466,-0.01353947352617979,0.014371978119015694,-0.00038247599150054157,0.014341906644403934
0.016593296080827713,-0.0007857771124690771,-0.014302336610853672,0.014625037088990211,-0.00038741572643630207,0.014603914692997932
0.0162942036986351,-0.000854270881973207,-0.014485260471701622,0.015340306796133518,-0.0003898260183632374,0.014485888183116913
0.016724104061722755,-0.0008579309796914458,-0.014817423187196255,0.015184083953499794,-0.0003727900912053883,0.014468126930296421
0.016330931335687637,-0.0008252991829067469,-0.014231696724891663,0.015555537305772305,-0.0005217252182774246,0.01429833471775055
0.017201777547597885,-0.0007631378248333931,-0.01454203948378563,0.014953467063605785,-0.0005488713504746556,0.014625625684857368
0.017166441306471825,-0.0007742209709249437,-0.01380421593785286,0.015037387609481812,-0.0005184797337278724,0.014753471128642559
0.016771798953413963,-0.0007374291308224201,-0.014338443987071514,0.01435350626707077,-0.0005477693630382419,0.014831513166427612
0.01689053513109684,-0.0006525161443278193,-0.014726946130394936,0.014404301531612873,-0.00057110475609079,0.014622682705521584
0.016404656693339348,-0.0006823386065661907,-0.014984129928052425,0.013852319680154324,-0.0006388718611560762,0.01486848946660757
0.016784463077783585,-0.0006958621088415384,-0.01423286646604538,0.01451665349304676,-0.0006451651570387185,0.013994290493428707
0.016815610229969025,-0.0006956937722861767,-0.014566394500434399,0.014974642544984818,-0.0006753321504220366,0.014118549413979053
0.017178582027554512,-0.000660399382468313,-0.014352764002978802,0.015473680570721626,-0.0006804729346185923,0.014498078264296055
0.016965821385383606,-0.0007270259084179997,-0.015119262039661407,0.015254154801368713,-0.0006349125760607421,0.01442982442677021
0.016626771539449692,-0.0007418104796670377,-0.014290283434092999,0.015124315395951271,-0.0005780989304184914,0.014200243167579174
0.016626771539449692,-0.0007418104796670377,-0.014290283434092999,0.015124315395951271,-0.0005780989304184914,0.014200243167579174
0.01734744943678379,-0.0007611791370436549,-0.01441685389727354,0.014436416327953339,-0.0005295543232932687,0.01471148431301117
0.017130350694060326,-0.0007094673928804696,-0.014525691978633404,0.014119455590844154,-0.000517724605742842,0.015044406056404114
0.01731010526418686,-0.0007429980323649943,-0.014190434478223324,0.01426841039210558,-0.0004832347622141242,0.014870467595756054
0.017169618979096413,-0.000678467913530767,-0.014973694458603859,0.014084435999393463,-0.0004528406716417521,0.015088333748281002
0.017661064863204956,-0.000706249731592834,-0.014062410220503807,0.014217867515981197,-0.0004059811180923134,0.014849340543150902
0.017207354307174683,-0.0007174052880145609,-0.01451969612389803,0.014050960540771484,-0.00037112197605893016,0.014574196189641953
0.01731967367231846,-0.0006541914190165699,-0.014029697515070438,0.014631976373493671,-0.00034274259814992547,0.014389765448868275
0.01740090176463127,-0.0006762196426279843,-0.014622136019170284,0.014642635360360146,-0.0003776803787332028,0.015026692301034927
0.01696751080453396,-0.0006777450907975435,-0.013977639377117157,0.014847509562969208,-0.0003565896477084607,0.01507454551756382
0.017644017934799194,-0.0006147435633465648,-0.014428610913455486,0.014646908268332481,-0.0003829585912171751,0.015356751158833504
0.017844105139374733,-0.0006477730930782855,-0.014234967529773712,0.014966186136007309,-0.00040594060556031764,0.015385732054710388
0.017596039921045303,-0.0006643942324444652,-0.014466372318565845,0.015030799433588982,-0.0003961421607527882,0.015267450362443924
0.018223736435174942,-0.0006105283391661942,-0.014356897212564945,0.015048534609377384,-0.000505666306708008,0.015021835453808308
0.01741069369018078,-0.0006350629846565425,-0.014756618067622185,0.015185008756816387,-0.0005418094806373119,0.015492689795792103
0.017979707568883896,-0.0006955639109946787,-0.014159061014652252,0.01419763546437025,-0.0005756629980169237,0.01559912133961916
0.01770009845495224,-0.000696333940140903,-0.014559715054929256,0.014259752817451954,-0.0005843659164384007,0.015959840267896652
0.016343023627996445,-0.0006502620526589453,-0.014541109092533588,0.014800963923335075,-0.0005790521972812712,0.015626808628439903
0.017988843843340874,-0.000673432310577482,-0.014553466811776161,0.01476077176630497,-0.0008564961026422679,0.015421787276864052
0.018339721485972404,-0.0006117095472291112,-0.01419976819306612,0.014671340584754944,-0.0008132926886901259,0.015126216225326061
0.01821915991604328,-0.0006360744591802359,-0.014261681586503983,0.014850915409624577,-0.0007977508357726038,0.014749732799828053
0.018161475658416748,-0.0005854043993167579,-0.014286045916378498,0.015020065940916538,-0.000731571635697037,0.014950062148272991
0.017599336802959442,-0.0006053419201634824,-0.0146017512306571,0.015170394442975521,-0.0007376167923212051,0.015239780768752098
0.018331946805119514,-0.0006062736501917243,-0.013965950347483158,0.014693697914481163,-0.0006790336919948459,0.015219982713460922
0.017874523997306824,-0.0005748618859797716,-0.014171432703733444,0.014881530776619911,-0.0006379394908435643,0.014873242937028408
0.018293187022209167,-0.0006029040087014437,-0.014205478131771088,0.014479695819318295,-0.0005639133742079139,0.01550133153796196
0.01827569678425789,-0.000553250138182193,-0.014660646207630634,0.014391152188181877,-0.0005494739161804318,0.01522478461265564
0.017913585528731346,-0.0005802132072858512,-0.01434512622654438,0.014106216840445995,-0.0005378510686568916,0.015511231496930122
0.017900582402944565,-0.00054305320372805,-0.014637171290814877,0.014661753550171852,-0.0005312241264618933,0.015256987884640694
0.017900582402944565,-0.00054305320372805,-0.014637171290814877,0.014661753550171852,-0.0005312241264618933,0.015256987884640694
0.018319984897971153,-0.0004668083565775305,-0.014084608294069767,0.014808284118771553,-0.00045060174306854606,0.015800606459379196
0.018319984897971153,-0.0004668083565775305,-0.014084608294069767,0.014808284118771553,-0.00045060174306854606,0.015800606459379196
0.018403034657239914,-0.00034861001768149436,-0.014310108497738838,0.014912009239196777,-0.00042051420314237475,0.015548349358141422
0.018340157344937325,-0.0003093948762398213,-0.014153924770653248,0.014137184247374535,-0.0003941882459912449,0.015933290123939514
0.018583383411169052,-0.00028478557942435145,-0.014760334976017475,0.014188946224749088,-0.0003709660959430039,0.015223335474729538
0.01836867816746235,-0.0002639016311150044,-0.014801251702010632,0.01400322001427412,-0.0003969137615058571,0.01560982782393694
0.01835126429796219,-0.00024587466032244265,-0.014915957115590572,0.014684965834021568,-0.00037905178032815456,0.015941577032208443
0.018239568918943405,-0.00023015188344288617,-0.014438324607908726,0.014256425201892853,-0.0003602758515626192,0.015605464577674866
0.018328174948692322,-0.00021632105926983058,-0.014666179195046425,0.014914702624082565,-0.00031818976276554167,0.01600281521677971
0.018884694203734398,-0.0002040573745034635,-0.014674651436507702,0.014997933991253376,-0.00029073061887174845,0.015783611685037613
0.0186831783503294,-0.00019310940115246922,-0.014750947244465351,0.015207161195576191,-0.00031979786581359804,0.016175957396626472
0.01817155070602894,-0.00018327809812035412,-0.014675711281597614,0.01446983590722084,-0.0003079680900555104,0.015929490327835083
0.01852855645120144,-0.00017439834482502192,-0.014678234234452248,0.01492865290492773,-0.000291743635898456,0.016095368191599846
0.018584296107292175,-0.00016633953782729805,-0.014564857818186283,0.014731957577168941,-0.00027681110077537596,0.01580936461687088
0.01869458705186844,-0.0001589931343914941,-0.014956051483750343,0.015454261563718319,-0.00030131154926493764,0.016158943995833397
0.019038530066609383,-0.0001522675302112475,-0.014650977216660976,0.015199525281786919,-0.0002925256558228284,0.016615387052297592
0.019031481817364693,-0.0001460880448576063,-0.014584614895284176,0.015430674888193607,-0.0002798678760882467,0.01649867184460163
0.019091662019491196,-0.00014039115922059864,-0.014618221670389175,0.01541366521269083,-0.0003011574153788388,0.016329988837242126
0.019076623022556305,-0.00013512147415895015,-0.015071970410645008,0.01570393517613411,-0.00029343515052460134,0.015970369800925255
0.01871170476078987,-0.0001302330638282001,-0.014462246559560299,0.015079488977789879,-0.0002822292153723538,0.016389930620789528
0.018756693229079247,-0.0001256861287401989,-0.014965923503041267,0.015067082829773426,-0.0003504941996652633,0.016296332702040672
0.01942608319222927,-0.00012144615175202489,-0.014422138221561909,0.015338812954723835,-0.00033618463203310966,0.016525665298104286
0.019102219492197037,-0.00011748265387723222,-0.014757123775780201,0.015359635464847088,-0.00034397057606838644,0.016569161787629128
0.01869344525039196,-0.00011376987094990909,-0.014223672449588776,0.015367303974926472,-0.0003496617136988789,0.016344936564564705
0.019246522337198257,-0.00011028466542484239,-0.015210739336907864,0.015136911533772945,-0.0003568910760805011,0.016821494325995445
0.0192872304469347,-0.00010700650454964489,-0.014606978744268417,0.01522024441510439,-0.00036122024175710976,0.01696247234940529
0.01951553300023079,-8.099120168481022e-05,-0.014801116660237312,0.014918851666152477,-0.00034316067467443645,0.016993699595332146
0.01983068324625492,-7.57925008656457e-05,-0.014490453526377678,0.014944208785891533,-0.0003657856723293662,0.016781708225607872
0.01983068324625492,-7.57925008656457e-05,-0.014490453526377678,0.014944208785891533,-0.0003657856723293662,0.016781708225607872
0.019592586904764175,-7.368483056779951e-05,-0.015185722149908543,0.014870475977659225,-0.00035334902349859476,0.016502460464835167
0.019383598119020462,-7.172676123445854e-05,-0.015016742050647736,0.015604414977133274,-0.0004472746222745627,0.0158039890229702
0.020163526758551598,-6.810819468228146e-05,-0.014940192922949791,0.015648121014237404,-0.00038683332968503237,0.01664828509092331
0.019696686416864395,-6.64324761601165e-05,-0.015485371463000774,0.015198485925793648,-0.0004177172377239913,0.016858991235494614
0.019604118540883064,-6.483720062533394e-05,-0.01470175851136446,0.015574406832456589,-0.0003954836865887046,0.0172281377017498
0.01991407200694084,-6.331672193482518e-05,-0.014798173680901527,0.014713137410581112,-0.0003689906734507531,0.01733834482729435
0.020045777782797813,-6.186588871059939e-05,-0.014920185320079327,0.014828863553702831,-0.00034541121567599475,0.016602084040641785
0.02003910019993782,-6.048024079063907e-05,-0.01535523310303688,0.014464398846030235,-0.0003714230842888355,0.016648201271891594
0.0200823862105608,-5.9155147027922794e-05,-0.015102643519639969,0.015242074616253376,-0.0003567782696336508,0.01677052304148674
0.02019471302628517,3.2877494959393516e-05,-0.01569300889968872,0.015388467349112034,-0.0003380462003406137,0.01740972511470318
0.019390113651752472,4.3671043385984376e-05,-0.01550543587654829,0.01615123450756073,-0.00032085113343782723,0.017398053780198097
0.020808979868888855,4.27884551754687e-05,-0.014913289807736874,0.015813207253813744,-0.00034592035808600485,0.0170210562646389
0.020611250773072243,4.1796982259256765e-05,-0.015654366463422775,0.015256100334227085,-0.0003325863217469305,0.016986796632409096
0.020290035754442215,4.084850297658704e-05,-0.01554704550653696,0.015194959007203579,-0.00031806505285203457,0.016689172014594078
0.020424941554665565,3.9942060539033264e-05,-0.0157562717795372,0.015140651725232601,-0.0003046164638362825,0.01658715307712555
0.020847627893090248,3.907500286004506e-05,-0.015489023178815842,0.015482505783438683,-0.00028641161043196917,0.016721542924642563
0.020462175831198692,3.824484520009719e-05,-0.015551883727312088,0.015384924598038197,-0.00026912204339168966,0.016048628836870193
0.02012178674340248,3.744911737157963e-05,-0.01506325975060463,0.015554151497781277,-0.00029785188962705433,0.017117643728852272
0.02063670940697193,3.668590579763986e-05,-0.015971217304468155,0.0146867074072361,-0.00028797442791983485,0.017245307564735413
0.02075222134590149,3.595314410631545e-05,-0.014633863233029842,0.015093551948666573,-0.00031625633710063994,0.017671948298811913
0.02061885967850685,3.524906423990615e-05,-0.01721840538084507,0.014209232293069363,-0.00030379867530427873,0.01738639548420906
0.02046888694167137,3.4572105505503714e-05,-0.014881592243909836,0.015241747722029686,-0.00028999411733821034,0.01739032380282879
0.020686810836195946,3.392061989870854e-05,-0.014759868383407593,0.014048240147531033,-0.0003064985212404281,0.017699653282761574
0.02092609740793705,3.329321771161631e-05,-0.015257922001183033,0.014669845812022686,-0.00030281441286206245,0.017227765172719955
0.021375544369220734,3.268863292760216e-05,-0.015818264335393906,0.01485008280724287,-0.0002917862148024142,0.017422249540686607
0.02110879495739937,4.628219539881684e-05,-0.015721336007118225,0.015665709972381592,-0.00041413813596591353,0.017622901126742363
0.02104867249727249,4.6499295422108844e-05,-0.01578206568956375,0.015308049507439137,-0.00042816856876015663,0.01784748211503029
0.02104867249727249,4.6499295422108844e-05,-0.01578206568956375,0.015308049507439137,-0.00042816856876015663,0.01784748211503029
0.020615072920918465,4.571236786432564e-05,-0.015137934125959873,0.014924564398825169,-0.000446523044956848,0.01761331595480442
0.020808538421988487,4.495141183724627e-05,-0.015759827569127083,0.015416574664413929,-0.0004311780212447047,0.017880486324429512
0.021339168772101402,4.421525227371603e-05,-0.015395507216453552,0.01555880717933178,-0.000404478661948815,0.01782892271876335
0.020919356495141983,4.350288145360537e-05,-0.015812262892723083,0.015319476835429668,-0.000430655520176515,0.01758628524839878
0.02114775776863098,4.2813102481886744e-05,-0.015277513302862644,0.015295615419745445,-0.0004094555915798992,0.018236128613352776
0.021389205008745193,4.2144834878854454e-05,-0.015769511461257935,0.015349985100328922,-0.00044393225107342005,0.018125170841813087
0.021156122907996178,5.371481893234886e-05,-0.01525164395570755,0.015760788694024086,-0.00045321290963329375,0.018206607550382614
0.02138623595237732,5.4470398026751354e-05,-0.01584906131029129,0.01564907655119896,-0.00041493354365229607,0.018404416739940643
0.021763404831290245,5.3679239499615505e-05,-0.016061024740338326,0.01569359377026558,-0.0003800822305493057,0.018346913158893585
0.021586894989013672,5.289085675030947e-05,-0.01602502167224884,0.01584453694522381,-0.00041559847886674106,0.018436027690768242
0.0213125292211771,5.212512769503519e-05,-0.015899689868092537,0.01597679778933525,-0.00038982860860414803,0.018343331292271614
0.020969659090042114,5.1381121011218056e-05,-0.015139615163207054,0.015507558360695839,-0.0004202212148811668,0.01818922907114029
0.021687602624297142,6.281811511144042e-05,-0.016101442277431488,0.015548370778560638,-0.00042502573342062533,0.018584106117486954
0.021380068734288216,6.243726966204122e-05,-0.015507776290178299,0.015825018286705017,-0.00042556680273264647,0.018426384776830673
0.021287821233272552,6.158929318189621e-05,-0.015917127951979637,0.01610003411769867,-0.00046451183152385056,0.01872158609330654
0.02166624553501606,6.0757902247132733e-05,-0.015412318520247936,0.016153661534190178,-0.0004407825181260705,0.01908235251903534
0.021755510941147804,6.001332440064289e-05,-0.01585742086172104,0.01569942757487297,-0.00047213435755111277,0.01903899945318699
0.021828358992934227,0.00012276899360585958,-0.01540449820458889,0.016237571835517883,-0.0004429125692695379,0.018903212621808052
0.02199285663664341,0.00012035037070745602,-0.015929775312542915,0.015142408199608326,-0.0004430000262800604,0.018690474331378937
0.02161261811852455,0.00011722649651346728,-0.016431912779808044,0.014796733856201172,-0.0004421903286129236,0.018736928701400757
0.021208638325333595,0.00011425043339841068,-0.016139177605509758,0.014463706873357296,-0.00041503002285026014,0.018620889633893967
0.022780628874897957,0.00013339938595891,-0.01569533161818981,0.015340978279709816,-0.00043759160325862467,0.01887117698788643
0.02242979034781456,0.00013047111860942096,-0.015134599059820175,0.014881067909300327,-0.0004187168669886887,0.019135093316435814
0.021985577419400215,0.00012446097389329225,-0.015787551179528236,0.015341442078351974,-0.0004246130120009184,0.019698649644851685
0.02251329831779003,0.00013499260239768773,-0.016246233135461807,0.01539293210953474,-0.00043380053830333054,0.019633229821920395
0.02220277115702629,0.00013871290138922632,-0.01562841609120369,0.014999949373304844,-0.000434188696090132,0.01945759728550911
0.02220277115702629,0.00013871290138922632,-0.01562841609120369,0.014999949373304844,-0.000434188696090132,0.01945759728550911
0.02194920927286148,0.0001358125446131453,-0.01567251794040203,0.01510590873658657,-0.00046660559019073844,0.01905985176563263
0.02282182313501835,0.00015117941075004637,-0.015597480349242687,0.015252060256898403,-0.0004383585473988205,0.019195444881916046
0.023350698873400688,0.00014879002992529422,-0.01608610898256302,0.01564422808587551,-0.000464579148683697,0.019342778250575066
0.023357512429356575,0.00014578705304302275,-0.016172397881746292,0.01573673076927662,-0.00044076942140236497,0.019286436960101128
0.022886119782924652,0.00014289404498413205,-0.015895333141088486,0.015601939521729946,-0.0005754258017987013,0.019342301413416862
0.022039499133825302,0.00023208562924992293,-0.016399243846535683,0.015914900228381157,-0.0005212969845160842,0.019382020458579063
0.022778574377298355,0.0002642057661432773,-0.015482954680919647,0.015306534245610237,-0.0005128413322381675,0.019434969872236252
0.023434888571500778,0.0002501342387404293,-0.016207141801714897,0.015816615894436836,-0.0005053578061051667,0.018717313185334206
0.023316293954849243,0.00027872377540916204,-0.015500250272452831,0.015151385217905045,-0.00046450976515188813,0.018870877102017403
0.0230792798101902,0.00027006040909327567,-0.016448598355054855,0.016126267611980438,-0.0004278469714336097,0.019664783030748367
0.02338465116918087,0.00025726453168317676,-0.015926606953144073,0.01581466570496559,-0.0004578381485771388,0.019990071654319763
0.023688504472374916,0.0002455649373587221,-0.015860142186284065,0.01538130547851324,-0.00043054053094238043,0.020246120169758797
0.0235770083963871,0.00027348188450559974,-0.01608933135867119,0.014734872616827488,-0.0004312374221626669,0.01980399526655674
0.02420755848288536,0.000287209841189906,-0.015864718705415726,0.015342729166150093,-0.00043118526809848845,0.0195035170763731
0.023703770712018013,0.0002879390958696604,-0.01647326909005642,0.015745628625154495,-0.00040977034950628877,0.020071014761924744
0.023680493235588074,0.00038314666016958654,-0.016154836863279343,0.015394313260912895,-0.00038064198452048004,0.020772084593772888
0.023850133642554283,0.00040127948159351945,-0.016308896243572235,0.015450683422386646,-0.000402842037146911,0.02042383700609207
0.02427126094698906,0.0004418003372848034,-0.016046373173594475,0.015165597200393677,-0.0003897852438967675,0.019753361120820045
0.024136526510119438,0.00040929499664343894,-0.01653044857084751,0.01592339389026165,-0.0003645097021944821,0.020206909626722336
0.02453450858592987,0.00043625899706967175,-0.0168421883136034,0.015537583269178867,-0.0003944642667192966,0.02102864533662796
0.024956462904810905,0.00041455082828179,-0.017167918384075165,0.015685146674513817,-0.0004138989024795592,0.021577518433332443
0.024537714198231697,0.00044232289656065404,-0.017166713252663612,0.015187246724963188,-0.00040326843736693263,0.020576318725943565
0.024324212223291397,0.0004226863675285131,-0.016347220167517662,0.015578609891235828,-0.0005430198507383466,0.020075354725122452
0.024106858298182487,0.0006084846681915224,-0.0177394337952137,0.015271453186869621,-0.000506569049321115,0.01989920623600483
0.023664936423301697,0.000578821636736393,-0.016731686890125275,0.015405894257128239,-0.0005352965672500432,0.02001895010471344
0.025322772562503815,0.0006325782160274684,-0.01682906597852707,0.014812972396612167,-0.0004922421067021787,0.021413827314972878
0.02495301514863968,0.0005842791288159788,-0.016721025109291077,0.014693012461066246,-0.00048756436444818974,0.020969195291399956
0.024957459419965744,0.0007263621664606035,-0.017545195296406746,0.015371497720479965,-0.0005022932309657335,0.020632673054933548
0.02459692396223545,0.0007436883170157671,-0.017050212249159813,0.016125056892633438,-0.00048354084719903767,0.020609889179468155
0.02459692396223545,0.0007436883170157671,-0.017050212249159813,0.016125056892633438,-0.00048354084719903767,0.020609889179468155
0.0245673730969429,0.0007376222056336701,-0.01701040379703045,0.015875665470957756,-0.0005067503079771996,0.02062201499938965
0.024975016713142395,0.0006909773219376802,-0.017032809555530548,0.016026798635721207,-0.0005417656502686441,0.020866934210062027
0.025267235934734344,0.0007107501151040196,-0.016527535393834114,0.0159146748483181,-0.0005128030315972865,0.021181616932153702
0.025711486116051674,0.0007657736423425376,-0.01713118888437748,0.016198426485061646,-0.0005423303227871656,0.021107900887727737
0.025603096932172775,0.0007858899189159274,-0.01701365038752556,0.015490986406803131,-0.0005037729279138148,0.021397685632109642
0.025307759642601013,0.000698667427059263,-0.017006617039442062,0.015730511397123337,-0.0005242947954684496,0.021318664774298668
0.02564322203397751,0.0007203060667961836,-0.01727021299302578,0.015860043466091156,-0.000586457084864378,0.021435284987092018
0.025834938511252403,0.0007361634052358568,-0.016867371276021004,0.01603901945054531,-0.0006982616032473743,0.02126321755349636
0.02552594244480133,0.0007918838527984917,-0.017031816765666008,0.015792783349752426,-0.0007129576406441629,0.02160566672682762
0.025766849517822266,0.0008201659074984491,-0.016401123255491257,0.015716206282377243,-0.0006628154078498483,0.021134203299880028
0.026115715503692627,0.0009082751348614693,-0.017414791509509087,0.015880733728408813,-0.000675067538395524,0.02096286229789257
0.02588852308690548,0.0011231914395466447,-0.01730429381132126,0.01571955345571041,-0.0006264309631660581,0.02130071632564068
0.02617878094315529,0.0012029454810544848,-0.016967598348855972,0.016103383153676987,-0.0006791629130020738,0.021558918058872223
0.026353012770414352,0.0012599927140399814,-0.016871614381670952,0.015894271433353424,-0.0006228581187315285,0.021251846104860306
0.026768196374177933,0.0013070781715214252,-0.016421476379036903,0.01639661379158497,-0.0006508760852739215,0.021199211478233337
0.026924272999167442,0.001295952359214425,-0.01731542870402336,0.01624412089586258,-0.0006582869682461023,0.02143995277583599
0.02695598267018795,0.0013374272966757417,-0.01697627082467079,0.01659456267952919,-0.0006587182288058102,0.021660013124346733
0.026423072442412376,0.0012960578314960003,-0.017083974555134773,0.016517506912350655,-0.0006399816484190524,0.021456090733408928
0.02685336396098137,0.0012642138171941042,-0.017472246661782265,0.01610698364675045,-0.0005946503370068967,0.02161196619272232
0.02777789905667305,0.0013501167995855212,-0.016879063099622726,0.01623307541012764,-0.000609803304541856,0.021494576707482338
0.028048915788531303,0.0015693666646257043,-0.017016688361763954,0.015773966908454895,-0.0005944683798588812,0.02168557606637478
0.027099406346678734,0.0015118139563128352,-0.0165671668946743,0.016062449663877487,-0.0005775937461294234,0.022118709981441498
0.025672540068626404,0.0016113222809508443,-0.01695677638053894,0.015813855454325676,-0.0005244995700195432,0.02220911532640457
0.025672540068626404,0.0016113222809508443,-0.01695677638053894,0.015813855454325676,-0.0005244995700195432,0.02220911532640457
0.02774590626358986,0.0015602369094267488,-0.016562053933739662,0.016057666391134262,-0.0005121093709021807,0.02184934914112091
0.027022456750273705,0.0016526293475180864,-0.016856813803315163,0.016417060047388077,-0.0005367955309338868,0.021426253020763397
0.027416054159402847,0.0016928210388869047,-0.015846634283661842,0.016352275386452675,-0.0005033701891079545,0.021185964345932007
0.028207996860146523,0.001887743710540235,-0.016878539696335793,0.01614673063158989,-0.000497136905323714,0.021838150918483734
0.028314359486103058,0.0018741795793175697,-0.016760382801294327,0.017357617616653442,-0.0005309837870299816,0.022548288106918335
0.02758321352303028,0.0018481832230463624,-0.016974732279777527,0.015974272042512894,-0.0005331478896550834,0.022118238732218742
0.026901066303253174,0.0018397123785689473,-0.016510512679815292,0.016254715621471405,-0.0005253934650681913,0.022515807300806046
0.02768034301698208,0.0019274370279163122,-0.016001272946596146,0.015896836295723915,-0.0005518380785360932,0.022938262671232224
0.028345495462417603,0.0019055415177717805,-0.016822876408696175,0.016363006085157394,-0.0007281767902895808,0.022602904587984085
0.027862336486577988,0.0022306512109935284,-0.016852986067533493,0.01669972576200962,-0.0006885280599817634,0.022449394688010216
0.027850277721881866,0.002206102479249239,-0.017218956723809242,0.016591152176260948,-0.0006884376052767038,0.022309724241495132
0.02774147503077984,0.0023735498543828726,-0.017436731606721878,0.016370896250009537,-0.0006343187997117639,0.02189890295267105
0.02774536795914173,0.0023585150483995676,-0.01685488037765026,0.01609371043741703,-0.0006384033476933837,0.021959951147437096
0.027785221114754677,0.002308606868609786,-0.017024215310811996,0.01671077497303486,-0.000599038612563163,0.022701937705278397
0.028035908937454224,0.0025523260701447725,-0.016454285010695457,0.016668569296598434,-0.0006157656898722053,0.023139741271734238
0.028149323537945747,0.0025179884396493435,-0.01720382459461689,0.0165511816740036,-0.0005757631151936948,0.022961273789405823
0.02781742438673973,0.002466341247782111,-0.01718062534928322,0.016592103987932205,-0.0005339610506780446,0.02281583659350872
0.027690580114722252,0.002684490755200386,-0.017424490302801132,0.01682811602950096,-0.000480526388855651,0.02307813987135887
0.028009552508592606,0.0027893001679331064,-0.01822061650454998,0.017145173624157906,-0.000497860019095242,0.02334190160036087
0.02812342345714569,0.0028660639654845,-0.016876133158802986,0.01642783358693123,-0.0005120073910802603,0.023564482107758522
0.02773730643093586,0.0027894640807062387,-0.01762203499674797,0.01651318185031414,-0.0005068167229183018,0.023347439244389534
0.028249774128198624,0.00295647163875401,-0.017931364476680756,0.016062553972005844,-0.0005338365444913507,0.022891134023666382
0.028309721499681473,0.0031862810719758272,-0.016805162653326988,0.016198787838220596,-0.0005009303567931056,0.02275119349360466
0.027771413326263428,0.0031091494020074606,-0.017296355217695236,0.015834828838706017,-0.0006042682798579335,0.02318064495921135
0.026390744373202324,0.0030227787792682648,-0.017048608511686325,0.0159472543746233,-0.0006217164918780327,0.023034345358610153
0.029302243143320084,0.00307179125957191,-0.017901670187711716,0.016221381723880768,-0.0005890060565434396,0.02340230904519558
0.029280733317136765,0.0031433848198503256,-0.01678917370736599,0.01684926077723503,-0.000556746032088995,0.023157034069299698
0.028640897944569588,0.0033378812950104475,-0.01781078428030014,0.016528325155377388,-0.0005807476700283587,0.024129575118422508
0.028640897944569588,0.0033378812950104475,-0.01781078428030014,0.016528325155377388,-0.0005807476700283587,0.024129575118422508
0.027888495475053787,0.0037280439864844084,-0.017322910949587822,0.01626904122531414,-0.0005975263193249702,0.022988731041550636
0.028515921905636787,0.003529077162966132,-0.017897658050060272,0.015817783772945404,-0.0006624855450354517,0.022848552092909813
0.02963143028318882,0.0035355885047465563,-0.017804771661758423,0.015921849757432938,-0.0006657889462076128,0.02336503565311432
0.02885984256863594,0.0037371728103607893,-0.01731395162642002,0.01600753702223301,-0.0006438688724301755,0.023491982370615005
0.029020700603723526,0.0034626787528395653,-0.017967648804187775,0.015775589272379875,-0.0005868604639545083,0.023588519543409348
0.029462577775120735,0.003938319627195597,-0.017056958749890327,0.01621421054005623,-0.0006082200561650097,0.02343585155904293
0.029392922297120094,0.004190588369965553,-0.017308469861745834,0.016200771555304527,-0.000711392262019217,0.023116404190659523
0.028851862996816635,0.004118836019188166,-0.01777496375143528,0.01642794907093048,-0.0007283298764377832,0.02351013571023941
0.02897178940474987,0.004094476345926523,-0.01739601045846939,0.016057509928941727,-0.0006678302306681871,0.023758482187986374
0.029683472588658333,0.004031687509268522,-0.018145864829421043,0.016841521486639977,-0.0006813040818087757,0.02371339499950409
0.029737187549471855,0.004343584645539522,-0.017448842525482178,0.0176431592553854,-0.0006252927705645561,0.02350051887333393
0.03003406524658203,0.00419441144913435,-0.017619527876377106,0.017912141978740692,-0.000644989253487438,0.02322615496814251
0.030076121911406517,0.004002613015472889,-0.017765453085303307,0.018134931102395058,-0.0006597956526093185,0.023625250905752182
0.02997315675020218,0.00418676994740963,-0.017096688970923424,0.017309503629803658,-0.0006850706413388252,0.02367960289120674
0.029585864394903183,0.004148945212364197,-0.017846282571554184,0.017245357856154442,-0.0006328949821181595,0.023707931861281395
0.0303893331438303,0.0048136538825929165,-0.01785426028072834,0.01679910533130169,-0.0006558585446327925,0.023934567347168922
0.030311910435557365,0.005001419223845005,-0.01737583987414837,0.016031278297305107,-0.0006619405467063189,0.02400839701294899
0.030340256169438362,0.0045503065921366215,-0.017627522349357605,0.01621970720589161,-0.0006259861402213573,0.023915518075227737
0.03032475709915161,0.004488156642764807,-0.017393888905644417,0.016382431611418724,-0.0007059485651552677,0.02424607425928116
0.03054790012538433,0.005007209721952677,-0.017577392980456352,0.016823068261146545,-0.0007351021049544215,0.024887222796678543
0.031069528311491013,0.005122633650898933,-0.017852313816547394,0.016264285892248154,-0.0007478051702491939,0.024827534332871437
0.030793912708759308,0.004869537893682718,-0.01730441115796566,0.01633751019835472,-0.0007269020425155759,0.023740235716104507
0.02976425364613533,0.0052017634734511375,-0.01776808314025402,0.016029657796025276,-0.0006990876281633973,0.023180626332759857
0.030726630240678787,0.004562562797218561,-0.017492715269327164,0.015885135158896446,-0.0007512115989811718,0.02346000075340271
0.030726630240678787,0.004562562797218561,-0.017492715269327164,0.015885135158896446,-0.0007512115989811718,0.02346000075340271
0.03050653077661991,0.004513044375926256,-0.017549989745020866,0.016285598278045654,-0.0007834439747966826,0.024434495717287064
0.03057815134525299,0.005109937861561775,-0.017663735896348953,0.017363468185067177,-0.0008035752107389271,0.02442982606589794
0.03068012371659279,0.0049232179298996925,-0.017737651243805885,0.016995621845126152,-0.0008391705341637135,0.02516506239771843
0.03144138678908348,0.0047989580780267715,-0.017948316410183907,0.01693013869225979,-0.0007934349123388529,0.026026366278529167
0.030890360474586487,0.004886995535343885,-0.018261564895510674,0.017258239910006523,-0.0007962327217683196,0.02519560046494007
0.0314934104681015,0.004749157465994358,-0.018723562359809875,0.01679071970283985,-0.0007077411864884198,0.022920839488506317
0.031173324212431908,0.00486657302826643,-0.017968744039535522,0.01677759177982807,-0.0007232210482470691,0.024061303585767746
0.03109055757522583,0.004821558482944965,-0.0180131234228611,0.016606206074357033,-0.0006543853669427335,0.024661829695105553
0.031577855348587036,0.005171873606741428,-0.01829359121620655,0.0168942678719759,-0.00067173782736063,0.025332050397992134
0.03153805807232857,0.005034268368035555,-0.017871858552098274,0.017095329239964485,-0.0006180032505653799,0.025165090337395668
0.031187517568469048,0.004862489178776741,-0.018457939848303795,0.016813144087791443,-0.0005491884658113122,0.02462020330131054
0.031199969351291656,0.004951528273522854,-0.01843320205807686,0.01654166728258133,-0.0005367872072383761,0.02481389045715332
0.031288400292396545,0.005240502301603556,-0.0181933231651783,0.01604938693344593,-0.0005266386433504522,0.024944456294178963
0.0322476290166378,0.00492642680183053,-0.0184337105602026,0.0163558479398489,-0.0005569838103838265,0.025164509192109108
0.03307492285966873,0.0049260263331234455,-0.018441377207636833,0.016399648040533066,-0.0005163537571206689,0.025212684646248817
0.031541675329208374,0.005357093643397093,-0.01842755824327469,0.016944531351327896,-0.0005409123841673136,0.02472223900258541
0.030820492655038834,0.0052121770568192005,-0.01879166252911091,0.017679676413536072,-0.0005693004932254553,0.024690542370080948
0.0322253480553627,0.004738280083984137,-0.01807781681418419,0.017080940306186676,-0.000640791782643646,0.024923013523221016
0.032236937433481216,0.0050048427656292915,-0.01859251596033573,0.016774842515587807,-0.000671731831971556,0.02489594742655754
0.03227360174059868,0.004966640844941139,-0.019096512347459793,0.016542550176382065,-0.0007064458332024515,0.024828458204865456
0.03269510343670845,0.00548406271263957,-0.019092677161097527,0.017025673761963844,-0.0009394401567988098,0.02488524839282036
0.031460296362638474,0.00543017964810133,-0.019257696345448494,0.017196431756019592,-0.0010064806556329131,0.02485525980591774
0.0313987210392952,0.005763848777860403,-0.018998300656676292,0.017325660213828087,-0.0009942147880792618,0.025307944044470787
0.03147367388010025,0.005249300971627235,-0.018741102889180183,0.017154620960354805,-0.000981364632025361,0.025510434061288834
0.032046083360910416,0.004445750266313553,-0.018678613007068634,0.016506068408489227,-0.0009918170981109142,0.025715230032801628
0.03271450474858284,0.004954260773956776,-0.019052516669034958,0.017393270507454872,-0.0009308729786425829,0.025541767477989197
0.031763795763254166,0.005396136082708836,-0.018624048680067062,0.01760692335665226,-0.0009231437579728663,0.025587882846593857
0.032882846891880035,0.005267339292913675,-0.01948464661836624,0.01727334037423134,-0.0008609364158473909,0.025523070245981216
0.032327476888895035,0.005286864936351776,-0.019934557378292084,0.017165618017315865,-0.0008542645955458283,0.02565459907054901
0.032327476888895035,0.005286864936351776,-0.019934557378292084,0.017165618017315865,-0.0008542645955458283,0.02565459907054901
0.031971920281648636,0.005107548087835312,-0.01845451444387436,0.017033565789461136,-0.0007750595104880631,0.02554478496313095
0.032983019948005676,0.0053299651481211185,-0.019774872809648514,0.01691005565226078,-0.0006934928242117167,0.026027211919426918
0.032150834798812866,0.005273955874145031,-0.01917792111635208,0.01660708710551262,-0.00071606325218454,0.02677321620285511
0.03265657648444176,0.0058152745477855206,-0.01875845529139042,0.0172593854367733,-0.0007478600600734353,0.026676692068576813
0.03282378986477852,0.005096773616969585,-0.01925554871559143,0.016949865967035294,-0.0009069749503396451,0.025927038863301277
0.032797809690237045,0.003120167413726449,-0.018532972782850266,0.017470067366957664,-0.0009702911484055221,0.025435537099838257
0.03230331465601921,0.0022436887957155704,-0.019413864240050316,0.017340313643217087,-0.0009539190796203911,0.025822129100561142
0.03241180256009102,0.0019808094948530197,-0.019255027174949646,0.01729741133749485,-0.00084298150613904,0.026706287637352943
0.033451974391937256,0.0018665277166292071,-0.01889554038643837,0.017711639404296875,-0.0007952171145007014,0.02595161274075508
0.03416815400123596,0.0033827521838247776,-0.01975642330944538,0.017833424732089043,-0.0007570356247015297,0.026077166199684143
0.032711707055568695,0.004213479347527027,-0.01959478296339512,0.01834072731435299,-0.0006876402185298502,0.02696240320801735
0.03239337354898453,0.0037144094239920378,-0.019020430743694305,0.01848326064646244,-0.0006278062937781215,0.026545189321041107
0.033576447516679764,0.0030682552605867386,-0.01958705671131611,0.0176098495721817,-0.000542324734851718,0.025887686759233475
0.03296231850981712,0.002820034511387348,-0.019419291988015175,0.01795971766114235,-0.00047588712186552584,0.026046648621559143
0.03350202739238739,0.0026016777846962214,-0.01905108615756035,0.017700571566820145,-0.0004712014924734831,0.02596288174390793
0.03408488631248474,0.0028649086598306894,-0.019567906856536865,0.017540110275149345,-0.0004677687829826027,0.026940559968352318
0.0345245860517025,0.003018113086000085,-0.019906187430024147,0.018273359164595604,-0.0004949436406604946,0.02761891484260559
0.03258899226784706,0.0030286842957139015,-0.019406169652938843,0.017829377204179764,-0.0004992608446627855,0.02716197818517685
0.03331265598535538,0.002777881221845746,-0.019732190296053886,0.017874496057629585,-0.0004951423616148531,0.026891987770795822
0.03447591885924339,0.0027099871076643467,-0.019939830526709557,0.017855655401945114,-0.000646605622023344,0.027086375281214714
0.03395669162273407,0.002784930169582367,-0.019681673496961594,0.01738065294921398,-0.0006831152713857591,0.026728838682174683
0.033666692674160004,0.0029444443061947823,-0.020077567547559738,0.017157822847366333,-0.0007302278536371887,0.02645030803978443
0.03464064374566078,0.0027990713715553284,-0.020194197073578835,0.01665825955569744,-0.0009115732973441482,0.026578856632113457
0.034137971699237823,0.003032444743439555,-0.020063146948814392,0.016879035159945488,-0.0010967882117256522,0.026807591319084167
0.033901866525411606,0.002961230231449008,-0.01999998278915882,0.016927046701312065,-0.0010151519672945142,0.026859775185585022
0.03437136486172676,0.0029150089249014854,-0.020489677786827087,0.01697593182325363,-0.0009313747868873179,0.027060043066740036
0.03413742780685425,0.0027801976539194584,-0.020371049642562866,0.017173415049910545,-0.0008149861241690814,0.026855284348130226
0.034509044140577316,0.0029706372879445553,-0.01956954225897789,0.017068294808268547,-0.0008172039524652064,0.02698133885860443
0.034259162843227386,0.0032519421074539423,-0.019910328090190887,0.017300307750701904,-0.000739414943382144,0.027125241234898567
0.034259162843227386,0.0032519421074539423,-0.019910328090190887,0.017300307750701904,-0.000739414943382144,0.027125241234898567
0.03460435941815376,0.0034756362438201904,-0.02004440501332283,0.017382973805069923,-0.0005580672295764089,0.027376513928174973
0.034596722573041916,0.0032614900264889,-0.019783083349466324,0.017440184950828552,-0.0005680166068486869,0.02733352780342102
0.035083070397377014,0.0035171760246157646,-0.019801737740635872,0.01706206612288952,-0.0005769080598838627,0.027582885697484016
0.03455081954598427,0.00366965145803988,-0.019810792058706284,0.01759140007197857,-0.0005653421976603568,0.027792327105998993
0.034475211054086685,0.003638302441686392,-0.019852835685014725,0.017364250496029854,-0.0005903561832383275,0.027740998193621635
0.0357263907790184,0.003576290560886264,-0.020282933488488197,0.017374152317643166,-0.0006873713573440909,0.028015250340104103
0.035435616970062256,0.003667679149657488,-0.020288782194256783,0.017561273649334908,-0.0007312970701605082,0.027898984029889107
0.03511787950992584,0.003272376488894224,-0.019460154697299004,0.017000915482640266,-0.00067164096981287,0.02823306806385517
0.035077113658189774,0.003441037144511938,-0.02014283835887909,0.017620526254177094,-0.0006469921790994704,0.02715298719704151
0.035334695130586624,0.0036357776261866093,-0.02040240541100502,0.017687903717160225,-0.0006257667555473745,0.028640586882829666
0.035472363233566284,0.004307356663048267,-0.01993337646126747,0.017456043511629105,-0.0006475900299847126,0.028562601655721664
0.03597383573651314,0.004153527319431305,-0.01969311200082302,0.01748177595436573,-0.0006707778084091842,0.02835499867796898
0.03536573424935341,0.004411179106682539,-0.020135603845119476,0.017186833545565605,-0.0006957835284993052,0.029095347970724106
0.035019148141145706,0.004165972117334604,-0.019954580813646317,0.017436757683753967,-0.0007337844581343234,0.02928891032934189
0.035071831196546555,0.003976056352257729,-0.019834401085972786,0.017007488757371902,-0.0007623463752679527,0.02827589586377144
0.035533007234334946,0.004242014605551958,-0.02036217972636223,0.016939477995038033,-0.0011203628964722157,0.027741556987166405
0.03666982799768448,0.004298953339457512,-0.02016577124595642,0.01737605407834053,-0.0011241610627621412,0.027700910344719887
0.03628242760896683,0.0044222003780305386,-0.020323799923062325,0.01722351461648941,-0.0010740156285464764,0.029151853173971176
0.034564413130283356,0.0046134209260344505,-0.020291732624173164,0.01743975281715393,-0.0010511449072510004,0.02864810824394226
0.035022489726543427,0.0046268124133348465,-0.020210029557347298,0.017519740387797356,-0.001015974790789187,0.02891220897436142
0.035568878054618835,0.0046541825868189335,-0.01995832845568657,0.017193354666233063,-0.0009227954433299601,0.02940831147134304
0.03608916699886322,0.00426770094782114,-0.022454096004366875,0.017290400341153145,-0.0008879889501258731,0.029326189309358597
0.036899976432323456,0.004224735777825117,-0.020169567316770554,0.017104998230934143,-0.0008037714287638664,0.028590159490704536
0.03655524179339409,0.004809861537069082,-0.019737420603632927,0.017772680148482323,-0.000788793433457613,0.027796927839517593
0.03512195870280266,0.004856045823544264,-0.020535757765173912,0.01787179335951805,-0.0007314775139093399,0.028404150158166885
0.03548000752925873,0.004988254979252815,-0.021519169211387634,0.01732022874057293,-0.0006331538315862417,0.02959541603922844
0.03660048171877861,0.004740626085549593,-0.020891152322292328,0.017887823283672333,-0.0006484052864834666,0.029569262638688087
0.03660048171877861,0.004740626085549593,-0.020891152322292328,0.017887823283672333,-0.0006484052864834666,0.029569262638688087
0.03630058467388153,0.004945931490510702,-0.021035071462392807,0.017629103735089302,-0.000705656420905143,0.0292520709335804
0.03630058467388153,0.004945931490510702,-0.021035071462392807,0.017629103735089302,-0.000705656420905143,0.0292520709335804
0.036174070090055466,0.004615319427102804,-0.02072463557124138,0.01785391941666603,-0.001068775076419115,0.029171420261263847
0.036571260541677475,0.005545954219996929,-0.02060961164534092,0.01783217489719391,-0.001066676457412541,0.02910340204834938
0.0365033894777298,0.005290567874908447,-0.021348509937524796,0.017623407766222954,-0.001242363709025085,0.029049791395664215
0.036093346774578094,0.004766308236867189,-0.02090391330420971,0.017911333590745926,-0.0012023564195260406,0.028955567628145218
0.036206696182489395,0.0050885966047644615,-0.02054661139845848,0.01862156204879284,-0.001079127541743219,0.029011407867074013
0.03615702688694,0.004770096857100725,-0.020522112026810646,0.018917258828878403,-0.0010477229952812195,0.029169002547860146
0.036067068576812744,0.0056305513717234135,-0.020801110193133354,0.01871233433485031,-0.0009216436301358044,0.029421400278806686
0.03706757724285126,0.005399451591074467,-0.020695528015494347,0.019081683829426765,-0.0007926792022772133,0.029670141637325287
0.036520443856716156,0.005369987804442644,-0.020582225173711777,0.017976900562644005,-0.0006719742086715996,0.029438018798828125
0.03546790033578873,0.0054548331536352634,-0.0208106841892004,0.017449907958507538,-0.0006844397867098451,0.03049682453274727
0.03639484569430351,0.005247293505817652,-0.0209036935120821,0.0171837005764246,-0.0006688896683044732,0.030019637197256088
0.03583352267742157,0.005302532110363245,-0.020255856215953827,0.01710246317088604,-0.0006455183029174805,0.029464220628142357
0.03644658625125885,0.005475698504596949,-0.020821360871195793,0.018225837498903275,-0.0006661603692919016,0.02986978366971016
0.03772643581032753,0.005591458175331354,-0.021221311762928963,0.018447421491146088,-0.0006145366351120174,0.029790302738547325
0.035929109901189804,0.005123725160956383,-0.020859897136688232,0.018078602850437164,-0.0005925269215367734,0.03006201982498169
0.03504139557480812,0.005190529394894838,-0.020420191809535027,0.01789894700050354,-0.0005336294416338205,0.029489068314433098
0.0368286669254303,0.005516556091606617,-0.020982002839446068,0.017274117097258568,-0.000559768290258944,0.03020363114774227
0.037255752831697464,0.005228308029472828,-0.021208984777331352,0.018007058650255203,-0.0005916088703088462,0.03137722983956337
0.03688129037618637,0.005667616613209248,-0.02046182192862034,0.01836441457271576,-0.0005887412116862833,0.03087519109249115
0.03648073598742485,0.0054751499556005,-0.020409688353538513,0.018164847046136856,-0.0005768159171566367,0.029453692957758904
0.0367373563349247,0.0056697591207921505,-0.020864151418209076,0.017976894974708557,-0.0006697152275592089,0.029378432780504227
0.03704965487122536,0.005403092596679926,-0.02082878351211548,0.016597969457507133,-0.0007140277302823961,0.030644018203020096
0.037135832011699677,0.005211369134485722,-0.020191192626953125,0.01675826869904995,-0.0007368892547674477,0.030653519555926323
0.0372905507683754,0.005438352935016155,-0.020821640267968178,0.017124146223068237,-0.0007116719498299062,0.030999574810266495
0.03714923933148384,0.005623179953545332,-0.020678671076893806,0.01737780123949051,-0.0006907769711688161,0.031882476061582565
0.036961980164051056,0.005487026646733284,-0.02007872983813286,0.017949186265468597,-0.0007827365770936012,0.030657164752483368
0.036961980164051056,0.005487026646733284,-0.02007872983813286,0.017949186265468597,-0.0007827365770936012,0.030657164752483368
0.037300318479537964,0.005580323748290539,-0.020660679787397385,0.017950790002942085,-0.0008040257962420583,0.02993922121822834
0.03782026097178459,0.0057453615590929985,-0.02098308689892292,0.017997456714510918,-0.0008193077519536018,0.031209228560328484
0.037885937839746475,0.005960318259894848,-0.020036600530147552,0.01704142801463604,-0.0008611624361947179,0.03137835115194321
0.038273703306913376,0.005980476271361113,-0.0205401461571455,0.018861480057239532,-0.0008907172014005482,0.029590729624032974
0.03806794807314873,0.005678769201040268,-0.020928027108311653,0.018494537100195885,-0.0007819111342541873,0.031404439359903336
0.03807710111141205,0.00573652284219861,-0.02129862643778324,0.017536979168653488,-0.0007816925062797964,0.03185657039284706
0.038325268775224686,0.006183155812323093,-0.021122582256793976,0.01753290370106697,-0.0007939920178614557,0.031294167041778564
0.03859997168183327,0.005778997205197811,-0.02127600647509098,0.017620977014303207,-0.0008015392231754959,0.030953899025917053
0.03830520808696747,0.005879197269678116,-0.020685724914073944,0.017977986484766006,-0.0008381764637306333,0.0309169702231884
0.0389939546585083,0.005685998592525721,-0.020619817078113556,0.017937684431672096,-0.0009063004981726408,0.031055407598614693
0.03895248472690582,0.005692075472325087,-0.02112398110330105,0.017335886135697365,-0.000868025585077703,0.03151191398501396
0.03855512663722038,0.005633205641061068,-0.02153504453599453,0.01735781505703926,-0.0011077866656705737,0.03131631389260292
0.039375610649585724,0.006412586197257042,-0.021395239979028702,0.017514731734991074,-0.0010054761078208685,0.03137161210179329
0.0391462966799736,0.0063696433790028095,-0.020289890468120575,0.018161827698349953,-0.0009743822156451643,0.03187616914510727
0.03890439122915268,0.005722728557884693,-0.021288948133587837,0.018846584483981133,-0.0009471955709159374,0.03225668892264366
0.03977339342236519,0.00590663542971015,-0.022115398198366165,0.018352290615439415,-0.0008674559067003429,0.03204357996582985
0.04049740359187126,0.006315525621175766,-0.021426595747470856,0.018335625529289246,-0.0008284414070658386,0.0325174555182457
0.039831191301345825,0.006143346894532442,-0.020950591191649437,0.017729854211211205,-0.0008359412895515561,0.03229604288935661
0.03826016187667847,0.006540863774716854,-0.021305859088897705,0.017418164759874344,-0.0008722372585907578,0.03221220523118973
0.040118806064128876,0.005104192532598972,-0.0212043896317482,0.01828099973499775,-0.0009601140627637506,0.03242162615060806
