davideferrari95/blind_handover_controller/data/Test 229 - [2024-02-08 -- 12-27-22]/joint_states_data.csv
shoulder_pan_joint,shoulder_lift_joint,elbow_joint,wrist_1_joint,wrist_2_joint,wrist_3_joint
0.006218241527676582,0.00442774360999465,-0.005472984630614519,0.0017413641326129436,-8.672642434248701e-05,0.005215374752879143
0.006218241527676582,0.00442774360999465,-0.005472984630614519,0.0017413641326129436,-8.672642434248701e-05,0.005215374752879143
0.005593800451606512,0.004765530116856098,-0.006011305842548609,0.0020661489106714725,-8.508663449902087e-05,0.004975105170160532
0.006384608801454306,0.004235201049596071,-0.005895905662328005,0.0022286130115389824,-8.350762072950602e-05,0.004897738341242075
0.006238210946321487,0.00437270337715745,-0.005644264630973339,0.002225151751190424,-8.198616706067696e-05,0.0053786663338541985
0.006238210946321487,0.00437270337715745,-0.005644264630973339,0.002225151751190424,-8.198616706067696e-05,0.0053786663338541985
0.005924537777900696,0.004159902222454548,-0.005261765792965889,0.0022238316014409065,-8.051914483075961e-05,0.005617198534309864
0.006017470266669989,0.004363969434052706,-0.005297351162880659,0.0021427692845463753,-7.910371641628444e-05,0.005599112715572119
0.005536995362490416,0.004915502853691578,-0.005736432038247585,0.0022748871706426144,-7.773718243697658e-05,0.005079951137304306
0.005879092961549759,0.0045171454548835754,-0.006125445012003183,0.0021917717531323433,-7.641707634320483e-05,0.004889327567070723
0.006307330448180437,0.004564311821013689,-0.005603528115898371,0.002324243076145649,-7.51410480006598e-05,0.005401319824159145
0.006107063498347998,0.004163919482380152,-0.005712297745049,0.002424643374979496,-7.390695827780291e-05,0.005469547584652901
0.005298724863678217,0.004075457341969013,-0.00525427283719182,0.0024605460930615664,-7.155647472245619e-05,0.005388564430177212
0.0059723095037043095,0.004403443541377783,-0.005738859064877033,0.0021975699346512556,-7.043643563520163e-05,0.0051920549012720585
0.005902630742639303,0.004084316082298756,-0.005833548493683338,0.002093817573040724,-6.935087003512308e-05,0.005313192959874868
0.005737153813242912,0.004432732705026865,-0.005448797717690468,0.0021720880176872015,-6.829836638644338e-05,0.005061034578830004
0.005522067192941904,0.004192580468952656,-0.0056949094869196415,0.002010264666751027,-6.727730215061456e-05,0.005433460231870413
0.005607197992503643,0.0038908834103494883,-0.0054890913888812065,0.0021039219573140144,-6.628619303228334e-05,0.005187832284718752
0.005210909992456436,0.0037581310607492924,-0.00598107697442174,0.0024330075830221176,-6.532399129355326e-05,0.00527551444247365
0.00602317601442337,0.004186741076409817,-0.00611974997445941,0.002519279485568404,-6.43892926746048e-05,0.00562181044369936
0.005610823631286621,0.004192952997982502,-0.005415209569036961,0.0025921748019754887,-6.34809912298806e-05,0.005304459482431412
0.005884064361453056,0.003960453439503908,-0.005341755226254463,0.002640664577484131,-6.259791553020477e-05,0.005565905477851629
0.005412288010120392,0.003999781794846058,-0.005516513716429472,0.0025329000782221556,-6.173906876938418e-05,0.005466768518090248
0.005089987069368362,0.004036402329802513,-0.006143513135612011,0.0025349492207169533,-6.090352690080181e-05,0.005398854147642851
0.006505816243588924,0.0039091287180781364,-0.005902235396206379,0.002595506375655532,-6.009024946251884e-05,0.005224998574703932
0.005967040080577135,0.0037423933390527964,-0.0055258977226912975,0.0024382174015045166,-5.9298425185261294e-05,0.005592602305114269
0.0054596117697656155,0.0037498928140848875,-0.005577415693551302,0.002322104526683688,-5.8527195506030694e-05,0.005332084372639656
0.005280101206153631,0.004234666936099529,-0.006038307677954435,0.0022660924587398767,-5.7775738241616637e-05,0.005354371387511492
0.0057876091450452805,0.004089781083166599,-0.005703636910766363,0.0022723928559571505,-5.7043398555833846e-05,0.005650888197124004
0.005818163976073265,0.003939305432140827,-0.005960227455943823,0.002177129266783595,-5.63293433515355e-05,0.00547044537961483
0.005818163976073265,0.003939305432140827,-0.005960227455943823,0.002177129266783595,-5.63293433515355e-05,0.00547044537961483
0.0058197337202727795,0.003929657395929098,-0.004733806010335684,0.002246192656457424,-5.563295053434558e-05,0.0054404097609221935
0.005421214271336794,0.004127988591790199,-0.006240154150873423,0.0020906617864966393,-5.42906200280413e-05,0.005343774799257517
0.005303596146404743,0.003786298679187894,-0.005952227395027876,0.0021449110936373472,-5.364342359825969e-05,0.005246190819889307
0.005539014004170895,0.004248480312526226,-0.005469448398798704,0.00210692104883492,-5.301148848957382e-05,0.004948875866830349
0.005648170597851276,0.004131171386688948,-0.005417489912360907,0.0023039295338094234,-5.239427991909906e-05,0.0047219423577189445
0.005744318012148142,0.0040129926055669785,-0.006043151021003723,0.0022162676323205233,-5.1791255827993155e-05,0.004721289034932852
0.005615371745079756,0.0040639061480760574,-0.005868085660040379,0.0021544459741562605,-5.120196510688402e-05,0.0048185125924646854
0.00559621537104249,0.004197716247290373,-0.0057843951508402824,0.002002106513828039,-5.062598575023003e-05,0.005135806277394295
0.00524559523910284,0.004470085259526968,-0.0060915835201740265,0.00213402952067554,-5.0062746595358476e-05,0.005460107699036598
0.005252671893686056,0.0041421703062951565,-0.005497162230312824,0.002101395046338439,-2.5097398975049146e-05,0.005123917479068041
0.005550370551645756,0.003964955452829599,-0.005803474225103855,0.0021368416491895914,-1.6386808283641585e-06,0.005114495288580656
0.00606741476804018,0.00398651510477066,-0.005749232601374388,0.0021276785992085934,-1.06994143322936e-07,0.005136819090694189
0.005537393502891064,0.004083640873432159,-0.00564782926812768,0.0020923262927681208,-6.98595314929662e-09,0.0048672957345843315
0.005342280492186546,0.004030831623822451,-0.005754719953984022,0.0019373982213437557,-4.5613282595446947e-10,0.005369666963815689
0.00545186921954155,0.004343520849943161,-0.006057010497897863,0.001903579686768353,-2.9782214888696146e-11,0.005236279685050249
0.005613184068351984,0.004653119947761297,-0.005602776538580656,0.002049899660050869,-1.944565819131383e-12,0.004938664846122265
0.005533768329769373,0.00444417679682374,-0.005790989380329847,0.0019157100468873978,-1.2696625435043574e-13,0.005156879313290119
0.0055631170980632305,0.004075937904417515,-0.005876988638192415,0.00202973117120564,-8.289989381808985e-15,0.005028544459491968
0.00557100772857666,0.004021374508738518,-0.005952370818704367,0.002042677253484726,-5.412770290641922e-16,0.004641364328563213
0.00557100772857666,0.004021374508738518,-0.005952370818704367,0.002042677253484726,-5.412770290641922e-16,0.004641364328563213
0.005461787339299917,0.0041442131623625755,-0.005969720426946878,0.002262628637254238,-3.534152328189962e-17,0.00493580149486661
0.005694810301065445,0.004440758377313614,-0.005336640868335962,0.0023305737413465977,-2.3075487385067696e-18,0.005349653773009777
0.005836963653564453,0.004164423793554306,-0.005902168806642294,0.0022300875280052423,-1.506664249325591e-19,0.005339659750461578
0.005789770744740963,0.0044800578616559505,-0.005477632395923138,0.002207190962508321,-9.837440920830083e-21,0.005269638262689114
0.00575451971963048,0.004098804201930761,-0.006137496791779995,0.0020440020598471165,-6.423145808895645e-22,0.005159450229257345
0.005227495450526476,0.0038698238786309958,-0.006043257657438517,0.002080525504425168,-4.1938549936732085e-23,0.004868064075708389
0.005485625471919775,0.004148515406996012,-0.005856086499989033,0.002256866544485092,-1.7879060332886264e-25,0.005219465587288141
0.0052513969130814075,0.004218215588480234,-0.005808565765619278,0.002242821268737316,-1.1673748564735194e-26,0.004941650666296482
0.005467843264341354,0.004027770832180977,-0.006649367976933718,0.002243263181298971,-7.622123422112603e-28,0.005077213980257511
0.005487912800163031,0.004330445546656847,-0.005911531858146191,0.0023492826148867607,-4.9767013792797135e-29,0.005128591787070036
0.00513505982235074,0.004040500149130821,-0.0058045159094035625,0.0021369955502450466,-3.2494305068029134e-30,0.005059825722128153
0.0058746859431266785,0.004362902604043484,-0.005538708996027708,0.002110100816935301,-2.121645757118354e-31,0.00522270891815424
0.005374896805733442,0.004145837854593992,-0.0059915147721767426,0.0019686752930283546,-1.3852832113088088e-32,0.005315203685313463
0.0054152063094079494,0.004416863899677992,-0.006943230051547289,0.001958745764568448,-9.044909240669248e-34,0.005072436761111021
0.005580429919064045,0.004101306665688753,-0.006287761032581329,0.0018698347266763449,-5.905679026756365e-35,0.005085167940706015
0.005429636687040329,0.004185255151242018,-0.0058611794374883175,0.002158527262508869,-3.85598594282248e-36,0.00492536136880517
0.005635713692754507,0.004619470797479153,-0.006244638003408909,0.0023934266064316034,-2.5176835796365866e-37,0.004986784420907497
0.005973696708679199,0.004283891059458256,-0.006077197380363941,0.0023883539251983166,-1.6438672922649894e-38,0.005237556993961334
0.005338463932275772,0.003946288954466581,-0.006634662859141827,0.002316918456926942,-1.0733273613465223e-39,0.005088392645120621
0.005384650081396103,0.004320104140788317,-0.006346214096993208,0.002079777419567108,-7.008033749934843e-41,0.004971906077116728
0.005695333704352379,0.004534939303994179,-0.005889326799660921,0.001978995045647025,-4.575239486020528e-42,0.005195879843086004
0.0059960526414215565,0.004398033022880554,-0.005951775703579187,0.0018697446212172508,-2.9847657290118604e-43,0.004929641727358103
0.00581120140850544,0.00407087616622448,-0.00658463267609477,0.002095347037538886,-1.961817850054744e-44,0.004856666084378958
0.005516373086720705,0.004247225355356932,-0.006738550495356321,0.002238054759800434,-1.401298464324817e-45,0.004964841529726982
0.0055418419651687145,0.004510520491749048,-0.006470040883868933,0.002224280498921871,-0.0,0.005221193190664053
0.005554607138037682,0.004539540968835354,-0.006298411171883345,0.0024147280491888523,-0.0,0.005085614509880543
0.005554607138037682,0.004539540968835354,-0.006298411171883345,0.0024147280491888523,-0.0,0.005085614509880543
0.006048995535820723,0.004001063294708729,-0.006523571442812681,0.0023661907762289047,-0.0,0.005003748461604118
0.006048995535820723,0.004001063294708729,-0.006523571442812681,0.0023661907762289047,-0.0,0.005003748461604118
0.005808121524751186,0.004329868592321873,-0.006626378279179335,0.002378840232267976,-0.0,0.004944244399666786
0.005763111170381308,0.0042641120962798595,-0.006170579697936773,0.0022376335691660643,-0.0,0.00489457044750452
0.006069873925298452,0.004953513853251934,-0.006341068539768457,0.002082246355712414,-0.0,0.004751248750835657
0.005470893811434507,0.004816601984202862,-0.0060989465564489365,0.002076790202409029,-0.0,0.004593076184391975
0.005902464035898447,0.004315926693379879,-0.00656411238014698,0.002250425284728408,-0.0,0.004631249234080315
0.00584127102047205,0.004384462255984545,-0.006600273307412863,0.0021056390833109617,-0.0,0.004834549035876989
0.005477746948599815,0.004172394052147865,-0.006421037949621677,0.002336104866117239,-0.0,0.004886299837380648
0.006078335922211409,0.004075153265148401,-0.006735647097229958,0.002285193419083953,-0.0,0.0051061855629086494
0.0057695647701621056,0.004492845386266708,-0.006934138014912605,0.0022907056845724583,-0.0,0.004853516351431608
0.005945788696408272,0.004160119686275721,-0.006261145696043968,0.0022490641567856073,-0.0,0.004647861234843731
0.005680283531546593,0.0038956874050199986,-0.006226942874491215,0.0023238821886479855,-0.0,0.005032596178352833
0.005656171124428511,0.004291642922908068,-0.00683333957567811,0.002373661147430539,-2.193198452005163e-05,0.004656501114368439
0.006077817175537348,0.004124699626117945,-0.0069829197600483894,0.0022869245149195194,-1.4320019090519054e-06,0.004630513489246368
0.0060257138684391975,0.004397105425596237,-0.007330113556236029,0.002271029632538557,-9.34994943690981e-08,0.00466063292697072
0.006192573346197605,0.004201734904199839,-0.006403463892638683,0.002246393356472254,-6.104848626620196e-09,0.004982405342161655
0.006472061853855848,0.004386262036859989,-0.0062792436219751835,0.002323423745110631,-3.9860301170868695e-10,0.004529465455561876
0.005609577056020498,0.0045659467577934265,-0.006591251585632563,0.0021356705110520124,-2.6025927940542815e-11,0.0045433952473104
0.005782906897366047,0.004533689934760332,-0.007235723547637463,0.0022415067069232464,-1.6993070362306129e-12,0.004541217815130949
0.006025874987244606,0.0043592690490186214,-0.006714447867125273,0.0019412047695368528,-1.1095260181535199e-13,0.004603917710483074
0.006133696995675564,0.00407715467736125,-0.006535492837429047,0.002075814874842763,-7.244411911718276e-15,0.004662978462874889
0.006205542478710413,0.004376829136162996,-0.006513403728604317,0.00207982724532485,-4.730083440374229e-16,0.004906573332846165
0.005465850234031677,0.004403272643685341,-0.007094644010066986,0.0020395575556904078,-3.088406533653307e-17,0.004756641574203968
0.005379019305109978,0.00489994790405035,-0.006821966264396906,0.0021488890051841736,-2.01650875549759e-18,0.004824952222406864
0.005851438269019127,0.004351746290922165,-0.007150405552238226,0.002078660996630788,-1.3166360472037839e-19,0.004908350296318531
0.006521671079099178,0.0039050737395882607,-0.006555500440299511,0.00221142522059381,-8.596692620220416e-21,0.00461004301905632
0.006154409609735012,0.004152227658778429,-0.0068655856885015965,0.002453071530908346,-5.613025796476523e-22,0.004373166244477034
0.006154409609735012,0.004152227658778429,-0.0068655856885015965,0.002453071530908346,-5.613025796476523e-22,0.004373166244477034
0.00584352295845747,0.00426601292565465,-0.007506628520786762,0.0024823262356221676,-3.664905139605157e-23,0.004149348009377718
0.006208668928593397,0.004254734143614769,-0.006238632369786501,0.0023770283441990614,-1.562406445745707e-25,0.004827448632568121
0.006208668928593397,0.004254734143614769,-0.006238632369786501,0.0023770283441990614,-1.562406445745707e-25,0.004827448632568121
0.006365570705384016,0.004008689895272255,-0.007153816521167755,0.0024365982972085476,-1.0201398233410485e-26,0.00494886189699173
0.006652309093624353,0.004217700567096472,-0.007712558843195438,0.0023469298612326384,-6.660783934792048e-28,0.004462915007025003
0.005876426585018635,0.0041085099801421165,-0.006584405433386564,0.0022291431669145823,-4.349015532573393e-29,0.004389955196529627
0.006874732673168182,0.004487068857997656,-0.006821098271757364,0.002223646268248558,-1.8540536370095966e-31,0.004632540047168732
0.006874732673168182,0.004487068857997656,-0.006821098271757364,0.002223646268248558,-1.8540536370095966e-31,0.004632540047168732
0.006239228881895542,0.004061341751366854,-0.006871949415653944,0.0022025075741112232,-7.90412227890995e-34,0.004530410747975111
0.0061247884295880795,0.004428832791745663,-0.0071014901623129845,0.002199009293690324,-5.160826572180341e-35,0.0045256162993609905
0.006614422891288996,0.004585767164826393,-0.0066293347626924515,0.0023616873659193516,-3.36965134263546e-36,0.004593529272824526
0.006635625846683979,0.004276160150766373,-0.006797028239816427,0.0022884791251271963,-2.200141500349183e-37,0.00457467557862401
0.0061731161549687386,0.004371563903987408,-0.0069449301809072495,0.0024467897601425648,-1.436535235249036e-38,0.0045676990412175655
0.006205922458320856,0.0041571143083274364,-0.006745572201907635,0.0024029698688536882,-9.379549232004233e-40,0.0044559151865541935
0.006154616363346577,0.004439929965883493,-0.006641883868724108,0.002355944598093629,-6.124234808485181e-41,0.0043627554550766945
0.006409874651581049,0.004443418700248003,-0.006022798363119364,0.0024460547138005495,-3.999305817183028e-42,0.004770402796566486
0.006860859226435423,0.004350571893155575,-0.00629707844927907,0.0024536801502108574,-2.6064151436441598e-43,0.004591998644173145
0.006446273997426033,0.0035732535179704428,-0.006321689113974571,0.0023638696875423193,-1.6815581571897805e-44,0.004560563247650862
0.006047663278877735,0.0029858043417334557,-0.006436363328248262,0.0023900556843727827,-1.401298464324817e-45,0.004333922639489174
0.006304617039859295,0.002811345038935542,-0.006160857621580362,0.002228248631581664,-0.0,0.004265728406608105
0.0069206939078867435,0.0029955485370010138,-0.00652418052777648,0.0024777648504823446,-0.0,0.0045178416185081005
0.006284832488745451,0.0033956733532249928,-0.006783214397728443,0.0027758951764553785,-0.0,0.004688720218837261
0.00635366328060627,0.003508395981043577,-0.006217119749635458,0.0028605726547539234,-0.0,0.004716736264526844
0.006323921959847212,0.003576389281079173,-0.00639127753674984,0.002883382374420762,-0.0,0.004365857690572739
0.0061715347692370415,0.003322901902720332,-0.006509995553642511,0.002826480660587549,-0.0,0.0038086334243416786
0.006195056717842817,0.0035937242209911346,-0.00629227003082633,0.0027768469881266356,-0.0,0.003945279400795698
0.006195056717842817,0.0035937242209911346,-0.00629227003082633,0.0027768469881266356,-0.0,0.003945279400795698
0.006616770755499601,0.003760256338864565,-0.006166544277220964,0.002591121708974242,-0.0,0.003946326207369566
0.006616770755499601,0.003760256338864565,-0.006166544277220964,0.002591121708974242,-0.0,0.003946326207369566
0.006196207832545042,0.0037693907506763935,-0.006438198499381542,0.002602206077426672,-0.0,0.0041886428371071815
0.006433538161218166,0.0033264898229390383,-0.006178522482514381,0.002723936690017581,-0.0,0.004138222895562649
0.006940890569239855,0.0031261055264621973,-0.006600411608815193,0.0027090739458799362,-0.0,0.004333695396780968
0.006998321041464806,0.0031981670763343573,-0.006573738995939493,0.002616525860503316,-0.0,0.004292146768420935
0.006381982006132603,0.0034439864102751017,-0.006272611208260059,0.0024539201986044645,-0.0,0.0039616478607058525
0.00706351175904274,0.0037122631911188364,-0.0067509934306144714,0.002439318224787712,-0.0,0.00415489636361599
0.007071501109749079,0.003729918273165822,-0.006990264169871807,0.0026412210427224636,-0.0,0.004176477435976267
0.006424853578209877,0.003580511314794421,-0.006355307064950466,0.002586688846349716,-0.0,0.004204477649182081
0.006466201040893793,0.0033206786029040813,-0.006278735585510731,0.0025855170097202063,-0.0,0.0040215663611888885
0.006973626557737589,0.003366329940035939,-0.006322956178337336,0.0025191553868353367,-0.0,0.0041420902125537395
0.00684787193313241,0.0032114621717482805,-0.0071323337033391,0.0024714439641684294,-0.0,0.004627786576747894
0.007339986972510815,0.0035618371330201626,-0.006772289052605629,0.002711407607421279,-0.0,0.00436908844858408
0.006683817133307457,0.003867175430059433,-0.006130582187324762,0.0028586098924279213,-0.0,0.004035803955048323
0.006574792321771383,0.003481487277895212,-0.006448450498282909,0.002870175987482071,-0.0,0.003466015914455056
0.007138044107705355,0.003986955154687166,-0.006941013038158417,0.0027203350327908993,-0.0,0.0035641067661345005
0.007138044107705355,0.003986955154687166,-0.006941013038158417,0.0027203350327908993,-0.0,0.0035641067661345005
0.007202967070043087,0.003586810315027833,-0.0062972246669232845,0.0024057880509644747,-0.0,0.004254278726875782
0.007029433734714985,0.003559974953532219,-0.006490296684205532,0.0024330972228199244,-0.0,0.004242680035531521
0.007029433734714985,0.003559974953532219,-0.006490296684205532,0.0024330972228199244,-0.0,0.004242680035531521
0.006891661789268255,0.003832679009065032,-0.006646973080933094,0.002738028531894088,-0.0,0.003495465498417616
0.006848776247352362,0.003860262455418706,-0.007144857197999954,0.0027192365378141403,-0.0,0.003804863430559635
0.007012500427663326,0.003864521626383066,-0.0065283868461847305,0.0027337924111634493,-0.0,0.004016875755041838
0.006960599683225155,0.004428330808877945,-0.006084268447011709,0.0027117563877254725,-0.0,0.0039635030552744865
0.006960599683225155,0.004428330808877945,-0.006084268447011709,0.0027117563877254725,-0.0,0.0039635030552744865
0.007085029501467943,0.004163234028965235,-0.007074040360748768,0.002571533201262355,-0.0,0.0039036693051457405
0.007013430818915367,0.003901175456121564,-0.007720170542597771,0.0026755770668387413,-0.0,0.003908958751708269
0.00689995102584362,0.003802743973210454,-0.006465967278927565,0.002450620988383889,-0.0,0.0039410968311131
0.00691166240721941,0.00411197217181325,-0.006267135497182608,0.002362048951908946,-0.0,0.0039550382643938065
0.007519123610109091,0.003701219568029046,-0.0067581129260361195,0.002364792162552476,-0.0,0.0034468804951757193
0.006842553615570068,0.0037090859841555357,-0.0077278343960642815,0.002520188456401229,-0.0,0.0034764751326292753
0.0068959081545472145,0.004814521875232458,-0.006764205172657967,0.0025092174764722586,-0.0,0.00367855210788548
0.007197224069386721,0.0031312948558479548,-0.007056850008666515,0.002818179316818714,-0.0,0.003332962980493903
0.006900119129568338,0.003041471354663372,-0.007046693470329046,0.0027518379501998425,-0.0,0.003537817159667611
0.007213409524410963,0.004058041609823704,-0.00735623762011528,0.002824995433911681,-0.0,0.0036261482164263725
0.007013044785708189,0.004400341771543026,-0.006375961005687714,0.0027531760279089212,-0.0,0.003549813525751233
0.007919123396277428,0.003956331871449947,-0.0066335187293589115,0.0027099947910755873,-0.0,0.003604162484407425
0.007256940007209778,0.003403258742764592,-0.0071369195356965065,0.002613587537780404,-0.0,0.00368210906162858
0.007188467308878899,0.004096231888979673,-0.00708094984292984,0.0028476561419665813,-0.0,0.00370785896666348
0.007544215302914381,0.004182304255664349,-0.006703525315970182,0.0029377713799476624,-0.0,0.003705610753968358
0.007783565204590559,0.004379797726869583,-0.00613147858530283,0.002965090796351433,-0.0,0.003785090520977974
0.007682136259973049,0.004263082519173622,-0.0065845889039337635,0.0029515945352613926,-0.0,0.0034794011153280735
0.006963695399463177,0.004046482499688864,-0.007365474011749029,0.003084917552769184,-0.0,0.003966412972658873
0.006850626785308123,0.00383562920615077,-0.007095539476722479,0.003157456871122122,-0.0,0.004131074529141188
0.0074769570492208,0.004203294403851032,-0.006430628709495068,0.003128029638901353,-0.0,0.004022855777293444
0.007392892614006996,0.004152242094278336,-0.006278126034885645,0.003119763219729066,-0.0,0.003514053300023079
0.007211106829345226,0.00420754449442029,-0.006690191570669413,0.002938701771199703,-1.470574443374062e-05,0.0034418264403939247
0.0070884497836232185,0.003958440385758877,-0.007334278896450996,0.0029380496125668287,-9.696822417026851e-06,0.003206443740054965
0.007425520569086075,0.0037773370277136564,-0.007515791803598404,0.0027463403530418873,-6.331332542686141e-07,0.002976683434098959
0.007401204202324152,0.0037786986213177443,-0.007010914850980043,0.0026891864836215973,-4.133907438585993e-08,0.003215645905584097
0.007081308402121067,0.003832232905551791,-0.006579980254173279,0.002613813616335392,-2.69914623984846e-09,0.003328806022182107
0.007138196378946304,0.004311828874051571,-0.006744717713445425,0.002950898138806224,-1.762349294276433e-10,0.0035085070412606
0.007927785627543926,0.004107375629246235,-0.006685866042971611,0.002972337184473872,-1.1506881385237033e-11,0.0036649773828685284
0.007927785627543926,0.004107375629246235,-0.006685866042971611,0.002972337184473872,-1.1506881385237033e-11,0.0036649773828685284
0.008489524945616722,0.003959273919463158,-0.006781375035643578,0.0029199067503213882,-7.513171942225005e-13,0.0037128860130906105
0.007133751176297665,0.004546461161226034,-0.0064728413708508015,0.0029159283731132746,-3.202983303999857e-15,0.0030921632423996925
0.007133751176297665,0.004546461161226034,-0.0064728413708508015,0.0029159283731132746,-3.202983303999857e-15,0.0030921632423996925
0.008010538294911385,0.004356624558568001,-0.0068943616934120655,0.002896418096497655,-2.0913191851638452e-16,0.0028085827361792326
0.007872328162193298,0.004040570463985205,-0.006839916110038757,0.0028282504063099623,-1.3654819619339563e-17,0.002860537962988019
0.008198071271181107,0.0041487328708171844,-0.006766027770936489,0.0027691710274666548,-8.915621475795612e-19,0.003165582427754998
0.007786610163748264,0.004349283874034882,-0.007029219064861536,0.0031899006571620703,-3.800869469183803e-21,0.003886459395289421
0.008137615397572517,0.004577758722007275,-0.007294047623872757,0.003168054623529315,-2.481696075743272e-22,0.003642622847110033
0.00761484494432807,0.004190996289253235,-0.007451573386788368,0.00306552741676569,-1.6203701553331682e-23,0.0035764810163527727
0.007767125498503447,0.004433523863554001,-0.006504966411739588,0.002931466093286872,-1.0579858320254308e-24,0.0033205579966306686
0.008518625050783157,0.004282553214579821,-0.006653686985373497,0.0028949344996362925,-6.907891628161116e-26,0.0031336811371147633
0.008531814441084862,0.004273663740605116,-0.007230084855109453,0.0029673941899091005,-4.510359603477767e-27,0.002990780398249626
0.007904243655502796,0.004142546560615301,-0.006979741621762514,0.0031772141810506582,-2.944942366857439e-28,0.0030739030335098505
0.007678675930947065,0.0044395942240953445,-0.0066824378445744514,0.0032325482461601496,-1.9228368708038946e-29,0.0032213341910392046
0.00825250893831253,0.00421957578510046,-0.006436564028263092,0.0034337628167122602,-1.255475080491784e-30,0.003163680201396346
0.0083170086145401,0.004006522241979837,-0.007211364805698395,0.0032698200084269047,-8.197355699738904e-32,0.0029580462723970413
0.008140861988067627,0.004277384374290705,-0.007043150253593922,0.003148523857817054,-5.352287326786933e-33,0.002710366388782859
0.008567407727241516,0.0042699482291936874,-0.0065010362304747105,0.0032004460226744413,-3.4946615938706378e-34,0.0025790762156248093
0.00819350779056549,0.004505056422203779,-0.006862257607281208,0.0035461741499602795,-2.2817642525843832e-35,0.0029252483509480953
0.008041703142225742,0.004040850326418877,-0.006686309352517128,0.003086431184783578,-9.727517985107215e-38,0.0034186008851975203
0.008041703142225742,0.004040850326418877,-0.006686309352517128,0.003086431184783578,-9.727517985107215e-38,0.0034186008851975203
0.00876255240291357,0.003986630588769913,-0.006546201184391975,0.002952130511403084,-6.351374079164519e-39,0.0031317572575062513
0.008529968559741974,0.003915172535926104,-0.006565076299011707,0.002982458798214793,-4.14698866233822e-40,0.0027435871306806803
0.008327639661729336,0.0042858426459133625,-0.00683399336412549,0.003302097087725997,-2.707729022614844e-41,0.0025263086427003145
0.009118952788412571,0.004181720782071352,-0.0074027469381690025,0.0034254512283951044,-1.768438661977919e-42,0.0023069470189511776
0.008474542759358883,0.003913050517439842,-0.007416809909045696,0.0035789390094578266,-1.14906474074635e-43,0.0024821003898978233
0.008400731720030308,0.0033578146249055862,-0.0069220904260873795,0.0038838807959109545,-7.006492321624085e-45,0.0029598320834338665
0.008398073725402355,0.0033170997630804777,-0.007182637695223093,0.0040163202211260796,-0.0,0.0032100866083055735
0.008398073725402355,0.0033170997630804777,-0.007182637695223093,0.0040163202211260796,-0.0,0.0032100866083055735
0.00840926542878151,0.0035798796452581882,-0.007695175241678953,0.00372514920309186,-0.0,0.0029808147810399532
0.00818565208464861,0.0038166630547493696,-0.006868121214210987,0.00349616096355021,-0.0,0.003021111013367772
0.008156833238899708,0.003765423782169819,-0.0068474723957479,0.0031553052831441164,-0.0,0.0027793266344815493
0.009203548543155193,0.003682686947286129,-0.006783576216548681,0.003022813471034169,-0.0,0.0027096536941826344
0.008692382834851742,0.004236497450619936,-0.0073250639252364635,0.003176362719386816,-0.0,0.002811623038724065
0.008321356028318405,0.003943867981433868,-0.007160825189203024,0.0037247121799737215,-0.0,0.0027066445909440517
0.00894109345972538,0.003918652422726154,-0.007040966767817736,0.0038454486057162285,-0.0,0.0025610188022255898
0.009151539765298367,0.003905388992279768,-0.007472880184650421,0.003786277025938034,-0.0,0.002690704073756933
0.008549514226615429,0.003924866206943989,-0.007443830370903015,0.0035166863817721605,-0.0,0.0028190084267407656
0.0083881551399827,0.0039199660532176495,-0.007583222817629576,0.0032444442622363567,-0.0,0.0027014194056391716
0.008447940461337566,0.003503895830363035,-0.007184877060353756,0.00322249555028975,-0.0,0.0027106546331197023
0.008950660936534405,0.003460223786532879,-0.0072920843958854675,0.003370994469150901,-0.0,0.0024087845813483
0.00847876351326704,0.003574538743123412,-0.007401199545711279,0.0033865771256387234,-0.0,0.0022174199111759663
0.00882074236869812,0.0036705536767840385,-0.007614579517394304,0.004120116122066975,-0.0,0.0020052362233400345
0.008708980865776539,0.0042160432785749435,-0.007229008246213198,0.004164718557149172,-0.0,0.00200561061501503
0.008354664780199528,0.004070712719112635,-0.007186481263488531,0.0044006891548633575,-0.0,0.0023094876669347286
0.009586536325514317,0.0033870055340230465,-0.007409398909658194,0.0037095339503139257,-0.0,0.0025535128079354763
0.008636895567178726,0.003261198755353689,-0.007721631787717342,0.003585915779694915,-0.0,0.002562987618148327
0.008358536288142204,0.003376122796908021,-0.007296567317098379,0.003667182521894574,-0.0,0.0023616328835487366
0.00926025677472353,0.0036174911074340343,-0.007551056332886219,0.0037557589821517467,-0.0,0.0022161665838211775
0.008886009454727173,0.003748235059902072,-0.00734790600836277,0.00377351394854486,-0.0,0.0021813821513205767
0.008867352269589901,0.0037319159600883722,-0.007669203914701939,0.00418183533474803,-6.928064249223098e-05,0.002388067776337266
0.008641665801405907,0.0037191419396549463,-0.007320396602153778,0.0042078071273863316,-7.561988604720682e-05,0.0024328953586518764
0.008641665801405907,0.0037191419396549463,-0.007320396602153778,0.0042078071273863316,-7.561988604720682e-05,0.0024328953586518764
0.008918160572648048,0.0037706305738538504,-0.007492930628359318,0.004041415639221668,-7.485204696422443e-05,0.002529618563130498
0.009270069189369678,0.0037928943056613207,-0.007400927599519491,0.003928742371499538,-7.365881174337119e-05,0.002401576843112707
0.008623120374977589,0.003299571806564927,-0.007274915464222431,0.003842514008283615,-7.247451139846817e-05,0.0022901950869709253
0.009031119756400585,0.0030687330290675163,-0.006929162889719009,0.00412365235388279,-7.132602331694216e-05,0.0022604381665587425
0.009144112467765808,0.003720977110788226,-0.007734193466603756,0.0038356457371264696,-6.913442484801635e-05,0.0021856562234461308
0.009144112467765808,0.003720977110788226,-0.007734193466603756,0.0038356457371264696,-6.913442484801635e-05,0.0021856562234461308
0.00873834639787674,0.0037867252249270678,-0.007346735335886478,0.004280786495655775,-6.80883604218252e-05,0.002224378054961562
0.009006217122077942,0.0034049630630761385,-0.007247946225106716,0.004496980458498001,-6.707348074996844e-05,0.0025487008970230818
0.008950556628406048,0.0033520993310958147,-0.007412719074636698,0.00450129946693778,-6.513186235679314e-05,0.002452870598062873
0.009831641800701618,0.003465252695605159,-0.007451868150383234,0.004256583750247955,-6.420259160222486e-05,0.0022529272828251123
0.008776015602052212,0.0035593793727457523,-0.007380457129329443,0.00430733896791935,-6.329957250272855e-05,0.0020649663638323545
0.00867585651576519,0.0037260418757796288,-0.008102216757833958,0.004055005498230457,-6.857300468254834e-05,0.001957856584340334
0.009224793873727322,0.0038432455621659756,-0.007563734892755747,0.004288402386009693,-7.346746133407578e-05,0.00198227702639997
0.009318835102021694,0.0034214933402836323,-0.007512065581977367,0.004123704042285681,-7.285679748747498e-05,0.0021589912939816713
0.008589056320488453,0.0035629230551421642,-0.007740499917417765,0.0043909368105232716,-7.191137410700321e-05,0.0025330684147775173
0.00898074172437191,0.003820118261501193,-0.007895037531852722,0.004191969987004995,-7.096798799466342e-05,0.002389872446656227
0.009263529442250729,0.00403723306953907,-0.00820895005017519,0.003936541732400656,-7.004750659689307e-05,0.0024292569141834974
0.008882993832230568,0.004044851288199425,-0.00788213312625885,0.004218670539557934,-6.915052654221654e-05,0.0021600560285151005
0.009211369790136814,0.0034694967325776815,-0.0076512121595442295,0.004153942223638296,-6.827618199167773e-05,0.002019175561144948
0.009191436693072319,0.003011549822986126,-0.007998630404472351,0.004056336358189583,-6.742369441781193e-05,0.0018577902810648084
0.009227144531905651,0.0030147519428282976,-0.007912463508546352,0.003951158840209246,-6.659226346528158e-05,0.0018421853892505169
0.010471727699041367,0.0033888344187289476,-0.007574072107672691,0.004179977346211672,-6.578106695087627e-05,0.0020370306447148323
0.009308557957410812,0.0038330992683768272,-0.007635385729372501,0.004193629138171673,-6.498941365862265e-05,0.0021033664233982563
0.009308557957410812,0.0038330992683768272,-0.007635385729372501,0.004193629138171673,-6.498941365862265e-05,0.0021033664233982563
0.009537518955767155,0.0036905526649206877,-0.008196881040930748,0.004274673759937286,-6.421653233701363e-05,0.0021177097223699093
0.009173519909381866,0.003542192280292511,-0.008283227682113647,0.004128588363528252,-6.346192822093144e-05,0.0020665028132498264
0.009637461043894291,0.0032515523489564657,-0.007823631167411804,0.003994036465883255,-6.27247427473776e-05,0.0017653488321229815
0.009342874400317669,0.0035304208286106586,-0.008276724256575108,0.0039855181239545345,-6.200458301464096e-05,0.0015239152126014233
0.009623642079532146,0.003691081888973713,-0.00801567267626524,0.004308551084250212,-6.889183714520186e-05,0.0013805190101265907
0.010056443512439728,0.0036040309350937605,-0.00826038233935833,0.004304697271436453,-7.054333400446922e-05,0.0013126019621267915
0.009164630435407162,0.003635554574429989,-0.00868923868983984,0.0043788449838757515,-6.991859845584258e-05,0.0012330409372225404
0.009451229125261307,0.003300920594483614,-0.008552794344723225,0.004196337424218655,-1.7769432815839536e-05,0.0013242290588095784
0.009726589545607567,0.0036047939211130142,-0.00806441530585289,0.004213456064462662,-1.1602170388869126e-06,0.001693141064606607
0.009412256069481373,0.0033289643470197916,-0.008887493051588535,0.003857056610286236,-4.946187459609064e-09,0.0019514906452968717
0.009600904770195484,0.0034057064913213253,-0.008410681039094925,0.00422085402533412,-3.2295072172061623e-10,0.0018397844396531582
0.009689236991107464,0.003582179546356201,-0.0076962970197200775,0.004839604254812002,-2.108637396636137e-11,0.0016881648916751146
0.009689236991107464,0.003582179546356201,-0.0076962970197200775,0.004839604254812002,-2.108637396636137e-11,0.0016881648916751146
0.009898112155497074,0.0034968231339007616,-0.008413893170654774,0.004750135354697704,-8.989453604245357e-14,0.0013733290834352374
0.009216750971972942,0.0031948708929121494,-0.008475382812321186,0.0045902058482170105,-5.8694711858018906e-15,0.0012852437794208527
0.009445286355912685,0.0034338466357439756,-0.008051588200032711,0.004662215244024992,-3.8323455127105104e-16,0.0011358489282429218
0.010092003270983696,0.0037464310880750418,-0.008126243017613888,0.004866295959800482,-2.502247657316388e-17,0.0009963889606297016
0.009962469339370728,0.0035170221235603094,-0.008723785169422626,0.0048530567437410355,-1.6337889330791318e-18,0.0010117188794538379
0.010132974945008755,0.0034319194965064526,-0.0079804090783,0.005245990119874477,-1.0667474337144138e-19,0.0009977942099794745
0.011253836564719677,0.0036232969723641872,-0.008161957375705242,0.005086218006908894,-3.4195283660665154e-05,0.0012132576666772366
0.010506372898817062,0.003819853300228715,-0.008050968870520592,0.004535977263003588,-9.049788786796853e-05,0.0012296400964260101
0.010088030248880386,0.003927434328943491,-0.007406850811094046,0.004238814581185579,-9.235998004442081e-05,0.0011989723425358534
0.010625619441270828,0.003398822620511055,-0.008508356288075447,0.004164761397987604,-9.074034460354596e-05,0.0011983957374468446
0.010360639542341232,0.003344921860843897,-0.008678183890879154,0.004493421874940395,-8.896242070477456e-05,0.001165891531854868
0.010360639542341232,0.003344921860843897,-0.008678183890879154,0.004493421874940395,-8.896242070477456e-05,0.001165891531854868
0.010592362843453884,0.003515111282467842,-0.008548403158783913,0.004678002558648586,-8.723878272576258e-05,0.0011308909161016345
0.010577775537967682,0.0035880273208022118,-0.007687659468501806,0.004722518380731344,-8.5579784354195e-05,0.0010959217324852943
0.009858638048171997,0.0034757154062390327,-0.007611478678882122,0.004650551360100508,-8.398264617426321e-05,0.0010036089224740863
0.010486358776688576,0.003727405099198222,-0.008808602578938007,0.004731680266559124,-8.24439266580157e-05,0.000973392860032618
0.010936948470771313,0.003990205004811287,-0.008428436703979969,0.004711349960416555,-8.89305883902125e-05,0.0008411791059188545
0.010389624163508415,0.003861082950606942,-0.007717152591794729,0.0046105338260531425,-9.48989691096358e-05,0.0008409194997511804
0.010701042599976063,0.0035767212975770235,-0.007403431460261345,0.004694379400461912,-9.374335058964789e-05,0.0008261817274615169
0.010323042050004005,0.00355105334892869,-0.00840555876493454,0.004660962149500847,-9.063035395229235e-05,0.0006693917093798518
0.01129586435854435,0.0037589482963085175,-0.00764437485486269,0.004561183042824268,-8.913448255043477e-05,0.0006916034617461264
0.01029251329600811,0.0037925231736153364,-0.007560600060969591,0.004628277849406004,-8.768701081862673e-05,0.0006945938803255558
0.01015486940741539,0.003978252876549959,-0.008915684185922146,0.004771284759044647,-9.69625762081705e-05,0.0007144184201024473
0.010868323035538197,0.0038984452839940786,-0.008638189174234867,0.004741571843624115,-9.884183964459226e-05,0.0007915992755442858
0.010395803488790989,0.0035207855980843306,-0.007864266633987427,0.00492601515725255,-9.753366612130776e-05,0.0009072824032045901
0.010227290913462639,0.0035227714106440544,-0.00815053191035986,0.004900036379694939,-9.606103412806988e-05,0.0009852261282503605
0.010592125356197357,0.003691619262099266,-0.008274498395621777,0.004761414602398872,-9.461925947107375e-05,0.0009365142323076725
0.010845346376299858,0.003974109422415495,-0.008224877528846264,0.005128324497491121,-9.321921243099496e-05,0.0012167192762717605
0.01061392854899168,0.0039060665294528008,-0.007773717865347862,0.005008472129702568,-9.186009992845356e-05,0.0011310302652418613
0.010669810697436333,0.0037653122562915087,-0.008152199909090996,0.004925593268126249,-0.00010261726129101589,0.0010222234996035695
0.010553820058703423,0.003833828028291464,-0.007925732061266899,0.005170354153960943,-0.00010195221693720669,0.0008834200561977923
0.010562680661678314,0.004371748771518469,-0.007600010838359594,0.004953368101269007,-0.00010057944746222347,0.0007748053758405149
0.01040608063340187,0.00419926131144166,-0.007908398285508156,0.0048894090577960014,-9.919712465489283e-05,0.0007744822651147842
0.010191509500145912,0.003932081162929535,-0.008538255468010902,0.0048014139756560326,-9.784926805878058e-05,0.0007095345645211637
0.010193713940680027,0.00415547750890255,-0.007962883450090885,0.004886995069682598,-0.0001278417621506378,0.0006465001497417688
0.010070033371448517,0.004196868743747473,-0.008383848704397678,0.004877736791968346,-0.00015320022066589445,0.0005250073154456913
0.010507500730454922,0.004072520881891251,-0.00825484748929739,0.005227908492088318,-0.0001500334619777277,0.00045384716941043735
0.010507500730454922,0.004072520881891251,-0.00825484748929739,0.005227908492088318,-0.0001500334619777277,0.00045384716941043735
0.010171046480536461,0.004451234359294176,-0.0077366759069263935,0.005006777122616768,-0.00016703423170838505,0.0004318327992223203
0.010171046480536461,0.004451234359294176,-0.0077366759069263935,0.005006777122616768,-0.00016703423170838505,0.0004318327992223203
0.010601749643683434,0.004198803100734949,-0.007578827906399965,0.005511908326297998,-0.00016368365322705358,0.0004156752547714859
0.010908077470958233,0.004158494528383017,-0.008472644723951817,0.005254162475466728,-0.00015897634148132056,0.00041828746907413006
0.010368016548454762,0.003924978896975517,-0.008495187386870384,0.005385228432714939,-0.00015443668235093355,0.00041918782517313957
0.010440615937113762,0.0038359349127858877,-0.007952473126351833,0.005238458048552275,-0.0001686820323811844,0.00039479098632000387
0.010725895874202251,0.0038528903387486935,-0.007929138839244843,0.005690730642527342,-0.00017000424850266427,0.00041072446038015187
0.011309909634292126,0.004237221088260412,-0.008765047416090965,0.005444635171443224,-0.00016591082385275513,0.0004001324123237282
0.010589011944830418,0.004471471533179283,-0.008613073267042637,0.005165749229490757,-0.0001616778172319755,0.000379819015506655
0.010189993306994438,0.0040871743112802505,-0.008335147053003311,0.005339812953025103,-0.00017428497085347772,0.00036345739499665797
0.010716504417359829,0.0040328241884708405,-0.008210786618292332,0.0054453834891319275,-0.0001714710524538532,0.00033975974656641483
0.010323930531740189,0.00411898223683238,-0.008408774621784687,0.0052858456037938595,-0.00016756769036874175,0.0003161228378303349
0.010667734779417515,0.0041069150902330875,-0.008481844328343868,0.005639736074954271,-0.00016376191342715174,0.0002953756775241345
0.010689504444599152,0.003694006707519293,-0.008594986982643604,0.005400348454713821,-0.00016012023843359202,0.00027717321063391864
0.010549811646342278,0.004155289847403765,-0.008189880289137363,0.005184977315366268,-0.0001566366117913276,0.0002610839146655053
0.011271519586443901,0.004164532292634249,-0.00876622460782528,0.0058857109397649765,-0.00015366800653282553,0.0002467613376211375
0.011469537392258644,0.003684776835143566,-0.008563566952943802,0.006188107188791037,-0.00021851457131560892,0.0002339287893846631
0.010380157269537449,0.003527069231495261,-0.00838882103562355,0.005526745226234198,-0.00021290266886353493,0.000222365531953983
0.010916865430772305,0.004018743988126516,-0.00840961653739214,0.005420042667537928,-0.00020357796165626496,0.00021189167455304414
0.010751709342002869,0.004260257352143526,-0.008562305010855198,0.005658006761223078,-0.00023108194000087678,0.0002023606066359207
0.010461327619850636,0.004070962313562632,-0.008618245832622051,0.005608496256172657,-0.00022386855562217534,0.00019365022308193147
0.011311158537864685,0.003468299051746726,-0.008255526423454285,0.005712445359677076,-0.0002151044609490782,0.00018565906793810427
0.010314157232642174,0.003593093017116189,-0.008365098387002945,0.005287754815071821,-0.00020687270443886518,0.0001783013140084222
0.010720155201852322,0.004362707491964102,-0.008827107958495617,0.005496244411915541,-0.00022803431784268469,0.00017150463827420026
0.01100828591734171,0.004131846129894257,-0.008262609131634235,0.0054094549268484116,-0.00022388514480553567,0.00016520718054380268
0.010469901375472546,0.003478033933788538,-0.008250963874161243,0.004699782468378544,-0.00021645125525537878,0.00015935589908622205
0.010878886096179485,0.0033767542336136103,-0.00782547052949667,0.005674437154084444,-0.00023715445422567427,0.00015390489716082811
0.010925482958555222,0.0037057502195239067,-0.00900916289538145,0.006304929964244366,-0.00023135232913773507,0.0001488146372139454
0.010935592465102673,0.0040295664221048355,-0.008288750424981117,0.006197285372763872,-0.00022426442592404783,0.00014405044203158468
0.011138607747852802,0.0035681219305843115,-0.008280065841972828,0.005508012603968382,-0.00021749723237007856,0.0001189108588732779
0.011138607747852802,0.0035681219305843115,-0.008280065841972828,0.005508012603968382,-0.00021749723237007856,0.0001189108588732779
0.010937746614217758,0.003495789598673582,-0.008650463074445724,0.005772456061094999,-0.00027614214923232794,0.00010877865133807063
0.011378326453268528,0.003604939440265298,-0.008520763367414474,0.005974201485514641,-0.0002802707313094288,0.00010517307964619249
0.012692790478467941,0.004244768526405096,-0.007980456575751305,0.005984877701848745,-0.0003042287426069379,0.00010216028022114187
0.012905877083539963,0.004117578733712435,-0.00802526529878378,0.005475704092532396,-0.00029965824796818197,9.933916589943692e-05
0.012459242716431618,0.003505907952785492,-0.008914908394217491,0.005208907648921013,-0.0002846636052709073,9.66714505921118e-05
0.012184938415884972,0.003374855499714613,-0.008520247414708138,0.005412251688539982,-0.00029245400219224393,7.218526297947392e-05
0.012774696573615074,0.0036680216435343027,-0.008902937173843384,0.006157257594168186,-0.00030672058346681297,3.3836354305094574e-06
0.012683921493589878,0.0036348016001284122,-0.008842592127621174,0.0059639220125973225,-0.00031211934401653707,-5.637157300952822e-05
0.012798220850527287,0.003611689666286111,-0.008974885568022728,0.0059729344211518764,-0.00030032146605663,-8.39009226183407e-05
0.013018452562391758,0.0035655717365443707,-0.009382963180541992,0.005778821185231209,-0.00028837076388299465,-8.501602133037522e-05
0.013222738169133663,0.0035033803433179855,-0.009941346943378448,0.006462257821112871,-0.0003320301475469023,-0.00010657383245415986
0.013289240188896656,0.00342840189114213,-0.009487347677350044,0.006530702579766512,-0.00035755845601670444,-0.00012652453733608127
0.013386866077780724,0.003568038810044527,-0.009566210210323334,0.006287270691245794,-0.00033438223181292415,-0.0004179869720246643
0.012747351080179214,0.0037059918977320194,-0.009932816959917545,0.006289287470281124,-0.0003114452993031591,-0.0007106761331669986
0.013445577584207058,0.003922429867088795,-0.009391960687935352,0.006429895292967558,-0.0002912893542088568,-0.0006678797653876245
0.013187678530812263,0.0037859571166336536,-0.00955916941165924,0.006589740049093962,-0.00027357140788808465,-0.000596909667365253
0.013290980830788612,0.003535059979185462,-0.01031634584069252,0.006180248223245144,-0.00029589515179395676,-0.0006146718515083194
0.012791859917342663,0.003624764969572425,-0.009681051596999168,0.005985789466649294,-0.000291798118269071,-0.0005695257568731904
0.013251553289592266,0.0038549581076949835,-0.009869654662907124,0.005605735816061497,-0.00027757289353758097,-0.0005922833806835115
0.0132891945540905,0.0039422097615897655,-0.010046426206827164,0.005985212046653032,-0.00026404656819067895,-0.0006140932091511786
0.01323838159441948,0.0036650928668677807,-0.009669474326074123,0.0063200341537594795,-0.00028271638439036906,-0.0006652754964306951
0.013187577947974205,0.003517791861668229,-0.009536939673125744,0.00619478989392519,-0.00027989232330583036,-0.0007403882336802781
0.012926390394568443,0.0036412645131349564,-0.01025816798210144,0.005609262268990278,-0.00026859380886889994,-0.0009697524947114289
0.012832875363528728,0.003742536762729287,-0.009923736564815044,0.0057795108295977116,-0.00025764844031073153,-0.0011652050307020545
0.012691724114120007,0.004278887528926134,-0.010978971607983112,0.006570975761860609,-0.00027818093076348305,-0.0011421648086979985
0.013498281128704548,0.004226113203912973,-0.01033307146281004,0.007101097144186497,-0.0002718842588365078,-0.001105945324525237
0.0133142601698637,0.0035569167230278254,-0.00975539069622755,0.007252108305692673,-0.0002622547035571188,-0.0010669027687981725
0.0133142601698637,0.0035569167230278254,-0.00975539069622755,0.007252108305692673,-0.0002622547035571188,-0.0010669027687981725
0.013827783055603504,0.0035749152302742004,-0.010267549194395542,0.006323034409433603,-0.0002571368240751326,-0.0011273047421127558
0.013030413538217545,0.0033579168375581503,-0.010188516229391098,0.005925802979618311,-0.000247219082666561,-0.001133141340687871
0.01302428264170885,0.003947451710700989,-0.009705640375614166,0.00626840116456151,-0.0002346011169720441,-0.0012984401546418667
0.013364852406084538,0.003671110374853015,-0.010180127806961536,0.006493186112493277,-0.00025204074336215854,-0.001507846754975617
0.013242051005363464,0.0034711118787527084,-0.009980158880352974,0.006278409156948328,-0.00024326532729901373,-0.0017283005872741342
0.013139275833964348,0.0036934874951839447,-0.011025712825357914,0.006278916262090206,-0.00023293812409974635,-0.0015971583779901266
0.013230041600763798,0.0034819701686501503,-0.010684176348149776,0.006425001192837954,-0.00022331385116558522,-0.0016131970332935452
0.013135865330696106,0.003452565521001816,-0.010302270762622356,0.006505620200186968,-0.00024542692699469626,-0.0014558174880221486
0.013341635465621948,0.0035050087608397007,-0.010877146385610104,0.006783874239772558,-0.00024031758948694915,-0.0013711231295019388
0.012959321029484272,0.0035986858420073986,-0.011107315309345722,0.006332874298095703,-0.000231754471315071,-0.0013575329212471843
0.013320842757821083,0.0035571621265262365,-0.010578135028481483,0.006145745050162077,-0.0002471745538059622,-0.002183327917009592
0.01322772167623043,0.0033651557750999928,-0.010855360887944698,0.00674403877928853,-0.00024618557654321194,-0.0033957906998693943
0.014026270247995853,0.003436122788116336,-0.010226001963019371,0.006955885794013739,-0.00031230560853146017,-0.003541120095178485
0.013387330807745457,0.0037387751508504152,-0.010259859263896942,0.0066158645786345005,-0.0003148481191601604,-0.0032084151171147823
0.013472972437739372,0.0035923428367823362,-0.010202709585428238,0.007027649786323309,-0.0002957459364552051,-0.002481555100530386
0.013556021265685558,0.003570948261767626,-0.010237138718366623,0.007640313357114792,-0.00027759623480960727,-0.0022003708872944117
0.013819297775626183,0.003650567028671503,-0.010966770350933075,0.007176311686635017,-0.00029999707476235926,-0.002051795367151499
0.01384529285132885,0.003741510910913348,-0.011175168678164482,0.00674818642437458,-0.00029562448617070913,-0.002323881024494767
0.014116078615188599,0.0034927839878946543,-0.010305484756827354,0.0067344289273023605,-0.00028102428768761456,-0.0026733686681836843
0.013816474936902523,0.0034523135982453823,-0.009685304015874863,0.0073488797061145306,-0.0002671675756573677,-0.0030901432037353516
0.014173753559589386,0.0036168107762932777,-0.01093988586217165,0.0073148710653185844,-0.0002545719617046416,-0.0028340385761111975
0.014492018148303032,0.00382266566157341,-0.011184802278876305,0.00697216996923089,-0.0002730345004238188,-0.0026937369257211685
0.014472137205302715,0.003506345907226205,-0.01171028707176447,0.006679941900074482,-0.00027071390650235116,-0.0027668869588524103
0.014317591674625874,0.0034124813973903656,-0.010148310102522373,0.0073707373812794685,-0.0002601481101009995,-0.002864689566195011
0.014150870963931084,0.0034526782110333443,-0.01032048836350441,0.007073042914271355,-0.000249869393883273,-0.002746515441685915
0.014160940423607826,0.0035768793895840645,-0.010431218892335892,0.0070882635191082954,-0.00026572676142677665,-0.002691574627533555
0.014160940423607826,0.0035768793895840645,-0.010431218892335892,0.0070882635191082954,-0.00026572676142677665,-0.002691574627533555
0.0142072644084692,0.0035718746948987246,-0.009962867945432663,0.006696756929159164,-0.00026399310445412993,-0.002746185753494501
0.014210127294063568,0.003492269665002823,-0.010908452793955803,0.006823122967034578,-0.00025515936431474984,-0.002891381736844778
0.014233190566301346,0.003518901765346527,-0.010112231597304344,0.006883467547595501,-0.00024645848316140473,-0.0032789926044642925
0.014230335131287575,0.0038950047455728054,-0.01036110520362854,0.006544367875903845,-0.00024251421564258635,-0.0034326440654695034
0.014491165988147259,0.003993565682321787,-0.010236798785626888,0.006380732636898756,-0.00023206254991237074,-0.003614210756495595
0.014638654887676239,0.003506700275465846,-0.009732227772474289,0.006758539937436581,-0.00022080673079472035,-0.003305216785520315
0.014469733461737633,0.0034963679499924183,-0.010506095364689827,0.006906574126332998,-0.0002104838058585301,-0.003266633488237858
0.014554009772837162,0.0032581135164946318,-0.009835961274802685,0.006834389176219702,-0.00023854391474742442,-0.0030750727746635675
0.014759200625121593,0.0036129148211330175,-0.00986024271696806,0.006614665500819683,-0.00023079002858139575,-0.003147182986140251
0.014945074915885925,0.003364278469234705,-0.010037382133305073,0.006705550476908684,-0.00025588402058929205,-0.0036358453799039125
0.014795154333114624,0.0033230928238481283,-0.010127026587724686,0.006875627674162388,-0.0002480608818586916,-0.0033924314193427563
0.015009288676083088,0.003361194394528866,-0.010028096847236156,0.007057172246277332,-0.00023880401568021625,-0.003190594492480159
0.014897174201905727,0.0034850933589041233,-0.010259333066642284,0.007244669366627932,-0.00024619087344035506,-0.0037367544136941433
0.014962459914386272,0.0035672818776220083,-0.01041270699352026,0.007601210847496986,-0.0002525994786992669,-0.004092860501259565
0.014537284150719643,0.003612268017604947,-0.010501024313271046,0.007910518907010555,-0.000244987168116495,-0.003983800299465656
0.015126696787774563,0.0038378231693059206,-0.01050158403813839,0.007577112410217524,-0.0002371833543293178,-0.00376517022959888
0.015062438324093819,0.0038829976692795753,-0.009722704067826271,0.007218765094876289,-0.0003209215647075325,-0.003744990797713399
0.015283607877790928,0.0037429367657750845,-0.010225974954664707,0.008035169914364815,-0.00030570660601370037,-0.0038784623611718416
0.015118657611310482,0.0034758581314235926,-0.010414102114737034,0.008555223233997822,-0.00028665491845458746,-0.0042510065250098705
0.01546461321413517,0.0035541588440537453,-0.009916751645505428,0.008082310669124126,-0.00030920945573598146,-0.004294481128454208
0.014763652347028255,0.003974250052124262,-0.010550949722528458,0.007566921412944794,-0.00030420019174925983,-0.004503630567342043
0.015338469296693802,0.003962663002312183,-0.010263879783451557,0.007525331806391478,-0.00028874268173240125,-0.0043181851506233215
0.01530382689088583,0.003721623681485653,-0.009877474047243595,0.007536951918154955,-0.00027413206407800317,-0.004025559406727552
0.015420850366353989,0.0035672530066221952,-0.010445674881339073,0.007468583527952433,-0.0003013864334207028,-0.004042868036776781
0.015486877411603928,0.0036765378899872303,-0.01067900750786066,0.007722773123532534,-0.00029014356550760567,-0.004179939161986113
0.015846095979213715,0.003813638351857662,-0.009836867451667786,0.007916931062936783,-0.0003118842141702771,-0.004492639098316431
0.015846095979213715,0.003813638351857662,-0.009836867451667786,0.007916931062936783,-0.0003118842141702771,-0.004492639098316431
0.015502155758440495,0.003809825051575899,-0.009884938597679138,0.008039561100304127,-0.00030345984851010144,-0.004561461042612791
0.015607673674821854,0.003757593920454383,-0.009913822636008263,0.008086806163191795,-0.00029148205067031085,-0.004673171788454056
0.015641331672668457,0.003771869232878089,-0.009591683745384216,0.007787041366100311,-0.00034096583840437233,-0.004601159133017063
0.016020208597183228,0.0037459484301507473,-0.009904017671942711,0.008135748095810413,-0.00030427530873566866,-0.004221802111715078
0.0157682616263628,0.0036868045572191477,-0.010130170732736588,0.008085212670266628,-0.0003380633716005832,-0.004509874619543552
0.016006337478756905,0.004225433338433504,-0.010169538669288158,0.007829921320080757,-0.00032140055554918945,-0.00465570529922843
0.015894297510385513,0.004124796018004417,-0.009871378540992737,0.0075699626468122005,-0.0003506436769384891,-0.004531797021627426
0.016419440507888794,0.003533818991854787,-0.009996888227760792,0.008532253094017506,-0.000335074495524168,-0.004824020899832249
0.015909818932414055,0.0034281895495951176,-0.010273650288581848,0.008118336088955402,-0.00034053385024890304,-0.004863113630563021
0.01593119092285633,0.0036425255239009857,-0.009830348193645477,0.007795008830726147,-0.00034480870817787945,-0.004795876331627369
0.01628047600388527,0.004283424466848373,-0.010374740697443485,0.00808549951761961,-0.0003303328121546656,-0.004436741583049297
0.016055341809988022,0.004041403532028198,-0.010991338640451431,0.008115079253911972,-0.0004105478583369404,-0.004878398030996323
0.016895079985260963,0.0035245202016085386,-0.010916264727711678,0.008113634772598743,-0.00038948762812651694,-0.005030903033912182
0.016595369204878807,0.003354595508426428,-0.011240597814321518,0.008474431931972504,-0.0003941135946661234,-0.0053129964508116245
0.01653441973030567,0.003550497116521001,-0.01102143432945013,0.008254325948655605,-0.00039691978599876165,-0.0055499691516160965
0.01651460863649845,0.004316828213632107,-0.010737407021224499,0.008042722940444946,-0.00041723798494786024,-0.005153136793524027
0.016865625977516174,0.0041641369462013245,-0.011144572868943214,0.008190736174583435,-0.00040475965943187475,-0.004813576582819223
0.017136774957180023,0.004452873021364212,-0.010869061574339867,0.008631017059087753,-0.00042130702058784664,-0.004770328290760517
0.01696288399398327,0.004113454837352037,-0.01118477899581194,0.008158212527632713,-0.000409912783652544,-0.005281927529722452
0.017337104305624962,0.003961167298257351,-0.011484160088002682,0.008155367337167263,-0.00038860589847899973,-0.00521309906616807
0.016727661713957787,0.003925267606973648,-0.011062906123697758,0.008635923266410828,-0.00045488038449548185,-0.005176312755793333
0.016911491751670837,0.003902161493897438,-0.011669744737446308,0.008645759895443916,-0.00042534782551229,-0.005057088099420071
0.017040342092514038,0.003864643629640341,-0.011497891508042812,0.008523761294782162,-0.00038939094520173967,-0.005086940713226795
0.017040342092514038,0.003864643629640341,-0.011497891508042812,0.008523761294782162,-0.00038939094520173967,-0.005086940713226795
0.01675935834646225,0.0037806991022080183,-0.0111096715554595,0.009023560211062431,-0.000424993660999462,-0.005306217819452286
0.017657971009612083,0.0041353460401296616,-0.011499034240841866,0.008120126090943813,-0.00037093376158736646,-0.0054116141982376575
0.017538096755743027,0.003902012947946787,-0.011392098851501942,0.00823057908564806,-0.0003470963565632701,-0.005367298610508442
0.017538096755743027,0.003902012947946787,-0.011392098851501942,0.00823057908564806,-0.0003470963565632701,-0.005367298610508442
0.017467036843299866,0.003376054111868143,-0.011369717307388783,0.008715614676475525,-0.00037669582525268197,-0.004995834548026323
0.01770997978746891,0.003883544821292162,-0.01161640603095293,0.008261898532509804,-0.0003394387022126466,-0.004728484433144331
0.01728503219783306,0.0039384085685014725,-0.01122224424034357,0.008298701606690884,-0.00036493880907073617,-0.005227910820394754
0.01757892034947872,0.0042075044475495815,-0.011027434840798378,0.008672576397657394,-0.00033393988269381225,-0.0054385424591600895
0.01757892034947872,0.0042075044475495815,-0.011027434840798378,0.008672576397657394,-0.00033393988269381225,-0.0054385424591600895
0.017225850373506546,0.004074783530086279,-0.010772712528705597,0.00802389346063137,-0.0003229927096981555,-0.005436108447611332
0.017810629680752754,0.0035004715900868177,-0.012300609610974789,0.008700774051249027,-0.0003056138230022043,-0.005134929437190294
0.017455384135246277,0.003521972568705678,-0.01149370800703764,0.008525317534804344,-0.0002864492707885802,-0.005399353802204132
0.017297664657235146,0.004005397669970989,-0.011538802646100521,0.008631839416921139,-0.0003089873935095966,-0.005826912354677916
0.017529945820569992,0.0042297509498894215,-0.011857512407004833,0.008623146452009678,-0.00030399372917599976,-0.005912655498832464
0.01761847361922264,0.0040330891497433186,-0.0112187210470438,0.008597775362432003,-0.00028855944401584566,-0.005565966479480267
0.018168099224567413,0.003870257642120123,-0.011908868327736855,0.008333379402756691,-0.0003134972939733416,-0.005809783469885588
0.01803707331418991,0.0038994895294308662,-0.012011690996587276,0.008562847040593624,-0.0003037945134565234,-0.005614002235233784
0.01803707331418991,0.0038994895294308662,-0.012011690996587276,0.008562847040593624,-0.0003037945134565234,-0.005614002235233784
0.018370753154158592,0.003917113412171602,-0.011674091219902039,0.00866725854575634,-0.0002967699838336557,-0.005688583478331566
0.01832169108092785,0.003837201278656721,-0.011260381899774075,0.008330187760293484,-0.00030233178404159844,-0.005813651252537966
0.018284901976585388,0.0038963863626122475,-0.01211051270365715,0.008812007494270802,-0.0002912774507422,-0.006346556358039379
0.018166381865739822,0.003942800685763359,-0.011556637473404408,0.008506408892571926,-0.0002800248039420694,-0.005297379102557898
0.01798294298350811,0.00379192060790956,-0.012194998562335968,0.008253294974565506,-0.0002695442526601255,-0.005977347493171692
0.01798294298350811,0.00379192060790956,-0.012194998562335968,0.008253294974565506,-0.0002695442526601255,-0.005977347493171692
0.0182378888130188,0.00367413810454309,-0.012500356882810593,0.008242117241024971,-0.000301521533401683,-0.006690954323858023
0.018321286886930466,0.003764071734622121,-0.01194572914391756,0.008839570917189121,-0.0002959125558845699,-0.006587465293705463
0.017968593165278435,0.0038430667482316494,-0.011826041154563427,0.008676700294017792,-0.0002785221440717578,-0.006236299406737089
0.018271028995513916,0.0038000112399458885,-0.011270841583609581,0.00870600063353777,-0.00026233872631564736,-0.0059808692894876
0.018217718228697777,0.0036935051903128624,-0.012036381289362907,0.0092701967805624,-0.00029403483495116234,-0.006564700976014137
0.01866219937801361,0.0037162736989557743,-0.012265125289559364,0.008237573318183422,-0.0002679194731172174,-0.006130493711680174
0.018278468400239944,0.003716842969879508,-0.012291721999645233,0.008703953586518764,-0.00029489101143553853,-0.0064293015748262405
0.018487244844436646,0.0036945396568626165,-0.011914362199604511,0.009255703538656235,-0.0002841722744051367,-0.006033259443938732
0.01864534243941307,0.003759808838367462,-0.01266681682318449,0.009081629104912281,-0.00029107043519616127,-0.006148326676338911
0.01793976128101349,0.003802147228270769,-0.012124935165047646,0.009260134771466255,-0.0002967746986541897,-0.0064838603138923645
0.01879071071743965,0.0037055155262351036,-0.01287067774683237,0.009504796005785465,-0.0002861356770154089,-0.006496277172118425
0.019129186868667603,0.0036600721068680286,-0.01260507944971323,0.009353081695735455,-0.0002752701402641833,-0.006918143946677446
0.018781758844852448,0.003672168357297778,-0.012437175028026104,0.009154845960438251,-0.0002651366521604359,-0.006738549564033747
0.019384099170565605,0.004188921302556992,-0.01244124211370945,0.01006731390953064,-0.00029707959038205445,-0.006882115267217159
0.019391050562262535,0.004163939040154219,-0.012066960334777832,0.009208348579704762,-0.00029183030710555613,-0.006881417706608772
0.018977507948875427,0.00404711626470089,-0.012817499227821827,0.009048320353031158,-0.0002749127452261746,-0.007461009547114372
0.018881209194660187,0.003984910901635885,-0.0125013068318367,0.009130186401307583,-0.00030396520742215216,-0.007693988271057606
0.01861090026795864,0.003973581362515688,-0.012725702486932278,0.009198752231895924,-0.00029357022140175104,-0.006892018020153046
0.019600162282586098,0.003538614371791482,-0.012440536171197891,0.00912281684577465,-0.0002788095152936876,-0.006615630351006985
0.01979796774685383,0.0034331842325627804,-0.012633099220693111,0.009700180031359196,-0.00026514261844567955,-0.00696418946608901
0.019229553639888763,0.003565235063433647,-0.012321590445935726,0.00956680253148079,-0.00029196628020145,-0.0069523281417787075
0.018642574548721313,0.004264256916940212,-0.012317887507379055,0.009070680476725101,-0.0002814779873006046,-0.007091997656971216
0.01982816681265831,0.004122311715036631,-0.012844907119870186,0.009240971878170967,-0.0002695979201234877,-0.006811776198446751
0.01965034194290638,0.0035376516170799732,-0.0127499308437109,0.009096887893974781,-0.0002585421607363969,-0.0064887478947639465
0.01965034194290638,0.0035376516170799732,-0.0127499308437109,0.009096887893974781,-0.0002585421607363969,-0.0064887478947639465
0.01958932727575302,0.003584495512768626,-0.01250122208148241,0.009237317368388176,-0.00027187896193936467,-0.006720945239067078
0.01958932727575302,0.003584495512768626,-0.01250122208148241,0.009237317368388176,-0.00027187896193936467,-0.006720945239067078
0.019653022289276123,0.004197270609438419,-0.013146291486918926,0.009416107088327408,-0.0002630051749292761,-0.006436213385313749
0.01862187311053276,0.004051803145557642,-0.012679909355938435,0.009206078946590424,-0.0002546325558796525,-0.006220072973519564
0.018931210041046143,0.0034529247786849737,-0.012273344211280346,0.009295250289142132,-0.00028824727633036673,-0.006816433276981115
0.019129479303956032,0.0033582209143787622,-0.012877071276307106,0.009194714017212391,-0.0002739639603532851,-0.007359424605965614
0.019779250025749207,0.0034668552689254284,-0.012821178883314133,0.009372156113386154,-0.0002867077710106969,-0.006811182014644146
0.019759759306907654,0.0038407768588513136,-0.012706574983894825,0.009728473611176014,-0.0002777480403892696,-0.007114806212484837
0.0195784792304039,0.003851537127047777,-0.013391010463237762,0.01009246427565813,-0.00026451708981767297,-0.007054976187646389
0.019728220999240875,0.0035190321505069733,-0.012582937255501747,0.009935908950865269,-0.0002832194440998137,-0.007437270600348711
0.019645677879452705,0.003486597677692771,-0.012864811345934868,0.010045185685157776,-0.00028036971343681216,-0.007462795823812485
0.019618123769760132,0.0036610651295632124,-0.012667902745306492,0.00990268774330616,-0.0003048504877369851,-0.0070716910995543
0.01998293213546276,0.0038091191090643406,-0.012902550399303436,0.009855801239609718,-0.00029599101981148124,-0.007208007853478193
0.020255196839571,0.0035599323455244303,-0.01339862123131752,0.010342988185584545,-0.0004017375176772475,-0.008004263043403625
0.0199505053460598,0.003453468903899193,-0.012864528223872185,0.009838311932981014,-0.0004418405587784946,-0.0076731126755476
0.020026054233312607,0.003650753293186426,-0.01313362829387188,0.00963150430470705,-0.0004171176115050912,-0.007083328440785408
0.020452771335840225,0.004274606704711914,-0.012669987976551056,0.009775477461516857,-0.0003877617127727717,-0.007206919137388468
0.02043973095715046,0.003770029405131936,-0.013625110499560833,0.009554771706461906,-0.00041390518890693784,-0.006864819210022688
0.019998770207166672,0.003511597402393818,-0.013276351615786552,0.009109895676374435,-0.0003950521058868617,-0.007016738876700401
0.020690111443400383,0.0033152629621326923,-0.013774869032204151,0.009430100210011005,-0.0003721695684362203,-0.007207648362964392
0.020642908290028572,0.0034219271037727594,-0.012778068892657757,0.009428716264665127,-0.00037589779822155833,-0.007173975929617882
0.020642908290028572,0.0034219271037727594,-0.012778068892657757,0.009428716264665127,-0.00037589779822155833,-0.007173975929617882
0.020452650263905525,0.0040725767612457275,-0.013870159164071083,0.009654367342591286,-0.0003754094650503248,-0.007349404506385326
0.0208128672093153,0.003628320060670376,-0.013619682751595974,0.009634237736463547,-0.0003744213317986578,-0.007639882154762745
0.0208128672093153,0.003628320060670376,-0.013619682751595974,0.009634237736463547,-0.0003744213317986578,-0.007639882154762745
0.020112812519073486,0.0035384483635425568,-0.013264665380120277,0.010231970809400082,-0.00039851252222433686,-0.00809785258024931
0.02038336545228958,0.003243131097406149,-0.013526451773941517,0.009542148560285568,-0.00038600031984969974,-0.0079102898016572
0.02038336545228958,0.003243131097406149,-0.013526451773941517,0.009542148560285568,-0.00038600031984969974,-0.0079102898016572
0.020451003685593605,0.003429967677220702,-0.01346084475517273,0.010363761335611343,-0.00039303398807533085,-0.007157301064580679
0.020605387166142464,0.003610616782680154,-0.013656946830451488,0.00968964584171772,-0.000397686380892992,-0.00725823687389493
0.020493270829319954,0.003516587195917964,-0.013170934282243252,0.010128047317266464,-0.0003797563258558512,-0.00740438187494874
0.020438935607671738,0.003417604835703969,-0.01364184357225895,0.010280669666826725,-0.00046895266859792173,-0.007465742528438568
0.02064971625804901,0.0038349239621311426,-0.01355608832091093,0.009953022003173828,-0.0004422017082106322,-0.007962416857481003
0.02081773802638054,0.0034444339107722044,-0.013165636919438839,0.010410957969725132,-0.0004678366822190583,-0.007715824991464615
0.021112576127052307,0.0035657824482768774,-0.013080243021249771,0.010696341283619404,-0.0004429646651260555,-0.007658066228032112
0.020990079268813133,0.0033491626381874084,-0.013286092318594456,0.010225826874375343,-0.0004143415717408061,-0.00762861967086792
0.020708363503217697,0.0034995009191334248,-0.013740641996264458,0.010643036104738712,-0.00043681086390279233,-0.007692457642406225
0.01951323077082634,0.0037178555503487587,-0.013453076593577862,0.010740249417722225,-0.00041800597682595253,-0.007722797803580761
0.02103755995631218,0.004189628176391125,-0.013454541563987732,0.010284636169672012,-0.0004308019415475428,-0.0078805573284626
0.021307047456502914,0.0042001125402748585,-0.013184454292058945,0.010858486406505108,-0.0004245283780619502,-0.00782682467252016
0.020948350429534912,0.0035185336600989103,-0.01361195556819439,0.010682972148060799,-0.00042767144623212516,-0.0075884489342570305
0.020948350429534912,0.0035185336600989103,-0.01361195556819439,0.010682972148060799,-0.00042767144623212516,-0.0075884489342570305
0.021433452144265175,0.003930830862373114,-0.014268363825976849,0.0102597177028656,-0.00044760567834600806,-0.007141601759940386
0.021089784801006317,0.0035509467124938965,-0.013278541155159473,0.009645641781389713,-0.00043222063686698675,-0.007176179904490709
0.021089784801006317,0.0035509467124938965,-0.013278541155159473,0.009645641781389713,-0.00043222063686698675,-0.007176179904490709
0.021061444655060768,0.0034697791561484337,-0.013398327864706516,0.010390029288828373,-0.0004375580174382776,-0.007732606027275324
0.02131756767630577,0.0036631054244935513,-0.013891713693737984,0.010091133415699005,-0.0005380015354603529,-0.007628972642123699
0.02131756767630577,0.0036631054244935513,-0.013891713693737984,0.010091133415699005,-0.0005380015354603529,-0.007628972642123699
0.021333608776330948,0.0036650446709245443,-0.013468398712575436,0.010131646879017353,-0.0005365870310924947,-0.007410671561956406
0.020595349371433258,0.0034143037628382444,-0.013736014254391193,0.01084130723029375,-0.0005270842229947448,-0.007410599384456873
0.02107861451804638,0.00343309179879725,-0.013836299069225788,0.010681879706680775,-0.0005216082208789885,-0.00808805599808693
0.021402155980467796,0.0034839664585888386,-0.013729576952755451,0.011182157322764397,-0.0004777096037287265,-0.008081422187387943
0.021627152338624,0.0033625878859311342,-0.014137652702629566,0.0105276545509696,-0.0004926197580061853,-0.008337954059243202
0.020859265699982643,0.0034660235978662968,-0.014274527318775654,0.010099008679389954,-0.0004518929054029286,-0.008372733369469643
0.021276535466313362,0.0032115234062075615,-0.013959314674139023,0.010828684084117413,-0.0004713486705441028,-0.007835814729332924
0.021756786853075027,0.003258545184507966,-0.014568513259291649,0.010757455602288246,-0.00045062261051498353,-0.007548047695308924
0.021741732954978943,0.0033683599904179573,-0.014355594292283058,0.010014364495873451,-0.00041701781447045505,-0.007361976429820061
0.021237462759017944,0.003396738087758422,-0.014142310246825218,0.009768100455403328,-0.00044289615470916033,-0.007271019741892815
0.0213325098156929,0.00355346966534853,-0.013910685665905476,0.009783240035176277,-0.0004208968603052199,-0.0068834926933050156
0.021552052348852158,0.003357483074069023,-0.01458137109875679,0.010859441943466663,-0.0003949922393076122,-0.00695306109264493
0.02172815054655075,0.003611526917666197,-0.014148679561913013,0.011178800836205482,-0.00041763237095437944,-0.007140074856579304
0.021295670419931412,0.0038882328663021326,-0.014830200001597404,0.01010027527809143,-0.0004006667877547443,-0.006782946176826954
0.021871834993362427,0.003987583331763744,-0.015059534460306168,0.010658960789442062,-0.00041872108704410493,-0.0070847212336957455
0.02150798588991165,0.0034551939461380243,-0.014289896003901958,0.011131564155220985,-0.00038937656790949404,-0.007433619815856218
0.021551182493567467,0.0031427794601768255,-0.014562609605491161,0.010730806738138199,-0.0004254256491549313,-0.007414810825139284
0.021308697760105133,0.0031531506683677435,-0.014419046230614185,0.011235431768000126,-0.0003984025970567018,-0.007262738421559334
0.021675342693924904,0.003499370999634266,-0.014650269411504269,0.011097131296992302,-0.00040501318289898336,-0.0077860415913164616
0.021733395755290985,0.0034507345408201218,-0.014737664721906185,0.011215939186513424,-0.0004208312602713704,-0.007757559884339571
0.021270785480737686,0.0031812675297260284,-0.014341838657855988,0.010800212621688843,-0.000409433530876413,-0.007383381016552448
0.02162000723183155,0.003246318083256483,-0.01480540819466114,0.01115255057811737,-0.0003881728043779731,-0.007846676744520664
0.02035697177052498,0.0036188848316669464,-0.014758885838091373,0.010241825133562088,-0.0004204279975965619,-0.007615469861775637
0.022005781531333923,0.003645251039415598,-0.01448706816881895,0.01136000920087099,-0.0003896128328051418,-0.007385289296507835
0.022760650143027306,0.003600512398406863,-0.014414739795029163,0.011193638667464256,-0.00035888049751520157,-0.007470729295164347
0.02190265990793705,0.003632055362686515,-0.01423480361700058,0.010682384483516216,-0.00039416426443494856,-0.00802350789308548
0.021671421825885773,0.0037009750958532095,-0.014670707285404205,0.01135958731174469,-0.0003710952587425709,-0.007643386721611023
0.02135676145553589,0.0037407188210636377,-0.014429441653192043,0.011088622733950615,-0.00040133888251148164,-0.007854755967855453
0.022081399336457253,0.003821446793153882,-0.014456382021307945,0.011271238327026367,-0.0003806149761658162,-0.007647452410310507
0.021947242319583893,0.003911376930773258,-0.014149271883070469,0.011078928597271442,-0.00035913893952965736,-0.007494357414543629
0.021934490650892258,0.003412216901779175,-0.014118560589849949,0.010937885381281376,-0.00038178099202923477,-0.007270508445799351
0.02249665930867195,0.0033585415221750736,-0.013980895280838013,0.011353946290910244,-0.00036801162059418857,-0.007395541295409203
0.022913824766874313,0.003554337890818715,-0.014426403678953648,0.010914118029177189,-0.0003786332963500172,-0.007638776674866676
0.022357549518346786,0.0037514083087444305,-0.014386451803147793,0.011102112010121346,-0.0003734432393684983,-0.008050812408328056
0.02197888121008873,0.0037268453743308783,-0.014382394030690193,0.011388488113880157,-0.0003525932552292943,-0.008024944923818111
0.0221161637455225,0.0037169568240642548,-0.013905697502195835,0.011064952239394188,-0.00037518603494390845,-0.008349898271262646
0.023168176412582397,0.0037388629280030727,-0.014037965796887875,0.011675485409796238,-0.00036197007284499705,-0.00844830833375454
0.023079995065927505,0.003506012260913849,-0.01372510101646185,0.011439946480095387,-0.00041334767593070865,-0.00829441286623478
0.023079995065927505,0.003506012260913849,-0.01372510101646185,0.011439946480095387,-0.00041334767593070865,-0.00829441286623478
0.02250060625374317,0.00363894272595644,-0.014186486601829529,0.010963696986436844,-0.00042490099440328777,-0.008296580985188484
0.022134296596050262,0.0033629066310822964,-0.014393585734069347,0.011670287698507309,-0.00039796213968656957,-0.008249449543654919
0.022631876170635223,0.0034384364262223244,-0.013692807406187057,0.01153554767370224,-0.0003708970616571605,-0.008021081797778606
0.023359376937150955,0.0035576382651925087,-0.013971854001283646,0.011920584365725517,-0.000400871125748381,-0.00819244422018528
0.02343876101076603,0.0035428127739578485,-0.014024242758750916,0.011670992709696293,-0.0004202091949991882,-0.008125999011099339
0.022977951914072037,0.003532080678269267,-0.014508797787129879,0.01147609855979681,-0.00040907057700678706,-0.008190931752324104
0.02295009233057499,0.003595629008486867,-0.013950309716165066,0.011945650912821293,-0.0005037749069742858,-0.007930091582238674
0.0233040452003479,0.003668977413326502,-0.014144831337034702,0.011426819488406181,-0.0005147321498952806,-0.008296062238514423
0.023330338299274445,0.003630151506513357,-0.013622947037220001,0.011849417351186275,-0.0005081900744698942,-0.008559530600905418
0.023167282342910767,0.003575442358851433,-0.014141995459794998,0.011736984364688396,-0.00046696094796061516,-0.008514394983649254
0.023167328909039497,0.00349680264480412,-0.013782869093120098,0.011684739962220192,-0.0004299281572457403,-0.008438687771558762
0.021285057067871094,0.0035216016694903374,-0.014293202199041843,0.011141203343868256,-0.00045989800128154457,-0.008185767568647861
0.023803913965821266,0.003677070140838623,-0.013589813373982906,0.010935199446976185,-0.00043234569602645934,-0.008408162742853165
0.023580225184559822,0.0038104564882814884,-0.013980327174067497,0.011522850021719933,-0.00045861038961447775,-0.008404716849327087
0.023580225184559822,0.0038104564882814884,-0.013980327174067497,0.011522850021719933,-0.00045861038961447775,-0.008404716849327087
0.02344740740954876,0.003461837535724044,-0.013763980008661747,0.011671176180243492,-0.0004364384803920984,-0.008483811281621456
0.023490669205784798,0.003983275964856148,-0.013922526501119137,0.01229369081556797,-0.0004899203777313232,-0.008313552476465702
0.023288516327738762,0.004201163072139025,-0.014327623881399632,0.011669394560158253,-0.00046714217751286924,-0.00839648861438036
0.023749539628624916,0.004090574570000172,-0.013792386278510094,0.01208767294883728,-0.00048384364345110953,-0.008437803015112877
0.024061793461441994,0.00405903859063983,-0.014712614938616753,0.011329978704452515,-0.00046458831639029086,-0.007950796745717525
0.024284230545163155,0.0035406523384153843,-0.014293155632913113,0.011529263108968735,-0.000463754462543875,-0.008572431281208992
0.024489372968673706,0.004173578694462776,-0.01472490094602108,0.0114490557461977,-0.0004489459388423711,-0.008504330180585384
0.024489372968673706,0.004173578694462776,-0.01472490094602108,0.0114490557461977,-0.0004489459388423711,-0.008504330180585384
0.0244267787784338,0.0039734020829200745,-0.014954421669244766,0.011570659466087818,-0.00047340631135739386,-0.008510656654834747
0.024165205657482147,0.0035837204195559025,-0.014079956337809563,0.011493202298879623,-0.0004527209675870836,-0.008306247182190418
0.02448822744190693,0.003504433436319232,-0.014603381976485252,0.011448430828750134,-0.00047008509864099324,-0.008324415422976017
0.024395393207669258,0.003622538410127163,-0.012657186947762966,0.01198506634682417,-0.00045231610420159996,-0.008662736043334007
0.02480270341038704,0.003749065799638629,-0.015793727710843086,0.011938879266381264,-0.00047918365453369915,-0.008252441883087158
0.024675529450178146,0.003825063817203045,-0.014932309277355671,0.012256700545549393,-0.0006010637152940035,-0.008723290637135506
0.024723438546061516,0.003864508355036378,-0.01495729386806488,0.011988526210188866,-0.000574846169911325,-0.0084456168115139
0.025312451645731926,0.0038711929228156805,-0.015190602280199528,0.012349688448011875,-0.0006006768089719117,-0.008377067744731903
0.025258909910917282,0.003383140778169036,-0.015900615602731705,0.012595795094966888,-0.0005514107760973275,-0.007995286025106907
0.02521808072924614,0.0034802646841853857,-0.015262644737958908,0.012189105153083801,-0.0005009870510548353,-0.008369202725589275
0.02521808072924614,0.0034802646841853857,-0.015262644737958908,0.012189105153083801,-0.0005009870510548353,-0.008369202725589275
0.025291303172707558,0.0033622668124735355,-0.015036525204777718,0.011826833710074425,-0.0004926205147057772,-0.008357631973922253
0.025291303172707558,0.0033622668124735355,-0.015036525204777718,0.011826833710074425,-0.0004926205147057772,-0.008357631973922253
0.025272412225604057,0.003352473024278879,-0.015100332908332348,0.011910778470337391,-0.0005135379615239799,-0.008115745149552822
0.02552703768014908,0.003456182312220335,-0.015122903510928154,0.011979743838310242,-0.0004561895038932562,-0.00849692802876234
0.02552703768014908,0.003456182312220335,-0.015122903510928154,0.011979743838310242,-0.0004561895038932562,-0.00849692802876234
0.02507009543478489,0.0038790490943938494,-0.015195537358522415,0.01214718259871006,-0.000395950919482857,-0.008230146951973438
0.02507009543478489,0.0038790490943938494,-0.015195537358522415,0.01214718259871006,-0.000395950919482857,-0.008230146951973438
0.025515759363770485,0.003890375606715679,-0.014749611727893353,0.012294500134885311,-0.0004034885496366769,-0.008706247434020042
0.024651631712913513,0.00390835152938962,-0.015479224734008312,0.011898854747414589,-0.0004063647356815636,-0.00842239335179329
0.025926096364855766,0.0034965507220476866,-0.01578224077820778,0.011676275171339512,-0.00042536811088211834,-0.00766292680054903
0.025771155953407288,0.003520580707117915,-0.015046481043100357,0.012763801962137222,-0.00041369799873791635,-0.007307595107704401
0.02548621967434883,0.003676939057186246,-0.01543436385691166,0.01201710570603609,-0.000392002344597131,-0.007549092173576355
0.024654677137732506,0.004271095152944326,-0.01545581966638565,0.012098279781639576,-0.0004586695577017963,-0.007511512376368046
0.025237543508410454,0.00422463146969676,-0.016060085967183113,0.01231791079044342,-0.000428796251071617,-0.007602524012327194
0.02589302323758602,0.004021883010864258,-0.015095670707523823,0.011438039131462574,-0.00044979486847296357,-0.007746298797428608
0.025527512654662132,0.003891251515597105,-0.015404132194817066,0.012044425122439861,-0.00043166414252482355,-0.007725521922111511
0.025611823424696922,0.0038541231770068407,-0.015474345535039902,0.011862048879265785,-0.0004498542402870953,-0.007489657495170832
0.02526603266596794,0.0038287912029772997,-0.015298709273338318,0.012189975939691067,-0.00043417056440375745,-0.008143093436956406
0.025366008281707764,0.0038333942648023367,-0.015738779678940773,0.011423354037106037,-0.0004573773476295173,-0.008179924450814724
0.025299249216914177,0.0034098655451089144,-0.015077321790158749,0.011422515846788883,-0.0004365644126664847,-0.00798388198018074
0.02574165351688862,0.003552541369572282,-0.015747006982564926,0.011706728488206863,-0.0005098432302474976,-0.008169937878847122
0.02543293684720993,0.004226054064929485,-0.015195421874523163,0.011759326793253422,-0.00047207155148498714,-0.008069761097431183
0.025645283982157707,0.004299571737647057,-0.015659265220165253,0.012170969508588314,-0.0005018627271056175,-0.008075103163719177
0.025645283982157707,0.004299571737647057,-0.015659265220165253,0.012170969508588314,-0.0005018627271056175,-0.008075103163719177
0.0254795104265213,0.003581350902095437,-0.016020428389310837,0.011711346916854382,-0.0004843590722884983,-0.007948721759021282
0.025171060115098953,0.0036574460100382566,-0.015665749087929726,0.011980101466178894,-0.00047963004908524454,-0.007593099493533373
0.02551145851612091,0.004030611831694841,-0.015100346878170967,0.012627370655536652,-0.0004630473267752677,-0.007482501678168774
0.02550026960670948,0.004118085373193026,-0.015633845701813698,0.012104718945920467,-0.00043611839646473527,-0.00768737867474556
0.02613164857029915,0.003942766226828098,-0.015938658267259598,0.012045529671013355,-0.0004644658765755594,-0.007616824470460415
0.02613164857029915,0.003942766226828098,-0.015938658267259598,0.012045529671013355,-0.0004644658765755594,-0.007616824470460415
0.025450602173805237,0.004317462909966707,-0.015783751383423805,0.012661471031606197,-0.00042535155080258846,-0.008142050355672836
0.025799237191677094,0.004109546542167664,-0.015885330736637115,0.011813928373157978,-0.0004264594754204154,-0.00856909528374672
0.02498294971883297,0.0034900608006864786,-0.015320874750614166,0.012128480710089207,-0.0004268935590516776,-0.008064709603786469
0.026269108057022095,0.0033713034354150295,-0.015973830595612526,0.012050321325659752,-0.000454915250884369,-0.007957210764288902
0.02634338289499283,0.0034676440991461277,-0.015522046945989132,0.012565240263938904,-0.00043168076081201434,-0.008175978437066078
0.026397213339805603,0.003622057382017374,-0.0157548226416111,0.012361361645162106,-0.00045822662650607526,-0.008218089118599892
0.025846334174275398,0.0036168841179460287,-0.014952185563743114,0.012048987671732903,-0.0005370688159018755,-0.008341063745319843
0.02522558532655239,0.003669619793072343,-0.01575765199959278,0.012124882079660892,-0.0006002111476846039,-0.008031387813389301
0.025800246745347977,0.003851137589663267,-0.015680518001317978,0.01179503183811903,-0.0006204928504303098,-0.008030625060200691
0.026437733322381973,0.0042688618414103985,-0.01570938155055046,0.012661430984735489,-0.0005845672567375004,-0.008557911030948162
0.02618470974266529,0.0037026251666247845,-0.015990059822797775,0.012782207690179348,-0.0005732293939217925,-0.00841197744011879
0.02626548893749714,0.003410826437175274,-0.015907973051071167,0.012379863299429417,-0.0005621984018944204,-0.008466482162475586
0.02626548893749714,0.003410826437175274,-0.015907973051071167,0.012379863299429417,-0.0005621984018944204,-0.008466482162475586
0.02637370117008686,0.0033810941968113184,-0.016087494790554047,0.013040060177445412,-0.0005235082353465259,-0.008514700457453728
0.026197681203484535,0.003428653348237276,-0.015461506322026253,0.013283769600093365,-0.0005748560652136803,-0.008838533423841
0.025724072009325027,0.0036547877825796604,-0.015261191874742508,0.012698364444077015,-0.00048193297698162496,-0.008384502492845058
0.025724072009325027,0.0036547877825796604,-0.015261191874742508,0.012698364444077015,-0.00048193297698162496,-0.008384502492845058
0.025563664734363556,0.004055252764374018,-0.01599864475429058,0.01292541716247797,-0.0004990642191842198,-0.008437245152890682
0.025999508798122406,0.0040203421376645565,-0.015746284276247025,0.012608183547854424,-0.00047478891792707145,-0.008348465897142887
0.02619510516524315,0.003652069251984358,-0.016059743240475655,0.013184808194637299,-0.0004375742864795029,-0.008198034949600697
0.02667740359902382,0.0035533884074538946,-0.016115985810756683,0.013068409636616707,-0.00043817400000989437,-0.008219772949814796
0.026544440537691116,0.003869882319122553,-0.016723670065402985,0.012529230676591396,-0.0004613092169165611,-0.008432983420789242
0.026541512459516525,0.0038686152547597885,-0.016329698264598846,0.01287672109901905,-0.00044009031262248755,-0.008737842552363873
0.02655251882970333,0.003569314954802394,-0.01653798669576645,0.012727821245789528,-0.00041516084456816316,-0.008950700983405113
0.026408186182379723,0.0037637550849467516,-0.015744581818580627,0.012802747078239918,-0.0003948684607166797,-0.008606061339378357
0.026206757873296738,0.004035864025354385,-0.016275018453598022,0.012820557691156864,-0.0003661978698801249,-0.00847182422876358
0.026551108807325363,0.0038902561645954847,-0.016377968713641167,0.012338793836534023,-0.0003716859209816903,-0.008787031285464764
0.026501353830099106,0.0036481774877756834,-0.016847124323248863,0.0128743015229702,-0.0003758433158509433,-0.008238166570663452
0.026634471490979195,0.0035687112249433994,-0.016733599826693535,0.012439591810107231,-0.0003818419645540416,-0.00854003056883812
0.026799213141202927,0.0036377646028995514,-0.016204295679926872,0.012771598994731903,-0.00038494111504405737,-0.008560897782444954
0.027117766439914703,0.003674980951473117,-0.017188550904393196,0.012898260727524757,-0.0004027677932754159,-0.008697767741978168
0.026835687458515167,0.003557641291990876,-0.017037173733115196,0.01316919643431902,-0.0005006745341233909,-0.008548608049750328
0.026713266968727112,0.0038941726088523865,-0.01744110696017742,0.01318809762597084,-0.0005434369668364525,-0.008833951316773891
0.02778695896267891,0.004002513829618692,-0.017195913940668106,0.012928926385939121,-0.0005753414588980377,-0.00870570819824934
0.027571342885494232,0.003815891919657588,-0.017092475667595863,0.013151543214917183,-0.0005306349485181272,-0.00856530386954546
0.02681376039981842,0.003643334610387683,-0.01766950450837612,0.012987976893782616,-0.0005428876611404121,-0.009426699951291084
0.026726823300123215,0.003607936901971698,-0.016718948259949684,0.01338527724146843,-0.0005166436894796789,-0.008639621548354626
0.026726823300123215,0.003607936901971698,-0.016718948259949684,0.01338527724146843,-0.0005166436894796789,-0.008639621548354626
0.027545489370822906,0.0036538608837872744,-0.017017927020788193,0.012657162733376026,-0.000528780568856746,-0.008551724255084991
0.027655834332108498,0.0036820920649915934,-0.017089596018195152,0.012792381457984447,-0.0005140542634762824,-0.008646483533084393
0.027257228270173073,0.004210470709949732,-0.01764577254652977,0.01350289024412632,-0.000496464257594198,-0.008698019199073315
0.027514737099409103,0.004003049340099096,-0.017191028222441673,0.013520823791623116,-0.0004493987071327865,-0.008760951459407806
0.027514737099409103,0.004003049340099096,-0.017191028222441673,0.013520823791623116,-0.0004493987071327865,-0.008760951459407806
0.02775745652616024,0.003763693617656827,-0.01738687977194786,0.013469173572957516,-0.00044815457658842206,-0.008315064944326878
0.027784349396824837,0.004054482560604811,-0.017476022243499756,0.013636237010359764,-0.0004468160041142255,-0.008739694952964783
0.027800126001238823,0.0038011930882930756,-0.017231907695531845,0.013554027304053307,-0.00041481447988189757,-0.008480080403387547
0.02760196477174759,0.0036156412679702044,-0.017183801159262657,0.0133076012134552,-0.0004185064462944865,-0.008298099972307682
0.027486415579915047,0.004116589669138193,-0.017477156594395638,0.013459649868309498,-0.0004206653102301061,-0.008518633432686329
0.027740148827433586,0.004273903090506792,-0.01797848381102085,0.013142628595232964,-0.0004212743369862437,-0.008616689592599869
0.027868978679180145,0.004073603544384241,-0.01740323379635811,0.01350101362913847,-0.00040097563760355115,-0.008133945055305958
0.028051670640707016,0.003490329021587968,-0.017717374488711357,0.013280573301017284,-0.0004010986885987222,-0.008123899810016155
0.02840746007859707,0.0035469201393425465,-0.017311783507466316,0.01339072734117508,-0.0004062757361680269,-0.00802376214414835
0.028649665415287018,0.003742335829883814,-0.01757992058992386,0.013432647101581097,-0.0004083396925125271,-0.008325237780809402
0.026934728026390076,0.00389973190613091,-0.017684390768408775,0.014140501618385315,-0.00043656566413119435,-0.008465097285807133
0.027211101725697517,0.0038850298151373863,-0.017066320404410362,0.013684336096048355,-0.0004154041816946119,-0.008345828391611576
0.02844006009399891,0.003846784122288227,-0.017398260533809662,0.01356538012623787,-0.00043835793621838093,-0.008455261588096619
0.027938300743699074,0.003846586449071765,-0.017077704891562462,0.01311456598341465,-0.0005275157745927572,-0.008478514850139618
0.02834259159862995,0.004402849357575178,-0.017458463087677956,0.013080861419439316,-0.000564122456125915,-0.00849093683063984
0.028810719028115273,0.00421399250626564,-0.017374878749251366,0.012809482403099537,-0.0005072291824035347,-0.008759846910834312
0.027984105050563812,0.003961171023547649,-0.017327694222331047,0.012662475928664207,-0.0005228488007560372,-0.008955166675150394
0.027937468141317368,0.004324774257838726,-0.017450064420700073,0.012848502025008202,-0.0004953877069056034,-0.008452044799923897
0.027805831283330917,0.004098336212337017,-0.01692206598818302,0.01276457216590643,-0.0004916359321214259,-0.008524114266037941
0.02782844752073288,0.0038630275521427393,-0.017627272754907608,0.013575327582657337,-0.00048704614164307714,-0.008886091411113739
0.028629176318645477,0.0038388529792428017,-0.01783961057662964,0.013424471952021122,-0.0004541109665296972,-0.008369838818907738
0.028631096705794334,0.004140949342399836,-0.016919363290071487,0.013859566301107407,-0.000453099055448547,-0.008602512069046497
0.02798726037144661,0.004091454204171896,-0.01728317141532898,0.013392363674938679,-0.00045167020289227366,-0.008536925539374352
0.029094545170664787,0.003820759244263172,-0.0173293836414814,0.013803689740598202,-0.00042666244553402066,-0.008402098901569843
0.029094545170664787,0.003820759244263172,-0.0173293836414814,0.013803689740598202,-0.00042666244553402066,-0.008402098901569843
0.02865268476307392,0.003666425123810768,-0.01760784536600113,0.01364315114915371,-0.00040376465767621994,-0.008486775681376457
0.028265509754419327,0.003704141592606902,-0.017475614324212074,0.013708768412470818,-0.00037212640745565295,-0.008624499663710594
0.028266167268157005,0.004288972821086645,-0.01684294268488884,0.01353530865162611,-0.00034378867712803185,-0.008704876527190208
0.028807366266846657,0.004189776256680489,-0.01761893555521965,0.013666005805134773,-0.00035037772613577545,-0.008460783399641514
0.028186341747641563,0.0038703312166035175,-0.017143944278359413,0.013573245145380497,-0.0003766283334698528,-0.008930271491408348
0.029142135754227638,0.003793445648625493,-0.017602287232875824,0.01356995478272438,-0.00036763193202205,-0.008964122273027897
0.029017288237810135,0.004123609513044357,-0.01718498021364212,0.013101598247885704,-0.00038482967647723854,-0.009342199191451073
0.028761928901076317,0.0042186337523162365,-0.017532454803586006,0.013624888844788074,-0.0003762568230740726,-0.008820709772408009
0.02880437858402729,0.0040166606195271015,-0.016972238197922707,0.013602624647319317,-0.0004286819021217525,-0.008553404361009598
0.028868645429611206,0.0038574128411710262,-0.01722768321633339,0.014036891050636768,-0.00045333130401559174,-0.008539330214262009
0.028643306344747543,0.0038653311785310507,-0.017626183107495308,0.014022191986441612,-0.00047679353156127036,-0.008138073608279228
0.030023911967873573,0.0038529084995388985,-0.01708962395787239,0.014326423406600952,-0.0004556446510832757,-0.008059711195528507
0.030050231143832207,0.0037793428637087345,-0.017583757638931274,0.014290871098637581,-0.000421322911279276,-0.008392076939344406
0.02811647392809391,0.003740928368642926,-0.01685171015560627,0.014829402789473534,-0.0004514440370257944,-0.008765296079218388
0.028508860617876053,0.004274243954569101,-0.017389891669154167,0.014395229518413544,-0.0004544442635960877,-0.00860043428838253
0.02941690757870674,0.004133427049964666,-0.017999691888689995,0.014123933389782906,-0.00045317705371417105,-0.00896147359162569
0.029079215601086617,0.003942971583455801,-0.01704358495771885,0.01376794371753931,-0.000520672183483839,-0.008811271749436855
0.029120244085788727,0.003953856881707907,-0.017715686932206154,0.014122061431407928,-0.0004956273478455842,-0.008930149488151073
0.030193202197551727,0.004065996035933495,-0.017360994592308998,0.013608638197183609,-0.0005254874704405665,-0.008396231569349766
0.029448051005601883,0.004047774244099855,-0.017483610659837723,0.014309538528323174,-0.0004885193193331361,-0.008694789372384548
0.030007876455783844,0.0041121989488601685,-0.01816720701754093,0.014100396074354649,-0.0005180404405109584,-0.009357264265418053
0.030007876455783844,0.0041121989488601685,-0.01816720701754093,0.014100396074354649,-0.0005180404405109584,-0.009357264265418053
0.028483733534812927,0.0040613263845443726,-0.01745704747736454,0.014451662078499794,-0.00048288272228091955,-0.008836149238049984
0.02889419160783291,0.003916946239769459,-0.01789965108036995,0.014013944193720818,-0.000504122581332922,-0.008763650432229042
0.02978408895432949,0.004311003722250462,-0.018224559724330902,0.014450633898377419,-0.0004781958123203367,-0.009045278653502464
0.029912708327174187,0.004196988884359598,-0.017578139901161194,0.01386940386146307,-0.0004905785317532718,-0.008275019936263561
0.029119715094566345,0.004526185337454081,-0.018056455999612808,0.014129634946584702,-0.0004784463671967387,-0.008108356036245823
0.029731888324022293,0.004705716390162706,-0.01753697358071804,0.01302473247051239,-0.00047673145309090614,-0.00840760488063097
0.029342005029320717,0.0042276037856936455,-0.018454810604453087,0.01377794984728098,-0.0005000308156013489,-0.008946266956627369
0.029374457895755768,0.004097545985132456,-0.0179249607026577,0.014281002804636955,-0.000471322302473709,-0.009014722891151905
0.029376357793807983,0.004296859260648489,-0.01783333718776703,0.014054515399038792,-0.000439027528045699,-0.008864447474479675
0.029470769688487053,0.004535261541604996,-0.017991047352552414,0.014239354059100151,-0.0004649846814572811,-0.009399834088981152
0.029408369213342667,0.004686569795012474,-0.017946628853678703,0.0141280023381114,-0.00044010853162035346,-0.00865442119538784
0.029281366616487503,0.004293567035347223,-0.018915556371212006,0.01433892734348774,-0.0004657456884160638,-0.008517184294760227
0.029523363336920738,0.0035024916287511587,-0.0182812362909317,0.01400695089250803,-0.00043856227421201766,-0.008915236219763756
0.029789533466100693,0.0034848912619054317,-0.0177728570997715,0.014285613782703876,-0.0004006684757769108,-0.00827950518578291
0.029702946543693542,0.003829463617876172,-0.018734421581029892,0.014175810851156712,-0.0004363115585874766,-0.008500413969159126
0.029703089967370033,0.004091343376785517,-0.017743084579706192,0.014366076327860355,-0.0004407762025948614,-0.009086338803172112
0.029780255630612373,0.003613467561081052,-0.017873357981443405,0.014030727557837963,-0.00044037579209543765,-0.008807340636849403
0.029715627431869507,0.004209046717733145,-0.018317732959985733,0.014155604876577854,-0.0004425279039423913,-0.00894450768828392
0.029715627431869507,0.004209046717733145,-0.018317732959985733,0.014155604876577854,-0.0004425279039423913,-0.00894450768828392
0.029874319210648537,0.0041736881248652935,-0.018428845331072807,0.014397255145013332,-0.0004177368537057191,-0.009269855916500092
0.030643664300441742,0.0035953079350292683,-0.018003899604082108,0.01437339186668396,-0.00046381657011806965,-0.008747615851461887
0.0304212998598814,0.0034388755448162556,-0.01787686161696911,0.015079841949045658,-0.00043084844946861267,-0.008858452551066875
0.030162181705236435,0.003158018458634615,-0.018188487738370895,0.01448442880064249,-0.00046699686208739877,-0.009099096059799194
0.030222391709685326,0.003284711856395006,-0.017835218459367752,0.01479000598192215,-0.0004342380561865866,-0.009701238013803959
0.0305302944034338,0.0036121464800089598,-0.0181531123816967,0.014289211481809616,-0.00046004907926544547,-0.008509689942002296
0.030901078134775162,0.0036842008121311665,-0.018161268904805183,0.014483424834907055,-0.0004663857398554683,-0.008856012485921383
0.030901078134775162,0.0036842008121311665,-0.018161268904805183,0.014483424834907055,-0.0004663857398554683,-0.008856012485921383
0.03072958253324032,0.003502950305119157,-0.01752186194062233,0.014188378117978573,-0.0004645769367925823,-0.008530596271157265
0.030878812074661255,0.003450985299423337,-0.018488487228751183,0.014508613385260105,-0.0004381459148135036,-0.009164882823824883
0.03073776327073574,0.0033938654232770205,-0.018781837075948715,0.014190666377544403,-0.0005110112251713872,-0.008997750468552113
0.030516978353261948,0.0035023940727114677,-0.01817546784877777,0.014554125256836414,-0.0005185134359635413,-0.008890483528375626
0.03076580911874771,0.003314010566100478,-0.018449369817972183,0.01454040315002203,-0.0005113943479955196,-0.009220754727721214
0.030378377065062523,0.0035479634534567595,-0.018018826842308044,0.015016322955489159,-0.0005074755754321814,-0.009443233720958233
0.03082791343331337,0.0037693572230637074,-0.01821005903184414,0.0146930031478405,-0.0005015867645852268,-0.009029815904796124
0.030970238149166107,0.0034461587201803923,-0.01816048100590706,0.01469404622912407,-0.0004955370095558465,-0.008799542672932148
0.029753033071756363,0.0035552335903048515,-0.01821853592991829,0.014861215837299824,-0.0005205834750086069,-0.009009582921862602
0.03018730878829956,0.0037398815620690584,-0.018547935411334038,0.014465495012700558,-0.0005169843789190054,-0.0090135233476758
