davideferrari95/blind_handover_controller/data/Test 169 - [2024-02-08 -- 11-11-51]/joint_states_data.csv
shoulder_pan_joint,shoulder_lift_joint,elbow_joint,wrist_1_joint,wrist_2_joint,wrist_3_joint
-0.004928210750222206,-0.014635047875344753,4.0509959831069864e-07,0.012711582705378532,6.223382661119103e-05,-0.006041411310434341
-0.0048114531673491,-0.015624497085809708,5.434928507241921e-09,0.013618837110698223,6.153538561193272e-05,-0.0056024459190666676
-0.0048114531673491,-0.015624497085809708,5.434928507241921e-09,0.013618837110698223,6.153538561193272e-05,-0.0056024459190666676
-0.004768406506627798,-0.015316617675125599,7.291650616636502e-11,0.01402110606431961,6.08427326369565e-05,-0.005138830281794071
-0.004412672482430935,-0.015641409903764725,9.782680308184633e-13,0.01453267503529787,6.0164922615513206e-05,-0.005803809966892004
-0.004520233720541,-0.0156585443764925,1.3124713684300234e-14,0.013909258879721165,3.0161430913722143e-05,-0.006061415653675795
-0.005129331257194281,-0.015922795981168747,1.7608478249547018e-16,0.013496672734618187,1.9693259218911408e-06,-0.006339147686958313
-0.0051180231384932995,-0.015460845082998276,2.362402186852458e-18,0.013669290579855442,1.2858289721862093e-07,-0.0058559272438287735
-0.004745617508888245,-0.01558541040867567,3.169464009149394e-20,0.014131234027445316,8.395544703887481e-09,-0.005480642430484295
-0.004895143210887909,-0.01566218212246895,4.252240482534788e-22,0.014167144894599915,5.481690656949922e-10,-0.005555184558033943
-0.005182201974093914,-0.01599740982055664,5.704922948561669e-24,0.014575410634279251,3.579152252353168e-11,-0.0053095510229468346
-0.004926122725009918,-0.01594153419137001,7.653882873564024e-26,0.014685389585793018,2.3369307790982452e-12,-0.005961140617728233
-0.004926122725009918,-0.01594153419137001,7.653882873564024e-26,0.014685389585793018,2.3369307790982452e-12,-0.005961140617728233
-0.005587020888924599,-0.015102946199476719,1.0268659795974253e-27,0.014709223993122578,1.5258488103662288e-13,-0.00564165273681283
-0.005404673982411623,-0.015139739960432053,1.3776717055365988e-29,0.01526689063757658,9.962702422750252e-15,-0.005780787672847509
-0.004947978537529707,-0.01481397170573473,1.8483222792032924e-31,0.015396224334836006,6.504933514040433e-16,-0.005429277196526527
-0.0047708116471767426,-0.015322555787861347,2.4797600670153257e-33,0.01469484530389309,4.247256462465802e-17,-0.005829305853694677
-0.005037786904722452,-0.015228302218019962,3.3269144748081553e-35,0.01502175722271204,2.7731546432424554e-18,-0.005766522604972124
-0.004968728870153427,-0.015506822615861893,4.463479991985135e-37,0.014869311824440956,1.8106719944965525e-19,-0.005873387213796377
-0.00550241582095623,-0.015174837782979012,5.988328475624174e-39,0.015469430945813656,1.1822394086589619e-20,-0.0055798799730837345
-0.005026336293667555,-0.015495352447032928,8.034064485513474e-41,0.015309194102883339,7.719178895381942e-22,-0.005549170076847076
-0.0047283596359193325,-0.014649525284767151,1.0775985190657843e-42,0.015680985525250435,5.0400723975910297e-23,-0.005629649385809898
-0.004954527597874403,-0.01514587551355362,1.401298464324817e-44,0.01483395416289568,3.290807024624089e-24,-0.006142282858490944
-0.0048647914081811905,-0.014502223581075668,0.0,0.01466911006718874,2.148661862747994e-25,-0.006617746781557798
-0.004759357776492834,-0.014951436780393124,-0.0,0.014248380437493324,9.160082001440322e-28,-0.0058850860223174095
-0.005177272949367762,-0.014954057522118092,-0.0,0.013570016250014305,5.980878543944234e-29,-0.005298704374581575
-0.005118230357766151,-0.014806168153882027,-0.0,0.014179746620357037,3.905086272979705e-30,-0.005723814480006695
-0.00494480412453413,-0.015379327349364758,-0.0001593738270457834,0.013861186802387238,2.549741991778218e-31,-0.005929450038820505
-0.004768000915646553,-0.01497063972055912,-0.00016115681501105428,0.014468497596681118,1.664799457950231e-32,-0.005625111050903797
-0.0050995368510484695,-0.014945662580430508,-0.00015568202070426196,0.013998221606016159,1.0869949627332276e-33,-0.005485766567289829
-0.005087357480078936,-0.014608933590352535,-0.00015047732449602336,0.014372589997947216,7.097299690703995e-35,-0.00563425337895751
-0.0052896784618496895,-0.014349627308547497,-0.00014560812269337475,0.014280412346124649,4.634029539372036e-36,-0.005666401237249374
-0.004971821326762438,-0.015234071761369705,-0.00014104413276072592,0.014153825119137764,3.0256903704027738e-37,-0.006091220770031214
-0.004869319498538971,-0.015111220069229603,-0.0001367575314361602,0.013922363519668579,1.9755595433152988e-38,-0.0059310621581971645
-0.004942924249917269,-0.014806624501943588,-0.00013272403157316148,0.014080176129937172,1.2898994403063871e-39,-0.005861269310116768
-0.00527089973911643,-0.014774138107895851,-0.00012892152881249785,0.013994957320392132,8.422084030285016e-41,-0.005975561682134867
-0.004943593870848417,-0.014758246950805187,-0.00015005108434706926,0.014178824611008167,5.498695174010582e-42,-0.0055128056555986404
-0.004926273599267006,-0.014670178294181824,-0.00014631703379563987,0.013891124166548252,3.587324068671532e-43,-0.005724054761230946
-0.004913656041026115,-0.014704138040542603,-0.00014246147475205362,0.014324558898806572,2.382207389352189e-44,-0.00570688396692276
-0.004918278660625219,-0.014547139406204224,-0.0001387996453559026,0.014348020777106285,1.401298464324817e-45,-0.005637663416564465
-0.005131166893988848,-0.014948954805731773,-0.00013532140292227268,0.01468488946557045,2.8279582693357952e-05,-0.005255982279777527
-0.005083034746348858,-0.014526251703500748,-0.0001320130395470187,0.014227933250367641,6.831961218267679e-05,-0.00499808369204402
-0.004956391640007496,-0.01487025897949934,-0.000128862913697958,0.0143844960257411,6.989980465732515e-05,-0.005478421226143837
-0.005086702760308981,-0.014408874325454235,-0.00014654797269031405,0.014182444661855698,6.9000459916424e-05,-0.005489896051585674
-0.005086702760308981,-0.014408874325454235,-0.00014654797269031405,0.014182444661855698,6.9000459916424e-05,-0.005489896051585674
-0.0048751081340014935,-0.014395772479474545,-0.00014029616431798786,0.01428140513598919,7.690303755225614e-05,-0.0054351892322301865
-0.0048751081340014935,-0.014395772479474545,-0.00014029616431798786,0.01428140513598919,7.690303755225614e-05,-0.0054351892322301865
-0.005115623585879803,-0.015185811556875706,-0.0001372400438413024,0.014504758641123772,7.894756708992645e-05,-0.005575630813837051
-0.005386636592447758,-0.014717914164066315,-0.00013431414845399559,0.014113507233560085,7.801393803674728e-05,-0.0052379099652171135
-0.005041663534939289,-0.014803901314735413,-0.0001315104018431157,0.013965373858809471,7.69162506912835e-05,-0.005911808926612139
-0.005478737875819206,-0.01412234641611576,-0.00012882128066848963,0.014154731296002865,7.583694969071075e-05,-0.005594686605036259
-0.0052482858300209045,-0.014556566253304482,-0.00013810487871523947,0.014442316256463528,7.478668703697622e-05,-0.0058275144547224045
-0.0047768484801054,-0.014252372086048126,-0.00014135718811303377,0.014004208147525787,7.982311944942921e-05,-0.005560101941227913
-0.0052898651920259,-0.014405271969735622,-0.00013609312009066343,0.01429549790918827,8.374408207600936e-05,-0.005810113158077002
-0.005294566508382559,-0.014642158523201942,-0.00016065454110503197,0.014346848241984844,8.266964869108051e-05,-0.005720569286495447
-0.005231861025094986,-0.01404852606356144,-0.00015854126831982285,0.01398025918751955,8.160045399563387e-05,-0.00553933484479785
-0.004990585148334503,-0.014314725063741207,-0.00015319150406867266,0.012989789247512817,8.05571980890818e-05,-0.005629622843116522
-0.00504270801320672,-0.013826481066644192,-0.00017428873979952186,0.01282002218067646,7.9540150181856e-05,-0.005518971011042595
-0.004753183573484421,-0.014379586093127728,-0.00017206522170454264,0.012764661572873592,8.902768604457378e-05,-0.005595843773335218
-0.005004106555134058,-0.014021657407283783,-0.0001667950564296916,0.01301159244030714,8.861572860041633e-05,-0.005345116835087538
-0.00557369040325284,-0.014459636062383652,-0.00017951593326870352,0.012689819559454918,8.758239710005e-05,-0.005313979461789131
-0.005298282951116562,-0.015301666222512722,-0.00018314849876333028,0.013757835142314434,8.653276017867029e-05,-0.005549857392907143
-0.004899715539067984,-0.013781155459582806,-0.00017809031123761088,0.013888638466596603,8.550531492801383e-05,-0.0060790362767875195
-0.005183829925954342,-0.013470545411109924,-0.00018945778720080853,0.014198653399944305,8.450182940578088e-05,-0.005633500404655933
-0.005108500365167856,-0.013677835464477539,-0.0001925282267620787,0.014044209383428097,0.00017443929391447455,-0.005864704959094524
-0.005089420359581709,-0.01357188168913126,-0.00018762053514365107,0.014646831899881363,0.00018018233822658658,-0.00544888386502862
-0.005593833979219198,-0.014143108390271664,-0.00033510365756228566,0.014435469172894955,0.0001740445295581594,-0.00531340017914772
-0.004862988367676735,-0.014205042272806168,-0.00033013918437063694,0.014752695336937904,0.00016761520237196237,-0.005635593086481094
-0.005718090571463108,-0.014313586987555027,-0.0003078162844758481,0.014517002739012241,0.00016159852384589612,-0.006029709707945585
-0.005057374946773052,-0.014011816121637821,-0.0002881085383705795,0.014586616307497025,0.0001559960946906358,-0.005528013221919537
-0.004753314424306154,-0.014060039073228836,-0.00030620660982094705,0.013884562999010086,0.00017888558795675635,-0.005288863554596901
-0.00473009143024683,-0.013635201379656792,-0.00030622861231677234,0.014342153444886208,0.0001749237853800878,-0.005391812417656183
-0.005387343931943178,-0.013878878206014633,-0.00029001402435824275,0.013556492514908314,0.00016955076716840267,-0.005360893905162811
-0.005223595071583986,-0.013795044273138046,-0.00027523329481482506,0.013470525853335857,0.00016439643513876945,-0.005795550998300314
-0.004510326776653528,-0.013784429989755154,-0.0002618843282107264,0.013128826394677162,0.00015953942784108222,-0.005685724783688784
-0.004522643983364105,-0.013712081126868725,-0.00028969813138246536,0.013805290684103966,0.00016763695748522878,-0.006015583407133818
-0.004522643983364105,-0.013712081126868725,-0.00028969813138246536,0.013805290684103966,0.00016763695748522878,-0.006015583407133818
-0.004909588024020195,-0.01332724466919899,-0.00027849196339957416,0.013636480085551739,0.0001748854119796306,-0.005659975111484528
-0.00499739171937108,-0.014332028105854988,-0.0002667224034667015,0.014010713435709476,0.00017091816698666662,-0.005309971049427986
-0.004873976111412048,-0.013676800765097141,-0.00028812128584831953,0.014074165374040604,0.00016645285359118134,-0.005257887300103903
-0.00505743408575654,-0.013637920841574669,-0.00028097094036638737,0.014048674143850803,0.00016217103984672576,-0.00526698213070631
-0.004989662207663059,-0.01298486813902855,-0.00029664457542821765,0.013753829523921013,0.00017771375132724643,-0.005526532419025898
-0.004382071550935507,-0.013086443766951561,-0.00030880593112669885,0.013636907562613487,0.00017203866445925087,-0.0056109302677214146
-0.004913558717817068,-0.01368654053658247,-0.00030868404428474605,0.013401439413428307,0.0002198097645305097,-0.005312690511345863
-0.005053970962762833,-0.013531530275940895,-0.0003389157063793391,0.013640235178172588,0.00021675010793842375,-0.005053069442510605
-0.004939106293022633,-0.014031877741217613,-0.000353659299435094,0.013059972785413265,0.0002072572970064357,-0.0057527776807546616
-0.004657219164073467,-0.013344981707632542,-0.00035135549842379987,0.013175173662602901,0.00023508636513724923,-0.00592808797955513
-0.0046211546286940575,-0.012766167521476746,-0.0003351973427925259,0.012597659602761269,0.00022758673003409058,-0.006200253497809172
-0.0046670385636389256,-0.01303618773818016,-0.000528031203430146,0.013014082796871662,0.0002501035633031279,-0.005727612879127264
-0.0046674027107656,-0.012471423484385014,-0.0004805955686606467,0.012727983295917511,0.0002618662838358432,-0.0053850943222641945
-0.004994502756744623,-0.013285216875374317,-0.0004908663686364889,0.013249203562736511,0.00026838056510314345,-0.005135369021445513
-0.00496820081025362,-0.013142462819814682,-0.0004748765495605767,0.013004904612898827,0.00026087273727171123,-0.005692325998097658
-0.004865581169724464,-0.01371418870985508,-0.0004368164809420705,0.013151310384273529,0.0004939974169246852,-0.005936686415225267
-0.005016803741455078,-0.013468405231833458,-0.00044810728286392987,0.0133271599188447,0.0005024817073717713,-0.006051798351109028
-0.004953399766236544,-0.01390115823596716,-0.0004383273480925709,0.012756060808897018,0.0005346338730305433,-0.005818571895360947
-0.004394707269966602,-0.013514699414372444,-0.00046164472587406635,0.012801733799278736,0.0005633729742839932,-0.005720627028495073
-0.004419000819325447,-0.013552873395383358,-0.0004399241879582405,0.012588425539433956,0.0008417044882662594,-0.006044612266123295
-0.0049946545623242855,-0.013298739679157734,-0.00044680500286631286,0.012947670184075832,0.0008898552041500807,-0.005972683895379305
-0.0050047035329043865,-0.013403416611254215,-0.0004223132273182273,0.012739189900457859,0.0009551774128340185,-0.0061378879472613335
-0.004366814624518156,-0.01290809828788042,-0.00045418672380037606,0.013054479844868183,0.0009081668104045093,-0.005818079225718975
-0.004299430176615715,-0.012978270649909973,-0.0004731962690129876,0.012933462858200073,0.0010691630886867642,-0.005663321819156408
-0.004155776463449001,-0.012925555929541588,-0.00046120458864606917,0.012590811587870121,0.001049690879881382,-0.00573918130248785
-0.004362733568996191,-0.012887411750853062,-0.0004889002302661538,0.012495961971580982,0.0009619463817216456,-0.005868203472346067
-0.004707051906734705,-0.013410868123173714,-0.0006316264625638723,0.012446214444935322,0.0009410347556695342,-0.00560253020375967
-0.004707051906734705,-0.013410868123173714,-0.0006316264625638723,0.012446214444935322,0.0009410347556695342,-0.00560253020375967
-0.004818848799914122,-0.012810364365577698,-0.0006278452347032726,0.01266202237457037,0.0008446055580861866,-0.005437521729618311
-0.004475242458283901,-0.013446250930428505,-0.0006606224924325943,0.011848616413772106,0.000754114706069231,-0.004728395026177168
-0.004084999673068523,-0.01293270755559206,-0.000589898438192904,0.01184331439435482,0.0006515617715194821,-0.005937317386269569
-0.0044234683737158775,-0.013383766636252403,-0.0006166495732031763,0.011671283282339573,0.0006747099687345326,-0.006667373236268759
-0.004698297940194607,-0.01300748623907566,-0.0006173106376081705,0.011459398083388805,0.0006058094440959394,-0.006292501464486122
-0.004475044552236795,-0.012872868217527866,-0.0006205023382790387,0.011548818089067936,0.0005770917050540447,-0.005405695177614689
-0.004062830004841089,-0.012793776579201221,-0.000644929357804358,0.012294741347432137,0.0005991311045363545,-0.005593213718384504
-0.0040749795734882355,-0.01270759105682373,-0.0005867284489795566,0.012682732194662094,0.0005842088721692562,-0.005975224077701569
-0.003992934245616198,-0.012684529647231102,-0.0006162539939396083,0.012157303281128407,0.0005442194524221122,-0.005446459166705608
-0.003885669866576791,-0.013060437515377998,-0.0006393449148163199,0.011891639791429043,0.0005340377101674676,-0.005857727490365505
-0.004253707360476255,-0.01260770857334137,-0.0007651865016669035,0.011347727850079536,0.0005243070772849023,-0.0055733551271259785
-0.004173796158283949,-0.01283009722828865,-0.0007925218669697642,0.012047568336129189,0.0004803879128303379,-0.005684846546500921
-0.0045791263692080975,-0.012196931056678295,-0.0007799224695190787,0.011717066168785095,0.0005046985461376607,-0.005462150555104017
-0.004219331778585911,-0.012454765848815441,-0.000726082012988627,0.01156712044030428,0.00047524936962872744,-0.005943662486970425
-0.003872259519994259,-0.012724161148071289,-0.0007431154372170568,0.011608310043811798,0.00047309670480899513,-0.005657498259097338
-0.004162149969488382,-0.012177578173577785,-0.0008032205514609814,0.011786227114498615,0.00047033923328854144,-0.005919419229030609
-0.0041435095481574535,-0.012905649840831757,-0.0008185431943275034,0.012079826556146145,0.0004666370805352926,-0.005832912400364876
-0.004030324053019285,-0.012617174535989761,-0.0007925354293547571,0.011288858018815517,0.00044637417886406183,-0.006030592601746321
-0.003980549052357674,-0.012806972488760948,-0.0008046881994232535,0.011464066803455353,0.00044697007979266346,-0.005843612365424633
-0.004081294871866703,-0.012172173708677292,-0.0007541769882664084,0.011837632395327091,0.0004458372131921351,-0.005816993303596973
-0.004099388141185045,-0.012241569347679615,-0.0007842534105293453,0.011622964404523373,0.0004474262532312423,-0.0060114748775959015
-0.003654393134638667,-0.012046068906784058,-0.0008014274062588811,0.012088768184185028,0.00044640994747169316,-0.006320178043097258
-0.0026280018500983715,-0.011978864669799805,-0.0008108318434096873,0.011306101456284523,0.00041873700683936477,-0.0062138838693499565
-0.001955093815922737,-0.012447060085833073,-0.0008209922234527767,0.011188378557562828,0.00044125341810286045,-0.005951055325567722
-0.0018228148110210896,-0.011843724176287651,-0.0009120421018451452,0.011215376667678356,0.0004220175324007869,-0.005805704277008772
-0.001546369632706046,-0.012271380983293056,-0.0010151582537218928,0.011006193235516548,0.00047070792061276734,-0.006132498849183321
-0.0016348275821655989,-0.012127812951803207,-0.0009153666906058788,0.011166737414896488,0.0004486877587623894,-0.006322660017758608
-0.0027610110118985176,-0.012397020123898983,-0.0009122000774368644,0.011016125790774822,0.0004094561736565083,-0.005769310053437948
-0.0027610110118985176,-0.012397020123898983,-0.0009122000774368644,0.011016125790774822,0.0004094561736565083,-0.005769310053437948
-0.002658835845068097,-0.011883175931870937,-0.0009559567552059889,0.010954775847494602,0.0004450990236364305,-0.0057887001894414425
-0.0021936465054750443,-0.011807136237621307,-0.0010538895148783922,0.011174265295267105,0.00041539486846886575,-0.005918066017329693
-0.001506185159087181,-0.011820942163467407,-0.0011172477388754487,0.011257464066147804,0.0004641431733034551,-0.006200794596225023
-0.001514048664830625,-0.011547756381332874,-0.0011489263270050287,0.010666015557944775,0.000449203624157235,-0.006127324420958757
-0.0014306496595963836,-0.011797212064266205,-0.0011058449745178223,0.009927893988788128,0.0005172556848265231,-0.0061041186563670635
-0.0015571757685393095,-0.011381401680409908,-0.0011010176967829466,0.009963124990463257,0.000566215836443007,-0.005920626223087311
-0.0017630958463996649,-0.011930396780371666,-0.0012436403194442391,0.010405099019408226,0.0005988494958728552,-0.006241140887141228
-0.001889160368591547,-0.011176266707479954,-0.0011811554431915283,0.010633650235831738,0.0006298565422184765,-0.00640769163146615
-0.0018461638828739524,-0.011054170317947865,-0.0011405253317207098,0.010968650691211224,0.0010705088498070836,-0.00600538169965148
-0.0018163482891395688,-0.011267009191215038,-0.0010965204564854503,0.010301582515239716,0.0010874916333705187,-0.005816774908453226
-0.0016603140393272042,-0.011169428937137127,-0.0011760398047044873,0.009691335260868073,0.0010622977279126644,-0.006020335480570793
-0.0016634372295811772,-0.011410466395318508,-0.0011323564685881138,0.009735644795000553,0.0010799590963870287,-0.005888882093131542
-0.0016987695125862956,-0.011060040444135666,-0.0010316630359739065,0.009496527723968029,0.0010480430210009217,-0.006214308086782694
-0.001897677662782371,-0.011132001876831055,-0.0011360032949596643,0.009267440997064114,0.0009131360566243529,-0.005926419515162706
-0.001882412238046527,-0.011505969800055027,-0.001211725058965385,0.010248481296002865,0.0008947040769271553,-0.0057991184294223785
-0.0018261588411405683,-0.010802850127220154,-0.001328377751633525,0.009567790664732456,0.0008942459244281054,-0.006103111896663904
-0.001654505729675293,-0.011046447791159153,-0.0013335904804989696,0.009506218135356903,0.0008182230521924794,-0.005874826107174158
-0.0015115737915039062,-0.01100278738886118,-0.0012536050053313375,0.00972692295908928,0.00076678377809003,-0.006339137442409992
-0.0014139767736196518,-0.01036504004150629,-0.0011946005979552865,0.009020049124956131,0.0007805917994119227,-0.006037190556526184
-0.0013655290240421891,-0.010788163170218468,-0.0011946851154789329,0.008409692905843258,0.000821241526864469,-0.005962484981864691
-0.00146206421777606,-0.010279747657477856,-0.0011809294810518622,0.008436975069344044,0.0009231184376403689,-0.005682243034243584
-0.0015531685203313828,-0.010335936211049557,-0.0011523354332894087,0.00854522455483675,0.0011554182274267077,-0.005869957618415356
-0.001485177082940936,-0.011026676744222641,-0.0013229356845840812,0.00891124177724123,0.0011791626457124949,-0.00641773734241724
-0.0016038052272051573,-0.01038794033229351,-0.0012442083097994328,0.009077063761651516,0.001143346424214542,-0.006245363969355822
-0.001513424445874989,-0.01046353206038475,-0.0012206712272018194,0.009049825370311737,0.0012079196749255061,-0.00597268296405673
-0.0014239384327083826,-0.010890170000493526,-0.0011476114159449935,0.008794334717094898,0.0011719781905412674,-0.0056429835967719555
-0.0013968248385936022,-0.011286373250186443,-0.0012712411116808653,0.00872320681810379,0.0011291896225884557,-0.005823608487844467
-0.0013968248385936022,-0.011286373250186443,-0.0012712411116808653,0.00872320681810379,0.0011291896225884557,-0.005823608487844467
-0.0014361346838995814,-0.01046249084174633,-0.001222743303515017,0.00944942981004715,0.0010657397797331214,-0.006448451429605484
-0.0014902001712471247,-0.010021246038377285,-0.0013922278303653002,0.008737378753721714,0.0008587297052145004,-0.006301333196461201
-0.0014314332511276007,-0.010256368666887283,-0.0014645075425505638,0.008821678347885609,0.0007069367566145957,-0.00624706270173192
-0.00156898342538625,-0.009909030981361866,-0.0013958882773295045,0.008960523642599583,0.0007224276196211576,-0.0063735684379935265
-0.0015799518441781402,-0.009708628058433533,-0.0012994937133044004,0.008471587672829628,0.0006948673981241882,-0.006457815878093243
-0.0015582188498228788,-0.010109915398061275,-0.0012436610413715243,0.00836668349802494,0.0006675049080513418,-0.006349844392389059
-0.0016221451805904508,-0.010305646806955338,-0.001266917330212891,0.00906122662127018,0.0006866201292723417,-0.006060130428522825
-0.0016701482236385345,-0.00981082208454609,-0.001328648068010807,0.00898467842489481,0.0006733256159350276,-0.00601039407774806
-0.0017049963353201747,-0.009954193606972694,-0.001654957770369947,0.008623779751360416,0.0006223979871720076,-0.006303445901721716
-0.0015813966747373343,-0.00968174822628498,-0.0015620324993506074,0.00911875069141388,0.0006507722428068519,-0.006410341244190931
-0.0015984710771590471,-0.009922008961439133,-0.0014444957487285137,0.008998841047286987,0.0006708995788358152,-0.006079996936023235
-0.0014975499361753464,-0.010392858646810055,-0.001444512978196144,0.00883287563920021,0.000681519799400121,-0.006069094408303499
-0.0013961681397631764,-0.009679367765784264,-0.0013920714845880866,0.008760794997215271,0.000646816159132868,-0.00582320848479867
-0.00145772285759449,-0.010221683420240879,-0.0013409251114353538,0.008935080841183662,0.0007831294788047671,-0.005947580561041832
-0.0014892097096890211,-0.011181262321770191,-0.0014080770779401064,0.008615865372121334,0.0008059830870479345,-0.005696579348295927
-0.0017321942141279578,-0.009999381378293037,-0.0012597390450537205,0.008476613089442253,0.0007653943030163646,-0.005737744737416506
-0.001610819948837161,-0.009797554463148117,-0.0012325496645644307,0.008624717593193054,0.0007765557384118438,-0.00596313551068306
-0.0016843493795022368,-0.010225026868283749,-0.0010935055324807763,0.00813977885991335,0.0008754336158744991,-0.006103156600147486
-0.0017208595527336001,-0.009658359922468662,-0.0010564761469140649,0.00808507576584816,0.0008984970627352595,-0.006361351348459721
-0.0017208595527336001,-0.009658359922468662,-0.0010564761469140649,0.00808507576584816,0.0008984970627352595,-0.006361351348459721
-0.0013944220263510942,-0.010036555118858814,-0.0010286513715982437,0.008041280321776867,0.0008998119155876338,-0.005602042190730572
-0.0013944220263510942,-0.010036555118858814,-0.0010286513715982437,0.008041280321776867,0.0008998119155876338,-0.005602042190730572
-0.001476076664403081,-0.009649784304201603,-0.0012038734275847673,0.00783929880708456,0.000927858694922179,-0.005808549467474222
-0.0013817796716466546,-0.009817715734243393,-0.0011639102594926953,0.007772659882903099,0.0008846228593029082,-0.006137866992503405
-0.0015137040754780173,-0.01022247038781643,-0.0011266868095844984,0.008002766408026218,0.0008193334797397256,-0.006362004671245813
-0.0014012303436174989,-0.010080103762447834,-0.0011150918435305357,0.008099198341369629,0.0008172630332410336,-0.006168430205434561
-0.0013974050525575876,-0.009819967672228813,-0.0010432045673951507,0.007426028605550528,0.0007468636031262577,-0.006087408401072025
-0.0014199515571817756,-0.009045442566275597,-0.0010323291644454002,0.007335863541811705,0.0006818205583840609,-0.006353452801704407
-0.0013496687170118093,-0.009381427429616451,-0.00111763970926404,0.007814567536115646,0.0006066341884434223,-0.006359690334647894
-0.0014351662248373032,-0.010045970790088177,-0.0010940213687717915,0.007350372616201639,0.0005340972566045821,-0.006235586013644934
-0.0013742470182478428,-0.009621113538742065,-0.0010690828785300255,0.007230155635625124,0.0005593709065578878,-0.006476748269051313
-0.0015194517327472568,-0.009688532911241055,-0.0012797784293070436,0.007932618260383606,0.0005911698681302369,-0.006238762754946947
-0.0014527302701026201,-0.009956673718988895,-0.001270052045583725,0.007865127176046371,0.000618154474068433,-0.006134903058409691
-0.0013757001142948866,-0.009363806806504726,-0.0012083060573786497,0.0070495447143912315,0.0008899016538634896,-0.0065158032812178135
-0.0014497422380372882,-0.009211421944200993,-0.001164264278486371,0.007311665918678045,0.000960318895522505,-0.0066337501630187035
-0.001349917845800519,-0.009465843439102173,-0.001276840572245419,0.0070140608586370945,0.0009728600853122771,-0.006596209015697241
-0.001270067528821528,-0.008725326508283615,-0.0012297341600060463,0.006942727603018284,0.0012802525889128447,-0.00636408943682909
-0.0011221158783882856,-0.009954968467354774,-0.0014376338804140687,0.006618967279791832,0.0012929118238389492,-0.006374036893248558
-0.0011948223691433668,-0.009047644212841988,-0.0014659101143479347,0.006662827916443348,0.0012293847976252437,-0.00657934695482254
-0.0011817880440503359,-0.009007712826132774,-0.0014397423947229981,0.006940511055290699,0.0011336267925798893,-0.0066204797476530075
-0.0013865730725228786,-0.009050825610756874,-0.0013805135386064649,0.007203917484730482,0.0010497146286070347,-0.006645081099122763
-0.0013537340564653277,-0.009021722711622715,-0.0014488135930150747,0.006805152166634798,0.0010210403706878424,-0.006440932396799326
-0.0012737252982333302,-0.009012527763843536,-0.0015509255463257432,0.006141642574220896,0.0010364260524511337,-0.006492710206657648
-0.001370214275084436,-0.008955245837569237,-0.0016242581186816096,0.0066518643870949745,0.0010442981729283929,-0.006383263040333986
-0.001277594012208283,-0.009306134656071663,-0.001591224572621286,0.007018587552011013,0.0010398589074611664,-0.006191613618284464
-0.0012112788390368223,-0.008485360071063042,-0.0016552796587347984,0.0065619442611932755,0.0010285134194418788,-0.006563830655068159
-0.0011523514986038208,-0.00838308036327362,-0.0015453954692929983,0.006143808364868164,0.0010259445989504457,-0.006711853668093681
-0.0011523514986038208,-0.00838308036327362,-0.0015453954692929983,0.006143808364868164,0.0010259445989504457,-0.006711853668093681
-0.0011947982711717486,-0.008980548940598965,-0.0014649982331320643,0.006958091631531715,0.0012714547337964177,-0.0066802166402339935
-0.0012461062287911773,-0.008639470674097538,-0.0013716353569179773,0.006850448437035084,0.0011528671020641923,-0.006475233007222414
-0.0012427818728610873,-0.008596577681601048,-0.0014687087386846542,0.006414487957954407,0.0012272760504856706,-0.006381371058523655
-0.0012427818728610873,-0.008596577681601048,-0.0014687087386846542,0.006414487957954407,0.0012272760504856706,-0.006381371058523655
-0.0012929076328873634,-0.008809154853224754,-0.0015446317847818136,0.005973659455776215,0.0011704255593940616,-0.00699505815282464
-0.0013081597862765193,-0.009033119305968285,-0.001758227706886828,0.005522944964468479,0.0011254887795075774,-0.006966091226786375
-0.001372561906464398,-0.008490513078868389,-0.001798182842321694,0.006391267292201519,0.0010908582480624318,-0.006741116754710674
-0.0012562278425320983,-0.008875435218214989,-0.0014704674249514937,0.00620609475299716,0.0010068230330944061,-0.006775728426873684
-0.001225796528160572,-0.007935135625302792,-0.0013627613661810756,0.005628748796880245,0.0010242069838568568,-0.006697090342640877
-0.001278196694329381,-0.008184654638171196,-0.0013452640268951654,0.005629402585327625,0.0010552853345870972,-0.0065207467414438725
-0.0011557096149772406,-0.008741866797208786,-0.001408965908922255,0.006148205138742924,0.0010543960379436612,-0.006578984670341015
-0.0012204023078083992,-0.008559420704841614,-0.0013728756457567215,0.005749064963310957,0.0010408754460513592,-0.006767857354134321
-0.0011230887612327933,-0.007723008748143911,-0.0015804984141141176,0.005498792976140976,0.0010258305119350553,-0.0069015356712043285
-0.0010874223662540317,-0.008035478182137012,-0.0014315309235826135,0.00522980373352766,0.0011422291863709688,-0.00668307114392519
-0.0010042305802926421,-0.008275344967842102,-0.0013689674669876695,0.005274169612675905,0.0011487621814012527,-0.007041255943477154
-0.000996994785964489,-0.00819601770490408,-0.0012106407666578889,0.005199750419706106,0.0011312789283692837,-0.006683408748358488
-0.0009814262157306075,-0.00790021475404501,-0.0011471856851130724,0.005007235798984766,0.0012548025697469711,-0.006708934903144836
-0.0009700565715320408,-0.008269831538200378,-0.0012102109612897038,0.005258552730083466,0.0012066829949617386,-0.007208232767879963
-0.000899586477316916,-0.007986264303326607,-0.001223258557729423,0.005198121070861816,0.0011940660187974572,-0.006333241239190102
-0.0008785570971667767,-0.007882364094257355,-0.0013936255127191544,0.005488323513418436,0.0013044066727161407,-0.006072439718991518
-0.00088160065934062,-0.007622253615409136,-0.001319512608461082,0.0054978192783892155,0.0013179769739508629,-0.006554142106324434
-0.0008804698009043932,-0.008044096641242504,-0.0013046025997027755,0.005765581037849188,0.0014638889115303755,-0.007105962838977575
-0.0007766640046611428,-0.008732790127396584,-0.0013683836441487074,0.005771086551249027,0.0014545918675139546,-0.007197993341833353
-0.0007887091487646103,-0.0073309605941176414,-0.001346887438558042,0.005042959004640579,0.0013673907378688455,-0.007022949866950512
-0.0007887091487646103,-0.0073309605941176414,-0.001346887438558042,0.005042959004640579,0.0013673907378688455,-0.007022949866950512
-0.0007228156900964677,-0.00726904533803463,-0.0014981594868004322,0.0043342928402125835,0.0013218967942520976,-0.00696495920419693
-0.0006419996498152614,-0.008189449086785316,-0.0015478100394830108,0.004689066205173731,0.0012743070255964994,-0.006586149334907532
-0.0006695615593343973,-0.007989676669239998,-0.0014410625444725156,0.00481296656653285,0.001226905733346939,-0.007056434638798237
-0.0006871184450574219,-0.007439638487994671,-0.001362815615721047,0.004823284689337015,0.0011856802739202976,-0.006819837260991335
-0.0006293478654697537,-0.007321139797568321,-0.0014337507309392095,0.004536530934274197,0.0012249430874362588,-0.0066797188483178616
-0.0006441298173740506,-0.007436187006533146,-0.0014875248307362199,0.003993871156126261,0.0012360650580376387,-0.007034411653876305
-0.0005994397797621787,-0.007390304002910852,-0.0014183669118210673,0.0041930959559977055,0.001217663986608386,-0.00754685839638114
-0.0005534657393582165,-0.00736269960179925,-0.0013653449714183807,0.003956046886742115,0.0013537351042032242,-0.0070085059851408005
-0.0005495798541232944,-0.007417134940624237,-0.0014728602254763246,0.003936149179935455,0.0012978920713067055,-0.007386401295661926
-0.0004945647087879479,-0.00763306301087141,-0.001498841680586338,0.003496970282867551,0.0012460814323276281,-0.00689507694914937
-0.0004583048284985125,-0.007287645246833563,-0.0015383563004434109,0.004057541023939848,0.0012395281810313463,-0.007313946727663279
-0.00044594384962692857,-0.0071567874401807785,-0.001428624615073204,0.004440810065716505,0.0011843711836263537,-0.006988194305449724
-0.0004122365789953619,-0.007793643046170473,-0.0015414312947541475,0.004564554430544376,0.0012673971941694617,-0.007026308681815863
-0.0004441706114448607,-0.0073263151571154594,-0.001551791443489492,0.004222717136144638,0.0012596230953931808,-0.00741918059065938
-0.0004171950276941061,-0.006789864972233772,-0.0015831422060728073,0.003653851570561528,0.0012348195305094123,-0.007405404467135668
-0.00039131054654717445,-0.006891916505992413,-0.0015922755701467395,0.0030936705879867077,0.0014248457737267017,-0.007222177926450968
-0.0003684237599372864,-0.006989412475377321,-0.0015083665493875742,0.0027674490120261908,0.0014827848644927144,-0.007062661927193403
-0.00034806501935236156,-0.0073879980482161045,-0.001556179253384471,0.0028610790614038706,0.0016057216562330723,-0.007438382133841515
-0.00032984145218506455,-0.006913723424077034,-0.0016151914605870843,0.0032336311414837837,0.0015570735558867455,-0.007153882645070553
-0.000313429394736886,-0.006713423412293196,-0.0019162624375894666,0.0035138872917741537,0.0014297779416665435,-0.0077874623239040375
-0.0003394839586690068,-0.006598993204534054,-0.001843284466303885,0.0032867935951799154,0.0012525608763098717,-0.00790147390216589
-0.00032576313242316246,-0.006622146349400282,-0.001656438340432942,0.0030684967059642076,0.001117139938287437,-0.007574168033897877
-0.00031168211717158556,-0.006200829986482859,-0.0016863811761140823,0.0027888347394764423,0.0011145580792799592,-0.007583159022033215
-0.00026192914810962975,-0.007023634854704142,-0.0015907150227576494,0.002576395170763135,0.00110411096829921,-0.007079815957695246
-0.00025099804042838514,-0.006599205080419779,-0.0017893901094794273,0.002313190372660756,0.0012736956123262644,-0.007347380742430687
-0.00024137402942869812,-0.006354008801281452,-0.0016709755873307586,0.002170673804357648,0.0013222050620242953,-0.00801458116620779
-0.00023246744240168482,-0.006219738628715277,-0.0019031385891139507,0.0020176165271550417,0.001372491242364049,-0.008023153059184551
-0.00022419502784032375,-0.006449398584663868,-0.0017865300178527832,0.0021895449608564377,0.0015198240289464593,-0.007637414149940014
-0.00022419502784032375,-0.006449398584663868,-0.0017865300178527832,0.0021895449608564377,0.0015198240289464593,-0.007637414149940014
-0.00021649026894010603,-0.006730355322360992,-0.0019189369631931186,0.0024024471640586853,0.0014797307085245848,-0.007408638950437307
-0.00020929810125380754,-0.0065256571397185326,-0.0017933849012479186,0.002417262177914381,0.001518826698884368,-0.007520635612308979
-0.00020256837888155133,-0.006062330678105354,-0.0019572568126022816,0.0024448458570986986,0.0014511364279314876,-0.00812135823071003
-0.0001962579699466005,-0.00559989782050252,-0.0017783441580832005,0.0021145306527614594,0.0013740994036197662,-0.007764813955873251
-0.00019032851560041308,-0.005565181374549866,-0.0017467713914811611,0.0017583125736564398,0.001393418526276946,-0.007944823242723942
-0.00017948633467312902,-0.006350402720272541,-0.00217379885725677,0.0014850243460386992,0.0014134342782199383,-0.007536394987255335
-0.00017451423627790064,-0.00651554437354207,-0.002098591299727559,0.0014973558718338609,0.0015260621439665556,-0.007363727781921625
-0.00017451423627790064,-0.00651554437354207,-0.002098591299727559,0.0014973558718338609,0.0015260621439665556,-0.007363727781921625
-0.00016981095541268587,-0.005660782568156719,-0.002274156082421541,0.001430629170499742,0.0014577071415260434,-0.007398353889584541
-6.116208533057943e-05,-0.006096969358623028,-0.001856458024121821,0.0014828747371211648,0.0013832157710567117,-0.0076011656783521175
-5.527987377718091e-05,-0.006144221406430006,-0.0018277516355738044,0.001416065264493227,0.0013734211679548025,-0.007527821697294712
-5.358066118787974e-05,-0.006406200584024191,-0.001875214627943933,0.001394349616020918,0.0015257216291502118,-0.007369599770754576
-5.203107139095664e-05,-0.005862028803676367,-0.001883900142274797,0.0013418958988040686,0.0015917181735858321,-0.007339728996157646
-5.056924055679701e-05,-0.0059304991737008095,-0.0019297655671834946,0.0012648121919482946,0.0017729615792632103,-0.007264055777341127
-3.227337856515078e-06,-0.00623511616140604,-0.002212812891229987,0.001108179916627705,0.0018088906072080135,-0.0070518190041184425
-4.329885783249665e-08,-0.006039052736014128,-0.0021220711059868336,0.0009380090632475913,0.001983900321647525,-0.00726974057033658
-5.809094871800369e-10,-0.006152676418423653,-0.0020935588981956244,0.0008914611535146832,0.001847463077865541,-0.007963272742927074
-7.793641600140067e-12,-0.005495838820934296,-0.00202425685711205,0.0009074864792637527,0.001596967806108296,-0.00746495183557272
-1.0456165691315536e-13,-0.0058752563782036304,-0.0017458342481404543,0.0009074873523786664,0.0013807829236611724,-0.0072712344117462635
-1.4028281210344312e-15,-0.006208581384271383,-0.001910824910737574,0.0009299154626205564,0.001403764938004315,-0.0075799874030053616
-1.8820729635216957e-17,-0.006002748850733042,-0.002066429704427719,0.0008846431155689061,0.0015480485744774342,-0.007709580007940531
0.00037170093855820596,-0.006195646710693836,-0.0020886403508484364,0.0008192292298190296,0.0016488134860992432,-0.007382967509329319
0.0005878712399862707,-0.0055225021205842495,-0.0021095448173582554,0.0008253008127212524,0.0020451222080737352,-0.007423012517392635
0.0005230939132161438,-0.005583074875175953,-0.001960821682587266,0.000736196874640882,0.0021852280478924513,-0.0075946045108139515
0.00046863328316248953,-0.0062691811472177505,-0.0018202578648924828,0.000746829085983336,0.0023921504616737366,-0.007935496978461742
0.0004244103329256177,-0.005973431281745434,-0.0018162286141887307,0.0006817730609327555,0.002071435796096921,-0.008112315088510513
0.000438392860814929,-0.005637084599584341,-0.0021449606865644455,0.0006230802391655743,0.0017510405741631985,-0.007673359010368586
0.0004280857683625072,-0.005052804946899414,-0.002121203811839223,0.0005464109708555043,0.0016727774636819959,-0.0076261600479483604
0.00039694132283329964,-0.005246119108051062,-0.0022608607541769743,0.0004817525914404541,0.0014881202951073647,-0.00787694938480854
0.00039694132283329964,-0.005246119108051062,-0.0022608607541769743,0.0004817525914404541,0.0014881202951073647,-0.00787694938480854
0.0004288224736228585,-0.0055334544740617275,-0.0020398939959704876,0.0004347395442891866,0.0013690850464627147,-0.007455823011696339
0.00044141983380541205,-0.005386217962950468,-0.002004205947741866,0.0003963722847402096,0.0014197557466104627,-0.007826752960681915
0.0004333499528001994,-0.005842392332851887,-0.0018656000029295683,0.000364252453437075,0.0016218529781326652,-0.008184685371816158
0.0004091397568117827,-0.005327307153493166,-0.0019532497972249985,0.00033695687307044864,0.0016909911064431071,-0.00795051921159029
0.0004418065072968602,-0.0051301224157214165,-0.0017917025834321976,0.00036761496448889375,0.0019439756870269775,-0.00784967839717865
0.0004160249955020845,-0.005093631334602833,-0.0019398804288357496,0.0003510923415888101,0.001880347728729248,-0.007642542943358421
0.00044982702820561826,-0.005851889494806528,-0.0018197253812104464,0.00033010277547873557,0.0018039518035948277,-0.008233877830207348
0.00047824159264564514,-0.005390590988099575,-0.002097926801070571,0.0003111077821813524,0.0018077564891427755,-0.008067740127444267
0.0008196074631996453,-0.0051510995253920555,-0.0017566083697602153,0.00027895509265363216,0.002016057725995779,-0.007850921712815762
0.000831800454761833,-0.004836526233702898,-0.0017463736003264785,0.00026524881832301617,0.0022464462090283632,-0.0077852788381278515
0.0008484600111842155,-0.0048067341558635235,-0.001954098930582404,0.00025282660499215126,0.0020659267902374268,-0.007943311706185341
0.0010095251491293311,-0.005044054239988327,-0.0018680314533412457,0.0002218398149125278,0.0020987929310649633,-0.00822559092193842
0.0011294791474938393,-0.005025510676205158,-0.002201397903263569,0.0001939897338161245,0.0019135719630867243,-0.008356858044862747
0.001095015904866159,-0.005085359327495098,-0.0020203993190079927,0.0001848229148890823,0.0019730485510081053,-0.008035978302359581
0.0011486118892207742,-0.004892202094197273,-0.0019162456737831235,0.00017745494551490992,0.0018615028820931911,-0.007940036244690418
0.0011648115469142795,-0.004254449624568224,-0.0019198706140741706,0.00017071679758373648,0.002137260977178812,-0.008114952594041824
0.001226432854309678,-0.004479520954191685,-0.001955050276592374,0.0001644757721805945,0.0019331364892423153,-0.008295753039419651
0.001251666690222919,-0.00461902329698205,-0.0019508827244862914,0.0001586756407050416,0.00196471787057817,-0.00844323355704546
0.0012447022600099444,-0.005083991214632988,-0.0021603729110211134,0.0001266795734409243,0.0018437644466757774,-0.008285805583000183
0.0012944965856149793,-0.004988165572285652,-0.0022118270862847567,0.00011884232662850991,0.0019465094665065408,-0.008265417069196701
0.0012946103233844042,-0.004518201574683189,-0.002229472389444709,0.00011481302499305457,0.0018490352667868137,-0.00838178489357233
0.0014078861568123102,-0.004377065226435661,-0.0024605148937553167,0.00011124900629511103,0.0019778115674853325,-0.008404431864619255
0.0017472889740020037,-0.004501314368098974,-0.0025202897377312183,0.00010791308159241453,0.0018682809313759208,-0.0081136180087924
0.0019107256084680557,-0.004239128436893225,-0.0023072923067957163,8.034033089643344e-05,0.0019361613085493445,-0.008588453754782677
0.0017279094317927957,-0.004440631717443466,-0.0020729731768369675,7.647165330126882e-05,0.0018292652675881982,-0.008402024395763874
0.0017010902520269156,-0.004591437056660652,-0.0020762679632753134,7.448156247846782e-05,0.0019470580155029893,-0.008369116112589836
0.0017010902520269156,-0.004591437056660652,-0.0020762679632753134,7.448156247846782e-05,0.0019470580155029893,-0.008369116112589836
0.001705218106508255,-0.004663167055696249,-0.002399247605353594,-5.212229007156566e-05,0.002022156026214361,-0.008171007968485355
0.0017562104621902108,-0.004645842593163252,-0.0025223055854439735,-8.416251512244344e-05,0.0022201365791261196,-0.008634638041257858
0.0017719430616125464,-0.004100159741938114,-0.0023577967658638954,-8.555031672585756e-05,0.0022439220920205116,-0.008787249214947224
0.001894644694402814,-0.003872915403917432,-0.00222591869533062,-0.00010724577441578731,0.0022617089562118053,-0.00818472821265459
0.0019149791914969683,-0.00439960602670908,-0.0021104952320456505,-0.00012729948502965271,0.002392707159742713,-0.008682393468916416
0.002117955358698964,-0.0045711868442595005,-0.002295250305905938,-0.0005798255442641675,0.002262543188408017,-0.008597392588853836
0.002135577378794551,-0.004400474485009909,-0.002257210435345769,-0.0007476218743249774,0.0021691853180527687,-0.008564462885260582
0.002456778660416603,-0.004490436986088753,-0.0024129089433699846,-0.0008650367381051183,0.002174820052459836,-0.00882005412131548
0.0030857124365866184,-0.004088452085852623,-0.002353845164179802,-0.0015951510285958648,0.002117305528372526,-0.009125503711402416
0.0034245122224092484,-0.0037303047720342875,-0.0022523459047079086,-0.0023447764106094837,0.0024379598908126354,-0.008403945714235306
0.0026724934577941895,-0.00451115146279335,-0.0025065087247639894,-0.003128931624814868,0.002299264073371887,-0.009072924964129925
0.002717489143833518,-0.0046609556302428246,-0.0023018501233309507,-0.0032985538709908724,0.001987844705581665,-0.008300181478261948
0.0030960252042859793,-0.004409515764564276,-0.001868383726105094,-0.0034407302737236023,0.001726114540360868,-0.008523260243237019
0.0032365252263844013,-0.004310849122703075,-0.002023773966357112,-0.0037142434157431126,0.0017362592043355107,-0.008585328236222267
0.0034669991582632065,-0.004286167211830616,-0.002198151545599103,-0.003838402684777975,0.0020872114691883326,-0.008658623322844505
0.003404393559321761,-0.004370400682091713,-0.0021948330104351044,-0.004881267435848713,0.002607222879305482,-0.008910126984119415
0.0034658797085285187,-0.004072515293955803,-0.0023974634241312742,-0.005407415796071291,0.0024818412493914366,-0.009030072949826717
0.0035834149457514286,-0.004446522798389196,-0.002433782210573554,-0.005160905886441469,0.002174569759517908,-0.009286225773394108
0.004251376260071993,-0.004212516825646162,-0.00227500032633543,-0.00539060216397047,0.002118578879162669,-0.009190184995532036
0.004113324917852879,-0.0035220803692936897,-0.0024779082741588354,-0.005814901553094387,0.002101116580888629,-0.009212302975356579
0.004278452601283789,-0.003532533999532461,-0.0022449959069490433,-0.006225761957466602,0.00208969390951097,-0.009340759366750717
0.004252573009580374,-0.0037757663521915674,-0.0024920094292610884,-0.0067492141388356686,0.002114978851750493,-0.00941498577594757
0.0041055320762097836,-0.003851868212223053,-0.0027511504013091326,-0.006826188415288925,0.002236344385892153,-0.009225228801369667
0.004343781154602766,-0.003730220953002572,-0.002429978223517537,-0.007291716523468494,0.002287857700139284,-0.008807468228042126
0.0044367206282913685,-0.0033156804274767637,-0.0023576461244374514,-0.007206497713923454,0.002722355769947171,-0.00935078039765358
0.00455356203019619,-0.003225965891033411,-0.002059413818642497,-0.006829374004155397,0.002648903289809823,-0.009257839061319828
0.004658404737710953,-0.003220713697373867,-0.0021667068358510733,-0.007924025878310204,0.0025220713578164577,-0.009574436582624912
0.004658404737710953,-0.003220713697373867,-0.0021667068358510733,-0.007924025878310204,0.0025220713578164577,-0.009574436582624912
0.004535054322332144,-0.003405987983569503,-0.002559568965807557,-0.007879681885242462,0.0024285195395350456,-0.009165826253592968
0.004948743153363466,-0.0034083372447639704,-0.002670085756108165,-0.007709374651312828,0.002080524805933237,-0.009616385214030743
0.004948743153363466,-0.0034083372447639704,-0.002670085756108165,-0.007709374651312828,0.002080524805933237,-0.009616385214030743
0.00485602393746376,-0.0036681611090898514,-0.0023744129575788975,-0.006983333267271519,0.00218890025280416,-0.009385302662849426
0.005131613928824663,-0.0038367940578609705,-0.0022008640225976706,-0.007385320030152798,0.0022282700520008802,-0.009384214878082275
0.005613945424556732,-0.0029529081657528877,-0.002356811659410596,-0.006975915282964706,0.0025175916962325573,-0.009268863126635551
0.0052373516373336315,-0.002860718173906207,-0.0026241273153573275,-0.007930845022201538,0.002557512605562806,-0.009091121144592762
0.005241134203970432,-0.002807827666401863,-0.0029374954756349325,-0.008595974184572697,0.0025044556241482496,-0.008903605863451958
0.005633656866848469,-0.0028488540556281805,-0.002896178513765335,-0.007768211420625448,0.0025195833295583725,-0.009109372273087502
0.006214781664311886,-0.003164531895890832,-0.0024321407545357943,-0.007500320207327604,0.002504394156858325,-0.009280572645366192
0.005982904229313135,-0.00313773425295949,-0.0024494766257703304,-0.0085561852902174,0.002411827677860856,-0.00919798668473959
0.0060057081282138824,-0.003279523691162467,-0.0027667833492159843,-0.008358616381883621,0.002497399225831032,-0.009239619597792625
0.007035365793853998,-0.003079833695665002,-0.0026465861592441797,-0.008598655462265015,0.0025043319910764694,-0.00899126473814249
0.007005781400948763,-0.0029713832773268223,-0.002666969085112214,-0.009119248948991299,0.0028004180639982224,-0.009792005643248558
0.0066970293410122395,-0.002724632155150175,-0.0023801776114851236,-0.008863306604325771,0.0026781405322253704,-0.009260306134819984
0.0066332039423286915,-0.0029248222708702087,-0.00244713481515646,-0.008663940243422985,0.0025016742292791605,-0.00890380796045065
0.006698645651340485,-0.002992835361510515,-0.002370807807892561,-0.009755674749612808,0.00230192462913692,-0.008637788705527782
0.007261921651661396,-0.002913448493927717,-0.002282976172864437,-0.010502869263291359,0.0020880636293441057,-0.009082159027457237
0.007267621345818043,-0.002638907404616475,-0.0025554795283824205,-0.009459663182497025,0.0022664647549390793,-0.009195055812597275
0.006908856797963381,-0.002672122325748205,-0.0028777553234249353,-0.009462450630962849,0.0024744763504713774,-0.008937984704971313
0.006887597497552633,-0.0031202530954033136,-0.0029724063351750374,-0.009322624653577805,0.002668122760951519,-0.00919969379901886
0.0079964529722929,-0.0031226673163473606,-0.002627984154969454,-0.008910765871405602,0.0028587484266608953,-0.009707865305244923
0.0077206846326589584,-0.002800824586302042,-0.0023047183640301228,-0.010490842163562775,0.002761974697932601,-0.009798428043723106
0.0069562881253659725,-0.0026038321666419506,-0.0022746927570551634,-0.010280124843120575,0.002452076878398657,-0.009992361068725586
0.007265354506671429,-0.0022907331585884094,-0.002616357058286667,-0.009933296591043472,0.0025708519387990236,-0.009892595000565052
0.008255094289779663,-0.0022029406391084194,-0.003203075146302581,-0.010859338566660881,0.002800973365083337,-0.009761271998286247
0.008255094289779663,-0.0022029406391084194,-0.003203075146302581,-0.010859338566660881,0.002800973365083337,-0.009761271998286247
0.00754179572686553,-0.0022741048596799374,-0.0025847258511930704,-0.009963219985365868,0.0031110078562051058,-0.010497350245714188
0.00754179572686553,-0.0022741048596799374,-0.0025847258511930704,-0.009963219985365868,0.0031110078562051058,-0.010497350245714188
0.008138374425470829,-0.002444202546030283,-0.0025364260654896498,-0.010935148224234581,0.002826305339112878,-0.009865554049611092
0.008249688893556595,-0.0021207560785114765,-0.0028521441854536533,-0.010641485452651978,0.002576600294560194,-0.009571920149028301
0.008108365349471569,-0.0019191798055544496,-0.0031679922249168158,-0.010551455430686474,0.002609414979815483,-0.00959668681025505
0.0082582738250494,-0.0018865581369027495,-0.00304000498726964,-0.010584795847535133,0.0025646386202424765,-0.009610965847969055
0.008679055608808994,-0.0017733699642121792,-0.0028846736531704664,-0.010120304301381111,0.003036895301192999,-0.010067102499306202
0.00821393821388483,-0.0018709731521084905,-0.002760924631729722,-0.010262859985232353,0.0032951543107628822,-0.009867203421890736
0.008529440499842167,-0.001695671584457159,-0.002705974970012903,-0.010535825975239277,0.0029935152269899845,-0.009953970089554787
0.008870950900018215,-0.0015585334040224552,-0.003299179021269083,-0.010997150093317032,0.0027553769759833813,-0.010247423313558102
0.008545449003577232,-0.0015334526542574167,-0.0033158408477902412,-0.010673290118575096,0.0027987922076135874,-0.01019251812249422
0.008530388586223125,-0.00140961236320436,-0.0025994235184043646,-0.010691343806684017,0.002526665572077036,-0.010143687948584557
0.010158746503293514,-0.0013158232904970646,-0.0024471317883580923,-0.011485758237540722,0.0024171967525035143,-0.010530808940529823
0.0085232462733984,-0.0011394604807719588,-0.0027090399526059628,-0.011698860675096512,0.0024743101093918085,-0.010861105285584927
0.008458701893687248,-0.0010752353118732572,-0.003414212493225932,-0.011287476867437363,0.002932195318862796,-0.010208699852228165
0.00871229451149702,-0.0010104840621352196,-0.003310735570266843,-0.011582445353269577,0.0032001917716115713,-0.009735004976391792
0.009515269659459591,-0.0009100704919546843,-0.002943829633295536,-0.011564590968191624,0.0034107514657080173,-0.009668605402112007
0.00940047949552536,-0.0009043501340784132,-0.0025291263591498137,-0.011399317532777786,0.0032513828482478857,-0.00994578655809164
0.009223740547895432,-0.0008202649769373238,-0.002525526797398925,-0.011486392468214035,0.003040753770619631,-0.009856414049863815
0.009242014028131962,-0.0006980691105127335,-0.003332392079755664,-0.011783711612224579,0.0028415925335139036,-0.01048374641686678
0.009480985812842846,-0.0007232717471197248,-0.0033119507133960724,-0.012030614539980888,0.0027486965991556644,-0.010181519202888012
0.009760558605194092,-0.0007083219243213534,-0.003012997331097722,-0.01150326244533062,0.0026061017997562885,-0.009532216005027294
0.009760558605194092,-0.0007083219243213534,-0.003012997331097722,-0.01150326244533062,0.0026061017997562885,-0.009532216005027294
0.009781288914382458,-0.0006662862142547965,-0.002848137402907014,-0.011760610155761242,0.0029053320176899433,-0.009945537894964218
0.009737726300954819,-0.0006029335781931877,-0.003131444565951824,-0.011757132597267628,0.0034206267446279526,-0.010592534206807613
0.009834013879299164,-0.0005502583226189017,-0.0032792415004223585,-0.011868481524288654,0.0037974792066961527,-0.009953968226909637
0.010657306760549545,-0.0005772805889137089,-0.003611532738432288,-0.012227017432451248,0.0034451009705662727,-0.010385056957602501
0.00989367626607418,-0.0005353109445422888,-0.003260491183027625,-0.01139721181243658,0.003114494727924466,-0.010534293949604034
0.009881100617349148,-0.0004982686950825155,-0.0029127709567546844,-0.01180293783545494,0.002820417517796159,-0.010334320366382599
0.01036620233207941,-0.0004660114645957947,-0.002839387860149145,-0.011931945569813251,0.0029353448189795017,-0.010548210702836514
0.010187080129981041,-0.0003969546814914793,-0.0028988716658204794,-0.01232087705284357,0.0029519700910896063,-0.010165564715862274
0.009520618245005608,-0.0003363358846399933,-0.0038082641549408436,-0.012337415479123592,0.0035111515317112207,-0.010454071685671806
0.007672675885260105,-0.0003129419346805662,-0.0033816033974289894,-0.012738312594592571,0.003437870182096958,-0.010876513086259365
0.007374569773674011,-0.0002925886365119368,-0.003007747232913971,-0.012404234148561954,0.0031270373146981,-0.010497751645743847
0.008677315898239613,-0.00027472327928990126,-0.002987084910273552,-0.012508003041148186,0.003009364241734147,-0.010658440180122852
0.008678232319653034,-0.00025891553377732635,-0.0033375113271176815,-0.012573790736496449,0.002880996325984597,-0.010610897094011307
0.008305721916258335,-0.0002448270679451525,-0.0033161151222884655,-0.012697727419435978,0.0028710435144603252,-0.010589278303086758
0.008790948428213596,-0.00023219244030769914,-0.003148786723613739,-0.012765152379870415,0.0033152038231492043,-0.010754929855465889
0.008141819387674332,-0.00022079990594647825,-0.0028751131612807512,-0.012923495844006538,0.0033949147909879684,-0.010403989814221859
0.008399230428040028,-0.00021047110203653574,-0.0029030567966401577,-0.01346274372190237,0.0032996602822095156,-0.010656359605491161
0.008080817759037018,-0.00020106667943764478,-0.0031141513027250767,-0.013389607891440392,0.0031590615399181843,-0.010476849041879177
0.008602390065789223,-0.00015451255603693426,-0.0034899027086794376,-0.013891692273318768,0.003022038144990802,-0.01041263435035944
0.008519185706973076,-0.00014766455569770187,-0.003255902323871851,-0.014034430496394634,0.0026497456710785627,-0.010444344021379948
0.008302132599055767,-0.00014183972962200642,-0.0030633152928203344,-0.014375788159668446,0.002576047321781516,-0.011034931056201458
0.008900105953216553,-0.0001364629715681076,-0.0029919492080807686,-0.014058961533010006,0.002669005189090967,-0.010743719525635242
0.009204667992889881,-0.00013147882418707013,-0.003101218957453966,-0.014760846272110939,0.0028263514395803213,-0.010680193081498146
0.009213391691446304,-0.00010602318070596084,-0.003407612908631563,-0.014753740280866623,0.0028587186243385077,-0.011217295192182064
0.009477989748120308,0.00014728761743754148,-0.003382126335054636,-0.014701616950333118,0.0032085811253637075,-0.010754412971436977
0.009572863578796387,0.0038153284694999456,-0.0029985231813043356,-0.014069302007555962,0.003623038763180375,-0.010339315980672836
0.009350232779979706,0.003866093000397086,-0.0028043047059327364,-0.014504874125123024,0.003773022210225463,-0.010693004354834557
0.009350232779979706,0.003866093000397086,-0.0028043047059327364,-0.014504874125123024,0.003773022210225463,-0.010693004354834557
0.009475759230554104,0.0024490049108862877,-0.0027242107316851616,-0.014852319844067097,0.003637002781033516,-0.01099233329296112
0.010230183601379395,0.0005985504249110818,-0.003235482843592763,-0.015822192654013634,0.0034804916940629482,-0.01117731910198927
0.010229509323835373,0.00024053351080510765,-0.0036775735206902027,-0.015376374125480652,0.0033500390127301216,-0.011242111213505268
0.009925639256834984,0.0004705358005594462,-0.0033853957429528236,-0.01522117294371128,0.0034735018853098154,-0.011074250563979149
0.010142775252461433,0.0005345468525774777,-0.0028215846978127956,-0.015233248472213745,0.0038799289613962173,-0.01095009408891201
0.010101393796503544,0.0009504317422397435,-0.0027158171869814396,-0.015787368640303612,0.0036362300161272287,-0.011033517308533192
0.010394088923931122,0.002683667466044426,-0.0032641137950122356,-0.016431372612714767,0.0035938089713454247,-0.011248446069657803
0.010152491740882397,0.0017383184749633074,-0.003641559975221753,-0.01677202619612217,0.0031609139405190945,-0.011628953740000725
0.010455642826855183,0.001399601111188531,-0.0030318163335323334,-0.01638070121407509,0.0033961511217057705,-0.011743427254259586
0.01058923825621605,0.0011714601423591375,-0.002668722067028284,-0.01641813851892948,0.0036109420470893383,-0.01181155163794756
0.010265621356666088,0.0008067084709182382,-0.0031616701744496822,-0.016745885834097862,0.0036742917727679014,-0.011483283713459969
0.010433699935674667,0.0009092896361835301,-0.0033239987678825855,-0.016863154247403145,0.003305082907900214,-0.011167224496603012
0.010354934260249138,0.001420461107045412,-0.0035452235024422407,-0.016877802088856697,0.003085518255829811,-0.011308901011943817
0.010806062258780003,0.0017219388391822577,-0.0032422023359686136,-0.01664629578590393,0.0028667140286415815,-0.01157657615840435
0.011068749241530895,0.0016194218769669533,-0.0029587852768599987,-0.0171955656260252,0.0033021538984030485,-0.011285676620900631
0.011013880372047424,0.0016128657152876258,-0.003176216036081314,-0.01716713234782219,0.0032738042064011097,-0.011624777689576149
0.011473719030618668,0.001448430004529655,-0.003761690342798829,-0.017605096101760864,0.004135271534323692,-0.011142125353217125
0.011246989481151104,0.001344208256341517,-0.003550564404577017,-0.017924537882208824,0.004532624501734972,-0.011522550135850906
0.010799430310726166,0.001103234477341175,-0.0031831904780119658,-0.01796150393784046,0.004322946071624756,-0.011623615399003029
0.011315678246319294,0.0011742549249902368,-0.0032366218511015177,-0.01842547208070755,0.004075116943567991,-0.011769047006964684
0.01133085135370493,0.00116473447997123,-0.0030184388160705566,-0.018464934080839157,0.003578773932531476,-0.01217710878700018
0.011127550154924393,0.0012778227683156729,-0.0034840209409594536,-0.018385739997029305,0.0039721266366541386,-0.01176905632019043
0.011385351419448853,0.001357703353278339,-0.004167604725807905,-0.01908666454255581,0.004236137494444847,-0.011826288886368275
0.011385536752641201,0.0013171532191336155,-0.0034267043229192495,-0.018979772925376892,0.004544761963188648,-0.012121567502617836
0.011270493268966675,0.001905422075651586,-0.003146493574604392,-0.018588637933135033,0.00447852723300457,-0.012038473039865494
0.011113414540886879,0.002952753799036145,-0.0034335895907133818,-0.0194386038929224,0.004444149788469076,-0.01201240811496973
0.011113414540886879,0.002952753799036145,-0.0034335895907133818,-0.0194386038929224,0.004444149788469076,-0.01201240811496973
0.010882952250540257,0.0031060739420354366,-0.0037828676868230104,-0.019993260502815247,0.0041814870201051235,-0.011886789463460445
0.011978907510638237,0.0028731690254062414,-0.0038368445821106434,-0.019595099613070488,0.0035575481597334146,-0.01224884670227766
0.011452780105173588,0.0028008895460516214,-0.003345917910337448,-0.020133357495069504,0.003558461321517825,-0.01197851076722145
0.01160415168851614,0.0025998023338615894,-0.003527268534526229,-0.02017420157790184,0.0038141526747494936,-0.012059468775987625
0.011459937319159508,0.0030633353162556887,-0.0033929715864360332,-0.02009158581495285,0.003922431729733944,-0.012178230099380016
0.011019275523722172,0.003024847712367773,-0.003525352803990245,-0.01995638757944107,0.003821874503046274,-0.01177725475281477
0.011627872474491596,0.0032694663386791945,-0.004087917506694794,-0.020776012912392616,0.003697793697938323,-0.01208260003477335
0.011512312106788158,0.003482947824522853,-0.00420949375256896,-0.02046646550297737,0.003616622183471918,-0.012459859251976013
0.01219364907592535,0.0037384144961833954,-0.0034487589728087187,-0.02072356455028057,0.0040242671966552734,-0.012557519599795341
0.01151955034583807,0.003849070519208908,-0.003758095670491457,-0.02095884457230568,0.004514682572335005,-0.012179369106888771
0.011921501718461514,0.004311784170567989,-0.004027935676276684,-0.021833447739481926,0.004763876087963581,-0.012414472177624702
0.011793813668191433,0.004670970141887665,-0.003986856900155544,-0.021984824910759926,0.0045944200828671455,-0.012526040896773338
0.012096798978745937,0.0047245086170732975,-0.0034378713462501764,-0.021331803873181343,0.004389184061437845,-0.012762392871081829
0.011841094121336937,0.004722958896309137,-0.0032617507968097925,-0.02133749984204769,0.004017445724457502,-0.01266502495855093
0.011613723821938038,0.004715956747531891,-0.0034690811298787594,-0.02082347311079502,0.0038218775298446417,-0.012575548142194748
0.012124693021178246,0.004682136233896017,-0.003762440523132682,-0.021186402067542076,0.003887761849910021,-0.012309329584240913
0.012299563735723495,0.004980012774467468,-0.003798423334956169,-0.02233157306909561,0.004242595285177231,-0.01226256974041462
0.011989903636276722,0.005032270215451717,-0.003659709356725216,-0.022730093449354172,0.004387198481708765,-0.012798835523426533
0.012111110612750053,0.005203865468502045,-0.003602320561185479,-0.022073477506637573,0.00456498796120286,-0.012548682279884815
0.012595688924193382,0.005421261768788099,-0.0036933068186044693,-0.0217793807387352,0.004189110826700926,-0.01291407085955143
0.012463614344596863,0.0054999771527945995,-0.0037526872474700212,-0.022453902289271355,0.0038521401584148407,-0.012499085627496243
0.012185482308268547,0.005245036445558071,-0.0036219744943082333,-0.023434190079569817,0.0037737255915999413,-0.012549754232168198
0.01230322290211916,0.005772455595433712,-0.0035427631810307503,-0.022401956841349602,0.004239775240421295,-0.012456623837351799
0.012622577138245106,0.0062374547123909,-0.003751155687496066,-0.021524658426642418,0.0046694958582520485,-0.012197626754641533
0.012622577138245106,0.0062374547123909,-0.003751155687496066,-0.021524658426642418,0.0046694958582520485,-0.012197626754641533
0.012441135942935944,0.005868412554264069,-0.003992991056293249,-0.022179851308465004,0.00467782374471426,-0.012272999621927738
0.013085448183119297,0.00619157962501049,-0.004051344469189644,-0.023333054035902023,0.004381801001727581,-0.012675497680902481
0.012483412399888039,0.00673430971801281,-0.004381735343486071,-0.023007752373814583,0.0044054617173969746,-0.012425861321389675
0.012318351306021214,0.007224359083920717,-0.004115946590900421,-0.022621121257543564,0.004550336394459009,-0.012960690073668957
0.012318351306021214,0.007224359083920717,-0.004115946590900421,-0.022621121257543564,0.004550336394459009,-0.012960690073668957
0.013002575375139713,0.0071564530953764915,-0.003991888370364904,-0.023456964641809464,0.004786754958331585,-0.012682720087468624
0.013281936757266521,0.007315207738429308,-0.004463213961571455,-0.02389243058860302,0.0044355993159115314,-0.01297942828387022
0.013281936757266521,0.007315207738429308,-0.004463213961571455,-0.02389243058860302,0.0044355993159115314,-0.01297942828387022
0.012447342276573181,0.007424513343721628,-0.0046728746965527534,-0.023256434127688408,0.004276759922504425,-0.012730778194963932
0.013028142042458057,0.008248956874012947,-0.0044182706624269485,-0.023607220500707626,0.004878681618720293,-0.013169941492378712
0.0133633092045784,0.007906565442681313,-0.004042843822389841,-0.024074794724583626,0.004563532304018736,-0.012628385797142982
0.013788877986371517,0.007667064666748047,-0.004228477831929922,-0.025248603895306587,0.00412933761253953,-0.012712658382952213
0.013842694461345673,0.008601079694926739,-0.004869563039392233,-0.025440720841288567,0.004205782897770405,-0.012947303242981434
0.014021571725606918,0.007927033118903637,-0.004430851899087429,-0.025356154888868332,0.00459849089384079,-0.013170530088245869
0.013711204752326012,0.007451069075614214,-0.003962621092796326,-0.02564748376607895,0.00473393639549613,-0.013554511591792107
0.014207972213625908,0.008780076168477535,-0.004323962144553661,-0.026254046708345413,0.00477957259863615,-0.013384826481342316
0.01391525287181139,0.008351135067641735,-0.004592100623995066,-0.026304807513952255,0.004373014904558659,-0.01306256651878357
0.014220154844224453,0.008246058598160744,-0.004794482607394457,-0.026133866980671883,0.004152817185968161,-0.013409812934696674
0.014238829724490643,0.008661269210278988,-0.004277906846255064,-0.02574758231639862,0.004549212753772736,-0.013445394113659859
0.014477063901722431,0.008723706007003784,-0.003962627146393061,-0.0257045216858387,0.005145499017089605,-0.013682957738637924
0.014165407046675682,0.008108383044600487,-0.003871524939313531,-0.02666732855141163,0.004963708575814962,-0.013548914343118668
0.014663021080195904,0.008186854422092438,-0.004370851442217827,-0.027221839874982834,0.004908987786620855,-0.013419382274150848
0.014571663923561573,0.00904027745127678,-0.0049195922911167145,-0.02752062864601612,0.004925308749079704,-0.013724680989980698
0.014502034522593021,0.008757445029914379,-0.00478496216237545,-0.027503637596964836,0.004800079856067896,-0.014073756523430347
0.014209967106580734,0.009500041604042053,-0.004073513206094503,-0.027735630050301552,0.004707289859652519,-0.013935447670519352
0.01509406790137291,0.008799088187515736,-0.0036216650623828173,-0.027033647522330284,0.004669114015996456,-0.01417908538132906
0.014631695114076138,0.009868107736110687,-0.0037110247649252415,-0.02610355243086815,0.00463092839345336,-0.014215094037353992
0.014712181873619556,0.009490879252552986,-0.004631292540580034,-0.02653813548386097,0.004691300448030233,-0.014071587473154068
0.014648137614130974,0.00918399915099144,-0.005008333828300238,-0.027690261602401733,0.004732837900519371,-0.013819103129208088
0.01534277107566595,0.009887642227113247,-0.004819442052394152,-0.02732853777706623,0.0049499874003231525,-0.014368035830557346
0.014841423369944096,0.009185263887047768,-0.004281830042600632,-0.02669278159737587,0.004488364327698946,-0.014460155740380287
0.014858664013445377,0.009169003926217556,-0.003964023198932409,-0.02706749178469181,0.004393321927636862,-0.014332372695207596
0.014907542616128922,0.010167964734137058,-0.004250288009643555,-0.027439584955573082,0.004204555414617062,-0.014245651662349701
0.014918449334800243,0.010286961682140827,-0.00471892487257719,-0.027979232370853424,0.004941367078572512,-0.014496657066047192
0.014918449334800243,0.010286961682140827,-0.00471892487257719,-0.027979232370853424,0.004941367078572512,-0.014496657066047192
0.014966131187975407,0.009765369817614555,-0.004748980514705181,-0.0282245185226202,0.005410814192146063,-0.013665196485817432
0.015102025121450424,0.009873902425169945,-0.0041863988153636456,-0.02776016667485237,0.005248016677796841,-0.013736387714743614
0.015256386250257492,0.0100681371986866,-0.004415843635797501,-0.028339307755231857,0.004818832501769066,-0.013714896515011787
0.015055342577397823,0.01026852335780859,-0.004646375775337219,-0.028612373396754265,0.004605634603649378,-0.013564590364694595
0.015424671582877636,0.011074086651206017,-0.004922719672322273,-0.02914862148463726,0.004614457953721285,-0.014005030505359173
0.015329007059335709,0.010559026151895523,-0.004742044489830732,-0.030535070225596428,0.005283445585519075,-0.014653156511485577
0.015441778115928173,0.010731426067650318,-0.00464644655585289,-0.029138408601284027,0.005817860830575228,-0.014795348979532719
0.015315775759518147,0.011346084997057915,-0.004500857088714838,-0.029141228646039963,0.005353391636162996,-0.014602170325815678
0.01541287824511528,0.011077537201344967,-0.005398934241384268,-0.0303387101739645,0.004988555796444416,-0.01429265458136797
0.016048025339841843,0.010983506217598915,-0.004981330130249262,-0.03035910800099373,0.0052494267001748085,-0.014364128932356834
0.01613558456301689,0.009930770844221115,-0.004674759693443775,-0.030113447457551956,0.005472095683217049,-0.014320718124508858
0.01605861820280552,0.010624012909829617,-0.004272236954420805,-0.030467282980680466,0.006015006918460131,-0.01460728794336319
0.016531435772776604,0.010724561288952827,-0.004537638276815414,-0.030712641775608063,0.005737077910453081,-0.014847932383418083
0.015520776621997356,0.010749575681984425,-0.004669708665460348,-0.0307401642203331,0.004588930401951075,-0.014365879818797112
0.016345921903848648,0.010966959409415722,-0.005131218582391739,-0.030384384095668793,0.00408856151625514,-0.014531678520143032
0.015787193551659584,0.010891326703131199,-0.004919653292745352,-0.03054075874388218,0.0042225634679198265,-0.01451290212571621
0.01610741950571537,0.011335332877933979,-0.004761125892400742,-0.030462458729743958,0.0048506292514503,-0.014893976971507072
0.015599312260746956,0.011125704273581505,-0.0043565272353589535,-0.030491812154650688,0.005456979852169752,-0.014733715914189816
0.016118373721837997,0.010707665234804153,-0.00458028819411993,-0.030041057616472244,0.005477664526551962,-0.014818022958934307
0.016036255285143852,0.01147924829274416,-0.005097824614495039,-0.030525924637913704,0.0051183984614908695,-0.014639254659414291
0.016617409884929657,0.011187358759343624,-0.005226231645792723,-0.030361831188201904,0.005068233702331781,-0.015183230862021446
0.016608422622084618,0.011777132749557495,-0.004950379952788353,-0.030082739889621735,0.005096661392599344,-0.015130347572267056
0.015632301568984985,0.011976180598139763,-0.0047663855366408825,-0.03001139871776104,0.005301020108163357,-0.015502285212278366
0.016440141946077347,0.011323172599077225,-0.004740517120808363,-0.03030281513929367,0.0054354253225028515,-0.015425571240484715
0.016367850825190544,0.011811765842139721,-0.005321732722222805,-0.030771417543292046,0.00510549359023571,-0.015417486429214478
0.017255224287509918,0.011278882622718811,-0.005503826774656773,-0.030375665053725243,0.004898904822766781,-0.015071739442646503
0.016824262216687202,0.011553317308425903,-0.004943178966641426,-0.0307279285043478,0.005072279833257198,-0.01573961041867733
0.017078399658203125,0.012201674282550812,-0.0048868958838284016,-0.03159284219145775,0.005132564343512058,-0.015015744604170322
0.017724178731441498,0.011413333006203175,-0.004903317894786596,-0.032134633511304855,0.005706130061298609,-0.015286601148545742
0.017724178731441498,0.011413333006203175,-0.004903317894786596,-0.032134633511304855,0.005706130061298609,-0.015286601148545742
0.016266249120235443,0.011845686472952366,-0.005169663578271866,-0.03234311193227768,0.00576876662671566,-0.015198629349470139
0.01678531803190708,0.011554624885320663,-0.005611035972833633,-0.03145455941557884,0.006135362200438976,-0.015193245373666286
0.01711852476000786,0.011800558306276798,-0.00511577632278204,-0.032187238335609436,0.006078618578612804,-0.01532647293061018
0.01717488467693329,0.011603020131587982,-0.004812635015696287,-0.032716214656829834,0.006048376206308603,-0.015497450716793537
0.017794735729694366,0.011788257397711277,-0.005522049963474274,-0.03243251517415047,0.006445813924074173,-0.015355817042291164
0.01736007258296013,0.012113424018025398,-0.005346996244043112,-0.033319029957056046,0.006039559841156006,-0.015379242599010468
0.017572227865457535,0.01125676091760397,-0.005068037658929825,-0.033505894243717194,0.005886148661375046,-0.015694811940193176
0.016984665766358376,0.012081904336810112,-0.005331294145435095,-0.03221803903579712,0.006014383863657713,-0.015892602503299713
0.017480777576565742,0.01140597928315401,-0.005018186289817095,-0.031656935811042786,0.005433983169496059,-0.016110293567180634
0.01739557832479477,0.011882963590323925,-0.005390867590904236,-0.034202076494693756,0.0056228190660476685,-0.01601277105510235
0.01821957901120186,0.011665618047118187,-0.005402547772973776,-0.034136489033699036,0.005593417678028345,-0.015700262039899826
0.01761743798851967,0.011487285606563091,-0.005529084242880344,-0.03372238948941231,0.0055779325775802135,-0.015563650988042355
0.017680054530501366,0.011743558570742607,-0.005264698062092066,-0.03493382781744003,0.005398398730903864,-0.01536405086517334
0.017891574651002884,0.011720086447894573,-0.00527626508846879,-0.034732114523649216,0.0050754486583173275,-0.015519066713750362
0.017556481063365936,0.01226112898439169,-0.005108524113893509,-0.034323640167713165,0.00520081864669919,-0.015552112832665443
0.018400367349386215,0.011804522946476936,-0.005393011961132288,-0.03471953794360161,0.0055929869413375854,-0.015754196792840958
0.018352536484599113,0.012209555134177208,-0.005566014908254147,-0.03493957594037056,0.005779530853033066,-0.01634182408452034
0.017973031848669052,0.012290234677493572,-0.0053825960494577885,-0.036093324422836304,0.006063258741050959,-0.016474267467856407
0.018438076600432396,0.012040187604725361,-0.0054142954759299755,-0.03551841154694557,0.005658088251948357,-0.01614701934158802
0.018121348693966866,0.012010626494884491,-0.005404189694672823,-0.03648722171783447,0.005669591017067432,-0.016009418293833733
0.018158048391342163,0.012269924394786358,-0.00581723265349865,-0.03581138700246811,0.0054692537523806095,-0.016302887350320816
0.01856301724910736,0.01239335909485817,-0.0053942385129630566,-0.035033319145441055,0.006041802000254393,-0.016275595873594284
0.018340354785323143,0.012394675984978676,-0.005321526434272528,-0.034573860466480255,0.0063143400475382805,-0.016678337007761
0.018323350697755814,0.012658308260142803,-0.005081320647150278,-0.03555959835648537,0.006323111709207296,-0.016602814197540283
0.01835716888308525,0.012505397200584412,-0.005117957945913076,-0.03591529279947281,0.006029676645994186,-0.015750467777252197
0.018401579931378365,0.012254039756953716,-0.005580974277108908,-0.03692276403307915,0.005556290503591299,-0.015759987756609917
0.018878761678934097,0.012680248357355595,-0.005550859495997429,-0.03846227005124092,0.005704381037503481,-0.015709683299064636
0.018878761678934097,0.012680248357355595,-0.005550859495997429,-0.03846227005124092,0.005704381037503481,-0.015709683299064636
0.01846589520573616,0.01318941731005907,-0.004801936447620392,-0.035787276923656464,0.005996190011501312,-0.0159639623016119
0.01846589520573616,0.01318941731005907,-0.004801936447620392,-0.035787276923656464,0.005996190011501312,-0.0159639623016119
0.018868453800678253,0.012635454535484314,-0.004712546244263649,-0.03699198365211487,0.005633878987282515,-0.016215648502111435
0.018816685304045677,0.012932874262332916,-0.005035634618252516,-0.03792871534824371,0.005190328694880009,-0.01622699946165085
0.0188085176050663,0.012623816728591919,-0.005591369699686766,-0.038158394396305084,0.005417928099632263,-0.016366517171263695
0.019372984766960144,0.012819081544876099,-0.005348564591258764,-0.03855803236365318,0.005742069333791733,-0.01653761975467205
0.019358450546860695,0.013050111010670662,-0.004914657678455114,-0.038066565990448,0.006126503460109234,-0.01740662381052971
0.01937848888337612,0.012746788561344147,-0.004740850534290075,-0.03884631395339966,0.005770769901573658,-0.015875082463026047
0.019296053797006607,0.012527991086244583,-0.005392919760197401,-0.03823141008615494,0.005500230472534895,-0.016434241086244583
0.018870657309889793,0.012992429547011852,-0.005541864782571793,-0.03816196694970131,0.005851543974131346,-0.016530010849237442
0.019665665924549103,0.013037853874266148,-0.00545653747394681,-0.03849315643310547,0.006019826978445053,-0.01649806834757328
0.020210860297083855,0.013452385552227497,-0.004632658325135708,-0.03786778077483177,0.006051830947399139,-0.016599228605628014
0.019378112629055977,0.013465622439980507,-0.004461114294826984,-0.03735555335879326,0.005350801162421703,-0.016485756263136864
0.019689898937940598,0.013977338559925556,-0.005254646763205528,-0.038432713598012924,0.00579733494669199,-0.01703645847737789
0.01932718977332115,0.013754522427916527,-0.005425055045634508,-0.038609713315963745,0.005999161396175623,-0.016788458451628685
0.01949351280927658,0.013269343413412571,-0.005815220531076193,-0.037472739815711975,0.005928398575633764,-0.016947219148278236
0.020136650651693344,0.013329223729670048,-0.005133055150508881,-0.03787083178758621,0.006179709453135729,-0.016664834693074226
0.020057935267686844,0.013610481284558773,-0.004574546590447426,-0.039055872708559036,0.006030273158103228,-0.017003145068883896
0.01997724361717701,0.013537690974771976,-0.004877074155956507,-0.03817102685570717,0.006055866368114948,-0.01718285121023655
0.019519822672009468,0.013242840766906738,-0.0053809573873877525,-0.0377710722386837,0.005827339366078377,-0.016982389613986015
0.0200883187353611,0.013960358686745167,-0.006165407132357359,-0.038623709231615067,0.005984163377434015,-0.01689019612967968
0.020345253869891167,0.01363344956189394,-0.005543596111238003,-0.03846288099884987,0.0061339400708675385,-0.017227035015821457
0.020364826545119286,0.01358981803059578,-0.004429386928677559,-0.03846362605690956,0.005539536476135254,-0.017612790688872337
0.020331544801592827,0.013773899525403976,-0.004336922895163298,-0.03939196094870567,0.005903920158743858,-0.01737028732895851
0.020628605037927628,0.01444309763610363,-0.00519406097009778,-0.039133694022893906,0.0059980954974889755,-0.016824990510940552
0.020119111984968185,0.014093266800045967,-0.0052786050364375114,-0.03965643048286438,0.006106690503656864,-0.0173116996884346
0.020208509638905525,0.01509182434529066,-0.005740940570831299,-0.04172695428133011,0.006376875564455986,-0.017373865470290184
0.020281130447983742,0.01418916042894125,-0.005157490260899067,-0.04131292551755905,0.006289701443165541,-0.01701315864920616
0.02062653750181198,0.014657202176749706,-0.0043612075969576836,-0.03906376287341118,0.00653098663315177,-0.017204420641064644
0.02062653750181198,0.014657202176749706,-0.0043612075969576836,-0.03906376287341118,0.00653098663315177,-0.017204420641064644
0.01909720152616501,0.014241729862987995,-0.005056954920291901,-0.040261827409267426,0.006879384163767099,-0.017385510727763176
0.021011650562286377,0.014956748113036156,-0.005491919815540314,-0.04113027825951576,0.0066518415696918964,-0.017491653561592102
0.020686933770775795,0.014213088899850845,-0.005092315375804901,-0.04229361563920975,0.006505934521555901,-0.017650408670306206
0.020367121323943138,0.014733748510479927,-0.00543618481606245,-0.04224514588713646,0.006548172328621149,-0.017653878778219223
0.020631421357393265,0.014432515017688274,-0.005131875164806843,-0.0408625565469265,0.006642740685492754,-0.017662936821579933
0.02077658846974373,0.015137141570448875,-0.005281132645905018,-0.04082794860005379,0.0066566490568220615,-0.017562255263328552
0.020560968667268753,0.015149260871112347,-0.0051038977690041065,-0.041686881333589554,0.006150154396891594,-0.018011394888162613
0.02123481035232544,0.015099048614501953,-0.004995334427803755,-0.041998304426670074,0.006485148333013058,-0.018349459394812584
0.02139708586037159,0.015130789019167423,-0.00530505646020174,-0.04338615760207176,0.006588590797036886,-0.017358830198645592
0.02153623476624489,0.01512578409165144,-0.005212830845266581,-0.04219753295183182,0.007016658317297697,-0.017543306574225426
0.021640576422214508,0.014969286508858204,-0.005259505473077297,-0.04176779091358185,0.006520004477351904,-0.017809530720114708
0.022067036479711533,0.0153157664462924,-0.0053366185165941715,-0.04295792803168297,0.006359385792165995,-0.01832103729248047
0.02188440039753914,0.015474116429686546,-0.0050849514082074165,-0.04299044981598854,0.006399872712790966,-0.018308745697140694
0.021902749314904213,0.015850495547056198,-0.005398257169872522,-0.04358430951833725,0.006124057341367006,-0.01820925436913967
0.02175649255514145,0.015294235199689865,-0.005271447356790304,-0.043307144194841385,0.0062693143263459206,-0.017930462956428528
0.021920183673501015,0.016002679243683815,-0.005708748009055853,-0.04472486674785614,0.006748687941581011,-0.017620272934436798
0.022146718576550484,0.01571062207221985,-0.005361700430512428,-0.04495321586728096,0.006855236832052469,-0.018344754353165627
0.02232362888753414,0.01617853157222271,-0.0053421915508806705,-0.04291045293211937,0.006823719944804907,-0.018319759517908096
0.022118790075182915,0.01570078358054161,-0.005054383538663387,-0.04256834462285042,0.006738528609275818,-0.01857972890138626
0.022278910502791405,0.016390914097428322,-0.005493305157870054,-0.043301016092300415,0.0067626661621034145,-0.018612250685691833
0.022210272029042244,0.016182104125618935,-0.005719436332583427,-0.04447495937347412,0.006595066282898188,-0.01838049106299877
0.022495171055197716,0.016296686604619026,-0.005503394640982151,-0.045004911720752716,0.006668062414973974,-0.01829565316438675
0.022205963730812073,0.01693987101316452,-0.005500396713614464,-0.04258618876338005,0.007143361959606409,-0.018638240173459053
0.022556938230991364,0.016622047871351242,-0.005100444424897432,-0.04338657110929489,0.007426906377077103,-0.019040105864405632
0.022653499618172646,0.017254479229450226,-0.005153228063136339,-0.043704524636268616,0.007442532107234001,-0.019272983074188232
0.02246469259262085,0.0168019849807024,-0.005561307072639465,-0.04417090862989426,0.006643723230808973,-0.019433019682765007
0.02249213494360447,0.017022443935275078,-0.006088949274271727,-0.045274823904037476,0.006491441745311022,-0.01899007335305214
0.02249213494360447,0.017022443935275078,-0.006088949274271727,-0.045274823904037476,0.006491441745311022,-0.01899007335305214
0.02220253460109234,0.01729385182261467,-0.005544848740100861,-0.043988846242427826,0.006890296936035156,-0.018745604902505875
0.022580618038773537,0.01748163439333439,-0.0050688558258116245,-0.044054966419935226,0.006849225144833326,-0.018018383532762527
0.02276257984340191,0.017172399908304214,-0.005828437395393848,-0.04405554383993149,0.006473470013588667,-0.018561480566859245
0.023030981421470642,0.017380133271217346,-0.005787234287708998,-0.04442126303911209,0.007047851569950581,-0.018719643354415894
0.023030981421470642,0.017380133271217346,-0.005787234287708998,-0.04442126303911209,0.007047851569950581,-0.018719643354415894
0.02283625863492489,0.01749938540160656,-0.005670307669788599,-0.0443173348903656,0.007533592637628317,-0.019596150144934654
0.0230488833039999,0.017043475061655045,-0.005176330450922251,-0.044138554483652115,0.007044163066893816,-0.01924731582403183
0.02280108444392681,0.01747256889939308,-0.005715072620660067,-0.04470891132950783,0.006770184729248285,-0.01890198513865471
0.022930515930056572,0.01771712116897106,-0.006780275143682957,-0.04529578611254692,0.007323593366891146,-0.019202861934900284
0.02305186353623867,0.018084857612848282,-0.006613001227378845,-0.045147430151700974,0.007444013841450214,-0.01953308656811714
0.0227358341217041,0.017619479447603226,-0.006007514428347349,-0.04543421417474747,0.0074433512054383755,-0.019081320613622665
0.023418322205543518,0.01791919581592083,-0.005729550030082464,-0.04579545930027962,0.0070366221480071545,-0.01890111155807972
0.0238982904702425,0.017991894856095314,-0.006000741384923458,-0.04673421010375023,0.007460671942681074,-0.01850881054997444
0.0235219094902277,0.017709016799926758,-0.006334963254630566,-0.04675614833831787,0.007103348150849342,-0.018731892108917236
0.023627115413546562,0.01813865825533867,-0.006695945747196674,-0.046189967542886734,0.006841353140771389,-0.01912163756787777
0.02357032522559166,0.01786145754158497,-0.00646790349856019,-0.048394739627838135,0.006565157789736986,-0.019074494019150734
0.02326139062643051,0.01851833425462246,-0.005937720183283091,-0.04669753462076187,0.006750856526196003,-0.018889203667640686
0.023352259770035744,0.019471757113933563,-0.006419512443244457,-0.04488900676369667,0.007323596626520157,-0.019030041992664337
0.02437925525009632,0.018731921911239624,-0.006627346388995647,-0.04687761515378952,0.007462656125426292,-0.018790310248732567
0.023877348750829697,0.018422182649374008,-0.006193690933287144,-0.047596368938684464,0.007065043784677982,-0.018678806722164154
0.023862630128860474,0.018239106982946396,-0.006251990329474211,-0.0495990626513958,0.007204212713986635,-0.01897401548922062
0.02421252243220806,0.01796598918735981,-0.006244909483939409,-0.04767101630568504,0.006861445493996143,-0.01918572187423706
0.024784676730632782,0.018716340884566307,-0.006141387391835451,-0.04663614183664322,0.006839869078248739,-0.019018713384866714
0.024665482342243195,0.01919761300086975,-0.0060419123619794846,-0.04898657649755478,0.006836217362433672,-0.019088074564933777
0.024549730122089386,0.019067056477069855,-0.006337229628115892,-0.049300242215394974,0.007183327339589596,-0.019371258094906807
0.024587301537394524,0.018651768565177917,-0.006262378301471472,-0.04897954314947128,0.007383914198726416,-0.019322451204061508
0.02454935386776924,0.018659573048353195,-0.00628221919760108,-0.048405759036540985,0.007064545061439276,-0.019459115341305733
0.024773217737674713,0.019191963598132133,-0.006253223400563002,-0.04888555407524109,0.007181044667959213,-0.01946781575679779
0.02538657747209072,0.019982878118753433,-0.0058580725453794,-0.04920203238725662,0.007471740711480379,-0.019278166815638542
0.025405604392290115,0.019840655848383904,-0.006115367636084557,-0.048501256853342056,0.007477894891053438,-0.018965471535921097
0.025347167626023293,0.019323598593473434,-0.0065213642083108425,-0.04960828647017479,0.007372680120170116,-0.019174542278051376
0.02551261894404888,0.01957206428050995,-0.006414942443370819,-0.049022216349840164,0.00751128513365984,-0.01983395591378212
0.02551261894404888,0.01957206428050995,-0.006414942443370819,-0.049022216349840164,0.00751128513365984,-0.01983395591378212
0.025713296607136726,0.019841793924570084,-0.006261968519538641,-0.04854306951165199,0.007429230492562056,-0.021486761048436165
0.025289369747042656,0.01975349895656109,-0.005549378227442503,-0.04957688972353935,0.0072701177559792995,-0.018802547827363014
0.02542904019355774,0.020493250340223312,-0.006403638981282711,-0.04757975414395332,0.007003301288932562,-0.019295277073979378
0.02598702721297741,0.02185850404202938,-0.006854391191154718,-0.04852338880300522,0.007149754092097282,-0.019852491095662117
0.0262095108628273,0.019595790654420853,-0.0065622469410300255,-0.0495244599878788,0.007473645731806755,-0.020435165613889694
0.026423761621117592,0.020153610035777092,-0.005923392716795206,-0.05068426951766014,0.008006990887224674,-0.02052062191069126
0.02635689452290535,0.02036217972636223,-0.006165389437228441,-0.04795520007610321,0.007756936829537153,-0.019972635433077812
0.02660849504172802,0.020030278712511063,-0.006044437177479267,-0.04803059995174408,0.007569975685328245,-0.01940547674894333
0.02630077488720417,0.020678605884313583,-0.006737272255122662,-0.049422070384025574,0.007653006352484226,-0.018847957253456116
0.026804648339748383,0.020896267145872116,-0.006777273956686258,-0.04982024431228638,0.008488504216074944,-0.019288551062345505
0.027726665139198303,0.020374245941638947,-0.00596638722345233,-0.049149975180625916,0.007202847395092249,-0.019513852894306183
0.026801129803061485,0.02050737291574478,-0.005815848242491484,-0.048947323113679886,0.0070740897208452225,-0.01988450065255165
0.0264214389026165,0.020921943709254265,-0.006668807473033667,-0.05033280700445175,0.007651301100850105,-0.019837044179439545
0.024337422102689743,0.020501572638750076,-0.006915892008692026,-0.04914647340774536,0.0077753327786922455,-0.019424768164753914
0.02693457342684269,0.019861893728375435,-0.006276790983974934,-0.0493459515273571,0.007766901981085539,-0.019552847370505333
0.027509387582540512,0.02064736746251583,-0.0061223614029586315,-0.04958382248878479,0.0077805956825613976,-0.020112786442041397
0.026616062968969345,0.02123439498245716,-0.0064405715093016624,-0.04993551969528198,0.007767258677631617,-0.020552467554807663
0.027470238506793976,0.020481770858168602,-0.007470507640391588,-0.05038459599018097,0.007641435135155916,-0.01988545060157776
0.027629833668470383,0.02082463726401329,-0.006808874662965536,-0.050751980394124985,0.007234896533191204,-0.01984604075551033
0.02787526324391365,0.021285923197865486,-0.006265787873417139,-0.05121443420648575,0.007092047482728958,-0.019479136914014816
0.02758169174194336,0.021042007952928543,-0.006035273429006338,-0.05089616775512695,0.007901989854872227,-0.019848240539431572
0.02680741623044014,0.021124055609107018,-0.006060563027858734,-0.05093846470117569,0.0079245176166296,-0.020106157287955284
0.02680741623044014,0.021124055609107018,-0.006060563027858734,-0.05093846470117569,0.0079245176166296,-0.020106157287955284
0.027084989473223686,0.021221475675702095,-0.006806666497141123,-0.05138677731156349,0.007675666827708483,-0.020314542576670647
0.02814428135752678,0.021599283441901207,-0.006681083235889673,-0.051283009350299835,0.007571916561573744,-0.020314471796154976
0.028226615861058235,0.02091836743056774,-0.0068031195551157,-0.05346817523241043,0.007686778903007507,-0.02047637663781643
0.0280451700091362,0.02146518975496292,-0.006664362736046314,-0.052036456763744354,0.008112668991088867,-0.019901782274246216
0.028007512912154198,0.021832676604390144,-0.0076313866302371025,-0.05169861018657684,0.007865541614592075,-0.0200717244297266
0.028055263683199883,0.021757835522294044,-0.006870003417134285,-0.05231378600001335,0.00787833146750927,-0.020284034311771393
0.027911078184843063,0.02139115519821644,-0.006830839440226555,-0.05181347206234932,0.007674866355955601,-0.020442361012101173
0.027780476957559586,0.021684732288122177,-0.007111307233572006,-0.05095759406685829,0.0077936830930411816,-0.020350176841020584
0.02819923125207424,0.02224491350352764,-0.007040759082883596,-0.05316006392240524,0.007622565142810345,-0.02056352235376835
0.028217202052474022,0.02157776989042759,-0.006685966160148382,-0.05286213383078575,0.008024947717785835,-0.020833738148212433
0.02866109274327755,0.021588031202554703,-0.006803474854677916,-0.05296673625707626,0.007692726328969002,-0.021080734208226204
0.02860521525144577,0.021292563527822495,-0.006743503734469414,-0.05274549871683121,0.00804200116544962,-0.021101918071508408
0.028009332716464996,0.021758735179901123,-0.007221144158393145,-0.05331141874194145,0.007748122792690992,-0.020997803658246994
0.02838214486837387,0.022229028865695,-0.007033298723399639,-0.053214166313409805,0.00784253142774105,-0.020942557603120804
0.027876878157258034,0.022226279601454735,-0.006996022071689367,-0.05251502990722656,0.007618898060172796,-0.020965229719877243
0.02803957089781761,0.022506996989250183,-0.006842931732535362,-0.0522925965487957,0.007565475534647703,-0.02129051461815834
0.028666336089372635,0.021987775340676308,-0.007967475801706314,-0.05252958461642265,0.007945174351334572,-0.021258434280753136
0.028300287202000618,0.02178252302110195,-0.0072370474226772785,-0.05202701315283775,0.008202116005122662,-0.020870907232165337
0.028123538941144943,0.021756699308753014,-0.007286843843758106,-0.052973151206970215,0.007777353748679161,-0.020698990672826767
0.028560765087604523,0.02230343036353588,-0.006796659901738167,-0.053111761808395386,0.008201256394386292,-0.021335497498512268
0.028559286147356033,0.022304056212306023,-0.007040257565677166,-0.05068111792206764,0.008124028332531452,-0.021442824974656105
0.028478121384978294,0.022321384400129318,-0.008156994357705116,-0.05234365165233612,0.007950163446366787,-0.020872091874480247
0.028717953711748123,0.022233368828892708,-0.007035530637949705,-0.05302584171295166,0.007613165769726038,-0.021180469542741776
0.028822220861911774,0.02301163040101528,-0.006467494647949934,-0.054804857820272446,0.007915457710623741,-0.02157497964799404
0.028816046193242073,0.022070031613111496,-0.007049506064504385,-0.052493464201688766,0.00796592142432928,-0.021484486758708954
0.028816046193242073,0.022070031613111496,-0.007049506064504385,-0.052493464201688766,0.00796592142432928,-0.021484486758708954
0.02864878997206688,0.02288326621055603,-0.007714262697845697,-0.05427498370409012,0.008082232438027859,-0.02064438909292221
0.02952031046152115,0.02238512597978115,-0.0070068854838609695,-0.05530066415667534,0.008177384734153748,-0.021473687142133713
0.02988795004785061,0.021862415596842766,-0.006586878560483456,-0.05529599264264107,0.008232486434280872,-0.02174369804561138
0.029709797352552414,0.022694554179906845,-0.006781599950045347,-0.05501503869891167,0.008315321058034897,-0.021558918058872223
0.02934211865067482,0.023667076602578163,-0.007539994083344936,-0.05538938194513321,0.008604511618614197,-0.021564794704318047
0.028317565098404884,0.023824380710721016,-0.007335648871958256,-0.05583692342042923,0.008140158839523792,-0.021511977538466454
0.029618296772241592,0.023506712168455124,-0.0072340043261647224,-0.056165676563978195,0.008555389009416103,-0.02188112400472164
0.030061660334467888,0.023248620331287384,-0.007280032616108656,-0.056204263120889664,0.009037472307682037,-0.021878153085708618
0.029334979131817818,0.02333245798945427,-0.00783657468855381,-0.05598858743906021,0.008421964943408966,-0.021986715495586395
0.030582701787352562,0.024005472660064697,-0.007225471083074808,-0.05713881924748421,0.008580921217799187,-0.022282157093286514
0.030184514820575714,0.024036789312958717,-0.008058472536504269,-0.05742277577519417,0.008026757277548313,-0.02217661589384079
0.0297382865101099,0.02399706281721592,-0.008470018394291401,-0.05763889476656914,0.008137842640280724,-0.021947765722870827
0.029328634962439537,0.02346305549144745,-0.007222791668027639,-0.05820412561297417,0.008303835988044739,-0.02171090617775917
0.030262097716331482,0.023860111832618713,-0.00734326709061861,-0.058044932782649994,0.00871441513299942,-0.021681588143110275
0.030533665791153908,0.02386428788304329,-0.008128233253955841,-0.05579015985131264,0.008691390976309776,-0.02181236818432808
0.03023923933506012,0.02388797700405121,-0.008113497868180275,-0.05623089522123337,0.00838454905897379,-0.02173277921974659
0.030308978632092476,0.024214891716837883,-0.007448631804436445,-0.057627253234386444,0.00841585360467434,-0.021634355187416077
0.03016580455005169,0.02347400411963463,-0.007149168755859137,-0.05834399163722992,0.008206598460674286,-0.021927209571003914
0.030210787430405617,0.02357223629951477,-0.007487139664590359,-0.0557234063744545,0.008265252225100994,-0.02228953130543232
0.030010133981704712,0.024140994995832443,-0.007686217315495014,-0.05700473114848137,0.00848317425698042,-0.02260134182870388
0.029941989108920097,0.024684762582182884,-0.007590748369693756,-0.057776544243097305,0.009328033775091171,-0.02302684262394905
0.02950173057615757,0.024343447759747505,-0.00743631087243557,-0.056742750108242035,0.008890367113053799,-0.021584708243608475
0.03010137565433979,0.024433471262454987,-0.007591969799250364,-0.05612809583544731,0.008500663563609123,-0.02111341990530491
0.02973112091422081,0.024140572175383568,-0.008521092124283314,-0.05632710084319115,0.008139658719301224,-0.0211710836738348
0.029977913945913315,0.024183928966522217,-0.007990195415914059,-0.056342724710702896,0.008222482167184353,-0.02179672196507454
0.029977913945913315,0.024183928966522217,-0.007990195415914059,-0.056342724710702896,0.008222482167184353,-0.02179672196507454
0.02991211786866188,0.024146823212504387,-0.006886552553623915,-0.05655976012349129,0.008822611533105373,-0.022558078169822693
0.030025558546185493,0.024403396993875504,-0.007295804563909769,-0.05702374875545502,0.009201978333294392,-0.022471819072961807
0.031009169295430183,0.0239630788564682,-0.00808569137006998,-0.05759996175765991,0.008254301734268665,-0.021715382114052773
0.030651390552520752,0.02441953495144844,-0.007460303604602814,-0.058396536856889725,0.008137000724673271,-0.021732037886977196
0.030064616352319717,0.025255681946873665,-0.00736388610675931,-0.057850807905197144,0.008351949043571949,-0.022581785917282104
0.030569719150662422,0.024043913930654526,-0.007822277955710888,-0.05786238983273506,0.008493316359817982,-0.02206406183540821
0.03191831707954407,0.024370523169636726,-0.00738152489066124,-0.05772780254483223,0.008458249270915985,-0.021476779133081436
0.03156033530831337,0.02533140778541565,-0.007384567987173796,-0.05901381000876427,0.008929125964641571,-0.02182282879948616
0.03156033530831337,0.02533140778541565,-0.007384567987173796,-0.05901381000876427,0.008929125964641571,-0.02182282879948616
0.03029058687388897,0.025321193039417267,-0.007634100969880819,-0.0595368929207325,0.008553870022296906,-0.022206595167517662
0.03145869821310043,0.025399120524525642,-0.00745383882895112,-0.058871835470199585,0.00882468931376934,-0.02309228852391243
0.031017430126667023,0.025485293939709663,-0.007329877465963364,-0.060008302330970764,0.008858001790940762,-0.02276635356247425
0.03147876262664795,0.02576717734336853,-0.008201663382351398,-0.05968939885497093,0.009038759395480156,-0.022513214498758316
0.032223328948020935,0.02579931728541851,-0.008321327157318592,-0.06017029285430908,0.009112256579101086,-0.02260017953813076
0.032173726707696915,0.025139624252915382,-0.007796104531735182,-0.060352873057127,0.008990284986793995,-0.02269561029970646
0.031316127628088,0.024728454649448395,-0.007824273779988289,-0.06044582650065422,0.008813031949102879,-0.023615822196006775
0.0315459780395031,0.02565348893404007,-0.007839237339794636,-0.060796841979026794,0.009244239889085293,-0.022035809233784676
0.03240763768553734,0.026284700259566307,-0.008082914166152477,-0.06137153506278992,0.009305676445364952,-0.02130308747291565
0.03247431665658951,0.026015667244791985,-0.007581993937492371,-0.06094732508063316,0.009508684277534485,-0.021992137655615807
0.032507821917533875,0.025731492787599564,-0.007552301045507193,-0.06155203655362129,0.009001445956528187,-0.022251827642321587
0.0322859063744545,0.02599867805838585,-0.008165134117007256,-0.061791617423295975,0.009069068357348442,-0.022132085636258125
0.03239995613694191,0.025686020031571388,-0.007961234077811241,-0.06128494441509247,0.008808957412838936,-0.022201230749487877
0.03239325061440468,0.025800123810768127,-0.007349729537963867,-0.0636088103055954,0.008635901845991611,-0.022660095244646072
0.03230951353907585,0.025997791439294815,-0.0076283616945147514,-0.0597587488591671,0.009111734107136726,-0.022311650216579437
0.033812325447797775,0.026051964610815048,-0.008777243085205555,-0.05955353379249573,0.00915458519011736,-0.02277214638888836
0.03329669311642647,0.026076022535562515,-0.008052882738411427,-0.06267301738262177,0.008974396623671055,-0.023277325555682182
0.033424507826566696,0.026479680091142654,-0.007654128130525351,-0.06188710033893585,0.008939037099480629,-0.023547979071736336
0.03325936570763588,0.026663636788725853,-0.008340159431099892,-0.060562700033187866,0.009666341356933117,-0.023150335997343063
0.03327839821577072,0.026903031393885612,-0.008314534090459347,-0.062085021287202835,0.009560157544910908,-0.022694271057844162
