davideferrari95/blind_handover_controller/data/Test 14 - [2024-02-07 -- 13-14-58]/joint_states_data.csv
shoulder_pan_joint,shoulder_lift_joint,elbow_joint,wrist_1_joint,wrist_2_joint,wrist_3_joint
-0.00020052108447998762,0.006774414796382189,-0.004777917172759771,-0.0035267160274088383,-2.0530376787064597e-05,-0.0007499423809349537
-0.00020052108447998762,0.006774414796382189,-0.004777917172759771,-0.0035267160274088383,-2.0530376787064597e-05,-0.0007499423809349537
-0.00023677897115703672,0.0071881855838000774,-0.0045988187193870544,-0.0028452035039663315,-2.0293473426136188e-05,-0.0006802611169405282
-0.0002302279171999544,0.007324702106416225,-0.0048086149618029594,-0.0028152954764664173,-2.0066885554115288e-05,-0.0007030147826299071
-0.00021909292263444513,0.007046659477055073,-0.005757639184594154,-0.003296955954283476,-1.0059725354949478e-05,-0.0007048066472634673
-0.0002089211338898167,0.006984826177358627,-0.0050953044556081295,-0.0037883035838603973,-6.568282060470665e-07,-0.0006552718696184456
-0.00023795351444277912,0.007421661168336868,-0.004961904138326645,-0.0039193411357700825,-4.28861888224219e-08,-0.0006680656806565821
-0.00022005460050422698,0.007179567124694586,-0.00526918051764369,-0.0038250477518886328,-1.8283055625012423e-10,-0.0006035049445927143
-0.00024251358991023153,0.006749842315912247,-0.005642254836857319,-0.0034088362008333206,-1.1937529957595228e-11,-0.0005901985568925738
-0.00023732660338282585,0.0066802771762013435,-0.005442785564810038,-0.003176479134708643,-7.794353812547172e-13,-0.0005739546031691134
-0.00022876166622154415,0.006872374098747969,-0.0049927253276109695,-0.0030975486151874065,-5.0891565674072645e-14,-0.0005963668809272349
-0.00022074692242313176,0.006769490893930197,-0.004892543889582157,-0.00333302840590477,-3.322855830211759e-15,-0.000612311705481261
-0.00024250909336842597,0.006599685177206993,-0.0049554575234651566,-0.0032135399524122477,-2.1695875441192047e-16,-0.000581471947953105
-0.00024250909336842597,0.006599685177206993,-0.0049554575234651566,-0.0032135399524122477,-2.1695875441192047e-16,-0.000581471947953105
-0.0002282849745824933,0.006626609712839127,-0.00545487180352211,-0.0030304535757750273,-9.249291659238784e-19,-0.0005824554245918989
-0.0002282849745824933,0.006626609712839127,-0.00545487180352211,-0.0030304535757750273,-9.249291659238784e-19,-0.0005824554245918989
-0.0002816895430441946,0.006160663440823555,-0.004577904939651489,-0.002683887491002679,-3.943118281251998e-21,-0.0005487134912982583
-0.0002816895430441946,0.006160663440823555,-0.004577904939651489,-0.002683887491002679,-3.943118281251998e-21,-0.0005487134912982583
-0.0002734382578637451,0.00614449055865407,-0.004742867778986692,-0.0025451048277318478,-2.5745744130223316e-22,-0.0005079943221062422
-0.00025788479251787066,0.0062289172783494,-0.005008711479604244,-0.002477215137332678,-1.6810130485611283e-23,-0.0005023804842494428
-0.00024390795442741364,0.006146468687802553,-0.004900126717984676,-0.00261174445040524,-1.0975814232640285e-24,-0.00049681676318869
-0.00023136596428230405,0.006363588850945234,-0.0052837347611784935,-0.0025299491826444864,-7.166422300919837e-26,-0.00046255215420387685
-0.00022005129721947014,0.006766686215996742,-0.005060215014964342,-0.002514443127438426,-4.679161970499464e-27,-0.0004882924840785563
-0.000246772775426507,0.006151174195110798,-0.004334410186856985,-0.0024334825575351715,-3.0551585227498595e-28,-0.00048130788491107523
-0.00024046815815381706,0.005845115520060062,-0.004395072814077139,-0.0023969002068042755,-1.994800296418862e-29,-0.00045561653678305447
-0.00023027672432363033,0.00620091101154685,-0.005043688230216503,-0.002691090339794755,-1.3024621287619486e-30,-0.0004921237705275416
-0.00022085840464569628,0.0061350176110863686,-0.004986483138054609,-0.00286385347135365,-8.504146207118487e-32,-0.0005212216055952013
-0.0002121801662724465,0.005995018873363733,-0.00525902071967721,-0.0029061620589345694,-5.552599645690713e-33,-0.0005238645826466382
-0.00020415798644535244,0.006210026331245899,-0.004904856905341148,-0.002755285706371069,-3.6254507228452237e-34,-0.0005177682032808661
-0.00019672041526064277,0.005855112802237272,-0.004366437438875437,-0.002731980988755822,-2.3671603585461463e-35,-0.000667601590976119
-0.00018980534514412284,0.0063855270855128765,-0.004537584725767374,-0.0026059814263135195,-1.545586378085296e-36,-0.0006348355091176927
-0.00018336056382395327,0.006535290274769068,-0.004688167478889227,-0.002451958367601037,-1.009157420510003e-37,-0.0006634287419728935
-0.00017733876302372664,0.005623148754239082,-0.0044297524727880955,-0.00257220515049994,-6.589076337667937e-39,-0.0006448159110732377
-0.00016640876128803939,0.0057810768485069275,-0.004265137016773224,-0.002757871523499489,-2.8090429015855283e-41,-0.0006098054000176489
-0.00018517581338528544,0.006315375212579966,-0.00436089001595974,-0.0027654985897243023,-1.8342996898011855e-42,-0.0005952165811322629
-0.0001828303502406925,0.0056943511590361595,-0.004599455744028091,-0.0027127843350172043,-1.1911036946760945e-43,-0.0005551649373956025
-0.00017771324201021343,0.005740698426961899,-0.00447959965094924,-0.00282857078127563,-8.407790785948902e-45,-0.0005289135733619332
-0.00017283861234318465,0.005423470865935087,-0.004152439534664154,-0.0028603561222553253,-0.0,-0.0005449803429655731
-0.00016822355973999947,0.0058157374151051044,-0.0038711009547114372,-0.002907656831666827,-0.0,-0.0005145184695720673
-0.00016384877380914986,0.006707341410219669,-0.004254915285855532,-0.002796913729980588,-0.0,-0.0005439111846499145
-0.00015969514788594097,0.0061917235143482685,-0.004170219413936138,-0.002447594190016389,-0.0,-0.0005674040294252336
-0.00015969514788594097,0.0061917235143482685,-0.004170219413936138,-0.002447594190016389,-0.0,-0.0005674040294252336
-0.000155747402459383,0.005774529650807381,-0.004494259133934975,-0.0023243653122335672,-0.0,-0.0006930148811079562
-0.00015199018525891006,0.005712929181754589,-0.0045152464881539345,-0.002437334507703781,-0.0,-0.0007439161418005824
-0.0001484095409978181,0.006152520887553692,-0.004376457538455725,-0.0024309610016644,-0.0,-0.0007367535145021975
-0.00014499382814392447,0.006590574514120817,-0.00443864893168211,-0.002602651249617338,-0.0,-0.0007048554834909737
-0.00014173219096846879,0.006104074884206057,-0.0041473908349871635,-0.002545838011428714,-0.0,-0.0007212402415461838
-0.00015814407379366457,0.0061075733974576,-0.004322568420320749,-0.002411522204056382,-0.0,-0.0008234458509832621
-0.00015500168956350535,0.005668789613991976,-0.004665738437324762,-0.0023423617240041494,-0.0,-0.0008433722541667521
-0.0001517386408522725,0.006003370974212885,-0.004865688271820545,-0.0021864972077310085,-0.0,-0.000835487328004092
-0.00014860695227980614,0.0068018874153494835,-0.004623982589691877,-0.002256658161059022,-0.0,-0.0008150839130394161
-0.0001456016761949286,0.006253622937947512,-0.004227001685649157,-0.0022707253228873014,-0.0,-0.0007756794802844524
-0.00014271571126300842,0.005840949714183807,-0.004344167187809944,-0.00219802581705153,-0.0,-0.0007681744755245745
-0.00013994195614941418,0.006131036672741175,-0.004225756041705608,-0.0024509569630026817,-0.0,-0.0007948677521198988
-0.00013727396435569972,0.0057227942161262035,-0.004595421254634857,-0.0022925748489797115,-0.0,-0.0007937561022117734
-0.00013470568228513002,0.006482444237917662,-0.004723300691694021,-0.002544023562222719,-0.0,-0.0008051591576077044
-0.00013223206042312086,0.006525895558297634,-0.004527000710368156,-0.002474943408742547,-0.0,-0.0008616562699899077
-0.00012984710338059813,0.0059779854491353035,-0.004164854064583778,-0.002376239513978362,-0.0,-0.0009597026510164142
-0.00012754702765960246,0.006190659943968058,-0.003904505167156458,-0.002275653649121523,-0.0,-0.0009564984356984496
-0.00012318282097112387,0.006136155221611261,-0.004590999335050583,-0.0021201998461037874,-0.0,-0.0009535704739391804
-0.00012111088290112093,0.006449817214161158,-0.004715112969279289,-0.0022809498477727175,-0.0,-0.0010196748189628124
-0.0001191074334201403,0.005747571587562561,-0.004577880259603262,-0.0023459100630134344,-0.0,-0.001005195314064622
-0.00010310734796803445,0.005888608284294605,-0.004054415971040726,-0.00273340311832726,-0.0,-0.0009906870545819402
-0.00011361802171450108,0.005563513841480017,-0.0037473123520612717,-0.0028413620311766863,-0.0,-0.0011399704962968826
-0.00011345357052050531,0.006093465257436037,-0.0038609374314546585,-0.002591316122561693,-0.0,-0.0011619480792433023
-0.000111715096863918,0.006263204850256443,-0.004320979584008455,-0.0026090287137776613,-0.0,-0.0011431658640503883
-0.00011000855010934174,0.005464757792651653,-0.00436054915189743,-0.00264264945872128,-0.0,-0.0011507425224408507
-0.00011000855010934174,0.005464757792651653,-0.00436054915189743,-0.00264264945872128,-0.0,-0.0011507425224408507
-0.00010835309512913227,0.005449342075735331,-0.00495842844247818,-0.0025220217648893595,-0.0,-0.0011299883481115103
-0.00010674672375898808,0.005782059393823147,-0.004730043932795525,-0.0025558932684361935,-0.0,-0.0010911712888628244
-0.00010518722410779446,0.006663699168711901,-0.004492484498769045,-0.0022335818503051996,-0.0,-0.0010446745436638594
-0.00010367276263423264,0.0066727628000080585,-0.0041741495952010155,-0.0020924045238643885,-0.0,-0.0009759999229572713
-0.00010220110561931506,0.005853429902344942,-0.0045259865000844,-0.0020859239157289267,-0.0,-0.0009601396741345525
-0.00010077082697534934,0.005888365209102631,-0.00523752998560667,-0.00212492560967803,-0.0,-0.0009506166097708046
-9.937991853803396e-05,0.005959173198789358,-0.005484610330313444,-0.0025709921028465033,-0.0,-0.0009132380364462733
-9.802694694371894e-05,0.006199595518410206,-0.0046590943820774555,-0.002590894466266036,-0.0,-0.0008580923895351589
-9.671037696534768e-05,0.005982187110930681,-0.0040097106248140335,-0.0023691311944276094,-0.0,-0.0008539573173038661
-8.757304749451578e-05,0.005811524111777544,-0.004042456392198801,-0.0020533406641334295,-0.0,-0.0008677664445713162
-8.246243669418618e-05,0.005948718637228012,-0.004722384735941887,-0.0019767931662499905,-0.0,-0.0008725819061510265
-8.13446386018768e-05,0.0058974167332053185,-0.004803610499948263,-0.0021541996393352747,-0.0,-0.0008834178443066776
-9.044196485774592e-05,0.006322871893644333,-0.004694990813732147,-0.002407387364655733,-0.0,-0.0011092599015682936
-9.060629963641986e-05,0.00635008979588747,-0.004558897111564875,-0.0023801238276064396,-0.0,-0.0012128400849178433
-7.846234802855179e-05,0.005694727413356304,-0.004677107557654381,-0.002194258850067854,-0.0,-0.0016059584449976683
-7.735120016150177e-05,0.005893596448004246,-0.004762847907841206,-0.0020822708029299974,-0.0,-0.0015493202954530716
-7.641099364263937e-05,0.005745145492255688,-0.004972882103174925,-0.0017778034089133143,-0.0,-0.0014480832032859325
-7.460144843207672e-05,0.006504901684820652,-0.004767529666423798,-0.00193056371062994,-0.0,-0.0012762690894305706
-7.37284281058237e-05,0.005701389163732529,-0.004643995780497789,-0.0024129310622811317,-0.0,-0.0012553911656141281
-7.287559128599241e-05,0.005680108908563852,-0.00497455894947052,-0.002493315376341343,-0.0,-0.0013726507313549519
-7.204231224022806e-05,0.006070552859455347,-0.004891572520136833,-0.002267013303935528,-0.0,-0.0013728814665228128
-7.122778333723545e-05,0.0060291714034974575,-0.004717902280390263,-0.0019820237066596746,-0.0,-0.0013544270768761635
-7.043151708785444e-05,0.0060201287269592285,-0.004647866822779179,-0.0017295762663707137,-0.0,-0.0016359571600332856
-6.96528804837726e-05,0.006427682936191559,-0.004635539371520281,-0.0016313068335875869,-0.0,-0.0015629520639777184
-2.7381770451029297e-06,0.005755612161010504,-0.0044946023263037205,-0.0015881381696090102,-0.0,-0.0016008267411962152
-2.7381770451029297e-06,0.005755612161010504,-0.0044946023263037205,-0.0015881381696090102,-0.0,-0.0016008267411962152
-3.6736139463755535e-08,0.005942272022366524,-0.0054179406724870205,-0.0018993029370903969,-0.0,-0.0015135317808017135
-4.928622510114167e-10,0.005888556130230427,-0.00534465629607439,-0.0019448045641183853,-0.0,-0.0014590078499168158
-6.612376011322363e-12,0.006103639490902424,-0.004993111826479435,-0.0020204687025398016,-0.0,-0.0014932018239051104
-8.871346718212006e-14,0.005760643631219864,-0.0044234455563127995,-0.0017929081805050373,-0.0,-0.0014806091785430908
-1.190204428306999e-15,0.006007934454828501,-0.00451025040820241,-0.0015886391047388315,-0.0,-0.0015817709499970078
-1.5968111266044135e-17,0.006221084389835596,-0.0047464193776249886,-0.0014811871806159616,-0.0,-0.001528505003079772
-2.1423259251966261e-19,0.006000413093715906,-0.005183304660022259,-0.0014289130922406912,-0.0,-0.0016143356915563345
-2.8298596589593217e-05,0.005641575437039137,-0.005355256609618664,-0.0014351843856275082,-0.0,-0.0017675877315923572
-2.1160267351660877e-05,0.005708120763301849,-0.0046273996122181416,-0.0014815740287303925,-0.0,-0.001629341160878539
-2.082415812765248e-05,0.005931282415986061,-0.004485315643250942,-0.0014424865366891026,-0.0,-0.0016459082253277302
-2.0584790036082268e-05,0.0054421029053628445,-0.004494118969887495,-0.0014700861647725105,-0.0,-0.001610281877219677
-2.035203760897275e-05,0.006052960641682148,-0.005052134394645691,-0.0014345806557685137,-0.0,-0.0016694230725988746
-2.0124503862462007e-05,0.005618033464998007,-0.005210228264331818,-0.001503947889432311,-0.0,-0.0017283741617575288
-1.9902019630535506e-05,0.005783471744507551,-0.005349563900381327,-0.0015139703173190355,-0.0,-0.001945707481354475
-7.823835517228872e-07,0.005582922138273716,-0.004990587942302227,-0.001491621253080666,-0.0,-0.0019789880607277155
-1.0496674640592119e-08,0.005863550119102001,-0.004348915535956621,-0.0015813885256648064,-0.0,-0.0020944310817867517
-1.408262673141536e-10,0.0057121021673083305,-0.004437710624188185,-0.0014987107133492827,-0.0,-0.002067198511213064
-1.8893640992001526e-12,0.005673785228282213,-0.005038507282733917,-0.0014829890569671988,-0.0,-0.0019464785000309348
-3.400789108227141e-16,0.005738771054893732,-0.0056607481092214584,-0.0015409700572490692,-0.0,-0.0018576212460175157
-4.562592601222042e-18,0.005564853549003601,-0.004612274002283812,-0.0015190348494797945,-0.0,-0.0018590842373669147
-4.562592601222042e-18,0.005564853549003601,-0.004612274002283812,-0.0015190348494797945,-0.0,-0.0018590842373669147
-8.212504990038789e-22,0.005327070597559214,-0.00475149042904377,-0.0013823102926835418,-0.0,-0.0023389069829136133
-1.1018123604000456e-23,0.005132332909852266,-0.005813514813780785,-0.0013109991559758782,-0.0,-0.0024750044103711843
-1.4782217983903659e-25,0.005260520149022341,-0.005417402368038893,-0.001328307786025107,-0.0,-0.0023293609265238047
-1.983223278744845e-27,0.0056212469935417175,-0.005402763374149799,-0.0012151326518505812,-0.0,-0.002265980001538992
-2.660747148882865e-29,0.005573644302785397,-0.004892732948064804,-0.0011798662599176168,-0.0,-0.0023385933600366116
-3.569731605523446e-31,0.005694555584341288,-0.004799194633960724,-0.0011716397712007165,-0.0,-0.0021959105506539345
-3.569731605523446e-31,0.005694555584341288,-0.004799194633960724,-0.0011716397712007165,-0.0,-0.0021959105506539345
-6.425391022782562e-35,0.005265170242637396,-0.0052926852367818356,-0.001082112779840827,-0.0,-0.002326028421521187
-6.425391022782562e-35,0.005265170242637396,-0.0052926852367818356,-0.001082112779840827,-0.0,-0.002326028421521187
-8.62048233314942e-37,0.005535748787224293,-0.005847420543432236,-0.0010592634789645672,-0.0,-0.002278110245242715
-1.156547814675691e-38,0.005735473241657019,-0.005358892027288675,-0.0011150712380185723,-0.0,-0.0024353675544261932
-1.55165778954687e-40,0.0058245533145964146,-0.0050210426561534405,-0.0011715757427737117,-0.0,-0.002602559281513095
-2.0823295179866782e-42,0.0054073999635875225,-0.004839067813009024,-0.0012324093841016293,-0.0,-0.002619826467707753
-2.802596928649634e-44,0.005191706120967865,-0.00490780733525753,-0.0011769175762310624,-0.0,-0.0028457429725676775
-0.0,0.005062054842710495,-0.005319483112543821,-0.0011584525927901268,-0.0,-0.002921691630035639
0.0,0.005704925861209631,-0.005630285479128361,-0.0012948221992701292,-0.0,-0.0026622824370861053
0.0,0.005662505514919758,-0.005104959011077881,-0.001325958757661283,-0.0,-0.0026673434767872095
0.0,0.006117040757089853,-0.005009331740438938,-0.0014118998078629375,-0.0,-0.002347278641536832
0.0,0.005438029300421476,-0.005146505776792765,-0.0014668609946966171,-0.0,-0.0022551855072379112
0.0,0.005350417457520962,-0.004973678383976221,-0.0013634245842695236,-0.0,-0.002481733914464712
0.0,0.005185392219573259,-0.005360622424632311,-0.0012747524306178093,-0.0,-0.002784415613859892
0.0,0.006021495908498764,-0.0051919505931437016,-0.0013271039351820946,-0.0,-0.002716606482863426
0.0,0.0057840109802782536,-0.004922341089695692,-0.0013101933291181922,-0.0,-0.002767278114333749
0.0,0.005775643978267908,-0.00495177460834384,-0.0012573983985930681,-0.0,-0.0025269524194300175
0.0,0.005148777272552252,-0.005124181043356657,-0.0012567584635689855,-0.0,-0.002429122570902109
0.0,0.005319114308804274,-0.0053205108270049095,-0.001145393936894834,-0.0,-0.0027403950225561857
0.00039043513243086636,0.00535546662285924,-0.005314826965332031,-0.0010545969707891345,-0.0,-0.0028724619187414646
0.0004805733042303473,0.005847826600074768,-0.0050302529707551,-0.0010167737491428852,-0.0,-0.0033023597206920385
0.0004357978468760848,0.005607055500149727,-0.004956887569278479,-0.0009971845429390669,-0.0,-0.0031578894704580307
0.0003973250277340412,0.0054612248204648495,-0.005637606605887413,-0.0009835142409428954,-0.0,-0.0033238029573112726
0.000365082873031497,0.005215907469391823,-0.005320417229086161,-0.0009570893598720431,-0.0,-0.0032696425914764404
0.00039708398981019855,0.005762262735515833,-0.00539418263360858,-0.0009592975256964564,-0.0,-0.0030938582494854927
0.00039708398981019855,0.005762262735515833,-0.00539418263360858,-0.0009592975256964564,-0.0,-0.0030938582494854927
0.00040401064325124025,0.005962948314845562,-0.005020176526159048,-0.0009447346674278378,-0.0,-0.0033377474173903465
0.0003857721167150885,0.005249364767223597,-0.005164848640561104,-0.0009806860471144319,-0.0,-0.0035646315664052963
0.0003857721167150885,0.005249364767223597,-0.005164848640561104,-0.0009806860471144319,-0.0,-0.0035646315664052963
0.00041479477658867836,0.004852810874581337,-0.005530820693820715,-0.0009721393580548465,-0.0,-0.0034224025439471006
0.000392849906347692,0.005277574528008699,-0.005618264898657799,-0.0009611505665816367,-0.0,-0.0033204976934939623
0.000395572860725224,0.005231987684965134,-0.005754923447966576,-0.0009528383961878717,-0.0,-0.0033805735874921083
0.0004123849794268608,0.005939501337707043,-0.0053443387150764465,-0.0009398033143952489,-0.0,-0.0033980049192905426
0.0004045793612021953,0.005481712985783815,-0.004972219467163086,-0.0009256255580112338,-0.0,-0.00351394759491086
0.00043857627315446734,0.0055457898415625095,-0.004874615464359522,-0.0008534338558092713,-0.0,-0.003310795407742262
0.0004670678754337132,0.0051038614474236965,-0.005269850138574839,-0.0008551425416953862,-0.0,-0.0035845458041876554
0.0006581142079085112,0.005215874873101711,-0.005559438373893499,-0.0008528000907972455,-0.0,-0.003876459551975131
0.0007527628331445158,0.005723931826651096,-0.00596300233155489,-0.0008276251028291881,-0.0,-0.003518742974847555
0.0006974591524340212,0.0060419961810112,-0.005148610100150108,-0.0007445851806551218,-0.0,-0.003564972197636962
0.0007194671779870987,0.005221148021519184,-0.004924330394715071,-0.0007602776167914271,-0.0,-0.0036478249821811914
0.0007355107227340341,0.005420918110758066,-0.004914944060146809,-0.0006732874317094684,-0.0,-0.0037220658268779516
0.0006705246632918715,0.0053390986286103725,-0.005225676111876965,-0.0006914775585755706,-0.0,-0.00368138263002038
0.0007238205289468169,0.005614978261291981,-0.006163780577480793,-0.0006284909904934466,-0.0,-0.0036654372233897448
0.0007484637899324298,0.005847882479429245,-0.005475656129419804,-0.0006421363214030862,-0.0,-0.0037076289299875498
0.0007670156774111092,0.005255613010376692,-0.004707463085651398,-0.0005983193404972553,-0.0,-0.004198654554784298
0.0007815214921720326,0.005024219397455454,-0.0045699202455580235,-0.0005529600894078612,-0.0,-0.004160814452916384
0.0010856532026082277,0.004909442272037268,-0.0059190597385168076,-0.0004403462808113545,-0.0,-0.0038960431702435017
0.0010689101181924343,0.005690951365977526,-0.005595037247985601,-0.00047005011583678424,-0.0,-0.003909347578883171
0.0013855751603841782,0.005835137329995632,-0.005300494842231274,-0.00044102119863964617,-0.0,-0.004258326254785061
0.001305188168771565,0.005691181402653456,-0.004901327192783356,-0.0004412461712490767,-0.0,-0.004191252402961254
0.00123530940618366,0.005015380680561066,-0.004915886092931032,-0.0004405631625559181,-0.0,-0.004302924033254385
0.001339915907010436,0.004787077195942402,-0.0050230491906404495,-0.00041360192699357867,-0.0,-0.004085694905370474
0.0013886837987229228,0.005077237728983164,-0.005626456346362829,-0.0004398349265102297,-0.0,-0.0038314019329845905
0.0015290271257981658,0.0052656857296824455,-0.005790414288640022,-0.0004176843794994056,-0.0,-0.0038075074553489685
0.0015290271257981658,0.0052656857296824455,-0.005790414288640022,-0.0004176843794994056,-0.0,-0.0038075074553489685
0.0016138728242367506,0.005785067565739155,-0.005090916063636541,-0.00039500821731053293,-0.0,-0.004331033211201429
0.0015257849590852857,0.005346247926354408,-0.004747300408780575,-0.0004187742597423494,-0.0,-0.004595964215695858
0.00158725306391716,0.0053437016904354095,-0.004748962819576263,-0.0003867346385959536,-0.0,-0.004603328183293343
0.0016179102240130305,0.005059356335550547,-0.00510886637493968,-0.00040864956099539995,-0.0,-0.0045271567068994045
0.001726415823213756,0.004869711119681597,-0.00542131531983614,-0.00039499072590842843,-0.0,-0.004591001197695732
0.0017512715421617031,0.005516182631254196,-0.00611446937546134,-0.00041428921394981444,-0.0,-0.004630926996469498
0.002180972835049033,0.005258016288280487,-0.005217724945396185,-0.00040201208321377635,-0.0,-0.004883257672190666
0.0025438943412154913,0.0052688405849039555,-0.0049442872405052185,-0.0003787600144278258,-0.0,-0.005275622010231018
0.002483368618413806,0.005010302644222975,-0.004934299737215042,-0.00039495067903771996,-0.0,-0.0050467923283576965
0.0022318228147923946,0.004786339588463306,-0.0052671050652861595,-0.00038557653897441924,-0.0,-0.004873022437095642
0.002109908265992999,0.004708394408226013,-0.006153709255158901,-0.0003667032578960061,-0.0,-0.004743334837257862
0.0021863256115466356,0.005157536827027798,-0.005494870711117983,-0.00034897500881925225,-0.0,-0.004979327786713839
0.0025050202384591103,0.00521182082593441,-0.00479963468387723,-0.0003753516939468682,-0.0,-0.005070534069091082
0.0025624267291277647,0.004996709991246462,-0.005093578714877367,-0.00035285178455524147,-0.0,-0.005085369106382132
0.0029288323130458593,0.004742628429085016,-0.005185465794056654,-0.0003276023198850453,-0.0,-0.005186664406210184
0.0028538028709590435,0.004757027141749859,-0.005862352903932333,-0.00030538407736457884,-0.0,-0.005310477688908577
0.002888882765546441,0.004524406045675278,-0.005676859058439732,-0.0002859683590941131,-3.2189102512347745e-06,-0.005491653922945261
0.0027415002696216106,0.005037718918174505,-0.005275618750602007,-0.0002688737877178937,-2.1017183371441206e-07,-0.005246181506663561
0.0029618986882269382,0.00486359465867281,-0.0051255072467029095,-0.00024016236420720816,-8.95995500016511e-10,-0.005397852044552565
0.0032938949298113585,0.004776172339916229,-0.005372169427573681,-0.0002704533690121025,-5.850210593738581e-11,-0.005086212884634733
0.003213426796719432,0.0050958371721208096,-0.005555036012083292,-0.00026018748758360744,-3.8197695874375714e-12,-0.005760477855801582
0.0035956415813416243,0.004906310699880123,-0.005868302658200264,-0.00024839796242304146,-2.4940366070112796e-13,-0.005714830942451954
0.0033668000251054764,0.0047505018301308155,-0.005333591718226671,-0.0002374820614932105,-1.62842778676656e-14,-0.00584151828661561
0.0033907326869666576,0.004994959104806185,-0.00518511887639761,-0.00022747718321625143,-1.0632468950077883e-15,-0.005641082301735878
0.0034506255760788918,0.005064696539193392,-0.0050069838762283325,-0.00021828013996127993,-6.942242992771333e-17,-0.005664379335939884
0.0036374239716678858,0.0048973942175507545,-0.005755899008363485,-0.00020979883265681565,-4.53278887016145e-18,-0.006049436051398516
0.0036374239716678858,0.0048973942175507545,-0.005755899008363485,-0.00020979883265681565,-4.53278887016145e-18,-0.006049436051398516
0.003622000804170966,0.004704473074525595,-0.005921085365116596,-0.0002019510284299031,-2.9595870912414945e-19,-0.005650957114994526
0.0034672252368181944,0.004660166334360838,-0.005606500431895256,-0.00019466973026283085,-1.9323989240875757e-20,-0.005759493913501501
0.003519941121339798,0.004773302935063839,-0.005413286853581667,-0.00018789523164741695,-1.2617184196592016e-21,-0.005970427300781012
0.003978478256613016,0.0046897148713469505,-0.005615588277578354,-0.00018157651356887072,-8.238119240522443e-23,-0.0060746618546545506
0.004064613021910191,0.004862387198954821,-0.005359444301575422,-0.00017566917813383043,-5.3789033025128345e-24,-0.006381572689861059
0.004293838515877724,0.004792924504727125,-0.005900759715586901,-0.00017013381875585765,-0.00014112719509284943,-0.00633136136457324
0.004503246396780014,0.004747191444039345,-0.005925059784203768,-0.00016493687871843576,-0.0002537826949264854,-0.006359122693538666
0.004846619442105293,0.004632300231605768,-0.005366620607674122,-0.00016004801727831364,-0.00029392301803454757,-0.006302885711193085
0.004403242841362953,0.00469871424138546,-0.0052999649196863174,-0.00015544061898253858,-0.00028209565789438784,-0.006029822863638401
0.00446823937818408,0.004788742400705814,-0.005601784214377403,-0.00015109108062461019,-0.00029013468883931637,-0.0064247893169522285
0.004966941196471453,0.004722295328974724,-0.005511162802577019,-0.00014697822916787118,-0.0002967248437926173,-0.006337020546197891
0.005058100912719965,0.004640530329197645,-0.006305277813225985,-0.00014308365643955767,-0.00028464075876399875,-0.006012121215462685
0.0045008365996181965,0.004713420290499926,-0.005706729833036661,-0.00013938985648564994,-0.0002914430806413293,-0.006393213756382465
0.005028035957366228,0.004654599353671074,-0.005332364235073328,-0.00013588229194283485,-0.00029713319963775575,-0.006872563157230616
0.005463219713419676,0.004641195759177208,-0.005293846130371094,-0.00013254667283035815,-0.00028646865393966436,-0.006400393322110176
0.005055998917669058,0.005093636456876993,-0.005652778781950474,-0.00012937112478539348,-0.00039459389518015087,-0.006003360264003277
0.005191939417272806,0.004939703736454248,-0.006033680401742458,-0.00012634396262001246,-0.00039866907172836363,-0.006475646980106831
0.005180899985134602,0.004788388032466173,-0.005817859433591366,-0.0001234553346876055,-0.00042265182128176093,-0.006805486977100372
0.005791191011667252,0.005114064551889896,-0.005418549757450819,-0.00012069588410668075,-0.00040766503661870956,-0.007187218405306339
0.005728631746023893,0.004970974288880825,-0.005686856806278229,-0.00011805697431555018,-0.00038006569957360625,-0.007358409930020571
0.005613946821540594,0.004510283470153809,-0.0059532043524086475,-0.00011311109847156331,-0.00038821634370833635,-0.007029259577393532
0.006378252990543842,0.00444311648607254,-0.005839337594807148,-0.00011079038813477382,-0.0004113447794225067,-0.006993936840444803
0.006619926076382399,0.004875997081398964,-0.0056623537093400955,-0.0001085630283341743,-0.00039498877595178783,-0.007209327071905136
0.006275905761867762,0.004889270290732384,-0.006035990081727505,-0.00010642335837474093,-0.00037678846274502575,-0.007692675571888685
0.006323467940092087,0.0045442222617566586,-0.005673064850270748,-0.00010436654702061787,-0.00042669445974752307,-0.007769390009343624
0.006001231260597706,0.004540653433650732,-0.005900468677282333,-0.00010238757386105135,-0.00039485361776314676,-0.007416391279548407
0.00641651451587677,0.004958371631801128,-0.005451447330415249,-0.00010048236435977742,-0.00041663015144877136,-0.006917331367731094
0.006373686250299215,0.004955771379172802,-0.00561089813709259,-9.86467202892527e-05,-0.0004021450877189636,-0.006617782637476921
0.006529849488288164,0.004485395271331072,-0.005700422916561365,-9.687693091109395e-05,-0.00037526729283854365,-0.006880301050841808
0.006529849488288164,0.004485395271331072,-0.005700422916561365,-9.687693091109395e-05,-0.00037526729283854365,-0.006880301050841808
0.00627061165869236,0.004434945527464151,-0.0058232201263308525,-9.51696201809682e-05,-0.0004014813166577369,-0.0073471381329
0.0068993885070085526,0.004603167995810509,-0.006323068868368864,-9.352136839879677e-05,-0.0003839136625174433,-0.00763641856610775
0.006664768792688847,0.004668508656322956,-0.005925160367041826,-9.192919242195785e-05,-0.0003874873509630561,-0.007044689264148474
0.006811655592173338,0.004636836238205433,-0.005687783472239971,-9.03903492144309e-05,-0.00038980942917987704,-0.007783622946590185
0.006700504571199417,0.004680669400840998,-0.005547411739826202,-8.890219032764435e-05,-0.0003712307952810079,-0.007916293106973171
0.007283782120794058,0.004654355347156525,-0.005624319426715374,-8.746229286771268e-05,-0.0003803589497692883,-0.007982566021382809
0.006876770872622728,0.004630164708942175,-0.0058623203076422215,-7.54183711251244e-05,-0.0003749174065887928,-0.007540512830018997
0.0067620063200592995,0.004715542774647474,-0.006227678619325161,-7.083956734277308e-05,-0.00034765605232678354,-0.007485928945243359
0.0067086066119372845,0.00440554041415453,-0.006051081232726574,-6.952357944101095e-05,-0.00038283225148916245,-0.007678005378693342
0.006625188980251551,0.004954011179506779,-0.005374175496399403,-6.845156894996762e-05,-0.0003611396823544055,-0.007466954179108143
0.007341126445680857,0.004888803232461214,-0.005056458059698343,-6.742495315847918e-05,-0.0003387302567716688,-0.007455032784491777
0.007693106774240732,0.0048864735290408134,-0.005884815938770771,-6.642960215685889e-05,-0.0003187438123859465,-0.0076377177610993385
0.007223351392894983,0.0046560694463551044,-0.006900005042552948,-6.546322401845828e-05,-0.000337947130901739,-0.008075656369328499
0.007052810862660408,0.004649152979254723,-0.006060827989131212,-6.452464003814384e-05,-0.00033172822440974414,-0.008303475566208363
0.007584181148558855,0.004662373103201389,-0.005932487081736326,-6.361246050801128e-05,-0.0003158504259772599,-0.008276380598545074
0.007507269736379385,0.004403639119118452,-0.005729470402002335,-6.272576138144359e-05,-0.00030081369914114475,-0.00819605402648449
0.007153931073844433,0.004531051032245159,-0.005832175258547068,-6.186356040416285e-05,-0.0003173936565872282,-0.0081810113042593
0.007364476565271616,0.004700307734310627,-0.006164445076137781,-5.041234180680476e-05,-0.00031311524799093604,-0.008276020176708698
0.008284587413072586,0.005003280006349087,-0.005944736301898956,-4.827047814615071e-05,-0.0003006597107741982,-0.008615635335445404
0.00825920794159174,0.0043610516004264355,-0.0055573140271008015,-4.753738903673366e-05,-0.00028864460182376206,-0.008961448445916176
0.008000231347978115,0.004471911583095789,-0.006102146115154028,-4.691164940595627e-05,-0.00027851160848513246,-0.008982942439615726
0.00832955539226532,0.0047270627692341805,-0.006317988503724337,-3.467311762506142e-05,-0.0002610641822684556,-0.00868217647075653
0.00857997965067625,0.004774653352797031,-0.005891524255275726,-3.3884833101183176e-05,-0.00024680333444848657,-0.009007029235363007
0.007712737191468477,0.0048374817706644535,-0.005887183360755444,-3.345427830936387e-05,-0.0002775411121547222,-0.00909450463950634
0.008867224678397179,0.004476586356759071,-0.006756026763468981,2.1590345568256453e-05,-0.00026667321799322963,-0.008826801553368568
0.008180847391486168,0.004292785655707121,-0.0074285054579377174,2.485308505129069e-05,-0.00025429745437577367,-0.008953792974352837
0.008118277415633202,0.004122041631489992,-0.006598144304007292,3.630458013503812e-05,-0.0002727657265495509,-0.008794640190899372
0.007720923516899347,0.004448050167411566,-0.006726040039211512,4.565251583699137e-05,-0.0002704597427509725,-0.009200658649206161
0.005816180724650621,0.004725478123873472,-0.007038057316094637,5.693555795005523e-05,-0.0002599142608232796,-0.009481429122388363
0.005816180724650621,0.004725478123873472,-0.007038057316094637,5.693555795005523e-05,-0.0002599142608232796,-0.009481429122388363
0.004960976075381041,0.004784928169101477,-0.0069056423380970955,0.0006495296838693321,-0.0002496529195923358,-0.00938216969370842
0.005548770073801279,0.004242522642016411,-0.007294734474271536,0.000873838784173131,-0.0002401376113994047,-0.009073663502931595
0.005803666077554226,0.004102254752069712,-0.006800373084843159,0.0008897947845980525,-0.00026212469674646854,-0.009291625581681728
0.006149489898234606,0.003974139224737883,-0.006550421938300133,0.0012843646109104156,-0.0002548543852753937,-0.00872171949595213
0.006038109306246042,0.003893367713317275,-0.006889536045491695,0.0013647690648213029,-0.000246267591137439,-0.009000237099826336
0.006153944879770279,0.004354132805019617,-0.007192457094788551,0.001347532612271607,-0.00023813014558982104,-0.009195576421916485
0.006487217266112566,0.00422312319278717,-0.007203110493719578,0.001648418721742928,-0.00023050614981912076,-0.009351806715130806
0.006059205625206232,0.004510872531682253,-0.006877512205392122,0.0016416485887020826,-0.00022335455287247896,-0.009309914894402027
0.006059383042156696,0.0047059920616447926,-0.006522906478494406,0.002002967055886984,-0.00021693273447453976,-0.0100011071190238
0.006537057459354401,0.004282573703676462,-0.007064594887197018,0.002183241071179509,-0.00023554915969725698,-0.009839942678809166
0.006290332414209843,0.004233941901475191,-0.007098620291799307,0.002274654805660248,-0.00022569381690118462,-0.00941501371562481
0.006439617834985256,0.004188976250588894,-0.006937946192920208,0.0025039026513695717,-0.00021503410243894905,-0.009713897481560707
0.006700520869344473,0.004361387342214584,-0.006657368969172239,0.002626901725307107,-0.0002355452161282301,-0.010228213854134083
0.006738303694874048,0.00455939956009388,-0.007427762262523174,0.00261621898971498,-0.00023483429686166346,-0.010137015953660011
0.0066900355741381645,0.004718314856290817,-0.007111676037311554,0.002841228386387229,-0.00022564292885363102,-0.010249227285385132
0.006857282016426325,0.004133192822337151,-0.007280745543539524,0.002925930544734001,-0.00023837109620217234,-0.00994050595909357
0.006501479540020227,0.003956156317144632,-0.007935631088912487,0.0027826132718473673,-0.00023366170353256166,-0.009660187177360058
0.007024782709777355,0.00439004972577095,-0.00708916736766696,0.002934321528300643,-0.00022556507610715926,-0.00975986011326313
0.007481059990823269,0.004705577623099089,-0.0067987400107085705,0.0029898411594331264,-0.00024080544244498014,-0.00997277069836855
0.007492855656892061,0.004433625377714634,-0.006770334672182798,0.003401684109121561,-0.00024005143495742232,-0.010372926481068134
0.0068501755595207214,0.00438695540651679,-0.00723603880032897,0.003374081803485751,-0.0002889143070206046,-0.009786014445126057
0.007173037622123957,0.004308971576392651,-0.007696253247559071,0.0035006313119083643,-0.0003214123717043549,-0.009563980624079704
0.008014333434402943,0.00404098816215992,-0.006955783348530531,0.0035832789726555347,-0.00035967607982456684,-0.010106590576469898
0.007960733957588673,0.004004569258540869,-0.006878077518194914,0.003606625599786639,-0.0003900233132299036,-0.010100757703185081
0.007770088501274586,0.0040360623970627785,-0.007359453942626715,0.0033435537479817867,-0.00042009021854028106,-0.010029939003288746
0.007814094424247742,0.003959110006690025,-0.00752895837649703,0.003212561132386327,-0.0007316116243600845,-0.010533713735640049
0.007814094424247742,0.003959110006690025,-0.00752895837649703,0.003212561132386327,-0.0007316116243600845,-0.010533713735640049
0.007732126861810684,0.00429031066596508,-0.007040203083306551,0.0031991247087717056,-0.0008459370001219213,-0.01086206641048193
0.0075807333923876286,0.0041486602276563644,-0.007307352498173714,0.0030559850856661797,-0.0008429269655607641,-0.01093620341271162
0.007889234460890293,0.0040101162157952785,-0.007794713601469994,0.003375367959961295,-0.0007690861239098012,-0.011010517366230488
0.008124780841171741,0.004382381681352854,-0.0079314224421978,0.003213501302525401,-0.0006869932403787971,-0.011123979464173317
0.008443345315754414,0.004203249234706163,-0.007791996002197266,0.0031516707967966795,-0.0006194616435095668,-0.011120685376226902
0.008481508120894432,0.003996743354946375,-0.007391987834125757,0.0031343367882072926,-0.0006387286121025681,-0.011077987030148506
0.008136189542710781,0.004363985266536474,-0.00785366352647543,0.0031510074622929096,-0.0005911276675760746,-0.011018755845725536
0.008502552285790443,0.0041847326792776585,-0.008013238199055195,0.002997533418238163,-0.0005449934978969395,-0.011267619207501411
0.00796423852443695,0.004220461007207632,-0.008038528263568878,0.0029495235066860914,-0.0004861287015955895,-0.01085924543440342
0.00803293101489544,0.004086758010089397,-0.007703998126089573,0.0029171465430408716,-0.00048093232908286154,-0.011073963716626167
0.00856820773333311,0.004262610338628292,-0.0077095008455216885,0.0029509474989026785,-0.0004766244092024863,-0.011606279760599136
0.008861731737852097,0.004085222724825144,-0.008224654011428356,0.002720318268984556,-0.0004940875223837793,-0.011502695269882679
0.00887971930205822,0.003983157686889172,-0.00802374817430973,0.002591487253084779,-0.00047377138980664313,-0.011768084019422531
0.008715814910829067,0.004295256920158863,-0.007768799550831318,0.003445632290095091,-0.0004961399827152491,-0.011871915310621262
0.008956225588917732,0.003978060092777014,-0.007648516912013292,0.003491510171443224,-0.0006913761026225984,-0.012102162465453148
0.008611557073891163,0.004193620290607214,-0.007855268195271492,0.003447080496698618,-0.0007500919746235013,-0.0120486905798316
0.009512228891253471,0.004303526133298874,-0.007430028636008501,0.003141290508210659,-0.0012704094406217337,-0.012559116818010807
0.0086104366928339,0.004081647377461195,-0.00794577319175005,0.0033949411008507013,-0.001382318208925426,-0.012353292666375637
0.00916646234691143,0.0034401770681142807,-0.0074167693965137005,0.003663306823000312,-0.0013388637453317642,-0.012418464757502079
0.009334607981145382,0.003875724971294403,-0.00722960801795125,0.0036950784269720316,-0.001412440906278789,-0.012421899475157261
0.009452804923057556,0.0042006634175777435,-0.007335139438509941,0.003668935038149357,-0.0013223615242168307,-0.012977711856365204
0.009341523982584476,0.004049182869493961,-0.008695630356669426,0.0036364460829645395,-0.00124523660633713,-0.013003635220229626
0.009503808803856373,0.0038354520220309496,-0.007860939018428326,0.003459237515926361,-0.0011415478074923158,-0.013051913119852543
0.009503808803856373,0.0038354520220309496,-0.007860939018428326,0.003459237515926361,-0.0011415478074923158,-0.013051913119852543
0.008994419127702713,0.003927985671907663,-0.007909843698143959,0.003883098252117634,-0.0010851846309378743,-0.012926303781569004
0.00967343058437109,0.003938412759453058,-0.007884037680923939,0.003473936580121517,-0.0010778616415336728,-0.01321678701788187
0.009684166871011257,0.003931570332497358,-0.007627968676388264,0.0031442849431186914,-0.001282553537748754,-0.013211722485721111
0.009282190352678299,0.0034736371599137783,-0.007066481281071901,0.002793132094666362,-0.0012460913276299834,-0.013127305544912815
0.010288873687386513,0.0035695298574864864,-0.007397568318992853,0.0028965696692466736,-0.001204317552037537,-0.012889163568615913
0.010288873687386513,0.0035695298574864864,-0.007397568318992853,0.0028965696692466736,-0.001204317552037537,-0.012889163568615913
0.009488947689533234,0.0032679331488907337,-0.00812621507793665,0.003444607835263014,-0.0013148884754627943,-0.012963220477104187
0.009545678272843361,0.002754753455519676,-0.0076987966895103455,0.0035309744998812675,-0.0012420427519828081,-0.013128703460097313
0.010753415524959564,0.0023587828036397696,-0.007030458655208349,0.00355188618414104,-0.0011842622188851237,-0.013223840855062008
0.010116303339600563,0.0025793174281716347,-0.0073774429038167,0.003637390909716487,-0.0010605199495330453,-0.013304824009537697
0.009352537803351879,0.0032426072284579277,-0.00822629127651453,0.0033843740820884705,-0.0009382750722579658,-0.013262483291327953
0.010321123525500298,0.0031152493320405483,-0.0077642230316996574,0.0034516698215156794,-0.0009252160671167076,-0.013157214038074017
0.009997399523854256,0.0027576573193073273,-0.007524131331592798,0.0036208771634846926,-0.0009117136942222714,-0.0131913460791111
0.009434601292014122,0.0024989359080791473,-0.007625862490385771,0.004194555804133415,-0.0008944359142333269,-0.01356259174644947
0.010185166262090206,0.0022565890103578568,-0.007694054860621691,0.004165587946772575,-0.0008792331209406257,-0.013324716128408909
0.010124529711902142,0.0024814156349748373,-0.007483376190066338,0.004064730368554592,-0.000870474730618298,-0.013116491958498955
0.009765860624611378,0.003332005813717842,-0.0075384266674518585,0.0035659968852996826,-0.0008415419142693281,-0.013357700780034065
0.010020622052252293,0.002957150572910905,-0.0077048311941325665,0.004142713267356157,-0.0007938737398944795,-0.013745326548814774
0.00962810218334198,0.002954246010631323,-0.007569257169961929,0.0039802188985049725,-0.0007305105682462454,-0.014181142672896385
0.009835975244641304,0.0029817973263561726,-0.0076855882070958614,0.004276358988136053,-0.0007089236751198769,-0.01383438054472208
0.009930841624736786,0.003010459477081895,-0.007759529631584883,0.004236971028149128,-0.0007318489952012897,-0.013930846937000751
0.009593317285180092,0.002834838116541505,-0.007861526682972908,0.004272482357919216,-0.0007445176597684622,-0.01353251188993454
0.010252364911139011,0.002546267583966255,-0.007696663029491901,0.004049996845424175,-0.0007673021755181253,-0.013460789807140827
0.010327286086976528,0.002441248157992959,-0.007631795015186071,0.003816773882135749,-0.0009707289282232523,-0.013848052360117435
0.009967900812625885,0.002342325635254383,-0.0076221199706196785,0.0037328465841710567,-0.0010238856775686145,-0.014327498152852058
0.009967900812625885,0.002342325635254383,-0.0076221199706196785,0.0037328465841710567,-0.0010238856775686145,-0.014327498152852058
0.01028735376894474,0.002802726114168763,-0.007703317329287529,0.0038073870819061995,-0.0010102445958182216,-0.014331874437630177
0.010178756900131702,0.0030257171019911766,-0.00734757212921977,0.003930219449102879,-0.0011199064319953322,-0.014643811620771885
0.009984913282096386,0.0029722279869019985,-0.007339064031839371,0.004347264301031828,-0.0012301482493057847,-0.014430815353989601
0.010730219073593616,0.002717459574341774,-0.007430710829794407,0.00409682746976614,-0.0012220288626849651,-0.014162561856210232
0.010367107577621937,0.002850359072908759,-0.007871684618294239,0.004403105471283197,-0.001273185946047306,-0.014365894719958305
0.010398215614259243,0.0030242162756621838,-0.007330550812184811,0.004636591300368309,-0.0013479053741320968,-0.014336386695504189
0.01059764064848423,0.0034634831827133894,-0.0071247355081140995,0.004311160650104284,-0.0012734063202515244,-0.014091352000832558
0.010226060636341572,0.0032164177391678095,-0.007694400381296873,0.004341166000813246,-0.0012248926796019077,-0.014050549827516079
0.009881434962153435,0.0028128947596997023,-0.007940074428915977,0.004485174547880888,-0.0013148767175152898,-0.014345635659992695
0.0100233294069767,0.002589893527328968,-0.007406000047922134,0.004278166685253382,-0.0012902599992230535,-0.014505072496831417
0.010036056861281395,0.0026846660766750574,-0.007305867504328489,0.0044366163201630116,-0.0012382540153339505,-0.015239089727401733
0.01025671511888504,0.002563644200563431,-0.007716220337897539,0.004596861079335213,-0.0012116455473005772,-0.015320250764489174
0.009810620918869972,0.0029979830142110586,-0.007924099452793598,0.00468593230471015,-0.0011553484946489334,-0.014581994153559208
0.009503771550953388,0.003071029670536518,-0.007003479637205601,0.004641914274543524,-0.001114433747716248,-0.014799108728766441
0.010353215970098972,0.002965125720947981,-0.00716524850577116,0.004163570236414671,-0.0010237160604447126,-0.014743135310709476
0.011164545081555843,0.0027351563330739737,-0.008168157190084457,0.0036287433467805386,-0.0009491743403486907,-0.015353819355368614
0.010099003091454506,0.0029054260812699795,-0.00781609583646059,0.003469864372164011,-0.000868931645527482,-0.015352747403085232
0.010367345996201038,0.002966516185551882,-0.0073334891349077225,0.004081414546817541,-0.0008596866973675787,-0.015522678382694721
0.01015070267021656,0.002746286103501916,-0.007653841283172369,0.004491401370614767,-0.0008231704705394804,-0.015021893195807934
0.010227032005786896,0.0026653760578483343,-0.007842037826776505,0.004108755849301815,-0.000860020809341222,-0.014738545753061771
0.010860051028430462,0.0025526639074087143,-0.007779142819344997,0.004248802550137043,-0.000936254218686372,-0.015126829035580158
0.010254651308059692,0.0025231095496565104,-0.007347168400883675,0.004174953326582909,-0.00088344985852018,-0.01525653712451458
0.010621261782944202,0.0027989002410322428,-0.0077686854638159275,0.004323979839682579,-0.0010285750031471252,-0.01572278141975403
0.01058668177574873,0.0029861461371183395,-0.008485469035804272,0.004565178882330656,-0.0009972399566322565,-0.015934200957417488
0.010050534270703793,0.002927018329501152,-0.007922251708805561,0.00467001274228096,-0.0009810298215597868,-0.016005616635084152
0.010242121294140816,0.003177313134074211,-0.00768657959997654,0.004879999905824661,-0.0009383396827615798,-0.016275066882371902
0.010242121294140816,0.003177313134074211,-0.00768657959997654,0.004879999905824661,-0.0009383396827615798,-0.016275066882371902
0.010158644989132881,0.0029893331229686737,-0.007869204506278038,0.004794236738234758,-0.0008813816821202636,-0.015980031341314316
0.011027619242668152,0.0031626038253307343,-0.008226976729929447,0.004603149835020304,-0.0008077872334979475,-0.01569402404129505
0.010535496287047863,0.0030044293962419033,-0.007641615346074104,0.004607719369232655,-0.0008819691720418632,-0.015462110750377178
0.009962351061403751,0.0027478302363306284,-0.007690466474741697,0.004457126837223768,-0.0009183017536997795,-0.016027389094233513
0.010338514111936092,0.0026351897977292538,-0.007939774543046951,0.004593396093696356,-0.0009923173347488046,-0.015783870592713356
0.010373100638389587,0.002737835980951786,-0.0070686363615095615,0.004662706051021814,-0.00119314796756953,-0.016130173578858376
0.01029882300645113,0.0029104340355843306,-0.008158485405147076,0.004646837245672941,-0.0011961599811911583,-0.015975728631019592
0.010902520269155502,0.003073606174439192,-0.008413957431912422,0.004663468804210424,-0.0014566192403435707,-0.016254471614956856
0.011075814254581928,0.0032519984524697065,-0.008241217583417892,0.004539182875305414,-0.0014258773298934102,-0.016353018581867218
0.010062314569950104,0.00302205141633749,-0.008433245122432709,0.004445167258381844,-0.00136857689358294,-0.016631314530968666
0.010790771804749966,0.0031317099928855896,-0.00868351198732853,0.00459692906588316,-0.0014463403495028615,-0.016546426340937614
0.010008474811911583,0.003264479339122772,-0.009249771945178509,0.004882690031081438,-0.0014726801309734583,-0.016273509711027145
0.01005534641444683,0.003153052646666765,-0.008502579294145107,0.0050606862641870975,-0.001436202204786241,-0.01629853993654251
0.010738521814346313,0.0032408081460744143,-0.008234360255300999,0.005035387352108955,-0.0015266580739989877,-0.016716914251446724
0.010304060764610767,0.002901494735851884,-0.009547538124024868,0.00482302438467741,-0.001491363043896854,-0.016583597287535667
0.01076220441609621,0.0030432986095547676,-0.008961651474237442,0.004842964466661215,-0.0013765327166765928,-0.01665695384144783
0.010085032321512699,0.0031097729224711657,-0.009541336447000504,0.005476128775626421,-0.0013292670482769608,-0.017715608701109886
0.010578561574220657,0.0031845546327531338,-0.00911015085875988,0.005400906782597303,-0.0012376656522974372,-0.017841150984168053
0.010811595246195793,0.003318142145872116,-0.009039285592734814,0.004920888226479292,-0.0013327205087989569,-0.01750769652426243
0.010088508948683739,0.003226964268833399,-0.008594147861003876,0.00472716148942709,-0.0015244645765051246,-0.016754085198044777
0.010523602366447449,0.0031832081731408834,-0.009210357442498207,0.004782704636454582,-0.0017477946821600199,-0.017141329124569893
0.010523602366447449,0.0031832081731408834,-0.009210357442498207,0.004782704636454582,-0.0017477946821600199,-0.017141329124569893
0.010909123346209526,0.0031666224822402,-0.00920889526605606,0.004597458988428116,-0.0016084607923403382,-0.017778772860765457
0.010263550095260143,0.0031622936949133873,-0.00879305973649025,0.004798371810466051,-0.0015456222463399172,-0.01674572378396988
0.010219665244221687,0.0033024423755705357,-0.009479367174208164,0.005279473960399628,-0.001406634459272027,-0.016896292567253113
0.01065324991941452,0.003132381709292531,-0.00900728814303875,0.005143026355654001,-0.0013081661891192198,-0.01748678646981716
0.01059885323047638,0.0028309733606874943,-0.008800718002021313,0.004923527594655752,-0.0011849511647596955,-0.01827067695558071
0.01100563257932663,0.002981148660182953,-0.00929285679012537,0.004652597475796938,-0.0010939716594293714,-0.017691556364297867
0.010513627901673317,0.003010231303051114,-0.009563803672790527,0.004318475257605314,-0.0011639505391940475,-0.01732392981648445
0.010526456870138645,0.003447091905400157,-0.009086914360523224,0.0044776503928005695,-0.0015310851158574224,-0.017494693398475647
0.01080803107470274,0.0032750889658927917,-0.00918720755726099,0.005047420505434275,-0.001682192669250071,-0.017946217209100723
0.010786525905132294,0.0029652195516973734,-0.009643498808145523,0.0053762411698699,-0.0018725013360381126,-0.01788676530122757
0.01116705872118473,0.0029516462236642838,-0.009097504429519176,0.005101924296468496,-0.0019108072156086564,-0.01784910261631012
0.010863030329346657,0.002935984404757619,-0.009191006422042847,0.004883785266429186,-0.001735374447889626,-0.017173005267977715
0.010810822248458862,0.002994205802679062,-0.009575031697750092,0.004757292103022337,-0.0017333670984953642,-0.017351478338241577
0.011084088124334812,0.0028830389492213726,-0.009154235944151878,0.004703773185610771,-0.001606516889296472,-0.017588704824447632
0.010794183239340782,0.0029605645686388016,-0.008717024698853493,0.00520159350708127,-0.0015565272187814116,-0.01826847344636917
0.011089902371168137,0.0024950397200882435,-0.009201865643262863,0.005482917185872793,-0.0015537722501903772,-0.018614163622260094
0.011139357462525368,0.0031630562152713537,-0.008994698524475098,0.005437638610601425,-0.0016342417802661657,-0.018990177661180496
0.0108640780672431,0.0030959269497543573,-0.008556886576116085,0.0051202974282205105,-0.0017024868866428733,-0.018439073115587234
0.0119364308193326,0.0035771196708083153,-0.009852802380919456,0.005508411210030317,-0.001764619373716414,-0.01854366436600685
0.011798115447163582,0.0023054934572428465,-0.009513725526630878,0.005676033440977335,-0.0016049963887780905,-0.018691187724471092
0.011584377847611904,0.0024664574302732944,-0.009807565249502659,0.005698419641703367,-0.0013426999794319272,-0.01862015388906002
0.0115272281691432,0.0036044360604137182,-0.00972706824541092,0.005566336214542389,-0.0013377799186855555,-0.018561536446213722
0.011959112249314785,0.003901170566678047,-0.00938777718693018,0.005612269043922424,-0.0013038418255746365,-0.018905505537986755
0.011636817827820778,0.0029533226042985916,-0.009882541373372078,0.005289837718009949,-0.0014450009912252426,-0.019313540309667587
0.013098805211484432,0.002728460356593132,-0.009917574003338814,0.0057336981408298016,-0.0014731490518897772,-0.01921752281486988
0.013098805211484432,0.002728460356593132,-0.009917574003338814,0.0057336981408298016,-0.0014731490518897772,-0.01921752281486988
0.011496145278215408,0.002407372696325183,-0.009657898917794228,0.005685236770659685,-0.0017316143494099379,-0.019330788403749466
0.011136402375996113,0.002964154351502657,-0.01021095085889101,0.0055183288641273975,-0.0016712755896151066,-0.0194436963647604
0.01232432946562767,0.0032267204951494932,-0.010102019645273685,0.0055424789898097515,-0.0015891448128968477,-0.019185001030564308
0.011985640972852707,0.0031958906911313534,-0.009407567791640759,0.0055530378594994545,-0.0015677064657211304,-0.019534431397914886
0.012649819254875183,0.003156127408146858,-0.00988791510462761,0.005481076892465353,-0.001535735558718443,-0.019476262852549553
0.013724253512918949,0.002759718568995595,-0.010075460188090801,0.005805544555187225,-0.0014427618589252234,-0.019464168697595596
0.013543354347348213,0.003058185102418065,-0.009681119583547115,0.005604779347777367,-0.0015102613251656294,-0.019419174641370773
0.013577258214354515,0.0028890131507068872,-0.010995656251907349,0.005075402092188597,-0.0016363082686439157,-0.019320553168654442
0.013569976203143597,0.0030504402238875628,-0.010142866522073746,0.005297415424138308,-0.0018163296626880765,-0.019906150177121162
0.013992540538311005,0.002915764693170786,-0.009616844356060028,0.005171603988856077,-0.0018724926048889756,-0.019601641222834587
0.013691511936485767,0.002561907283961773,-0.010195113718509674,0.005998363718390465,-0.0021415906958281994,-0.0202876515686512
0.014045930467545986,0.0025945270899683237,-0.010363887064158916,0.006345205008983612,-0.002142885234206915,-0.019760314375162125
0.013760424219071865,0.002853249665349722,-0.009840871207416058,0.005743233487010002,-0.002082046354189515,-0.020429393276572227
0.013876434415578842,0.003240725491195917,-0.010227794758975506,0.0057410625740885735,-0.0018120319582521915,-0.02071262151002884
0.013911476358771324,0.0027670585550367832,-0.01059685368090868,0.005758271552622318,-0.0017129071056842804,-0.021122727543115616
0.014394773170351982,0.0027120921295136213,-0.009964769706130028,0.006349594332277775,-0.0015363224083557725,-0.02097536250948906
0.013901819474995136,0.002674357732757926,-0.010931121185421944,0.006475983653217554,-0.0013539433712139726,-0.0208286102861166
0.014231329783797264,0.002793584717437625,-0.010758507065474987,0.005867285188287497,-0.0012459467398002744,-0.0203817430883646
0.014991412870585918,0.0029324274510145187,-0.010708521120250225,0.005825778003782034,-0.0015577110461890697,-0.020528137683868408
0.014482595957815647,0.002861586632207036,-0.010299604386091232,0.006425861734896898,-0.0016422937624156475,-0.020835045725107193
0.01487104594707489,0.0023382778745144606,-0.010998563840985298,0.006145442835986614,-0.0019035362638533115,-0.021175280213356018
0.014445769600570202,0.0019075836753472686,-0.010651614516973495,0.005866548046469688,-0.0019146348349750042,-0.020856956019997597
0.014648961834609509,0.0016906618839129806,-0.010303454473614693,0.005906343460083008,-0.0019239125540480018,-0.021407462656497955
0.014747810550034046,0.0015794277423992753,-0.011033964343369007,0.0062891473062336445,-0.001904193079099059,-0.021822867915034294
0.015027550980448723,0.001672888407483697,-0.011040590703487396,0.007287688087671995,-0.0018690114375203848,-0.021533874794840813
0.014520272612571716,0.0023397360928356647,-0.011118174530565739,0.0065635330975055695,-0.0018582020420581102,-0.02120845578610897
0.015141366980969906,0.00233505223877728,-0.011391648091375828,0.006230873055756092,-0.0018584209028631449,-0.021878542378544807
0.015081582590937614,0.002459700219333172,-0.010382621549069881,0.006723207887262106,-0.0019054190488532186,-0.022186992689967155
0.015316448174417019,0.002102938247844577,-0.010652776807546616,0.006694372743368149,-0.0020940310787409544,-0.02226509526371956
0.014991352334618568,0.0017441549571231008,-0.010888862423598766,0.006773340981453657,-0.0019475204171612859,-0.022179530933499336
0.014991352334618568,0.0017441549571231008,-0.010888862423598766,0.006773340981453657,-0.0019475204171612859,-0.022179530933499336
0.015344291925430298,0.001747908885590732,-0.010076961480081081,0.006468739826232195,-0.0020042138639837503,-0.022253405302762985
0.015167239122092724,0.0018302229000255466,-0.010721912607550621,0.0064440141431987286,-0.0018490210641175508,-0.02250094898045063
0.015088491141796112,0.0018428039038553834,-0.010615848936140537,0.006268355995416641,-0.0017723373603075743,-0.022975968196988106
0.015453925356268883,0.002058472717180848,-0.010108107700943947,0.006617229897528887,-0.0017811558209359646,-0.023107117041945457
0.015358765609562397,0.0018297153292223811,-0.010885056108236313,0.00692971795797348,-0.001840314012952149,-0.02223796211183071
0.015548845753073692,0.0017702914774417877,-0.010991034097969532,0.006471727974712849,-0.0018557212315499783,-0.02308002859354019
0.015194964595139027,0.0015849892515689135,-0.010097411461174488,0.0057527837343513966,-0.0022158720530569553,-0.02335892990231514
0.01578630320727825,0.001434925477951765,-0.01090090349316597,0.006446873769164085,-0.002062025712803006,-0.023744653910398483
0.015368515625596046,0.001367646735161543,-0.010658654384315014,0.007162683643400669,-0.00204637972638011,-0.02401471883058548
0.015593581832945347,0.0012738675577566028,-0.010221950709819794,0.007488592993468046,-0.0019043314969167113,-0.023840902373194695
0.015367921441793442,0.0013733841478824615,-0.010401036590337753,0.006623780354857445,-0.0019199647940695286,-0.023297537118196487
0.015694258734583855,0.0017040316015481949,-0.010053656063973904,0.006944495718926191,-0.0018125976203009486,-0.02232346124947071
0.015422336757183075,0.0017404385143890977,-0.010683870874345303,0.007574889343231916,-0.0019645176362246275,-0.022790757939219475
0.015977999195456505,0.0018415298545733094,-0.009504963643848896,0.007109959609806538,-0.0020131657365709543,-0.023852527141571045
0.016272475942969322,0.0016977741615846753,-0.011114225722849369,0.006684375461190939,-0.0020847555715590715,-0.024303006008267403
0.015647515654563904,0.0016522303922101855,-0.011305605992674828,0.00673185708001256,-0.0022670531179755926,-0.02384525164961815
0.016025878489017487,0.0015038700075820088,-0.009979203343391418,0.00801895558834076,-0.002058357000350952,-0.0247484240680933
0.01713385619223118,0.0013917811447754502,-0.010681048035621643,0.007720185909420252,-0.0020787883549928665,-0.024525916203856468
0.016713609918951988,0.0014787345426157117,-0.01063501089811325,0.007200723048299551,-0.002036085119470954,-0.024131396785378456
0.01650230772793293,0.0013937205076217651,-0.010308662429451942,0.00759495422244072,-0.0020525373984128237,-0.023550014942884445
0.016111165285110474,0.0015380432596430182,-0.010883789509534836,0.008526519872248173,-0.0021606874652206898,-0.024153610691428185
0.016457466408610344,0.0015506634954363108,-0.01041531004011631,0.007547018583863974,-0.0021080279257148504,-0.025319108739495277
0.016551045700907707,0.0013655938673764467,-0.010548450984060764,0.007155996281653643,-0.0019878577440977097,-0.025250401347875595
0.016290228813886642,0.0013469221303239465,-0.010560632683336735,0.00811916496604681,-0.0017982308054342866,-0.02523602358996868
0.016748998314142227,0.001272409106604755,-0.010448642075061798,0.007796542253345251,-0.0016179598169401288,-0.02524391934275627
0.01691444031894207,0.0012139248428866267,-0.011060377582907677,0.007702302187681198,-0.0015062167076393962,-0.025128647685050964
0.01691444031894207,0.0012139248428866267,-0.011060377582907677,0.007702302187681198,-0.0015062167076393962,-0.025128647685050964
0.01716613955795765,0.0010909917764365673,-0.011065559461712837,0.007628145162016153,-0.0015785063151270151,-0.02477867715060711
0.01692579872906208,0.001054965890944004,-0.010186919942498207,0.007712936028838158,-0.00173008325509727,-0.024787481874227524
0.016683682799339294,0.0010293740779161453,-0.010954433120787144,0.007542087230831385,-0.0016318107955157757,-0.025097768753767014
0.01753987744450569,0.001011053565889597,-0.010890621691942215,0.007347919978201389,-0.001828604843467474,-0.025623612105846405
0.01712922379374504,0.0009396251989528537,-0.010783218778669834,0.007652384229004383,-0.0017667049542069435,-0.025740932673215866
0.017032749950885773,0.000929925823584199,-0.010924473404884338,0.007841164246201515,-0.0018973973346874118,-0.02554071508347988
0.016973143443465233,0.001015202491544187,-0.010403182357549667,0.007621202152222395,-0.0018201255006715655,-0.025369001552462578
0.017452627420425415,0.0011200825683772564,-0.010651971213519573,0.006427751388400793,-0.001928776502609253,-0.0258652251213789
0.017700333148241043,0.0011577170807868242,-0.010933439247310162,0.008605903014540672,-0.0017671717796474695,-0.025853468105196953
0.01727442257106304,0.0011175565887242556,-0.010541369207203388,0.008163103833794594,-0.0016449186950922012,-0.025495272129774094
0.017814116552472115,0.001084603718481958,-0.010984031483530998,0.007471665274351835,-0.0015604188665747643,-0.026733973994851112
0.017943676561117172,0.0010260939598083496,-0.01060723327100277,0.007737492676824331,-0.0015486401971429586,-0.02733829990029335
0.017712300643324852,0.000993863446637988,-0.01065757405012846,0.00802181288599968,-0.0016535492613911629,-0.02702135220170021
0.0183416735380888,0.000978923519141972,-0.011034172028303146,0.00799957849085331,-0.001942640752531588,-0.02645297534763813
0.01796688884496689,0.000978058553300798,-0.010582473129034042,0.007493739016354084,-0.0020686157513409853,-0.025048449635505676
0.018540745601058006,0.0009564445936121047,-0.010693565011024475,0.008395424112677574,-0.0020350348204374313,-0.0268886499106884
0.01835387945175171,0.0010399085003882647,-0.01064074132591486,0.008009168319404125,-0.001947270706295967,-0.027175189927220345
0.01853129267692566,0.0009571264963597059,-0.011433163657784462,0.007643556222319603,-0.0019171081949025393,-0.027044445276260376
0.018708664923906326,0.001136642531491816,-0.010650422424077988,0.007751278579235077,-0.0019382564350962639,-0.02831001579761505
0.018673187121748924,0.0010961289517581463,-0.010523498989641666,0.008573509752750397,-0.0019356327829882503,-0.028447845950722694
0.019099317491054535,0.0009758181986398995,-0.011298999190330505,0.008765242993831635,-0.0019863108173012733,-0.02768319845199585
0.019026758149266243,0.000964299135375768,-0.011003176681697369,0.008080373518168926,-0.0018549313535913825,-0.02703394740819931
0.01902296021580696,0.0008918008534237742,-0.01112405862659216,0.008602884598076344,-0.001761963707394898,-0.02778576873242855
0.018862992525100708,0.000893634743988514,-0.010634681209921837,0.00849662534892559,-0.0018124748021364212,-0.028619181364774704
0.019056696444749832,0.0008981671999208629,-0.010515890084207058,0.008369633927941322,-0.0018225793028250337,-0.028604809194803238
0.019057273864746094,0.0008952052448876202,-0.010856208391487598,0.008144667372107506,-0.001915791304782033,-0.028832940384745598
0.019166093319654465,0.0009696243214420974,-0.01077604852616787,0.00854361429810524,-0.0019115504110231996,-0.02862006612122059
0.01906403712928295,0.0009590026456862688,-0.010874422267079353,0.008388075046241283,-0.0021427739411592484,-0.028671184554696083
0.01906403712928295,0.0009590026456862688,-0.010874422267079353,0.008388075046241283,-0.0021427739411592484,-0.028671184554696083
0.01871819794178009,0.0009539127349853516,-0.011311633512377739,0.008166239596903324,-0.0021343904081732035,-0.0274465624243021
0.019278807565569878,0.0009593055583536625,-0.010898166336119175,0.008183913305401802,-0.002077265176922083,-0.02913258969783783
0.019396161660552025,0.0011360307689756155,-0.011428967118263245,0.008638010360300541,-0.0020194328390061855,-0.029276138171553612
0.019199639558792114,0.0011098759714514017,-0.01142539456486702,0.008342929184436798,-0.001979905879124999,-0.02958550862967968
0.019701801240444183,0.001067401492036879,-0.010992344468832016,0.008203782141208649,-0.0019603054970502853,-0.0293167345225811
0.01977110281586647,0.0009421730064786971,-0.012028388679027557,0.008417061530053616,-0.0019441881449893117,-0.029518209397792816
0.019308971241116524,0.0008924150606617332,-0.011607611551880836,0.008644080720841885,-0.001987412804737687,-0.029543329030275345
0.019767872989177704,0.000895267236046493,-0.012332367710769176,0.008579438552260399,-0.0020601628348231316,-0.029849115759134293
0.01979602873325348,0.0008921907865442336,-0.012305698357522488,0.008624067530035973,-0.0022892903070896864,-0.029257958754897118
0.019979925826191902,0.0008965508895926178,-0.012051376514136791,0.009376760572195053,-0.0021059259306639433,-0.02936043217778206
0.02036241441965103,0.0010621488327160478,-0.012388301081955433,0.008924820460379124,-0.0020876978524029255,-0.029450982809066772
0.02094750851392746,0.0010850416729226708,-0.011774269863963127,0.009040464647114277,-0.0019091754220426083,-0.02983482927083969
0.020384816452860832,0.0010621057590469718,-0.012664993293583393,0.008899334818124771,-0.0017695404822006822,-0.02980669029057026
0.020063646137714386,0.0011501164408400655,-0.012700030580163002,0.00882349256426096,-0.0017694307025521994,-0.029940640553832054
0.020285455510020256,0.0011071789776906371,-0.013106018304824829,0.008831430226564407,-0.0018180334009230137,-0.030142679810523987
0.020071445032954216,0.0010020295158028603,-0.012503460980951786,0.008784515783190727,-0.0021629384718835354,-0.03024897165596485
0.02077495865523815,0.0009313192567788064,-0.012852564454078674,0.008599515073001385,-0.0019741591531783342,-0.030535679310560226
0.020553791895508766,0.0009078746661543846,-0.012504502199590206,0.008777296170592308,-0.0018104084301739931,-0.030668461695313454
0.020260993391275406,0.0009171628043986857,-0.013006828725337982,0.008918392471969128,-0.0017993648070842028,-0.0311275664716959
0.020949965342879295,0.0009227622067555785,-0.01281138975173235,0.008556822314858437,-0.0019696704111993313,-0.0314766988158226
0.021916886791586876,0.0012375296792015433,-0.012966493144631386,0.008517494425177574,-0.0021354376804083586,-0.0318269357085228
0.021285168826580048,0.0010621105320751667,-0.013936295174062252,0.009006419219076633,-0.0024163832422345877,-0.031176133081316948
0.021589113399386406,0.001029406557790935,-0.013900053687393665,0.009073321707546711,-0.0022971632424741983,-0.031053241342306137
0.021589113399386406,0.001029406557790935,-0.013900053687393665,0.009073321707546711,-0.0022971632424741983,-0.031053241342306137
0.020634351298213005,0.0009717166540212929,-0.013327850960195065,0.009258781559765339,-0.002297811908647418,-0.031307999044656754
0.020191889256238937,0.0008901761611923575,-0.013273931108415127,0.008730408735573292,-0.0024350148160010576,-0.031088413670659065
0.021027373149991035,0.0007624811260029674,-0.013437110930681229,0.008578423410654068,-0.0024482321459800005,-0.03247607871890068
0.021119171753525734,0.000764056749176234,-0.013247000984847546,0.00878765620291233,-0.0023243159521371126,-0.032844044268131256
0.021474584937095642,0.0007901181234046817,-0.013222083449363708,0.008815912529826164,-0.0021314702462404966,-0.03196118026971817
0.021638967096805573,0.0008053636411204934,-0.012598523870110512,0.009289756417274475,-0.0021330832969397306,-0.030723264440894127
0.021149223670363426,0.001103993970900774,-0.013158997520804405,0.008895049802958965,-0.002302347682416439,-0.03153441101312637
0.021304406225681305,0.0009743341361172497,-0.012972605414688587,0.009563255123794079,-0.0023127857130020857,-0.03104993887245655
0.021426493301987648,0.0009575599688105285,-0.01379847526550293,0.00947873480618,-0.0025577228516340256,-0.03259996697306633
0.021696340292692184,0.0009129808750003576,-0.012946966104209423,0.00925664696842432,-0.002650555921718478,-0.03368060663342476
0.021672040224075317,0.000842608860693872,-0.014105168171226978,0.009707984514534473,-0.002370127709582448,-0.03325948491692543
0.021258948370814323,0.000759823655243963,-0.013007055036723614,0.009832771494984627,-0.002242314862087369,-0.03191962093114853
0.02191571146249771,0.0006629626732319593,-0.013137852773070335,0.009940369054675102,-0.0019864097703248262,-0.03194084390997887
0.022463474422693253,0.0006884785834699869,-0.01267220452427864,0.009820671752095222,-0.0019772141240537167,-0.03306585177779198
0.022064458578824997,0.0007043103105388582,-0.01309775561094284,0.009720114059746265,-0.0021815458312630653,-0.033133070915937424
0.021258043125271797,0.0007242204737849534,-0.014018894173204899,0.009242795407772064,-0.00228463439270854,-0.03313865140080452
0.021918736398220062,0.0008150446810759604,-0.012676986865699291,0.009077086113393307,-0.002495827153325081,-0.033300552517175674
0.02233332023024559,0.0007537752389907837,-0.012889684177935123,0.009914075024425983,-0.002275588223710656,-0.03322134539484978
0.022153235971927643,0.0006463933386839926,-0.012819829396903515,0.00914512574672699,-0.002196929883211851,-0.03322438523173332
0.021916577592492104,0.0006764387362636626,-0.01375621184706688,0.008925403468310833,-0.0022964172530919313,-0.033629823476076126
0.022531604394316673,0.0005419604131020606,-0.013270758092403412,0.009870892390608788,-0.0023875318001955748,-0.03353886306285858
0.022514348849654198,0.0005733798025175929,-0.012950937263667583,0.010260400362312794,-0.0022228932939469814,-0.033465396612882614
0.022446608170866966,0.0005265334621071815,-0.013496906496584415,0.010464857332408428,-0.0022788920905441046,-0.033468108624219894
0.022257622331380844,0.0005524359876289964,-0.013322407379746437,0.010737697593867779,-0.002351176692172885,-0.03372986614704132
0.022593146190047264,0.0005155295948497951,-0.013639388605952263,0.010540004819631577,-0.0023036242928355932,-0.033515624701976776
0.022520001977682114,0.000481107592349872,-0.013285313732922077,0.011277486570179462,-0.002426162362098694,-0.03397335857152939
0.02278226986527443,0.0004052152798976749,-0.01290394738316536,0.010392418131232262,-0.002571834484115243,-0.035599615424871445
0.022892389446496964,0.0003702911199070513,-0.013525405898690224,0.010646614246070385,-0.0025349645875394344,-0.03504069894552231
0.022892389446496964,0.0003702911199070513,-0.013525405898690224,0.010646614246070385,-0.0025349645875394344,-0.03504069894552231
0.022598423063755035,0.0004095371987204999,-0.013413270935416222,0.010860244743525982,-0.0025208094157278538,-0.03350856155157089
0.022397279739379883,0.0004230549093335867,-0.01359822228550911,0.010146405547857285,-0.002375619253143668,-0.0322282649576664
0.02250419743359089,0.00041543185943737626,-0.012910387478768826,0.010565665550529957,-0.0024328739382326603,-0.034740012139081955
0.022977588698267937,0.00042643124470487237,-0.013839354738593102,0.011015179567039013,-0.0024398427922278643,-0.03544602543115616
0.023346440866589546,0.00041945610428228974,-0.013542529195547104,0.010727951303124428,-0.0025623016990721226,-0.03633744642138481
0.023589150980114937,0.0005538588739000261,-0.013798404484987259,0.011174555867910385,-0.0026688463985919952,-0.03581610321998596
0.02311096526682377,0.0005117690307088196,-0.013404092751443386,0.010418032296001911,-0.002675008727237582,-0.03384841978549957
0.022601665928959846,0.0005477595841512084,-0.013767143711447716,0.00990662444382906,-0.0024706372059881687,-0.034163109958171844
0.022473018616437912,0.0005004771519452333,-0.013280054554343224,0.01062689907848835,-0.002519494853913784,-0.03576181083917618
0.02283669449388981,0.00045805523404851556,-0.013510162010788918,0.0101718008518219,-0.0024148866068571806,-0.035964734852313995
0.023369939997792244,0.00042222646879963577,-0.01332403626292944,0.010498752817511559,-0.0023046170827001333,-0.036034781485795975
0.023118838667869568,0.00044902070658281446,-0.01338129211217165,0.011081761680543423,-0.0022321632131934166,-0.036012955009937286
0.02298521250486374,0.0004258628759998828,-0.01327509619295597,0.010279885493218899,-0.002053559757769108,-0.03555605188012123
0.023356085643172264,0.0003989848482888192,-0.013048973865807056,0.010198384523391724,-0.0022737770341336727,-0.036129098385572433
0.023721912875771523,0.00037521871854551136,-0.013461753726005554,0.010463886894285679,-0.0026587455067783594,-0.036475516855716705
0.023281853646039963,0.00023450700973626226,-0.013133896514773369,0.010195078328251839,-0.0029013906605541706,-0.0366959348320961
0.02348705753684044,0.00015726190758869052,-0.013998749665915966,0.010581966489553452,-0.003123789792880416,-0.0363534651696682
0.023248055949807167,0.00013324878818821162,-0.013794764876365662,0.01009784359484911,-0.002937952522188425,-0.037116434425115585
0.02365395613014698,0.0001851997512858361,-0.013554543256759644,0.010920821689069271,-0.002682164078578353,-0.037149492651224136
0.02228778414428234,0.0001740805309964344,-0.013680502772331238,0.010491100139915943,-0.002506089862436056,-0.0361638106405735
0.024269960820674896,0.00016354492981918156,-0.013482064008712769,0.010424476116895676,-0.0023724385537207127,-0.037059053778648376
0.024004582315683365,0.0001542033423902467,-0.014111287891864777,0.010746263898909092,-0.0022012137342244387,-0.03747738152742386
0.023651855066418648,0.00014587119221687317,-0.01344478689134121,0.010096564888954163,-0.0023933816701173782,-0.03681371361017227
0.023756595328450203,0.00013839364692103118,-0.014566889964044094,0.010658333078026772,-0.0026917820796370506,-0.036764249205589294
0.02390419878065586,0.0001316451234742999,-0.013850513845682144,0.010918290354311466,-0.002535764593631029,-0.037654221057891846
0.023944295942783356,-8.7766456999816e-06,-0.014167948625981808,0.010847016237676144,-0.002676326548680663,-0.03767186403274536
0.02428608573973179,-7.240308332256973e-05,-0.013844248838722706,0.011115106754004955,-0.0027998071163892746,-0.03717551752924919
0.02450159750878811,-0.00013280630810186267,-0.014152411371469498,0.011020629666745663,-0.0026717260479927063,-0.03741149231791496
0.024424437433481216,-0.0001261064608115703,-0.013917963951826096,0.010742159560322762,-0.00249588955193758,-0.037117671221494675
0.024208521470427513,-0.00011788124538725242,-0.01413754466921091,0.011054488830268383,-0.002588484901934862,-0.03744925186038017
0.024208521470427513,-0.00011788124538725242,-0.01413754466921091,0.011054488830268383,-0.002588484901934862,-0.03744925186038017
0.02402333728969097,-0.00011063466808991507,-0.014180364087224007,0.010816697031259537,-0.002629200927913189,-0.037403404712677
0.0242592953145504,-0.00010422761988593265,-0.014556478708982468,0.01113373227417469,-0.002531998557969928,-0.0390031635761261
0.02467460185289383,-9.852202492766082e-05,-0.014492298476397991,0.011307653039693832,-0.00248108827508986,-0.03868107497692108
0.0243554525077343,-9.340846736449748e-05,-0.014482518658041954,0.010420940816402435,-0.002529650228098035,-0.03695432469248772
0.024499326944351196,-8.880004315869883e-05,-0.013885029591619968,0.01175144873559475,-0.002488675992935896,-0.03701246529817581
0.024992844089865685,-8.462485857307911e-05,-0.014598054811358452,0.01210344210267067,-0.0028146228287369013,-0.03794128820300102
0.02462386153638363,-8.082463318714872e-05,-0.014638577587902546,0.012172023765742779,-0.002974966075271368,-0.03712039440870285
0.024548839777708054,-7.735120743745938e-05,-0.015218007378280163,0.01180813554674387,-0.002701245015487075,-0.03979671001434326
0.02485555037856102,-7.41639087209478e-05,-0.015164176002144814,0.011192410252988338,-0.002638797275722027,-0.03863474726676941
0.024500060826539993,-7.12289402144961e-05,-0.014703393913805485,0.011444492265582085,-0.0024831171613186598,-0.03701144829392433
0.0248006172478199,-6.851746002212167e-05,-0.014351594261825085,0.01149090938270092,-0.0028615067712962627,-0.03813512623310089
0.02517651952803135,-6.600486813113093e-05,-0.014888057485222816,0.011583236046135426,-0.003165744710713625,-0.03860614448785782
0.02572803944349289,-6.366996967699379e-05,-0.014669688418507576,0.01178004965186119,-0.0031846920028328896,-0.038700636476278305
0.025879928842186928,-8.168633212335408e-05,-0.014652122743427753,0.010726181790232658,-0.0028382819145917892,-0.03901558741927147
0.0254669189453125,-8.905319555196911e-05,-0.014801228418946266,0.011323315091431141,-0.002437890972942114,-0.03933640196919441
0.02556857094168663,-8.366684050997719e-05,-0.014644049108028412,0.011834288947284222,-0.002410613466054201,-0.03896670788526535
0.02590491995215416,-8.115202217595652e-05,-0.014030463993549347,0.011948623694479465,-0.0028781096916645765,-0.03909139335155487
0.0265517421066761,-7.878401811467484e-05,-0.014979450032114983,0.011422357521951199,-0.002940035192295909,-0.03945271670818329
0.026634730398654938,-7.655036461073905e-05,-0.015524969436228275,0.012009120546281338,-0.0028568708803504705,-0.03950297832489014
0.025976011529564857,-7.443975482601672e-05,-0.014349333010613918,0.011903307400643826,-0.002537553198635578,-0.03933010622859001
0.025708278641104698,-9.375482477480546e-05,-0.014924357645213604,0.01223993394523859,-0.0022991462610661983,-0.039023205637931824
0.02652083709836006,-9.402805881109089e-05,-0.014798513613641262,0.01236464362591505,-0.0024167890660464764,-0.03987503424286842
0.02682468853890896,-9.16703138500452e-05,-0.015305726788938046,0.011636058799922466,-0.0027159422170370817,-0.04132425785064697
0.026299722492694855,-8.939444524003193e-05,-0.014611848630011082,0.011604811996221542,-0.0028625749982893467,-0.04157648980617523
0.026440158486366272,-8.722842903807759e-05,-0.015188968740403652,0.011284965090453625,-0.002931943628937006,-0.0393940731883049
0.027248259633779526,-8.516482193954289e-05,-0.01479349285364151,0.011223085224628448,-0.0027946699410676956,-0.039185527712106705
0.027248259633779526,-8.516482193954289e-05,-0.01479349285364151,0.011223085224628448,-0.0027946699410676956,-0.039185527712106705
0.026051722466945648,-0.00012926569615956396,-0.015032357536256313,0.011287251487374306,-0.002540602581575513,-0.040608640760183334
0.02575860545039177,-0.00013161628157831728,-0.015384500846266747,0.012142322957515717,-0.0027173184789717197,-0.041805777698755264
0.02575860545039177,-0.00013161628157831728,-0.015384500846266747,0.012142322957515717,-0.0027173184789717197,-0.041805777698755264
0.02649112232029438,-0.00012795608199667186,-0.015047889202833176,0.012160983867943287,-0.0028986376710236073,-0.04057110846042633
0.027233518660068512,-0.0001244192972080782,-0.015220899134874344,0.01232298742979765,-0.0027291474398225546,-0.03953906521201134
0.02722395583987236,-0.00012107185466447845,-0.015254126861691475,0.012391585856676102,-0.002612869953736663,-0.04134100675582886
0.02750060148537159,-0.00011789967538788915,-0.015231441706418991,0.012257406488060951,-0.0026975900400429964,-0.04181095212697983
0.02740485593676567,-0.0001148896335507743,-0.015703363344073296,0.012137876823544502,-0.00304617453366518,-0.04012807086110115
0.027219410985708237,-0.00012676112237386405,-0.015566596761345863,0.011848676018416882,-0.0029741041362285614,-0.041385725140571594
0.027479073032736778,-0.00013106688857078552,-0.015417495742440224,0.012664731591939926,-0.0030996298883110285,-0.04214267060160637
0.027548089623451233,-0.00012805769802071154,-0.014950662851333618,0.011926738545298576,-0.0029234886169433594,-0.04164837673306465
0.027518531307578087,-0.0001250924979103729,-0.015555724501609802,0.011982048861682415,-0.0028194121550768614,-0.04142424091696739
0.02761358581483364,-0.00012226034596096724,-0.015259096398949623,0.012420108541846275,-0.002638674108311534,-0.041154827922582626
0.02779752016067505,-0.00011955362424487248,-0.01547833438962698,0.011935064569115639,-0.002720172982662916,-0.04155653342604637
0.02777637355029583,-0.00012978672748431563,-0.014861222356557846,0.012343158945441246,-0.002680018311366439,-0.04180029779672623
0.028041474521160126,-0.00013347563799470663,-0.015666276216506958,0.01216188631951809,-0.00266734859906137,-0.04208298400044441
0.027972670271992683,-0.00013079094060231,-0.014999642968177795,0.01253022812306881,-0.002749456325545907,-0.042155105620622635
0.027737554162740707,-0.00012557802256196737,-0.015474068932235241,0.01212094072252512,-0.0029963497072458267,-0.04258890077471733
0.027757663279771805,-0.00014047216973267496,-0.015837376937270164,0.012396961450576782,-0.003323131473734975,-0.041590820997953415
0.02788662724196911,-0.00013801243039779365,-0.015857387334108353,0.012262696400284767,-0.003088591620326042,-0.04285697266459465
0.027927454560995102,-0.00013541987573262304,-0.015554011799395084,0.012857158668339252,-0.00278043607249856,-0.042744942009449005
0.027789730578660965,-0.00013291981304064393,-0.015949344262480736,0.012536908499896526,-0.0025770971551537514,-0.042774852365255356
0.027789730578660965,-0.00013291981304064393,-0.015949344262480736,0.012536908499896526,-0.0025770971551537514,-0.042774852365255356
0.027878856286406517,-0.00019691679335664958,-0.015436406247317791,0.012993144802749157,-0.002421200042590499,-0.04196185991168022
0.02768165059387684,-0.0001913079177029431,-0.015716586261987686,0.012650527991354465,-0.002572149271145463,-0.04209041967988014
0.027627328410744667,-0.0002076260861940682,-0.015371168032288551,0.01295746210962534,-0.003029709216207266,-0.04368961602449417
0.02814640663564205,-0.00021144968923181295,-0.016163419932127,0.013036524876952171,-0.0030907734762877226,-0.04301998391747475
0.028514035046100616,-0.00020363614021334797,-0.015555818565189838,0.01310674473643303,-0.002922645304352045,-0.0409034863114357
0.028617866337299347,-0.0002250850957352668,-0.01607082225382328,0.013302700594067574,-0.0028968125116080046,-0.04290609434247017
0.025826111435890198,-0.00022086368699092418,-0.01566295139491558,0.013300850056111813,-0.002678347984328866,-0.04361088573932648
0.02843785099685192,-0.0002134303649654612,-0.015914302319288254,0.013679010793566704,-0.0026533957570791245,-0.04576332867145538
0.02952355146408081,-0.00022580669610761106,-0.01603573001921177,0.01329239085316658,-0.0028042159974575043,-0.042681802064180374
0.0281646940857172,-0.0002283067733515054,-0.015859203413128853,0.013436638750135899,-0.003067459212616086,-0.04278875142335892
0.028563357889652252,-0.00022141520457807928,-0.01650424115359783,0.013018088415265083,-0.003087557153776288,-0.04444824531674385
0.028847217559814453,-0.00021481125440914184,-0.015820320695638657,0.013389499858021736,-0.002913790289312601,-0.0445350781083107
0.02923360839486122,-0.00020858798234257847,-0.016093872487545013,0.013293884694576263,-0.0032068921718746424,-0.04425377398729324
0.02866312488913536,-0.00020271500397939235,-0.015467863529920578,0.014107082039117813,-0.0030162972398102283,-0.044629983603954315
0.02774965949356556,-0.00019716376846190542,-0.01623324118554592,0.014130404219031334,-0.003032362787052989,-0.04431230202317238
0.028577154502272606,-0.00028231454780325294,-0.01611449010670185,0.01431889459490776,-0.002946822438389063,-0.044321540743112564
0.02931005135178566,-0.00026924911071546376,-0.01646300032734871,0.013145812787115574,-0.0025824857875704765,-0.04441278800368309
0.02905108593404293,-0.000254095415584743,-0.016381291672587395,0.013218284584581852,-0.0025603841058909893,-0.04418537765741348
0.028935730457305908,-0.00028793435194529593,-0.016243254765868187,0.013352658599615097,-0.0027468870393931866,-0.04437454044818878
0.028773432597517967,-0.00027396235964260995,-0.016787037253379822,0.013315116986632347,-0.0030682377982884645,-0.04328969493508339
0.029034193605184555,-0.0002607411006465554,-0.01609613001346588,0.013571429997682571,-0.003246081294491887,-0.04492896795272827
0.029080966487526894,-0.0002884917485062033,-0.01673227734863758,0.013292347081005573,-0.003064337419345975,-0.04483115300536156
0.029116403311491013,-0.00027738389326259494,-0.016474399715662003,0.013859710656106472,-0.003000959288328886,-0.045224256813526154
0.029182493686676025,-0.0002917687816079706,-0.017047910019755363,0.013488367199897766,-0.002519219182431698,-0.044378507882356644
0.02958454005420208,-0.00042031003977172077,-0.01647895574569702,0.012963860295712948,-0.002598885912448168,-0.043297797441482544
0.02957037091255188,-0.0004367040819488466,-0.0169304721057415,0.01316006574779749,-0.002758369082584977,-0.044554248452186584
0.02904627099633217,-0.00042659122846089303,-0.01719396747648716,0.013041959144175053,-0.003000723198056221,-0.04601404070854187
0.029689865186810493,-0.00039565525366924703,-0.017728382721543312,0.013421313837170601,-0.0029205975588411093,-0.04684809595346451
0.029828662052750587,-0.0004275296814739704,-0.018158234655857086,0.01357308030128479,-0.002870431635528803,-0.0445367693901062
0.029671723023056984,-0.00040256077772937715,-0.017049303278326988,0.013768399134278297,-0.002887042937800288,-0.04328417032957077
0.029671723023056984,-0.00040256077772937715,-0.017049303278326988,0.013768399134278297,-0.002887042937800288,-0.04328417032957077
0.030119773000478745,-0.0004098759382031858,-0.017278408631682396,0.013621206395328045,-0.002763530472293496,-0.045800983905792236
0.030119773000478745,-0.0004098759382031858,-0.017278408631682396,0.013621206395328045,-0.002763530472293496,-0.045800983905792236
0.030431780964136124,-0.0005427817814052105,-0.01730308309197426,0.01267569325864315,-0.0028080171905457973,-0.04525201767683029
0.030366647988557816,-0.0005732083809562027,-0.01719808764755726,0.01280108280479908,-0.00282783224247396,-0.04516584053635597
0.030366647988557816,-0.0005732083809562027,-0.01719808764755726,0.01280108280479908,-0.00282783224247396,-0.04516584053635597
0.030624955892562866,-0.0007718185661360621,-0.017329340800642967,0.013484221883118153,-0.002892289077863097,-0.045593440532684326
0.030624955892562866,-0.0007718185661360621,-0.017329340800642967,0.013484221883118153,-0.002892289077863097,-0.045593440532684326
0.03057912364602089,-0.0008459086529910564,-0.017214464023709297,0.014222542755305767,-0.0031099608168005943,-0.04498375952243805
0.029396619647741318,-0.0007712855585850775,-0.015960222110152245,0.015079678036272526,-0.0034452886320650578,-0.045139264315366745
0.030707940459251404,-0.0007861981284804642,-0.018034957349300385,0.014631932601332664,-0.0032931070309132338,-0.04465702176094055
0.03169170767068863,-0.000795997679233551,-0.01886967569589615,0.014673194848001003,-0.0031261888798326254,-0.043996457010507584
0.03126165270805359,-0.000816699699498713,-0.01780789904296398,0.014329425990581512,-0.002967139007523656,-0.04552885517477989
0.030989982187747955,-0.0008611513767391443,-0.017336687073111534,0.0149502232670784,-0.002836269326508045,-0.04635206609964371
0.0297610554844141,-0.0008670734241604805,-0.018526755273342133,0.014711681753396988,-0.0032779998145997524,-0.045751553028821945
0.03032810427248478,-0.0008800125797279179,-0.017655661329627037,0.014825450256466866,-0.003231388982385397,-0.04594818502664566
0.03135041892528534,-0.0011790664866566658,-0.017616042867302895,0.014315754175186157,-0.003131144680082798,-0.04564162343740463
0.030531156808137894,-0.0011384058743715286,-0.01780640333890915,0.014530411921441555,-0.0029628919437527657,-0.04647327587008476
0.031713780015707016,-0.0011334967566654086,-0.01783643290400505,0.014365852810442448,-0.002807251876220107,-0.047418542206287384
0.031484439969062805,-0.001130369957536459,-0.018144860863685608,0.014326624572277069,-0.0032416938338428736,-0.045551687479019165
0.031097905710339546,-0.0010904318187385798,-0.01850009150803089,0.014525682665407658,-0.0037387143820524216,-0.04643178731203079
0.030489683151245117,-0.0010619095992296934,-0.018593724817037582,0.015004542656242847,-0.0035580326803028584,-0.04690854251384735
0.03156391158699989,-0.0010248295729979873,-0.017817743122577667,0.01483883522450924,-0.00329383066855371,-0.04806192219257355
0.03187920153141022,-0.0011503160931169987,-0.018091635778546333,0.014416174963116646,-0.0029406247194856405,-0.046397313475608826
0.03150392323732376,-0.0011496562510728836,-0.018561141565442085,0.0148090161383152,-0.0027305518742650747,-0.047261204570531845
0.0316399410367012,-0.0015971241518855095,-0.017738722264766693,0.01428201049566269,-0.00257253460586071,-0.04750708490610123
0.0315345823764801,-0.0016111760633066297,-0.018215935677289963,0.014349413104355335,-0.002887509297579527,-0.047516096383333206
0.03166716545820236,-0.0016066841781139374,-0.017978794872760773,0.014192064292728901,-0.0033187984954565763,-0.04780178144574165
0.03197213262319565,-0.0016054650768637657,-0.017820587381720543,0.014414107427001,-0.0032095424830913544,-0.04763577878475189
0.03188731521368027,-0.0015023598680272698,-0.018478810787200928,0.014661509543657303,-0.0032307945657521486,-0.047741230577230453
0.03188731521368027,-0.0015023598680272698,-0.018478810787200928,0.014661509543657303,-0.0032307945657521486,-0.047741230577230453
0.03194492310285568,-0.0012793892528861761,-0.017977602779865265,0.014727328903973103,-0.003260187106207013,-0.04831088334321976
0.031626731157302856,-0.0013740877620875835,-0.017946120351552963,0.01441032811999321,-0.003101440379396081,-0.04835128411650658
0.03175560384988785,-0.0018293438479304314,-0.018126729875802994,0.014912162907421589,-0.0032385147642344236,-0.04663152992725372
0.0317281037569046,-0.002010101219639182,-0.018052227795124054,0.014689805917441845,-0.0032106295693665743,-0.04794112220406532
0.03121328353881836,-0.0024901742581278086,-0.018394846469163895,0.014753607101738453,-0.0031204214319586754,-0.049071311950683594
0.03238701447844505,-0.002211610320955515,-0.018062185496091843,0.014789799228310585,-0.0029560800176113844,-0.048349879682064056
0.03224925324320793,-0.002154286252334714,-0.0180865116417408,0.014821793884038925,-0.0032070279121398926,-0.047284215688705444
0.03208509832620621,-0.001974902581423521,-0.018599148839712143,0.014564610086381435,-0.0030249767005443573,-0.049601875245571136
0.03176631033420563,-0.002023617271333933,-0.01815614104270935,0.014910922385752201,-0.003265778534114361,-0.04914546385407448
0.03204099088907242,-0.002370445989072323,-0.018155179917812347,0.015467441640794277,-0.0033525621984153986,-0.046718936413526535
0.03315775468945503,-0.002300064079463482,-0.018292509019374847,0.01563301309943199,-0.0035253644455224276,-0.047895096242427826
0.03328566998243332,-0.0024164277128875256,-0.018729856237769127,0.016186708584427834,-0.0036581477615982294,-0.04903867095708847
0.03111344575881958,-0.002172422595322132,-0.019244346767663956,0.015554332174360752,-0.0033954104874283075,-0.05053657293319702
0.03170531988143921,-0.002252620877698064,-0.019261697307229042,0.015580548904836178,-0.0029793514404445887,-0.04801574721932411
0.03250822424888611,-0.002075189957395196,-0.017735280096530914,0.014982407912611961,-0.0028762645088136196,-0.04784765839576721
0.032986219972372055,-0.002252099337056279,-0.01862304098904133,0.014877165667712688,-0.0032060621306300163,-0.0493210144340992
0.032986219972372055,-0.002252099337056279,-0.01862304098904133,0.014877165667712688,-0.0032060621306300163,-0.0493210144340992
0.03350892290472984,-0.0021548455115407705,-0.019341787323355675,0.015255711041390896,-0.0032379012554883957,-0.04918805509805679
0.03202660754323006,-0.002142647746950388,-0.01895011216402054,0.015864891931414604,-0.0033829170279204845,-0.049114812165498734
0.03279656916856766,-0.0023469834122806787,-0.018222546204924583,0.01578761637210846,-0.003289269981905818,-0.04942182078957558
0.03367501497268677,-0.0024761848617345095,-0.019365886226296425,0.015676001086831093,-0.003445917507633567,-0.04977908357977867
0.03372415155172348,-0.002397583331912756,-0.01921016350388527,0.015645824372768402,-0.0035602294374257326,-0.049821533262729645
0.033564403653144836,-0.0025665326975286007,-0.01922808773815632,0.015694890171289444,-0.0031808246858417988,-0.04983854666352272
0.03327268362045288,-0.002532804384827614,-0.019244814291596413,0.016610145568847656,-0.0031429112423211336,-0.04979513958096504
0.03327268362045288,-0.002532804384827614,-0.019244814291596413,0.016610145568847656,-0.0031429112423211336,-0.04979513958096504
0.03347251936793327,-0.002406860003247857,-0.019228678196668625,0.016122467815876007,-0.003132181242108345,-0.049734730273485184
0.03200770542025566,-0.0026470073498785496,-0.018961984664201736,0.015973156318068504,-0.003197158221155405,-0.04905490204691887
0.03402084857225418,-0.0027090676594525576,-0.01888992264866829,0.01546553336083889,-0.0031028767116367817,-0.050514958798885345
0.0346248559653759,-0.002512894570827484,-0.018699506297707558,0.0163619015365839,-0.003007408231496811,-0.05084387585520744
0.03460131585597992,-0.002487336052581668,-0.019661646336317062,0.015216636471450329,-0.0031270249746739864,-0.05181038752198219
0.033983029425144196,-0.002596205798909068,-0.02015315368771553,0.015264645218849182,-0.0034070617984980345,-0.050018273293972015
0.03397013247013092,-0.0025237849913537502,-0.019629834219813347,0.015813380479812622,-0.003392397193238139,-0.049181267619132996
0.034476470202207565,-0.002942026825621724,-0.019208019599318504,0.016381030902266502,-0.0032086833380162716,-0.05016837641596794
0.034929607063531876,-0.0033912104554474354,-0.01944098435342312,0.0168599933385849,-0.0033775614574551582,-0.052642207592725754
0.03452765569090843,-0.003661998314782977,-0.0198717899620533,0.01591295562684536,-0.003626415738835931,-0.05084168165922165
0.03497103974223137,-0.003321417374536395,-0.019551804289221764,0.01612274907529354,-0.0034982652869075537,-0.04912417009472847
0.03468580171465874,-0.0036102640442550182,-0.01973201334476471,0.01575341261923313,-0.0033663976937532425,-0.05059394612908363
0.034667447209358215,-0.003361181356012821,-0.0197572261095047,0.016289884224534035,-0.0029807675164192915,-0.05054476112127304
0.035219110548496246,-0.003517882665619254,-0.019215844571590424,0.016201797872781754,-0.0030218849424272776,-0.05047072097659111
0.0354691743850708,-0.0036819104570895433,-0.019940156489610672,0.016433609649538994,-0.0030578849837183952,-0.0494484081864357
0.03526679053902626,-0.0038949965965002775,-0.020160434767603874,0.016247887164354324,-0.0034581192303448915,-0.051489584147930145
0.035943787544965744,-0.003966422751545906,-0.019395163282752037,0.016108117997646332,-0.004007181152701378,-0.051251787692308426
0.035954222083091736,-0.0034678922966122627,-0.0194531437009573,0.01693863607943058,-0.004153142683207989,-0.05135325342416763
0.0357452854514122,-0.0034871345851570368,-0.019977040588855743,0.01614293083548546,-0.0035368972457945347,-0.051351387053728104
0.037559814751148224,-0.004212820902466774,-0.01961437053978443,0.01584783010184765,-0.0032831961289048195,-0.051013775169849396
0.03618272393941879,-0.0039421566762030125,-0.01978990063071251,0.01639506220817566,-0.0031934285070747137,-0.05052557215094566
0.03549738600850105,-0.0041354657150805,-0.019942237064242363,0.01628204807639122,-0.003216738346964121,-0.05031807720661163
0.03724779933691025,-0.0042257532477378845,-0.01960350014269352,0.01658373698592186,-0.00319421524181962,-0.05166197940707207
0.036256130784749985,-0.004498033318668604,-0.019617924466729164,0.016887610778212547,-0.003171101678162813,-0.05258319899439812
0.036256130784749985,-0.004498033318668604,-0.019617924466729164,0.016887610778212547,-0.003171101678162813,-0.05258319899439812
0.03710383176803589,-0.0042668296955525875,-0.0195302851498127,0.016191348433494568,-0.003786940360441804,-0.050365399569272995
0.03819209709763527,-0.0040367040783166885,-0.01967199519276619,0.01664583943784237,-0.0037270449101924896,-0.05104171484708786
0.03690116107463837,-0.004017815925180912,-0.02021467126905918,0.016639482229948044,-0.003502729581668973,-0.05180802196264267
0.0357150137424469,-0.004289562813937664,-0.019889652729034424,0.016596641391515732,-0.003132790559902787,-0.053355734795331955
0.03773554414510727,-0.004645268898457289,-0.01927912048995495,0.01622108370065689,-0.0032451802399009466,-0.05170173570513725
0.03782283514738083,-0.004231230355799198,-0.019559672102332115,0.016389643773436546,-0.003599170595407486,-0.05173362419009209
0.037656109780073166,-0.0043954020366072655,-0.020147625356912613,0.016970034688711166,-0.0037927604280412197,-0.05239631235599518
0.03776448220014572,-0.005112112034112215,-0.019734937697649002,0.016647372394800186,-0.0036042097490280867,-0.05336381494998932
0.037610527127981186,-0.0042707426473498344,-0.01968090608716011,0.016857581213116646,-0.0035042408853769302,-0.05304292216897011
0.03751321882009506,-0.0037291443441063166,-0.019826581701636314,0.017384888604283333,-0.004013595171272755,-0.0530230887234211
0.03803788125514984,-0.0047820513136684895,-0.01949816569685936,0.017363006249070168,-0.004207470454275608,-0.053128432482481
0.038281530141830444,-0.004912997595965862,-0.019677137956023216,0.017564859241247177,-0.003804470645263791,-0.05320306494832039
0.03784702718257904,-0.0047906204126775265,-0.019918465986847878,0.016720000654459,-0.003237624652683735,-0.05342716723680496
0.03798021003603935,-0.004281715489923954,-0.01978510618209839,0.01691732183098793,-0.003127569332718849,-0.053619422018527985
0.038619060069322586,-0.003981582820415497,-0.01985745131969452,0.016907382756471634,-0.0029046847485005856,-0.05364534258842468
0.03808806836605072,-0.0041762157343328,-0.019717687740921974,0.01735355146229267,-0.0032701969612389803,-0.05352417007088661
0.03729157894849777,-0.00469138752669096,-0.01970045454800129,0.017642496153712273,-0.003344533732160926,-0.053605206310749054
0.038645122200250626,-0.004734558518975973,-0.019760336726903915,0.01726052165031433,-0.0033718093764036894,-0.053450122475624084
0.040067773312330246,-0.0046463701874017715,-0.020201649516820908,0.017801938578486443,-0.0033858183305710554,-0.05259934812784195
0.038665685802698135,-0.00415056711062789,-0.02017069421708584,0.017919285222887993,-0.0036238429602235556,-0.055059339851140976
0.03899890184402466,-0.004501464311033487,-0.020207207649946213,0.01748768985271454,-0.003447161987423897,-0.05262737348675728
0.039530009031295776,-0.004718114621937275,-0.020225735381245613,0.017276298254728317,-0.0031379905994981527,-0.05356025695800781
0.04014626890420914,-0.004893390461802483,-0.018549369648098946,0.017691491171717644,-0.0030912859365344048,-0.05571543052792549
0.03988306224346161,-0.004828115459531546,-0.02087446302175522,0.017487782984972,-0.00330502912402153,-0.05472566559910774
0.038892898708581924,-0.004602025728672743,-0.02073582634329796,0.01727038249373436,-0.003250539069995284,-0.05272499471902847
0.038957249373197556,-0.004477481357753277,-0.021017923951148987,0.01774156279861927,-0.0035006869584321976,-0.054300568997859955
0.03959343582391739,-0.0037038642913103104,-0.020587420091032982,0.017858117818832397,-0.0037178383208811283,-0.054508648812770844
0.03959343582391739,-0.0037038642913103104,-0.020587420091032982,0.017858117818832397,-0.0037178383208811283,-0.054508648812770844
0.039639029651880264,-0.0026640701107680798,-0.02082139439880848,0.018239280208945274,-0.003880710806697607,-0.05455644056200981
0.039734698832035065,-0.0020024022087454796,-0.02058585360646248,0.01787700690329075,-0.0036993755493313074,-0.05490200221538544
0.03967982903122902,-0.0020339414477348328,-0.020189588889479637,0.017196957021951675,-0.0034982487559318542,-0.05487976595759392
0.039656177163124084,-0.002907196991145611,-0.02081255242228508,0.01745227724313736,-0.0032977822702378035,-0.05489330366253853
0.04007602110505104,-0.0037786648608744144,-0.021495742723345757,0.017311682924628258,-0.003280880395323038,-0.05502159148454666
0.03994280844926834,-0.003813768271356821,-0.020932920277118683,0.01750684343278408,-0.0034238772932440042,-0.0547613687813282
0.03988780453801155,-0.003296027658507228,-0.02011888101696968,0.01828596368432045,-0.0035294981207698584,-0.054739754647016525
0.04069967940449715,-0.0026122780982404947,-0.02105632796883583,0.017934011295437813,-0.003444921225309372,-0.05485256016254425
