davideferrari95/blind_handover_controller/data/Test 283 - [2024-02-08 -- 13-55-00]/joint_states_data.csv
shoulder_pan_joint,shoulder_lift_joint,elbow_joint,wrist_1_joint,wrist_2_joint,wrist_3_joint
0.004311028867959976,0.005489067640155554,-0.007379640359431505,0.0025418708100914955,-0.0001372757542412728,0.0036121595185250044
0.004311028867959976,0.005489067640155554,-0.007379640359431505,0.0025418708100914955,-0.0001372757542412728,0.0036121595185250044
0.004015524871647358,0.005619079805910587,-0.0072222501039505005,0.002371601527556777,-0.00013435343862511218,0.004123237915337086
0.004015524871647358,0.005619079805910587,-0.0072222501039505005,0.002371601527556777,-0.00013435343862511218,0.004123237915337086
0.0037714506033807993,0.006016024388372898,-0.007552121765911579,0.00227893958799541,-0.00014694900892209262,0.004018703941255808
0.003787648631259799,0.005383654497563839,-0.007669338025152683,0.002331148600205779,-0.00014429334260057658,0.003988839220255613
0.004284502472728491,0.005407541524618864,-0.0067839473485946655,0.002252551494166255,-0.00014147684851195663,0.004043108318001032
0.004070565104484558,0.005196706857532263,-0.006543402094393969,0.002307829912751913,-0.0001387516676913947,0.004029339645057917
0.004070565104484558,0.005196706857532263,-0.006543402094393969,0.002307829912751913,-0.0001387516676913947,0.004029339645057917
0.004354382865130901,0.005455917213112116,-0.007110732141882181,0.0022237186785787344,-0.0001476472825743258,0.003958168439567089
0.004304272122681141,0.005545112304389477,-0.00697801448404789,0.002245574491098523,-0.00014354252198245376,0.004113681614398956
0.0040623703971505165,0.005443528760224581,-0.007083897478878498,0.002433182206004858,-0.0001391433470416814,0.00383629254065454
0.003846659790724516,0.005609643179923296,-0.007587871979922056,0.002444035839289427,-0.0001349720696453005,0.003643098520115018
0.0038285122718662024,0.0054335640743374825,-0.007037295959889889,0.002324200002476573,-0.00013104140816722065,0.004133214242756367
0.004120789933949709,0.005568407010287046,-0.006846734322607517,0.002153817331418395,-0.00012733309995383024,0.004117308650165796
0.004068927373737097,0.005650445818901062,-0.00697943614795804,0.0021513444371521473,-0.00014217806165106595,0.003989976830780506
0.003763277316465974,0.005609167739748955,-0.008165476843714714,0.002089849440380931,-0.0001441960339434445,0.0038769906386733055
0.003611070103943348,0.005465588998049498,-0.0069380770437419415,0.0020256019197404385,-0.00014081562403589487,0.003775636665523052
0.0036416153889149427,0.005754345096647739,-0.006626382935792208,0.0021712451707571745,-0.0001372608239762485,0.003748034592717886
0.0037087120581418276,0.005415174178779125,-0.006691550370305777,0.002240059431642294,-0.00013385977945290506,0.004083242733031511
0.004273272585123777,0.005857148207724094,-0.007516731042414904,0.0024501727893948555,-0.00013062171638011932,0.004203720949590206
0.004137624520808458,0.005442195571959019,-0.007604263257235289,0.002280948683619499,-0.00012753660848829895,0.003991591744124889
0.004137624520808458,0.005442195571959019,-0.007604263257235289,0.002280948683619499,-0.00012753660848829895,0.003991591744124889
0.003975697793066502,0.005878177005797625,-0.0067556858994066715,0.0022474699653685093,-0.0001439715560991317,0.0038746914360672235
0.00378473405726254,0.005781551357358694,-0.006776679772883654,0.002102934755384922,-0.00014199047291185707,0.0038876438047736883
0.004169239662587643,0.0057658967562019825,-0.007483279798179865,0.0020435000769793987,-0.00013894139556214213,0.003931764513254166
0.004210954997688532,0.005348016507923603,-0.007455735933035612,0.0021995212882757187,-0.00013594853226095438,0.0039057997055351734
0.003975976724177599,0.005857682321220636,-0.007397300563752651,0.0021374132484197617,-0.0001330770755885169,0.003887173254042864
0.0037037672009319067,0.0055221812799572945,-0.007547134067863226,0.0021329137962311506,-0.00013032408605795354,0.003919066395610571
0.0036672307178378105,0.005420058034360409,-0.007641636300832033,0.0019974166061729193,-0.0001276827824767679,0.003916995134204626
0.004139553289860487,0.005292193498462439,-0.007359645329415798,0.0019798881839960814,-0.00014068001473788172,0.0038651716895401478
0.003831821493804455,0.005231372080743313,-0.007636943832039833,0.0020964143332093954,-0.00013754918472841382,0.0038172430358827114
0.003760365303605795,0.0050240978598594666,-0.007908022031188011,0.0020817331969738007,-0.00013497952022589743,0.0038266126066446304
0.0037264458369463682,0.005769731942564249,-0.007163322065025568,0.0020373968873173,-0.00013249617768451571,0.00416033947840333
0.0039146956987679005,0.005430320743471384,-0.006844452116638422,0.00199911673553288,-0.0001301019947277382,0.00419215951114893
0.003847596701234579,0.005372675135731697,-0.006868862081319094,0.002035168232396245,-0.00015596149023622274,0.003989643882960081
0.0035548813175410032,0.005050485488027334,-0.007258681580424309,0.0020982534624636173,-0.00015963947225827724,0.003924480173736811
0.003561945864930749,0.005028087180107832,-0.007420452311635017,0.002095939125865698,-0.00015475104737561196,0.004001409746706486
0.003729325020685792,0.005358367692679167,-0.00707824295386672,0.002168069127947092,-0.0001496437325840816,0.004087778739631176
0.0037038661539554596,0.005172747187316418,-0.006660174578428268,0.0023685500491410494,-0.00014482949336525053,0.0040587433613836765
0.003922533709555864,0.0049929264932870865,-0.006945012602955103,0.0023286945652216673,-0.0001403132191626355,0.0040213274769485
0.0037913103587925434,0.0050639198161661625,-0.007099037524312735,0.0025101699866354465,-0.00013607009896077216,0.003927153069525957
0.0035056956112384796,0.0050124130211770535,-0.006728686857968569,0.002279129810631275,-0.00013207606389187276,0.003831058507785201
0.0035660353023558855,0.005821089260280132,-0.006456420756876469,0.002229099627584219,-0.000128309809952043,0.003817151067778468
0.0037409677170217037,0.005403216928243637,-0.006715454626828432,0.0020233651157468557,-0.00014641135931015015,0.004058895632624626
0.003924266435205936,0.0050884815864264965,-0.007151294965296984,0.0018455145182088017,-0.000145449535921216,0.004032806493341923
0.0038901290390640497,0.005036077927798033,-0.0062927668914198875,0.00179342704359442,-0.00014182399900164455,0.003901045536622405
0.0035426293034106493,0.004991816822439432,-0.007011787034571171,0.0017809392884373665,-0.0001382067712256685,0.0038450348656624556
0.003714148886501789,0.004957075696438551,-0.007181036751717329,0.0017958278767764568,-0.0001347583020105958,0.0038352354895323515
0.004025178961455822,0.005219318903982639,-0.007210221607238054,0.002152354922145605,-0.00013147723802831024,0.003808521432802081
0.003981485031545162,0.004981456324458122,-0.006959851365536451,0.0026062284596264362,-0.0001483130472479388,0.004207063000649214
0.00431422283872962,0.005076929461210966,-0.006818429101258516,0.0025610511656850576,-0.00014617375563830137,0.004143646918237209
0.00431422283872962,0.005076929461210966,-0.006818429101258516,0.0025610511656850576,-0.00014617375563830137,0.004143646918237209
0.004151500295847654,0.004749047104269266,-0.006496208254247904,0.002249237382784486,-0.00014294219727162272,0.004358498379588127
0.0040385546162724495,0.004619996063411236,-0.006981929298490286,0.0021126950159668922,-0.0001397762243868783,0.004180610179901123
0.003925433848053217,0.004542111419141293,-0.0069908504374325275,0.0019081137143075466,-0.00013674258661922067,0.00397542305290699
0.004386217333376408,0.004814489278942347,-0.006787178572267294,0.001881092437542975,-0.00013383751502260566,0.003931757062673569
0.004472288768738508,0.005421187728643417,-0.006861570291221142,0.0023171661887317896,-0.0001310533407377079,0.004379065241664648
0.004332849755883217,0.005201995838433504,-0.006865398492664099,0.0026803051587194204,-0.00012838261318393052,0.004420440644025803
0.004059918224811554,0.005168958567082882,-0.007234084885567427,0.002597212791442871,-0.0001391533005516976,0.0038546754512935877
0.003991457633674145,0.00500992638990283,-0.006797980051487684,0.0024997778236865997,-0.0001406742085237056,0.003627726109698415
0.004210914019495249,0.004954865202307701,-0.0064918724820017815,0.001988666132092476,-0.00013566309644374996,0.004265778698027134
0.00435002613812685,0.0048423404805362225,-0.0072589232586324215,0.0018712700111791492,-0.00013315527758095413,0.004149121232330799
0.004190681502223015,0.004952649120241404,-0.007123214658349752,0.001992900390177965,-0.0001307375350734219,0.004213408567011356
0.004019408021122217,0.005181975197046995,-0.006937247235327959,0.0022914870642125607,-0.00012840586714446545,0.0039636241272091866
0.003950697835534811,0.004358853213489056,-0.0065543982200324535,0.002302746521309018,-0.00012615593732334673,0.003796287113800645
0.0043798573315143585,0.004473281558603048,-0.007148171309381723,0.002381250960752368,-0.00012398352555464953,0.003808571258559823
0.0043611894361674786,0.004747846629470587,-0.0075452798046171665,0.0021670961286872625,-0.0001218846591655165,0.0038916789926588535
0.004567618947476149,0.005232158116996288,-0.006926591042429209,0.0019983211532235146,-0.00011985572928097099,0.004219265654683113
0.004206476267427206,0.005030431784689426,-0.006148631684482098,0.0017744525102898479,-0.0001178930833702907,0.004062760155647993
0.004325354006141424,0.004860180430114269,-0.0065527418628335,0.0019614126067608595,-0.00011599384743021801,0.004395111929625273
0.004750328604131937,0.004644135478883982,-0.0074145072139799595,0.0023376327008008957,-0.00011415474727982655,0.0044018360786139965
0.004234278108924627,0.00454981904476881,-0.006711774971336126,0.002291170647367835,-0.0001123731053667143,0.004334758035838604
0.004439200274646282,0.0046602399088442326,-0.006298212334513664,0.002105958294123411,-0.00011064619320677593,0.00448917830362916
0.0045076520182192326,0.00462330924347043,-0.0061331684701144695,0.0020197653211653233,-0.00010897156607825309,0.0046043554320931435
0.004465867765247822,0.0043892995454370975,-0.007082214578986168,0.0018673561280593276,-0.00010734689567470923,0.004137651063501835
0.0045405058190226555,0.005205314140766859,-0.007451815064996481,0.0018494129180908203,-0.00010576995555311441,0.0038714532274752855
0.004906487185508013,0.005055853631347418,-0.006419067271053791,0.0021600215695798397,-0.00010423865023767576,0.0038956848438829184
0.004756649024784565,0.004765045363456011,-0.006249432917684317,0.002446447964757681,-0.00010275106615154073,0.004391347523778677
0.004360468592494726,0.004271621350198984,-0.007119368761777878,0.002482813084498048,-0.00010130532609764487,0.004235821310430765
0.004367973655462265,0.0042520384304225445,-0.007665781769901514,0.0025258008390665054,-9.989972022594884e-05,0.0044077299535274506
0.004764856770634651,0.004935086239129305,-0.0069476948119699955,0.002326527377590537,-9.8532582342159e-05,0.00433006277307868
0.004764856770634651,0.004935086239129305,-0.0069476948119699955,0.002326527377590537,-9.8532582342159e-05,0.00433006277307868
0.004783682059496641,0.005030037369579077,-0.006370605900883675,0.0023766241502016783,-9.720235539134592e-05,0.004286079201847315
0.004776380956172943,0.004914289806038141,-0.006490082945674658,0.0022825333289802074,-9.590762056177482e-05,0.00447154650464654
0.004604856483638287,0.004635639023035765,-0.007132059428840876,0.002238385146483779,-9.464685717830434e-05,0.0046857381239533424
0.004860761575400829,0.0045525506138801575,-0.006944033782929182,0.002137359930202365,-9.341885015601292e-05,0.004632105585187674
0.004776309244334698,0.004705373663455248,-0.006680530495941639,0.0021204515360295773,-9.222228982253e-05,0.004671350587159395
0.004729895386844873,0.0046186852268874645,-0.006370062939822674,0.0021645843517035246,-9.105598292080685e-05,0.004676923155784607
0.004480062518268824,0.004935896955430508,-0.007043758407235146,0.0020962234120815992,-8.99188089533709e-05,0.004571578465402126
0.004574703983962536,0.005259046331048012,-0.006937949452549219,0.002095230622217059,-8.880968380253762e-05,0.004406795836985111
0.005017836578190327,0.004639104939997196,-0.006991592235863209,0.0019718403927981853,-8.772758883424103e-05,0.004515179432928562
0.0044363513588905334,0.004505891818553209,-0.006851695477962494,0.0021428021136671305,-8.01821006461978e-05,0.004649307578802109
0.005052085965871811,0.004767903126776218,-0.00718243233859539,0.002236380474641919,-7.71234481362626e-05,0.004302563611418009
0.005079322960227728,0.0048082005232572556,-0.007323937956243753,0.0024734402541071177,-7.571573951281607e-05,0.004476126749068499
0.004788917489349842,0.004847926553338766,-0.006520343478769064,0.002605249173939228,-7.445577648468316e-05,0.004551108460873365
0.004623861517757177,0.005204432178288698,-0.006507767364382744,0.0025447052903473377,-7.324342004721984e-05,0.004597256425768137
0.004510350059717894,0.005046319682151079,-0.007241892162710428,0.0025124410167336464,-7.207035378087312e-05,0.004759130068123341
0.004598021041601896,0.0046240538358688354,-0.007055481430143118,0.0023065542336553335,-7.093428575899452e-05,0.004776427056640387
0.004669888410717249,0.004825609736144543,-0.006854573264718056,0.00227313837967813,-6.983346975175664e-05,0.004721749573945999
0.004760848358273506,0.004823889583349228,-0.006496676243841648,0.0020813816227018833,-6.876631232444197e-05,0.00475071556866169
0.0051655531860888,0.004961651284247637,-0.006963128689676523,0.002148018218576908,-6.773130735382438e-05,0.004994206130504608
0.005001955199986696,0.005202217493206263,-0.006894133053719997,0.002111833542585373,-6.672697054455057e-05,0.005078362766653299
0.004767060745507479,0.004804162308573723,-0.006557841785252094,0.002054417971521616,-6.575197039637715e-05,0.004990437068045139
0.005252257455140352,0.004632178694009781,-0.006601523607969284,0.0020442635286599398,-6.480505544459447e-05,0.00483602425083518
0.00506850890815258,0.004519375041127205,-0.007137547247111797,0.002012412529438734,-6.388506153598428e-05,0.004791829735040665
0.005056031979620457,0.004708263091742992,-0.0076369340531528,0.0020086264703422785,-6.299079541349784e-05,0.004671965725719929
0.005325160920619965,0.005419577471911907,-0.006705071777105331,0.001986988354474306,-6.212123844306916e-05,0.004446938633918762
0.005110310390591621,0.005188564769923687,-0.006537911482155323,0.0021651051938533783,-7.271918730111793e-05,0.00439360411837697
0.0049173529259860516,0.005174354184418917,-0.006685185711830854,0.0021962106693536043,-7.24896599422209e-05,0.004831627476960421
0.005061674863100052,0.005039182025939226,-0.007382795214653015,0.002379033714532852,-7.157754589570686e-05,0.005025459453463554
0.005131004843860865,0.004983969032764435,-0.006968090310692787,0.002377638826146722,-7.064434612402692e-05,0.0048042647540569305
0.005716792307794094,0.00523923896253109,-0.006418640725314617,0.002232976723462343,-6.973232666496187e-05,0.004656895529478788
0.005716792307794094,0.00523923896253109,-0.006418640725314617,0.002232976723462343,-6.973232666496187e-05,0.004656895529478788
0.005260305944830179,0.005381383467465639,-0.006701160222291946,0.0021735350601375103,-6.884334288770333e-05,0.004880830645561218
0.004907198250293732,0.0055135260336101055,-0.0069175781682133675,0.0020949349272996187,-6.797671812819317e-05,0.004776966292411089
0.0051106675527989864,0.005066843703389168,-0.0071151587180793285,0.002268110867589712,-6.713165203109384e-05,0.00449504517018795
0.005101775284856558,0.005262343678623438,-0.006840825080871582,0.002248263917863369,-6.630735151702538e-05,0.004813845269382
0.005033621098846197,0.005484042223542929,-0.006715421564877033,0.00239162496291101,-6.550303805852309e-05,0.004927259404212236
0.0058153653517365456,0.005176568403840065,-0.0064438721165061,0.002355702919885516,-6.471799861174077e-05,0.004899926017969847
0.0050000473856925964,0.005009988788515329,-0.006801587995141745,0.002258582506328821,-6.32030496490188e-05,0.004631843417882919
0.0049054608680307865,0.005264081992208958,-0.006755607668310404,0.0020769722759723663,-6.760516407666728e-05,0.004882289096713066
0.004819647874683142,0.00548213766887784,-0.006668152287602425,0.0023132795467972755,-7.170566823333502e-05,0.0046607269905507565
0.005217105615884066,0.005251151975244284,-0.0073214066214859486,0.0024642038624733686,-7.12131368345581e-05,0.004722188226878643
0.0056287492625415325,0.005225969944149256,-0.007471936754882336,0.002596297999843955,-7.043771620374173e-05,0.004859491717070341
0.005134419072419405,0.005524651147425175,-0.006560388021171093,0.002692459151148796,-6.966024375287816e-05,0.004928855691105127
0.005168500356376171,0.005427907221019268,-0.006435312796384096,0.002519835950806737,-4.548316155705834e-06,0.005222693085670471
0.0050223274156451225,0.005022422876209021,-0.006884225644171238,0.002411851892247796,-2.969725585444394e-07,0.005379969719797373
0.005229176953434944,0.005149057134985924,-0.007269574794918299,0.0023530207108706236,-1.939018545726867e-08,0.005370923783630133
0.005658337846398354,0.005339948460459709,-0.007246526889503002,0.0023516060318797827,-1.2660404946629455e-09,0.005273282993584871
0.005934463813900948,0.005278465338051319,-0.007304956205189228,0.0022538902703672647,-8.266339696083591e-11,0.0048409439623355865
0.005356848705559969,0.0052258046343922615,-0.007052158005535603,0.002222547773271799,-5.397329284895225e-12,0.004801886156201363
0.0059125241823494434,0.0049512689001858234,-0.00757589191198349,0.002243200782686472,-3.5240701416056064e-13,0.005432759411633015
0.005448617972433567,0.004842306487262249,-0.007479177322238684,0.0025927284732460976,-2.3009660176558436e-14,0.005344563163816929
0.005535762291401625,0.005164582747966051,-0.006862863432615995,0.0024020462296903133,-1.502366350798073e-15,0.005365766119211912
0.0059504397213459015,0.004821613896638155,-0.006745621096342802,0.0023265164345502853,-9.809378050822215e-17,0.005281676072627306
0.00601310795173049,0.004671390634030104,-0.007460223510861397,0.0023291013203561306,-6.404822673460835e-18,0.00508150365203619
0.005625688936561346,0.004753964487463236,-0.0073031713254749775,0.002524277428165078,-4.181891461389731e-19,0.0052977330051362514
0.005468760617077351,0.005075989756733179,-0.007059526164084673,0.002587981056421995,-3.433560414123349e-05,0.005006721708923578
0.005543923005461693,0.004907360766083002,-0.006795971654355526,0.0028965394012629986,-9.088182559935376e-05,0.005065230652689934
0.00630278280004859,0.0049760229885578156,-0.007324892561882734,0.0026943630073219538,-9.274444164475426e-05,0.005341855809092522
0.0057421233505010605,0.00489031383767724,-0.007239181082695723,0.002442308235913515,-9.11106399144046e-05,0.0054132211953401566
0.0057421233505010605,0.00489031383767724,-0.007239181082695723,0.002442308235913515,-9.11106399144046e-05,0.0054132211953401566
0.005738270003348589,0.0048245652578771114,-0.00690292427316308,0.0023337015882134438,-8.931810589274392e-05,0.005446191877126694
0.0053870053961873055,0.004795087967067957,-0.0068263825960457325,0.0022156434133648872,-8.758076000958681e-05,0.005241057835519314
0.005898294039070606,0.005080294329673052,-0.00719004450365901,0.002444114536046982,-8.590882498538122e-05,0.005025106947869062
0.005712013226002455,0.005049386993050575,-0.0075934091582894325,0.0029637934640049934,-8.429942681686953e-05,0.005275414790958166
0.00632929103448987,0.004471587482839823,-0.00733184115961194,0.002724624006077647,-9.537801088299602e-05,0.005417959298938513
0.005617414601147175,0.005046517122536898,-0.007779683917760849,0.0028001226019114256,-9.563769708620384e-05,0.005106775090098381
0.005878710653632879,0.0051451073959469795,-0.007743139751255512,0.003108434146270156,-9.409842459717765e-05,0.005326284095644951
0.005997995380312204,0.005066124722361565,-0.007008022628724575,0.003164302557706833,-9.249491995433345e-05,0.0057441857643425465
0.006175961811095476,0.004845065530389547,-0.007304134778678417,0.003023396013304591,-9.093780681723729e-05,0.005654843524098396
0.006336529273539782,0.004870661534368992,-0.008323447778820992,0.0027430576737970114,-8.943175635067746e-05,0.00571639696136117
0.0059381406754255295,0.004655841737985611,-0.007804424501955509,0.002684479346498847,-8.797476039035246e-05,0.005244684871286154
0.0062970491126179695,0.004878337029367685,-0.007599837612360716,0.002580062486231327,-8.656446152599528e-05,0.005107981152832508
0.006151555106043816,0.005291009787470102,-0.007362662348896265,0.00252596870996058,-9.574116120347753e-05,0.004975913558155298
0.006275589112192392,0.004706880543380976,-0.007767591159790754,0.0028273581992834806,-9.761577530298382e-05,0.005728958174586296
0.006381165236234665,0.004567698109894991,-0.007486326154321432,0.0026747724041342735,-9.634232992539182e-05,0.005735157523304224
0.006508294492959976,0.004941602237522602,-0.007631571032106876,0.0025472352281212807,-9.490529191680253e-05,0.005861273966729641
0.006311655044555664,0.004986984189599752,-0.007659801281988621,0.002581765176728368,-9.349772153655067e-05,0.005445986520498991
0.006731970701366663,0.004820655100047588,-0.008392633870244026,0.002771924016997218,-9.213048906531185e-05,0.005446483381092548
0.006739552598446608,0.004719753284007311,-0.00790075771510601,0.0033465747255831957,-9.080262680072337e-05,0.00548780569806695
0.006372402422130108,0.004590795841068029,-0.0076016150414943695,0.0032893246971070766,-8.951245399657637e-05,0.005345951300114393
0.006379669066518545,0.004584863781929016,-0.008182111196219921,0.0030741789378225803,-8.825847908155993e-05,0.006453110370784998
0.006736914161592722,0.004541783593595028,-0.008575601503252983,0.002992959227412939,-8.703912317287177e-05,0.0055223749950528145
0.006996828597038984,0.004602916073054075,-0.008196844719350338,0.0029201647266745567,-9.496207349002361e-05,0.005242343060672283
0.006996828597038984,0.004602916073054075,-0.008196844719350338,0.0029201647266745567,-9.496207349002361e-05,0.005242343060672283
0.006592216901481152,0.004618262872099876,-0.0076040890999138355,0.002929365960881114,-9.659253555582836e-05,0.005540064070373774
0.006332674995064735,0.004670410417020321,-0.009019836783409119,0.002766050398349762,-9.550102549837902e-05,0.0060522048734128475
0.006230414379388094,0.004738415591418743,-0.00824661087244749,0.002773004351183772,-9.42631158977747e-05,0.0064554475247859955
0.006820647977292538,0.004954741336405277,-0.007697125431150198,0.0027424420695751905,-9.304576087743044e-05,0.006067827343940735
0.0067368075251579285,0.004494697321206331,-0.008016337640583515,0.0028009903617203236,-9.185875387629494e-05,0.006147596053779125
0.006792391650378704,0.004574809689074755,-0.008689744397997856,0.0032853868324309587,-9.070156374946237e-05,0.005775881931185722
0.006713517941534519,0.0046456847339868546,-0.00851648673415184,0.003082741517573595,-8.957320096669719e-05,0.005915239453315735
0.007500091567635536,0.00498289754614234,-0.00772497383877635,0.0028665484860539436,-8.847250865073875e-05,0.006159103941172361
0.006652457173913717,0.005069108679890633,-0.00783207081258297,0.0026419004425406456,-8.739859913475811e-05,0.0058734058402478695
0.006719018332660198,0.004922474268823862,-0.008269325830042362,0.0027640480548143387,-8.532709034625441e-05,0.005699448753148317
0.007017773110419512,0.005014198832213879,-0.007750007323920727,0.0029375990852713585,-8.432775211986154e-05,0.006236576940864325
0.006653130054473877,0.004893245175480843,-0.008373931050300598,0.0029036421328783035,-8.335151505889371e-05,0.00633505592122674
0.0064808218739926815,0.005245765205472708,-0.008444980718195438,0.0027784686535596848,-8.239766611950472e-05,0.006084215361624956
0.006091860122978687,0.00503147067502141,-0.008093061856925488,0.0028510347474366426,-8.15446037449874e-05,0.006122665945440531
0.0060105035081505775,0.004493725951761007,-0.0076722982339560986,0.003101798240095377,-0.0001035719396895729,0.006233085412532091
0.006585868075489998,0.00451821181923151,-0.007487844210118055,0.0032607705798000097,-0.00010276772081851959,0.006133306305855513
0.006588071119040251,0.004536785185337067,-0.007973510771989822,0.003329100087285042,-0.00010057287727249786,0.0063661932945251465
0.006965459790080786,0.004577492829412222,-0.007975062355399132,0.003143224399536848,-9.838065307121724e-05,0.006301692221313715
0.006908503361046314,0.0046282438561320305,-0.00755865965038538,0.002929157577455044,-9.627620602259412e-05,0.006097327917814255
0.00653660437092185,0.005131184589117765,-0.00792784709483385,0.003004755824804306,-9.425953612662852e-05,0.006313411984592676
0.007080843672156334,0.005351676139980555,-0.007594909984618425,0.003104602452367544,-9.23254992812872e-05,0.006440004333853722
0.0068711102940142155,0.004632960073649883,-0.0072590867057442665,0.003269762732088566,-9.046929335454479e-05,0.006175681483000517
0.006524928845465183,0.004537075292319059,-0.00762071693316102,0.003179592080414295,-8.868632721714675e-05,0.00605636416003108
0.006551103200763464,0.005066840443760157,-0.007987321354448795,0.0031112178694456816,-8.69721916387789e-05,0.006434624549001455
0.006766350474208593,0.005074548069387674,-0.007614391390234232,0.0031667540315538645,-0.00010125197150046006,0.006289924494922161
0.006691729184240103,0.004755031783133745,-0.007209910079836845,0.003277800977230072,-0.00010040837514679879,0.006462867837399244
0.0067793335765600204,0.004879999905824661,-0.0075004869140684605,0.003429942764341831,-9.86419981927611e-05,0.006568631157279015
0.006830066908150911,0.00473269447684288,-0.008144405670464039,0.0036310201976448298,-9.687677084002644e-05,0.0061857509426772594
0.007090281695127487,0.0048316847532987595,-0.0076595451682806015,0.003494198666885495,-9.516965656075627e-05,0.006050153635442257
0.007090281695127487,0.0048316847532987595,-0.0076595451682806015,0.003494198666885495,-9.516965656075627e-05,0.006050153635442257
0.007043767254799604,0.004829642362892628,-0.007573406212031841,0.0034115829039365053,-9.352145571028814e-05,0.006564418785274029
0.0072350818663835526,0.00469857407733798,-0.008368413895368576,0.003198250662535429,-9.19293233891949e-05,0.0067511978559195995
0.0073830424807965755,0.005062269512563944,-0.007888472639024258,0.0031213166657835245,-9.039052383741364e-05,0.006516313645988703
0.006639867555350065,0.005130880046635866,-0.007755718659609556,0.003191198455169797,-9.990177204599604e-05,0.006177326664328575
0.0070723011158406734,0.005304115824401379,-0.007446019910275936,0.003404961433261633,-0.00010179023956879973,0.006391403265297413
0.0070250858552753925,0.00507727125659585,-0.007555491756647825,0.0035281910095363855,-0.00010039687185781077,0.006773573346436024
0.0071997204795479774,0.0052201333455741405,-0.007512062322348356,0.0035180500708520412,-9.731105819810182e-05,0.006507775746285915
0.007441478315740824,0.005136631894856691,-0.00783579796552658,0.0033518008422106504,-9.583087376086041e-05,0.006753861438483
0.0077003431506454945,0.004944370593875647,-0.0083137983456254,0.0034491950646042824,-9.439499262953177e-05,0.006747853476554155
0.007508390117436647,0.005150086712092161,-0.008225565776228905,0.0037029662635177374,-9.30015230551362e-05,0.00659438269212842
0.0069437394849956036,0.004978875629603863,-0.0077614313922822475,0.003907965030521154,-9.164863149635494e-05,0.006578459404408932
0.007394377142190933,0.0046345386654138565,-0.00841052457690239,0.003557467134669423,-9.033449896378443e-05,0.006625111680477858
0.007697053253650665,0.005014055874198675,-0.00860441941767931,0.0035637496039271355,-0.00010093735181726515,0.006743560545146465
0.007390421815216541,0.0049890559166669846,-0.007856986485421658,0.0039539760909974575,-0.00010030627890955657,0.007184471003711224
0.007422241847962141,0.0051306309178471565,-0.008228469640016556,0.004222094547003508,-9.897799463942647e-05,0.006958541460335255
0.007743645925074816,0.004988480359315872,-0.00819430686533451,0.003608554368838668,-9.763908747117966e-05,0.006812260951846838
0.00817293580621481,0.004785051103681326,-0.008086576126515865,0.0035438628401607275,-9.633290028432384e-05,0.006648199167102575
0.0075517562218010426,0.004877027124166489,-0.007833108305931091,0.0033322847448289394,-9.506106289336458e-05,0.006719666067510843
0.008023700676858425,0.004648594651371241,-0.007621719501912594,0.003380819223821163,-9.382233838550746e-05,0.006897743325680494
0.007903000339865685,0.004882155451923609,-0.008990154601633549,0.003570478642359376,-9.261545346817002e-05,0.007087782956659794
0.00793304480612278,0.005288757383823395,-0.008170985616743565,0.004270144738256931,-9.155119187198579e-05,0.006925282534211874
0.007878011092543602,0.004878468345850706,-0.007835645228624344,0.004114089999347925,-0.00011671041283989325,0.006807568017393351
0.008309196680784225,0.004503578878939152,-0.008232868276536465,0.0036348181311041117,-0.00011551273200893775,0.007080680225044489
0.008462019264698029,0.0044225226156413555,-0.00877551082521677,0.003453114302828908,-0.0001127361465478316,0.0071674128994345665
0.007871190086007118,0.004608904477208853,-0.008447395637631416,0.0034834931138902903,-0.00010998817015206441,0.007201322354376316
0.007992980070412159,0.004762630444020033,-0.008113211020827293,0.003615399356931448,-0.0001073644234566018,0.007228382863104343
0.008339316584169865,0.0047216289676725864,-0.009043130092322826,0.0036111061926931143,-0.00010486247629160061,0.007318278308957815
0.008339316584169865,0.0047216289676725864,-0.009043130092322826,0.0036111061926931143,-0.00010486247629160061,0.007318278308957815
0.008301016874611378,0.005033822264522314,-0.008182607591152191,0.003625772427767515,-0.00010247438331134617,0.007116864435374737
0.008332362398505211,0.004482009448111057,-0.008073930628597736,0.0037083018105477095,-0.00011505313887028024,0.006899125408381224
0.008538034744560719,0.004528617952018976,-0.008263626135885715,0.0036459960974752903,-0.00011727438686648384,0.0072031752206385136
0.008474028669297695,0.004723217338323593,-0.008741314522922039,0.003537938930094242,-0.00011508329043863341,0.007521315943449736
0.008749249391257763,0.005130115896463394,-0.008321857079863548,0.0033100354485213757,-0.0001127015202655457,0.007455136626958847
0.00820790696889162,0.005042682401835918,-0.00816605519503355,0.003407744225114584,-0.00011039867968065664,0.007207653950899839
0.008762291632592678,0.004636890254914761,-0.008272713981568813,0.004200365394353867,-0.00010606196883600205,0.00786836538463831
0.008539616130292416,0.0047509511932730675,-0.00796737615019083,0.004137991461902857,-0.0001040188071783632,0.007699197623878717
0.009019824676215649,0.0044808899983763695,-0.00889987125992775,0.004018245730549097,-0.00010205301805399358,0.00726860947906971
0.008601450361311436,0.004575790371745825,-0.008663655258715153,0.0039996192790567875,-0.000108375221316237,0.007476329803466797
0.00824633426964283,0.00450765248388052,-0.008066234178841114,0.003992609214037657,-0.00011417187488405034,0.007707246579229832
0.00824066437780857,0.004690039902925491,-0.007953552529215813,0.003957671578973532,-0.00011263741907896474,0.0076004876755177975
0.008606251329183578,0.0046538799069821835,-0.00914019625633955,0.00407783268019557,-0.00011069149331888184,0.007575478404760361
0.00870544370263815,0.004659122787415981,-0.00871465913951397,0.004091392736881971,-0.00010878223838517442,0.00834603700786829
0.008654342032968998,0.004254166968166828,-0.008496064692735672,0.004352550487965345,-0.00010693594958866015,0.00755404494702816
0.009044021368026733,0.004389568697661161,-0.008871390484273434,0.004189317114651203,-0.00010515105532249436,0.006929558236151934
0.009253404103219509,0.0045128753408789635,-0.009013775736093521,0.004813187289983034,-0.00010342484165448695,0.007463587913662195
0.009234950877726078,0.005018314346671104,-0.008398493751883507,0.004940181504935026,-0.00011532602366060019,0.008026834577322006
0.008907249197363853,0.004816182889044285,-0.008475186303257942,0.004838991444557905,-0.00011437927605584264,0.008478834293782711
0.009568109177052975,0.004440939053893089,-0.008980331011116505,0.0043471925891935825,-0.00011264761269558221,0.007886487990617752
0.008372003212571144,0.00442633219063282,-0.008804683573544025,0.003977910615503788,-0.00011091602209489793,0.008110102266073227
0.008569590747356415,0.004488379694521427,-0.008176769129931927,0.003868300700560212,-0.00010923353693215176,0.007994011044502258
0.00931350514292717,0.004641930107027292,-0.008638995699584484,0.003929475322365761,-0.00010760107397800311,0.0082091698423028
0.009004698134958744,0.004428615793585777,-0.008851767517626286,0.004441361408680677,-0.0001060167487594299,0.00813739188015461
0.009437208995223045,0.0045942445285618305,-0.008411640301346779,0.004641227424144745,-0.0001044782911776565,0.008407273329794407
0.009437208995223045,0.0045942445285618305,-0.008411640301346779,0.004641227424144745,-0.0001044782911776565,0.008407273329794407
0.00969180278480053,0.004530284088104963,-0.008349575102329254,0.004333039745688438,-0.00010299612767994404,0.00859768595546484
0.00968974269926548,0.004515431821346283,-0.008883324451744556,0.004315193276852369,-0.00015515198174398392,0.008460073731839657
0.009217087179422379,0.004587061703205109,-0.00861415732651949,0.004121504724025726,-0.00015431716747116297,0.007892395369708538
0.009495915845036507,0.004565028473734856,-0.008895729668438435,0.004332391545176506,-0.0001502583036199212,0.007885337807238102
0.009595212526619434,0.0048255459405481815,-0.008833047933876514,0.0044806585647165775,-0.00014620504225604236,0.008308605290949345
0.009217322804033756,0.005266379565000534,-0.008620469830930233,0.004784437827765942,-0.0001423516368959099,0.008424453437328339
0.00972074456512928,0.004731673747301102,-0.00916515477001667,0.004820677451789379,-0.00013869532267563045,0.008191591128706932
0.009302058257162571,0.004480537958443165,-0.009257572703063488,0.004674538504332304,-0.0001352219405816868,0.00839206948876381
0.009328540414571762,0.004589534830302,-0.008615856058895588,0.004340555984526873,-0.00012877238623332232,0.00833610538393259
0.009470855817198753,0.0048264688812196255,-0.008928554132580757,0.004381205886602402,-0.0001257730182260275,0.008313861675560474
0.00982771348208189,0.004777923692017794,-0.00916636735200882,0.004499079193919897,-0.00014202645979821682,0.00876618456095457
0.00940102618187666,0.005188935901969671,-0.008827850222587585,0.004887447226792574,-0.00014011449820827693,0.008811965584754944
0.009773883037269115,0.004498873837292194,-0.00912628322839737,0.00477727223187685,-0.00013714568922296166,0.008852493949234486
0.009546198882162571,0.004478173796087503,-0.009551648050546646,0.004844787064939737,-0.00013422883057501167,0.009056290611624718
0.010203449986875057,0.004353328607976437,-0.009005137719213963,0.00461213756352663,-0.00013142885291017592,0.008976567536592484
0.009914830327033997,0.004316431004554033,-0.009277506731450558,0.004341739229857922,-0.00012874294770881534,0.008944510482251644
0.009920901618897915,0.0043633487075567245,-0.009389552287757397,0.004868924152106047,-0.00012616475578397512,0.008736134506762028
0.009960059076547623,0.004547984339296818,-0.009024269878864288,0.00508472602814436,-0.00013238072278909385,0.008848226629197598
0.01063751894980669,0.004690514411777258,-0.00904613547027111,0.005285133607685566,-0.0001380493922624737,0.008806481957435608
0.009554102085530758,0.004507365636527538,-0.00996294803917408,0.004989287815988064,-0.00013597813085652888,0.00882091373205185
0.010262600146234035,0.004596749320626259,-0.009763645939528942,0.0048304065130651,-0.0001334919361397624,0.00897587276995182
0.010173628106713295,0.004282610025256872,-0.009180320426821709,0.004719644319266081,-0.00013106424012221396,0.008735937997698784
0.009845062159001827,0.00454611424356699,-0.00990826915949583,0.005223484709858894,-0.00012872111983597279,0.008423390798270702
0.010369518771767616,0.004208678845316172,-0.009565528482198715,0.005258798599243164,-0.0001264603779418394,0.009202693589031696
0.01022742036730051,0.004317516461014748,-0.008960610255599022,0.005297334864735603,-0.00012427744513843209,0.008944247849285603
0.010332906618714333,0.004304860718548298,-0.009696667082607746,0.005327696446329355,-0.00013350411609280854,0.008625968359410763
0.010332906618714333,0.004304860718548298,-0.009696667082607746,0.005327696446329355,-0.00013350411609280854,0.008625968359410763
0.011247419752180576,0.004020968452095985,-0.009806634858250618,0.0050487457774579525,-0.0001348897349089384,0.008765880018472672
0.010376540012657642,0.00405032467097044,-0.009365296922624111,0.004930905997753143,-0.00013291196955833584,0.008977851830422878
0.010081497952342033,0.003955526743084192,-0.009692363440990448,0.00482572615146637,-0.00013078136544208974,0.008810878731310368
0.010417990386486053,0.0038295830599963665,-0.00971771776676178,0.005175250116735697,-0.00012870431237388402,0.009008991532027721
0.010143431834876537,0.0037959229666739702,-0.00948379933834076,0.00555420620366931,-0.00012669138959608972,0.00931266974657774
0.010420648381114006,0.00430817436426878,-0.011042717844247818,0.005263287108391523,-0.00015808407624717802,0.009647900238633156
0.01015905849635601,0.004539749585092068,-0.010130131617188454,0.00524035282433033,-0.00016407883958891034,0.008749154396355152
0.010347014293074608,0.004305596463382244,-0.009431709535419941,0.004969014786183834,-0.00015992471890058368,0.009181732311844826
0.010057971812784672,0.004004680085927248,-0.01049727387726307,0.004838283639401197,-0.00015536924183834344,0.009082823060452938
0.010368929244577885,0.003847193904221058,-0.009988350793719292,0.0051567223854362965,-0.00016967406554613262,0.00917669478803873
0.010374222882091999,0.004328802693635225,-0.009489698335528374,0.00540851941332221,-0.00017097772797569633,0.008946666494011879
0.00991507712751627,0.004244897048920393,-0.009958942420780659,0.0053396690636873245,-0.00016683580179233104,0.00884976889938116
0.01000122632831335,0.0038865439128130674,-0.009562769904732704,0.005060354247689247,-0.0001584683486726135,0.00920349732041359
0.010178156197071075,0.004121078178286552,-0.010031872428953648,0.005304174963384867,-0.00017375664901919663,0.009230474010109901
0.01107035856693983,0.004090063739567995,-0.010370386764407158,0.0056868260726332664,-0.0001722420856822282,0.009899131022393703
0.01011480949819088,0.0044309101067483425,-0.00994434580206871,0.005899154115468264,-0.0001683863520156592,0.009450900368392467
0.010081139393150806,0.004242912866175175,-0.010743483901023865,0.005717140156775713,-0.00016454915748909116,0.010114016011357307
0.010133950971066952,0.004017163533717394,-0.01006291899830103,0.005676473490893841,-0.00017834031314123422,0.009633902460336685
0.010406737215816975,0.003852375317364931,-0.01012546755373478,0.005795606877654791,-0.00017685414059087634,0.00891850795596838
0.010171451605856419,0.004358429927378893,-0.010223151184618473,0.005608700215816498,-0.0001732291275402531,0.009370416402816772
0.010440774261951447,0.0045974766835570335,-0.009636194445192814,0.005546046886593103,-0.00016961191431619227,0.00974702462553978
0.00980907492339611,0.004221967421472073,-0.009945943020284176,0.00603130366653204,-0.00016647721349727362,0.009947479702532291
0.010287705808877945,0.003969850949943066,-0.010733943432569504,0.005649443715810776,-0.00023768460960127413,0.009783131070435047
0.01036045327782631,0.0038807825185358524,-0.009859488345682621,0.005718981847167015,-0.00023072758631315082,0.009805433452129364
0.010969988070428371,0.003935202024877071,-0.010572805069386959,0.005723260343074799,-0.00021979700250085443,0.009996435604989529
0.010624839924275875,0.003932865336537361,-0.010015910491347313,0.006050269119441509,-0.00024052934895735234,0.01071496307849884
0.010589086450636387,0.004080328159034252,-0.0095958411693573,0.0057131145149469376,-0.00023958702513482422,0.0104684391990304
0.010265889577567577,0.004036916419863701,-0.010220125317573547,0.005767639260739088,-0.0002300157939316705,0.010868780314922333
0.010499241761863232,0.0038266994524747133,-0.010274235159158707,0.0056492481380701065,-0.0002206566568929702,0.010672658681869507
0.010259958915412426,0.0036661289632320404,-0.009906044229865074,0.005842018872499466,-0.00024262491206172854,0.01064667571336031
0.010259958915412426,0.0036661289632320404,-0.009906044229865074,0.005842018872499466,-0.00024262491206172854,0.01064667571336031
0.010442972183227539,0.00363302044570446,-0.010573714971542358,0.0059358165599405766,-0.00023767621314618737,0.010990570299327374
0.010687156580388546,0.0036500755231827497,-0.010438323952257633,0.005863951053470373,-0.00022929914121050388,0.010517862625420094
0.010733140632510185,0.003656114684417844,-0.009970352984964848,0.005958667024970055,-0.00025073287542909384,0.010306607000529766
0.011290902271866798,0.0036727595143020153,-0.010126818902790546,0.005805335007607937,-0.0002441526157781482,0.010137980803847313
0.01036514900624752,0.0037216723430901766,-0.009673570282757282,0.005924058612436056,-0.00023626565234735608,0.010536432266235352
0.009912267327308655,0.003806590335443616,-0.009547321125864983,0.005900295451283455,-0.000309073569951579,0.010085336863994598
0.01068679429590702,0.003781802486628294,-0.010193568654358387,0.005628929939121008,-0.0003003310994245112,0.010710600763559341
0.010689714923501015,0.0037398110143840313,-0.010819902643561363,0.005541389342397451,-0.00028226300491951406,0.01090531051158905
0.011035773903131485,0.004082995466887951,-0.010965975932776928,0.005749232601374388,-0.00030075840186327696,0.0108717642724514
0.010662472806870937,0.003924260847270489,-0.011082937940955162,0.006020312197506428,-0.000320130871841684,0.010702760890126228
0.011003237217664719,0.0038480646908283234,-0.01032908633351326,0.0060310582630336285,-0.0003151172131765634,0.01032323855906725
0.01100794319063425,0.003848504275083542,-0.010700327344238758,0.005719668231904507,-0.00032177494722418487,0.009813164360821247
0.010358630679547787,0.0043810708448290825,-0.010090475901961327,0.005751209799200296,-0.00032670548534952104,0.00971213635057211
0.01078219898045063,0.004112605936825275,-0.010457775555551052,0.006050686817616224,-0.0004266703617759049,0.010652423836290836
0.011077567003667355,0.0039807092398405075,-0.010662754066288471,0.006030278746038675,-0.00042421076796017587,0.01078744325786829
0.011010685935616493,0.0034826144110411406,-0.009956478141248226,0.00576752470806241,-0.0003899051807820797,0.01028409693390131
0.011066361330449581,0.003593176370486617,-0.011229246854782104,0.005524603649973869,-0.0003589375992305577,0.010878818109631538
0.010643156245350838,0.004257793538272381,-0.0105365589261055,0.005545017309486866,-0.00033241152414120734,0.011038006283342838
0.011109104380011559,0.004089519381523132,-0.009979711845517159,0.005739189684391022,-0.0003095314314123243,0.01094603817909956
0.011399641633033752,0.003918908070772886,-0.010675444267690182,0.006358061917126179,-0.0003396569227334112,0.011255864053964615
0.011668563820421696,0.0038699177093803883,-0.01040303148329258,0.006442338693886995,-0.00032598330290056765,0.01075842697173357
0.012995440512895584,0.0038219341076910496,-0.010223742574453354,0.006077171768993139,-0.00030783930560573936,0.01058090478181839
0.01329485047608614,0.0038722907193005085,-0.010516169480979443,0.005757937207818031,-0.00029125838773325086,0.010797113180160522
0.013680592179298401,0.00431564636528492,-0.010634467005729675,0.006306848488748074,-0.00027634939760901034,0.010724158957600594
0.01298153679817915,0.004246140830218792,-0.011625847779214382,0.006633372511714697,-0.0002952309441752732,0.010722110979259014
0.012982132844626904,0.003987726755440235,-0.011443703435361385,0.006526008248329163,-0.0002917150850407779,0.010767778381705284
0.012955895625054836,0.004026117734611034,-0.01038275845348835,0.006290590390563011,-0.0002794377796817571,0.01082002092152834
0.012955895625054836,0.004026117734611034,-0.01038275845348835,0.006290590390563011,-0.0002794377796817571,0.01082002092152834
0.013119131326675415,0.004003195557743311,-0.010776554234325886,0.00589577853679657,-0.0002958572586067021,0.011327451094985008
0.013462812639772892,0.003937528468668461,-0.010512231849133968,0.006524896714836359,-0.00029272542451508343,0.011148232035338879
0.012986346147954464,0.003822746453806758,-0.009881067089736462,0.006404317449778318,-0.00028184650000184774,0.011762673035264015
0.013704205863177776,0.004274964798241854,-0.010438275523483753,0.0061731114983558655,-0.0002712639980018139,0.011759588494896889
0.013309403322637081,0.0041374447755515575,-0.010333284735679626,0.006107436493039131,-0.0002614165423437953,0.01131620816886425
0.0133863165974617,0.003949910867959261,-0.010704437270760536,0.0062014260329306126,-0.00025252727209590375,0.011808818206191063
0.012975848279893398,0.0043510934337973595,-0.011060462333261967,0.006330839358270168,-0.0002233471313957125,0.010707763023674488
0.013593224808573723,0.004160589072853327,-0.010204792022705078,0.006619961932301521,-0.00021174494759179652,0.010850323364138603
0.01380633283406496,0.0041299546137452126,-0.010779865086078644,0.00658439053222537,-0.00019346075714565814,0.010827216319739819
0.013311117887496948,0.004018192179501057,-0.009676188230514526,0.007300710771232843,-0.0001854841539170593,0.011021087877452374
0.013317308388650417,0.004133876878768206,-0.01039891503751278,0.006806562654674053,-0.00020447959832381457,0.011378306895494461
0.013429018668830395,0.004499183036386967,-0.010160887613892555,0.006509901490062475,-0.00020502043480519205,0.011397486552596092
0.013619760051369667,0.004077291581779718,-0.009997045621275902,0.006667200941592455,-0.00019804318435490131,0.01194356195628643
0.0136994868516922,0.004367439076304436,-0.010862616822123528,0.006770488806068897,-0.00021463105804286897,0.01204477995634079
0.013537977822124958,0.004674602299928665,-0.010727849788963795,0.007441100664436817,-0.0002147583436453715,0.011665182188153267
0.013709889724850655,0.004316352307796478,-0.00977089162915945,0.006818339228630066,-0.0002081482671201229,0.011613376438617706
0.013216119259595871,0.004005493130534887,-0.01058981940150261,0.006662673316895962,-0.00020152120850980282,0.011854934506118298
0.01355385035276413,0.004128371365368366,-0.010179651901125908,0.007065038662403822,-0.00021948367066215724,0.012265557423233986
0.013867812231183052,0.004164689686149359,-0.00965504627674818,0.007487916853278875,-0.00021622194617521018,0.011680332012474537
0.014039535075426102,0.00438455818220973,-0.010303015820682049,0.007218930870294571,-0.00027820083778351545,0.0117811169475317
0.013275290839374065,0.004068467300385237,-0.010014318861067295,0.007040052209049463,-0.000283171480987221,0.011558662168681622
0.01436709426343441,0.00390926469117403,-0.011039914563298225,0.006905611138790846,-0.00031411953386850655,0.012278275564312935
0.013425217941403389,0.004335897509008646,-0.01058727316558361,0.007787530776113272,-0.0003401974099688232,0.012392490170896053
0.013659195974469185,0.004140766337513924,-0.009840929880738258,0.007357723545283079,-0.00036954288952983916,0.012130697257816792
0.013659195974469185,0.004140766337513924,-0.009840929880738258,0.007357723545283079,-0.00036954288952983916,0.012130697257816792
0.013637167401611805,0.003986829426139593,-0.009734401479363441,0.0071437666192650795,-0.0003643622330855578,0.01207332406193018
0.013917485252022743,0.003969307988882065,-0.010614133439958096,0.00741095095872879,-0.0006873642560094595,0.011821857653558254
0.013761901296675205,0.004384887404739857,-0.009739947505295277,0.00717413192614913,-0.0007078888011164963,0.012395171448588371
0.013833912089467049,0.00418493989855051,-0.009676755405962467,0.006952137220650911,-0.0006513656699098647,0.011969444341957569
0.013685193844139576,0.00432221032679081,-0.010419766418635845,0.007081066723912954,-0.000582846172619611,0.011952284723520279
0.014110881835222244,0.004133501090109348,-0.010364112444221973,0.006906948518007994,-0.0005902292323298752,0.01189048308879137
0.0139476228505373,0.00425759656354785,-0.011098125018179417,0.007194449193775654,-0.0005576990079134703,0.012084400281310081
0.014235863462090492,0.004080657381564379,-0.010363769717514515,0.0075272866524755955,-0.0005673193954862654,0.012281988747417927
0.01398366130888462,0.004059771541506052,-0.009605828672647476,0.00762962456792593,-0.0005414066254161298,0.012330178171396255
0.014153016731142998,0.004085740074515343,-0.01018447708338499,0.006960379425436258,-0.0005029889289289713,0.012413907796144485
0.01422776561230421,0.004848511423915625,-0.009816895239055157,0.007470214739441872,-0.0004919999628327787,0.012582756578922272
0.014118125662207603,0.004401553887873888,-0.010876504704356194,0.007160135544836521,-0.0005234542768448591,0.012546648271381855
0.014330308884382248,0.004103411920368671,-0.010432882234454155,0.007140991277992725,-0.0005478124367073178,0.012583078816533089
0.01422604639083147,0.0038788756355643272,-0.01044747605919838,0.007369458209723234,-0.0007347660721279681,0.012933974154293537
0.014102253131568432,0.003810162888839841,-0.011338566429913044,0.007532797753810883,-0.0007971572340466082,0.012436578050255775
0.014310930855572224,0.003922700881958008,-0.010404576547443867,0.0075018201023340225,-0.0007833326235413551,0.013251972384750843
0.014667878858745098,0.0044969674199819565,-0.010323816910386086,0.0074677253141999245,-0.0007442553760483861,0.012727211229503155
0.014545634388923645,0.004739833530038595,-0.010267363861203194,0.007497105281800032,-0.0007508120615966618,0.012585057877004147
0.014484514482319355,0.004639234393835068,-0.01054855901747942,0.006805192679166794,-0.0006929216906428337,0.011967284604907036
0.014297932386398315,0.00424602534621954,-0.011718707159161568,0.007824556902050972,-0.0007084088865667582,0.011911841109395027
0.014234150759875774,0.004083838313817978,-0.01143125630915165,0.007408319506794214,-0.0007335496484301984,0.01370836328715086
0.014645470306277275,0.004530192818492651,-0.010892991907894611,0.007248708046972752,-0.0007535606273449957,0.012274513021111488
0.014796540141105652,0.00477363308891654,-0.011577176861464977,0.007755777798593044,-0.0007627815939486027,0.012364281341433525
0.014769960194826126,0.004822476767003536,-0.01155816949903965,0.007713352330029011,-0.0007011672132648528,0.013122161850333214
0.014835065230727196,0.004734304267913103,-0.01113591343164444,0.007384218741208315,-0.0007596662035211921,0.013521905988454819
0.014621659182012081,0.00485961465165019,-0.011577009223401546,0.007469837088137865,-0.0007554709445685148,0.013286353088915348
0.014939827844500542,0.004294357728213072,-0.010907933115959167,0.008007552474737167,-0.0006886940682306886,0.013247325085103512
0.014659513719379902,0.004416393116116524,-0.012132943607866764,0.007588484324514866,-0.0007069678395055234,0.013601180166006088
0.014753053896129131,0.0041501340456306934,-0.011918740347027779,0.007416706066578627,-0.0006412280490621924,0.013298820704221725
0.014753053896129131,0.0041501340456306934,-0.011918740347027779,0.007416706066578627,-0.0006412280490621924,0.013298820704221725
0.014463001862168312,0.004364699590951204,-0.011882467195391655,0.007663663011044264,-0.0006594957667402923,0.013772792182862759
0.014929594472050667,0.004203069489449263,-0.012816713191568851,0.007707131560891867,-0.000608753995038569,0.013831965625286102
0.014778917655348778,0.004200404044240713,-0.011624508537352085,0.0075893709436059,-0.0005615642294287682,0.013245590031147003
0.015114487148821354,0.004258828703314066,-0.011862288229167461,0.007656409405171871,-0.000512887432705611,0.013145895674824715
0.015180154703557491,0.004437749274075031,-0.012284516356885433,0.007115666288882494,-0.00046118570026010275,0.013458684086799622
0.015540316700935364,0.0041549489833414555,-0.011901617050170898,0.007984419353306293,-0.00041831861017271876,0.013341533951461315
0.01484380941838026,0.003997370600700378,-0.01223608385771513,0.0077123092487454414,-0.0004197030793875456,0.01337341871112585
0.015403490513563156,0.0035481383092701435,-0.011839954182505608,0.007421941962093115,-0.00042063690489158034,0.012973573058843613
0.015710439532995224,0.004656845238059759,-0.011768168769776821,0.007745729759335518,-0.0003658226632978767,0.013778278604149818
0.015527413226664066,0.004870094358921051,-0.012102941051125526,0.007532491348683834,-0.00034260869142599404,0.01391084585338831
0.015626516193151474,0.0044353497214615345,-0.011769268661737442,0.007895649410784245,-0.0003221586812287569,0.01404714584350586
0.015898149460554123,0.003963945433497429,-0.011620910838246346,0.00810123048722744,-0.0003040136652998626,0.013994738459587097
0.015781233087182045,0.0037418303545564413,-0.011893264017999172,0.007870882749557495,-0.00033246329985558987,0.01422610878944397
0.01586131937801838,0.004001452121883631,-0.012093989178538322,0.008090730756521225,-0.00031855894485488534,0.014275718480348587
0.01602916233241558,0.004055165220052004,-0.012438764795660973,0.007711084559559822,-0.00030340379453264177,0.014249448664486408
0.016663914546370506,0.004390762187540531,-0.012445380911231041,0.008159050717949867,-0.00028947193641215563,0.013813894242048264
0.015846939757466316,0.004704802297055721,-0.012140883132815361,0.008260862901806831,-0.0002767530095297843,0.013932491652667522
0.016084903851151466,0.004771227948367596,-0.011915369890630245,0.007927998900413513,-0.0002651045215316117,0.01412943098694086
0.015861988067626953,0.004314606077969074,-0.011510124430060387,0.008395155891776085,-0.00025439829914830625,0.014466533437371254
0.016312964260578156,0.004010102711617947,-0.012378514744341373,0.008781759068369865,-0.00024452171055600047,0.014179084450006485
0.01645737513899803,0.003961285576224327,-0.012429400347173214,0.008681517094373703,-0.00023538441746495664,0.014076320454478264
0.01645907387137413,0.003981041256338358,-0.01279356423765421,0.008342725224792957,-0.00022690529294777662,0.014075574465095997
0.01643190160393715,0.0042661805637180805,-0.012332873418927193,0.008653906174004078,-0.00021901649597566575,0.014490043744444847
0.016276609152555466,0.00465795723721385,-0.012034776620566845,0.009302802383899689,-0.00021165724319871515,0.014387956820428371
0.017144158482551575,0.0046132709830999374,-0.011876644566655159,0.008989743888378143,-0.00020477637008298188,0.01437539141625166
0.016922669485211372,0.004147144965827465,-0.011590270325541496,0.009377441368997097,-0.0001983295805985108,0.014195836149156094
0.016922669485211372,0.004147144965827465,-0.011590270325541496,0.009377441368997097,-0.0001983295805985108,0.014195836149156094
0.01705743744969368,0.003881096839904785,-0.01239178515970707,0.009340223856270313,-0.00019227559096179903,0.014407018199563026
0.017051389440894127,0.004163503181189299,-0.012032320722937584,0.009055561386048794,-0.00018658104818314314,0.015134190209209919
0.016758868470788002,0.00426527950912714,-0.012583671137690544,0.009431266225874424,-0.0001812135596992448,0.014549722895026207
0.01723964884877205,0.004064246080815792,-0.012800433672964573,0.009552327916026115,-0.00017614643729757518,0.013897479511797428
0.016720233485102654,0.004306014161556959,-0.012171205133199692,0.009253441356122494,-0.00017135485541075468,0.014241212978959084
0.01690973900258541,0.004598775878548622,-0.01280868798494339,0.00933485385030508,-0.00016683001013007015,0.01448330283164978
0.017202697694301605,0.004073233809322119,-0.011713435873389244,0.009201988577842712,-0.0001625147560844198,0.01482380647212267
0.017106981948018074,0.004195260349661112,-0.012138539925217628,0.008797374553978443,-0.000158427152200602,0.014736293815076351
0.017875200137495995,0.004212122410535812,-0.012161706574261189,0.008525440469384193,-0.00015454075764864683,0.014807578176259995
0.017507432028651237,0.004136115778237581,-0.012781250290572643,0.008710910566151142,-0.00014731299597769976,0.014771961607038975
0.01760461926460266,0.0042023868300020695,-0.012363055720925331,0.008420408703386784,-0.00015405532030854374,0.014795806258916855
0.01698533073067665,0.0042549921199679375,-0.0126618891954422,0.009160020388662815,-0.00016015312576200813,0.014811034314334393
0.017741801217198372,0.004129160661250353,-0.012057049199938774,0.008897274732589722,-0.00015727685240563005,0.014577394351363182
0.017752530053257942,0.0038681556470692158,-0.012871121056377888,0.008933424018323421,-0.00015395692025776953,0.014980403706431389
0.017754537984728813,0.0037006221245974302,-0.012227891944348812,0.00912918709218502,-0.0001507339911768213,0.015061567537486553
0.01788274385035038,0.0037371073849499226,-0.012680529616773129,0.00980935338884592,-0.0001476538018323481,0.01485932432115078
0.017703590914607048,0.004371601156890392,-0.012761798687279224,0.009088779799640179,-0.0001446852838853374,0.015362868085503578
0.018008574843406677,0.004575205035507679,-0.012675129808485508,0.009014779701828957,-0.0001418267929693684,0.01576896570622921
0.01841997168958187,0.00482586957514286,-0.012931871227920055,0.00904033798724413,-0.00013909410336054862,0.01586722582578659
0.01815166138112545,0.00434450525790453,-0.012291082181036472,0.009711846709251404,-0.00013645298895426095,0.015509633347392082
0.01853826269507408,0.003973545040935278,-0.012868939898908138,0.00986666139215231,-0.0001339128502877429,0.015672409906983376
0.018150506541132927,0.00410085404291749,-0.012489372864365578,0.009865382686257362,-0.00013147426943760365,0.015379425138235092
0.01814662292599678,0.004244315903633833,-0.012896951287984848,0.009286874905228615,-0.00011208083742531016,0.015556569211184978
0.018640926107764244,0.004330322612076998,-0.012930341064929962,0.009200046770274639,-9.370720363222063e-05,0.01550077460706234
0.01864224672317505,0.0045117344707250595,-0.012888829223811626,0.010161012411117554,-9.077403228729963e-05,0.01559388730674982
0.018642043694853783,0.004697139840573072,-0.013264922425150871,0.0102015295997262,-8.891239849617705e-05,0.01561468094587326
0.01887134276330471,0.004292784258723259,-0.012848854064941406,0.00981697253882885,-8.718527533346787e-05,0.015590920113027096
0.01861555688083172,0.004001261200755835,-0.013317475095391273,0.00973491556942463,-8.552790677640587e-05,0.015888618305325508
0.01861555688083172,0.004001261200755835,-0.013317475095391273,0.00973491556942463,-8.552790677640587e-05,0.015888618305325508
0.018839992582798004,0.004117533098906279,-0.012711545452475548,0.009626314043998718,-8.393261668970808e-05,0.01586032658815384
0.018852028995752335,0.00452580489218235,-0.013070791959762573,0.009822193533182144,-8.239580347435549e-05,0.016275757923722267
0.018596261739730835,0.004256099462509155,-0.012814830057322979,0.010553602129220963,-9.292428876506165e-05,0.01606186293065548
0.01882159151136875,0.00453264219686389,-0.012950724922120571,0.00923764705657959,-9.51094989432022e-05,0.01596113294363022
0.01883712410926819,0.0046891323290765285,-0.012780234217643738,0.009052569046616554,-9.370863699587062e-05,0.01582142524421215
0.018880408257246017,0.004273504484444857,-0.013372007757425308,0.009815421886742115,-9.212621080223471e-05,0.01624346524477005
0.01937289349734783,0.004284546244889498,-0.01310561690479517,0.009592277929186821,-9.058199793798849e-05,0.016138941049575806
0.018834054470062256,0.0041578710079193115,-0.013224993832409382,0.009896730072796345,-0.00010199889220530167,0.01660884916782379
0.01958424225449562,0.00432454701513052,-0.012885055504739285,0.009701555594801903,-0.00010059932537842542,0.015840277075767517
0.018880611285567284,0.0046266126446425915,-0.01311019342392683,0.009870666079223156,-9.903293539537117e-05,0.016020065173506737
0.018936393782496452,0.004475000314414501,-0.012579075060784817,0.010413763113319874,-0.0001078430432244204,0.016523316502571106
0.019343525171279907,0.004435916431248188,-0.013178937137126923,0.009899770841002464,-0.00010949760326184332,0.016339927911758423
0.02001846209168434,0.0045076459646224976,-0.013224644586443901,0.009787154383957386,-0.00010806925274664536,0.016308128833770752
0.019191637635231018,0.004218755755573511,-0.014046095311641693,0.01063020620495081,-0.00010648508032318205,0.016832029446959496
0.019662687554955482,0.004514921456575394,-0.013526747934520245,0.010234842076897621,-0.00019889388931915164,0.017379198223352432
0.01941910944879055,0.00418431730940938,-0.013771713711321354,0.010531163774430752,-0.000223054172238335,0.017081260681152344
0.017432766035199165,0.0044312262907624245,-0.013552004471421242,0.010180252604186535,-0.0002328732080059126,0.017279887571930885
0.020349619910120964,0.004236578941345215,-0.013751131482422352,0.009728942066431046,-0.00025933911092579365,0.016731129959225655
0.020397692918777466,0.004289085976779461,-0.01391705870628357,0.010584689676761627,-0.0002689005632419139,0.016568589955568314
0.01993805728852749,0.004506333265453577,-0.014163900166749954,0.01031949371099472,-0.0002752032014541328,0.016775421798229218
0.019615307450294495,0.004265389870852232,-0.013764660805463791,0.010291140526533127,-0.0006136770243756473,0.017187751829624176
0.020329419523477554,0.004544004797935486,-0.013908549211919308,0.010432050563395023,-0.0006847624899819493,0.017317457124590874
0.020147815346717834,0.004223565571010113,-0.01387370191514492,0.010546247474849224,-0.0006984704523347318,0.017562519758939743
0.02030239999294281,0.0044961171224713326,-0.013152852654457092,0.010395655408501625,-0.0007186686852946877,0.017535747960209846
0.020669320598244667,0.004561260342597961,-0.01467648334801197,0.010569983161985874,-0.000679295277222991,0.017326174303889275
0.020575905218720436,0.004630556330084801,-0.014264666475355625,0.010351541452109814,-0.0007929577841423452,0.017590004950761795
0.019670609384775162,0.004557795822620392,-0.014007718302309513,0.010750707238912582,-0.000814191356766969,0.017667269334197044
0.020061025395989418,0.004265063442289829,-0.014111202210187912,0.011160862632095814,-0.0008175927214324474,0.01730700023472309
0.020061025395989418,0.004265063442289829,-0.014111202210187912,0.011160862632095814,-0.0008175927214324474,0.01730700023472309
0.02071652002632618,0.004330803174525499,-0.01367388665676117,0.01011580042541027,-0.0007507212576456368,0.01727934367954731
0.02071652002632618,0.004330803174525499,-0.01367388665676117,0.01011580042541027,-0.0007507212576456368,0.01727934367954731
0.020845087245106697,0.004303181543946266,-0.014253392815589905,0.010055473074316978,-0.0007347891223616898,0.016892019659280777
0.02080555446445942,0.004381568171083927,-0.01401300635188818,0.009169017896056175,-0.0007121370872482657,0.01699768751859665
0.020640674978494644,0.004505334421992302,-0.01446232944726944,0.009433150291442871,-0.0006785246077924967,0.017225056886672974
0.02048575133085251,0.004551967605948448,-0.014088276773691177,0.009976116940379143,-0.0006926788482815027,0.017401622608304024
0.020883427932858467,0.0043982104398310184,-0.014426132664084435,0.01062249206006527,-0.000634833937510848,0.01770196296274662
0.02132265642285347,0.004599099047482014,-0.014805319719016552,0.009879836812615395,-0.0006061430904082954,0.01795702613890171
0.020965566858649254,0.004265083000063896,-0.014216037467122078,0.009512574411928654,-0.0006553073180839419,0.017735762521624565
0.021330824121832848,0.004357821773737669,-0.014214417897164822,0.010550533421337605,-0.0006847779732197523,0.017939601093530655
0.021211490035057068,0.004331350326538086,-0.014594140462577343,0.010337289422750473,-0.0007076474139466882,0.017998697236180305
0.021413926035165787,0.004096797667443752,-0.014968456700444221,0.01028001680970192,-0.0006899833679199219,0.017976166680455208
0.02118350937962532,0.004335407167673111,-0.014206412248313427,0.010449518449604511,-0.0009840185521170497,0.019491098821163177
0.021929770708084106,0.004337613470852375,-0.015134910121560097,0.010638321749866009,-0.0009148151148110628,0.017958296462893486
0.022186340764164925,0.004020024091005325,-0.014537095092236996,0.010329392738640308,-0.0008495482616126537,0.01783984899520874
0.021307412534952164,0.004110754933208227,-0.014633518643677235,0.010802493430674076,-0.0007974295294843614,0.018186505883932114
0.021271908655762672,0.004101940896362066,-0.014683798886835575,0.01046536024659872,-0.0007109513389877975,0.018023382872343063
0.02175590768456459,0.004240873269736767,-0.0151112861931324,0.010710636153817177,-0.0006389598129317164,0.018058646470308304
0.021985413506627083,0.00402743648737669,-0.01427764818072319,0.011322769336402416,-0.0005800622748211026,0.01852302812039852
0.021908627822995186,0.0039939237758517265,-0.014782261103391647,0.010534554719924927,-0.0005311074783094227,0.018513713032007217
0.021971197798848152,0.00401310995221138,-0.014479456469416618,0.010853856801986694,-0.000489779282361269,0.01864577643573284
0.022260893136262894,0.0040256064385175705,-0.01456583384424448,0.010987680405378342,-0.0005147711490280926,0.01843799650669098
0.022242769598960876,0.004019309300929308,-0.014934094622731209,0.010855358093976974,-0.0004840820620302111,0.01839161105453968
0.021960366517305374,0.003991628065705299,-0.01502123661339283,0.011273122392594814,-0.0004538107314147055,0.018702901899814606
0.02207319810986519,0.0038900375366210938,-0.01536116935312748,0.01117946021258831,-0.0004269069177098572,0.018718959763646126
0.022672351449728012,0.003795633791014552,-0.014756913296878338,0.011837869882583618,-0.0004030019335914403,0.01868094876408577
0.02308599464595318,0.0037521752528846264,-0.014721816405653954,0.011332295835018158,-0.00038406497333198786,0.01875499077141285
0.022535938769578934,0.003767584450542927,-0.014650221914052963,0.011031554080545902,-0.00028837358695454895,0.018707603216171265
0.022553179413080215,0.0038010769058018923,-0.015119937248528004,0.011091860011219978,-0.0002666140499059111,0.01899302564561367
0.022553179413080215,0.0038010769058018923,-0.015119937248528004,0.011091860011219978,-0.0002666140499059111,0.01899302564561367
0.022907733917236328,0.0037873396649956703,-0.015076501294970512,0.011028257198631763,-0.00025140633806586266,0.018883952870965004
0.022939408197999,0.004218931309878826,-0.015422162599861622,0.010864734649658203,-0.00027929057250730693,0.01848345622420311
0.022877207025885582,0.0043334923684597015,-0.014676512219011784,0.01099209114909172,-0.0002709153632167727,0.018947230651974678
0.02268480323255062,0.0039075384847819805,-0.015074675902724266,0.01096614170819521,-0.0002869029704015702,0.018746793270111084
0.023236406967043877,0.0038833257276564837,-0.015062615275382996,0.011171558871865273,-0.00027503102319315076,0.018891384825110435
0.023236406967043877,0.0038833257276564837,-0.015062615275382996,0.011171558871865273,-0.00027503102319315076,0.018891384825110435
0.0235639326274395,0.0042208535596728325,-0.014568624086678028,0.011122182942926884,-0.000296195677947253,0.018490223214030266
0.023967020213603973,0.004096331540495157,-0.014818184077739716,0.011819228529930115,-0.0002779370406642556,0.01856059394776821
0.023248055949807167,0.0039408523589372635,-0.01541261374950409,0.011525947600603104,-0.0002676241856534034,0.019015897065401077
0.022084353491663933,0.004103838466107845,-0.014810358174145222,0.011567535810172558,-0.0003334892389830202,0.01948796957731247
0.023136228322982788,0.004024309106171131,-0.014978952705860138,0.011545781046152115,-0.00032099359668791294,0.01905774138867855
0.02417127601802349,0.0038615346420556307,-0.014871825464069843,0.011906689964234829,-0.00030030208290554583,0.018812047317624092
0.023517252877354622,0.0038029272109270096,-0.015093031339347363,0.011786890216171741,-0.0002815504267346114,0.018740592524409294
0.02324446104466915,0.0042874994687736034,-0.014931701123714447,0.011745736002922058,-0.00026496758800931275,0.019374309107661247
0.023933973163366318,0.004067455884069204,-0.015477567911148071,0.011812873184680939,-0.0002502279239706695,0.019787143915891647
0.024348879233002663,0.0044485535472631454,-0.015380317345261574,0.011409667320549488,-0.00026016400079242885,0.01918029971420765
0.02398458495736122,0.0045084273442626,-0.015038643963634968,0.012059244327247143,-0.0002686253865249455,0.01905498467385769
0.024100063368678093,0.00431293249130249,-0.015332357957959175,0.01185675896704197,-0.0002572280936874449,0.019102079793810844
0.023547464981675148,0.004085237625986338,-0.015158087015151978,0.011687716469168663,-0.0002456161309964955,0.019572224467992783
0.023353081196546555,0.0039589060470461845,-0.015452022664248943,0.011776300147175789,-0.00026886037085205317,0.018425578251481056
0.023121019825339317,0.004230407997965813,-0.01510714739561081,0.01133196335285902,-0.000262319459579885,0.019103985279798508
0.024045580998063087,0.004520196933299303,-0.01578318513929844,0.012183855287730694,-0.0002521232236176729,0.019690625369548798
0.024111147969961166,0.004177084192633629,-0.015288188122212887,0.011856012977659702,-0.00025939467013813555,0.02021714672446251
0.023986080661416054,0.004512655083090067,-0.015871895477175713,0.011946139857172966,-0.00026565187727101147,0.019837336614727974
0.02405313029885292,0.004165274556726217,-0.015666207298636436,0.012260784395039082,-0.00025719584664329886,0.0195055790245533
0.02395251765847206,0.0038992376066744328,-0.016130700707435608,0.011560709215700626,-0.00024838928948156536,0.019918913021683693
0.023579828441143036,0.004281878005713224,-0.015369787812232971,0.01198396272957325,-0.0002505332522559911,0.019875939935445786
0.023579828441143036,0.004281878005713224,-0.015369787812232971,0.01198396272957325,-0.0002505332522559911,0.019875939935445786
0.02418251521885395,0.004114578478038311,-0.015896527096629143,0.011623788625001907,-0.00024107958597596735,0.019708842039108276
0.024091579020023346,0.0041425894014537334,-0.01580870896577835,0.01188838854432106,-0.0002290635893587023,0.01967131346464157
0.02447185479104519,0.004142186604440212,-0.015935875475406647,0.011871670372784138,-0.00021798159286845475,0.01963493786752224
0.024272475391626358,0.004395683296024799,-0.01593531295657158,0.012098163366317749,-0.00024392591149080545,0.01971244625747204
0.02387618087232113,0.004556178580969572,-0.01592712663114071,0.012418723665177822,-0.0002575353719294071,0.019817739725112915
0.023972287774086,0.004202788230031729,-0.016409026458859444,0.011485588736832142,-0.0002650954120326787,0.019918346777558327
0.023898139595985413,0.0039528608322143555,-0.015905745327472687,0.012208775617182255,-0.0002871972101274878,0.020153971388936043
0.024818038567900658,0.004128283355385065,-0.01618742197751999,0.01205219142138958,-0.0004631204647012055,0.02093161642551422
0.02298937737941742,0.0040219915099442005,-0.016479676589369774,0.011995827779173851,-0.00047425006050616503,0.021206455305218697
0.025161556899547577,0.004168843384832144,-0.01683628372848034,0.011711382307112217,-0.0004714889219030738,0.021081022918224335
0.0250219888985157,0.004450499080121517,-0.01672317087650299,0.012359987013041973,-0.00043593443115241826,0.020917678251862526
0.02491445653140545,0.004097010008990765,-0.01725483126938343,0.012116505764424801,-0.00046600549831055105,0.02082611247897148
0.024510139599442482,0.003982005175203085,-0.016875671222805977,0.012394897639751434,-0.00046807993203401566,0.021143712103366852
0.024895500391721725,0.004430260509252548,-0.017095768824219704,0.012229076586663723,-0.00046590258716605604,0.021005092188715935
0.02516208216547966,0.004776005167514086,-0.016706319525837898,0.012399602681398392,-0.0005018077208660543,0.021286478266119957
0.025331752374768257,0.004438870586454868,-0.01678851991891861,0.01179773174226284,-0.0005055724177509546,0.021336659789085388
0.026168128475546837,0.00402164226397872,-0.017603309825062752,0.011602413840591908,-0.0005249897949397564,0.02147315815091133
0.025803297758102417,0.004065120592713356,-0.016807550564408302,0.012206449173390865,-0.000497456465382129,0.02111431211233139
0.025426281616091728,0.00408099265769124,-0.01745295338332653,0.012173655442893505,-0.0005223461193963885,0.02130853943526745
0.024193869903683662,0.0044304910115897655,-0.01744672656059265,0.012328917160630226,-0.000542183464858681,0.02133953385055065
0.02531609684228897,0.004198196344077587,-0.017037438228726387,0.012984818778932095,-0.0006131737609393895,0.021387238055467606
0.02580055221915245,0.004379005637019873,-0.017492054030299187,0.012223118916153908,-0.0006811368511989713,0.021461937576532364
0.025672100484371185,0.004295436665415764,-0.016955673694610596,0.013046672567725182,-0.0007099650683812797,0.021654803305864334
0.02582021802663803,0.004114777781069279,-0.017704475671052933,0.012403285130858421,-0.0007554443436674774,0.021866310387849808
0.02582021802663803,0.004114777781069279,-0.017704475671052933,0.012403285130858421,-0.0007554443436674774,0.021866310387849808
0.026041921228170395,0.0039600795134902,-0.017367983236908913,0.013412276282906532,-0.0007121643866412342,0.021801380440592766
0.02684924192726612,0.0043175360187888145,-0.017019033432006836,0.012735435739159584,-0.0009599573095329106,0.02174650877714157
0.02655036561191082,0.004219479858875275,-0.017687123268842697,0.012629800476133823,-0.0008934705401770771,0.022219907492399216
0.025731004774570465,0.003996491897851229,-0.0170546043664217,0.012627745978534222,-0.0008816297049634159,0.02250356413424015
0.025934984907507896,0.003848274238407612,-0.018079061061143875,0.012586571276187897,-0.0007865586667321622,0.022317541763186455
0.026204874739050865,0.004094359930604696,-0.018038440495729446,0.013172654435038567,-0.0007859064498916268,0.02229180745780468
0.02655622363090515,0.004586327355355024,-0.017279963940382004,0.013330104760825634,-0.000719022355042398,0.022890841588377953
0.026844734326004982,0.004786660894751549,-0.01798197254538536,0.013513694517314434,-0.0006518527516163886,0.02201402373611927
0.02716374397277832,0.004409088287502527,-0.017451755702495575,0.014446146786212921,-0.000569981406442821,0.021574875339865685
0.02690333127975464,0.004263239447027445,-0.017712362110614777,0.014057846739888191,-0.0005421338137239218,0.02290581725537777
0.02698025293648243,0.0042543187737464905,-0.017142876982688904,0.014324145391583443,-0.0005718569154851139,0.023021575063467026
0.027079474180936813,0.004203832242637873,-0.017533663660287857,0.013858899474143982,-0.0005941901472397149,0.02218060940504074
0.027392681688070297,0.004477170296013355,-0.01752183772623539,0.014141430146992207,-0.0006746341241523623,0.02169281430542469
0.028321266174316406,0.004549287725239992,-0.017215833067893982,0.013715144246816635,-0.0007152667385526001,0.022003598511219025
0.028211694210767746,0.004257021937519312,-0.01732056215405464,0.01424473337829113,-0.0007385959615930915,0.02300236187875271
0.02811150811612606,0.004422212950885296,-0.017499446868896484,0.013433254323899746,-0.0006847215117886662,0.02286764606833458
0.02776593342423439,0.0041824388317763805,-0.018003810197114944,0.013658961281180382,-0.0006952053518034518,0.022690298035740852
0.027650073170661926,0.004147466272115707,-0.017258768901228905,0.013227115385234356,-0.0006434570532292128,0.022947533056139946
0.02789486199617386,0.004203955642879009,-0.01740267127752304,0.01398719847202301,-0.0006985018844716251,0.024157779291272163
0.028242534026503563,0.0050066555850207806,-0.01792323961853981,0.01371834333986044,-0.0007274547824636102,0.02386905625462532
0.02860281430184841,0.004610701464116573,-0.01773420162498951,0.014074934646487236,-0.0007343022152781487,0.023076526820659637
0.02817510813474655,0.004552749916911125,-0.017951542511582375,0.014010854065418243,-0.0006802547723054886,0.022683802992105484
0.02855176478624344,0.004166692029684782,-0.018052147701382637,0.014232003130018711,-0.0006969466339796782,0.023164790123701096
0.028966454789042473,0.004355035722255707,-0.017650960013270378,0.01406764518469572,-0.0006403379957191646,0.02395775355398655
0.028167124837636948,0.004968954715877771,-0.017739441245794296,0.014120826497673988,-0.0006618257029913366,0.02385161630809307
0.028167124837636948,0.004968954715877771,-0.017739441245794296,0.014120826497673988,-0.0006618257029913366,0.02385161630809307
0.028534721583127975,0.004913630895316601,-0.0177389495074749,0.014032366685569286,-0.0005888931336812675,0.023694733157753944
0.02883228473365307,0.004582480993121862,-0.018205849453806877,0.014139828272163868,-0.0005974206724204123,0.02371610514819622
0.02924409881234169,0.004540259949862957,-0.01827894151210785,0.013693457469344139,-0.0005588411004282534,0.023684190586209297
0.029194172471761703,0.004431053064763546,-0.017595337703824043,0.013926321640610695,-0.0005485864821821451,0.023876124992966652
0.02948203682899475,0.0046175881288945675,-0.018198983743786812,0.014153878204524517,-0.0005386692355386913,0.023926638066768646
0.029735634103417397,0.004730388056486845,-0.018332496285438538,0.014330670237541199,-0.0005598959978669882,0.024024933576583862
0.02964802458882332,0.004343953914940357,-0.01763208955526352,0.014491751790046692,-0.0005540194688364863,0.02443351224064827
0.029422061517834663,0.0043574487790465355,-0.018613623455166817,0.014417717233300209,-0.0005197273567318916,0.024134060367941856
0.0305955670773983,0.004997240379452705,-0.018442241474986076,0.014459284022450447,-0.000554331112653017,0.024003004655241966
0.03141745552420616,0.004526754375547171,-0.018261434510350227,0.014276164583861828,-0.0005699355970136821,0.024230310693383217
0.028616826981306076,0.004198429174721241,-0.01766131818294525,0.015074956230819225,-0.0005604498437605798,0.023909898474812508
0.03012562356889248,0.00438251718878746,-0.01843608170747757,0.014748443849384785,-0.000528021075297147,0.024089878425002098
0.03137810528278351,0.004471960011869669,-0.018535135313868523,0.014711949042975903,-0.0006243442185223103,0.024303775280714035
0.030542539432644844,0.004607268143445253,-0.018248841166496277,0.014397635124623775,-0.0006538830348290503,0.0242842398583889
0.03083559311926365,0.0047585563734173775,-0.018748117610812187,0.014963680878281593,-0.0006679088692180812,0.024269597604870796
0.03138679638504982,0.004530264064669609,-0.019631749019026756,0.014992465265095234,-0.0006678467616438866,0.024358343333005905
0.03138715773820877,0.004102724604308605,-0.018582798540592194,0.01518984790891409,-0.0006480823503807187,0.024255091324448586
0.030468814074993134,0.004361510742455721,-0.01900845393538475,0.015071750618517399,-0.000750905426684767,0.024479996412992477
0.03004441410303116,0.004697478376328945,-0.01904482953250408,0.015689294785261154,-0.0007893043220974505,0.024244848638772964
0.03176065906882286,0.004750196356326342,-0.018798107281327248,0.01490083523094654,-0.0008046238799579442,0.0243359487503767
0.03168921917676926,0.004431477747857571,-0.019094552844762802,0.014980186708271503,-0.0008155486430041492,0.025085002183914185
0.03200815990567207,0.0044501968659460545,-0.019132714718580246,0.01436355896294117,-0.0007385192438960075,0.02532864362001419
0.03203606233000755,0.004502823576331139,-0.019331997260451317,0.015005205757915974,-0.000780456408392638,0.024609722197055817
0.03179853409528732,0.004612233955413103,-0.019419066607952118,0.014739297330379486,-0.0007992847240529954,0.023799920454621315
0.03183216229081154,0.004198083188384771,-0.019360968843102455,0.015204129740595818,-0.000797166139818728,0.02385924756526947
0.03177160397171974,0.004415437113493681,-0.019217420369386673,0.014789928682148457,-0.000731794978491962,0.024796409532427788
0.03179369866847992,0.004374315030872822,-0.02025303803384304,0.015397968702018261,-0.0007257190300151706,0.02533864416182041
0.03160659968852997,0.004861225374042988,-0.02007324807345867,0.014859447255730629,-0.0006860457942821085,0.02517782337963581
0.03160659968852997,0.004861225374042988,-0.02007324807345867,0.014859447255730629,-0.0006860457942821085,0.02517782337963581
0.031235821545124054,0.004787047393620014,-0.018827397376298904,0.014762531034648418,-0.0007401855546049774,0.02527855895459652
0.031626950949430466,0.004383374471217394,-0.019460801035165787,0.01458390150219202,-0.000706267252098769,0.025459781289100647
0.03158387541770935,0.004070688970386982,-0.019593629986047745,0.014955524355173111,-0.000725124788004905,0.025067515671253204
0.03227495774626732,0.004411247558891773,-0.019152577966451645,0.014334756880998611,-0.0007246241439133883,0.025006825104355812
0.03195813298225403,0.004274091683328152,-0.01964038982987404,0.014899496920406818,-0.000677830190397799,0.024486178532242775
0.0317697711288929,0.003930045757442713,-0.020116247236728668,0.01463954709470272,-0.000711191853042692,0.024826157838106155
0.03183136507868767,0.0038017870392650366,-0.019583523273468018,0.015010557137429714,-0.0007364554912783206,0.026069683954119682
0.032767634838819504,0.003812795737758279,-0.019564980641007423,0.015373182483017445,-0.0007569654262624681,0.026242416352033615
0.03322036191821098,0.0040534138679504395,-0.019799456000328064,0.015785958617925644,-0.0007729764329269528,0.02604624070227146
0.0320291668176651,0.003934409935027361,-0.019542356953024864,0.014991089701652527,-0.0009163025533780456,0.02561192400753498
0.032697226852178574,0.003491598879918456,-0.019641514867544174,0.015438122674822807,-0.0010366105707362294,0.025745419785380363
0.03303540498018265,0.003794462187215686,-0.019082996994256973,0.015515539795160294,-0.0011102674761787057,0.026220716536045074
0.03255559876561165,0.004004971124231815,-0.019401205703616142,0.016155464574694633,-0.0010147399734705687,0.026168882846832275
0.03316207602620125,0.0039950283244252205,-0.020141206681728363,0.01567583531141281,-0.0008357444894500077,0.02576109953224659
0.032876595854759216,0.004256688058376312,-0.019858343526721,0.015995165333151817,-0.0008349285926669836,0.025874430313706398
0.032250773161649704,0.004115472547709942,-0.01974223181605339,0.01581035740673542,-0.0007302752346731722,0.026156382635235786
0.032241832464933395,0.004020429216325283,-0.020199265331029892,0.016339609399437904,-0.0006436111289076507,0.026734530925750732
0.032896365970373154,0.004047212190926075,-0.020482325926423073,0.01646680012345314,-0.0006637914339080453,0.02632410265505314
0.03329107165336609,0.0041039614006876945,-0.01983911357820034,0.01649821549654007,-0.000605716195423156,0.026917273178696632
0.03337275981903076,0.004077697638422251,-0.019765980541706085,0.016870709136128426,-0.0006262058741413057,0.025857260450720787
0.03331800550222397,0.004107196815311909,-0.020014921203255653,0.016344327479600906,-0.0005829514702782035,0.026021810248494148
0.033079542219638824,0.0040974668227136135,-0.02015041373670101,0.01675277203321457,-0.00045343939564190805,0.026591701433062553
0.03290151059627533,0.003981901798397303,-0.019905904307961464,0.016313249245285988,-0.0004777892609126866,0.026590805500745773
0.033670324832201004,0.004287471994757652,-0.020090075209736824,0.016311999410390854,-0.0005118036642670631,0.0267894696444273
0.03390328586101532,0.004298907704651356,-0.019971327856183052,0.016361970454454422,-0.000541502668056637,0.02698715589940548
0.03352884203195572,0.00405884301289916,-0.020272009074687958,0.01619434542953968,-0.0008031451725400984,0.02717643603682518
0.03374011069536209,0.0038834435399621725,-0.020392248407006264,0.016539273783564568,-0.0008747664978727698,0.02709769643843174
0.034316159784793854,0.003827320411801338,-0.0203925259411335,0.016225619241595268,-0.000849502335768193,0.027314459905028343
0.03238015994429588,0.004227060358971357,-0.019978754222393036,0.01659346930682659,-0.0007992491591721773,0.027226414531469345
0.034429315477609634,0.004312720615416765,-0.020315971225500107,0.01624792441725731,-0.0008068230818025768,0.027394482865929604
0.03445972129702568,0.00403447775170207,-0.020576877519488335,0.016530483961105347,-0.0008042281260713935,0.027252689003944397
0.033945247530937195,0.004019349347800016,-0.0205337293446064,0.016232846304774284,-0.000824425951577723,0.027058757841587067
0.03352998569607735,0.003908148035407066,-0.020904364064335823,0.016527965664863586,-0.0008348231203854084,0.02704274281859398
0.03352998569607735,0.003908148035407066,-0.020904364064335823,0.016527965664863586,-0.0008348231203854084,0.02704274281859398
0.034134794026613235,0.0038232035003602505,-0.02115040086209774,0.016939502209424973,-0.0008424715488217771,0.02703378163278103
0.034458938986063004,0.003793981159105897,-0.0205825362354517,0.01675250194966793,-0.0009120614267885685,0.027044231072068214
0.034181248396635056,0.004402488004416227,-0.019955649971961975,0.017026986926794052,-0.0009216623147949576,0.027183253318071365
0.03469428792595863,0.004704982973635197,-0.021061312407255173,0.016490513458848,-0.0008200318552553654,0.027903953567147255
0.03457397595047951,0.004401371814310551,-0.02168404869735241,0.016590280458331108,-0.0008239243179559708,0.02767043560743332
0.03525875508785248,0.00433341134339571,-0.02049332857131958,0.016785647720098495,-0.00072721007745713,0.026641935110092163
0.035348113626241684,0.004227664787322283,-0.021304801106452942,0.017222551628947258,-0.0006796460947953165,0.027638468891382217
0.034929387271404266,0.004003976471722126,-0.022174933925271034,0.016524573788046837,-0.0006077854777686298,0.027601998299360275
0.03442065417766571,0.004017393570393324,-0.020989781245589256,0.017283840104937553,-0.0006127269589342177,0.02731328271329403
0.03535944223403931,0.004264866933226585,-0.020745201036334038,0.016821814700961113,-0.0006413493538275361,0.02876630239188671
0.036582279950380325,0.004368751775473356,-0.021941399201750755,0.016799306496977806,-0.0006661085644736886,0.028603199869394302
0.03504098579287529,0.004464677534997463,-0.02120918408036232,0.01694594882428646,-0.0008075107471086085,0.027194423601031303
0.03449089080095291,0.004175248555839062,-0.020229561254382133,0.016567783430218697,-0.0009473858517594635,0.027501584962010384
0.035928916186094284,0.004425498656928539,-0.02116873301565647,0.0169734675437212,-0.0009130859398283064,0.02851773053407669
0.03589540347456932,0.004117458127439022,-0.02212984301149845,0.016732249408960342,-0.0009096059948205948,0.029102733358740807
0.03641381114721298,0.00403169821947813,-0.02142792008817196,0.017263220623135567,-0.0008578551933169365,0.028807172551751137
0.03577299788594246,0.004103353247046471,-0.02085566520690918,0.0171115230768919,-0.0009386468445882201,0.02808888629078865
0.0351344533264637,0.004463763441890478,-0.021423613652586937,0.017012733966112137,-0.0009374780929647386,0.028132276609539986
0.034961998462677,0.004553100094199181,-0.0217159241437912,0.01747424341738224,-0.0009639228228479624,0.028322115540504456
0.03654905781149864,0.004338548984378576,-0.021375924348831177,0.017314210534095764,-0.0010154304327443242,0.028615551069378853
0.03656746819615364,0.004496526904404163,-0.021044865250587463,0.01742728054523468,-0.0010740808211266994,0.02825096808373928
0.03596431761980057,0.004357682541012764,-0.021383389830589294,0.017291607335209846,-0.0009365707519464195,0.028418393805623055
0.03696846216917038,0.004033802077174187,-0.021493319422006607,0.016802193596959114,-0.0009145418298430741,0.028658153489232063
0.036433544009923935,0.003984740935266018,-0.021427243947982788,0.017236759886145592,-0.0008119744597934186,0.02869509719312191
0.03581985458731651,0.004871458746492863,-0.021189237013459206,0.01747516542673111,-0.0008083317661657929,0.02871617302298546
0.03581985458731651,0.004871458746492863,-0.021189237013459206,0.01747516542673111,-0.0008083317661657929,0.02871617302298546
0.036570481956005096,0.004546383861452341,-0.02155035361647606,0.01786111108958721,-0.000731492938939482,0.028727475553750992
0.036352258175611496,0.004555371589958668,-0.021574249491095543,0.018298141658306122,-0.0006878466228954494,0.02904750034213066
0.03658425435423851,0.004607986193150282,-0.02111908048391342,0.01732051745057106,-0.0006567726377397776,0.029100710526108742
0.03686428442597389,0.004569263197481632,-0.021267566829919815,0.017946504056453705,-0.0006728747976012528,0.02951381541788578
0.03675466403365135,0.004541645757853985,-0.021664921194314957,0.017579900100827217,-0.0006184021476656199,0.02915141172707081
0.03711546212434769,0.004670595284551382,-0.021784473210573196,0.01734943501651287,-0.000638528901617974,0.029524439945816994
0.038151226937770844,0.00463396729901433,-0.021281804889440536,0.01748022809624672,-0.0007130536832846701,0.029367748647928238
0.03713499382138252,0.00473345723003149,-0.021462606266140938,0.01827644370496273,-0.000710322696249932,0.02905805967748165
0.03647675737738609,0.0048799035139381886,-0.02181410975754261,0.0185297392308712,-0.0007293823291547596,0.02915649674832821
0.037967748939991,0.004715524148195982,-0.0219351127743721,0.01808677613735199,-0.0007084817625582218,0.03038056567311287
0.03732183203101158,0.00467457203194499,-0.02149421162903309,0.018306227400898933,-0.0009243619861081243,0.030225252732634544
0.03838596120476723,0.004642510786652565,-0.02152429148554802,0.018200593069195747,-0.0008640352752991021,0.029019998386502266
0.038571495562791824,0.00442194240167737,-0.021866146475076675,0.018951263278722763,-0.0008091144845820963,0.0285782627761364
0.03713280335068703,0.004546180367469788,-0.0217997245490551,0.018979914486408234,-0.0007638003444299102,0.029450099915266037
0.03710518404841423,0.004499300383031368,-0.02143736183643341,0.018421567976474762,-0.0007555544725619256,0.0292940903455019
0.03866390138864517,0.004770852159708738,-0.021782929077744484,0.01869071274995804,-0.000704333942849189,0.029494568705558777
0.03838370740413666,0.00480401748791337,-0.021692143753170967,0.01877276413142681,-0.0006506288191303611,0.030934393405914307
0.0381588451564312,0.004365955479443073,-0.021437376737594604,0.017984574660658836,-0.0006767729646526277,0.030455004423856735
0.03808676078915596,0.004458635579794645,-0.021108971908688545,0.018519002944231033,-0.0006946900975890458,0.0300255436450243
0.03833751752972603,0.004173363093286753,-0.02183888480067253,0.019269512966275215,-0.0007032221183180809,0.02939658984541893
0.0383230485022068,0.004349077586084604,-0.022083399817347527,0.01920377090573311,-0.0008556550601497293,0.029783276841044426
0.03809105232357979,0.004989775829017162,-0.02203264646232128,0.01935291849076748,-0.0009117990848608315,0.03119099885225296
0.03802667558193207,0.004932818002998829,-0.021685553714632988,0.01892905868589878,-0.0007991741877049208,0.031230255961418152
0.03854411840438843,0.004562285263091326,-0.021674232557415962,0.018551815301179886,-0.0008046996663324535,0.030739473178982735
0.03881225734949112,0.00435606436803937,-0.02206210419535637,0.019224947318434715,-0.0007947379490360618,0.03096945770084858
0.0386282242834568,0.0041013420559465885,-0.023062918335199356,0.01915871538221836,-0.0007796699064783752,0.030733613297343254
0.0386282242834568,0.0041013420559465885,-0.023062918335199356,0.01915871538221836,-0.0007796699064783752,0.030733613297343254
0.03876248747110367,0.004447667859494686,-0.022398967295885086,0.01865663006901741,-0.0008113450021483004,0.030527599155902863
0.038649898022413254,0.004657527431845665,-0.021743251010775566,0.018831580877304077,-0.0008244243217632174,0.03054274246096611
0.037557702511548996,0.004898476880043745,-0.02207176759839058,0.019063014537096024,-0.0008066723239608109,0.03055495396256447
0.03910326957702637,0.004735862836241722,-0.022467395290732384,0.01863120310008526,-0.0007685915916226804,0.0305948369204998
0.03949308395385742,0.004795385990291834,-0.022101718932390213,0.018860794603824615,-0.0008630103548057377,0.030777784064412117
0.03900222107768059,0.0046309526078403,-0.02265561930835247,0.01892871968448162,-0.0007488214178010821,0.03097236342728138
0.03904833272099495,0.004255273379385471,-0.022288598120212555,0.01864592172205448,-0.0007622567936778069,0.031141124665737152
0.03903573751449585,0.0045202444307506084,-0.022834474220871925,0.019238239154219627,-0.0007712281076237559,0.031347811222076416
0.03968111425638199,0.004968638997524977,-0.022996004670858383,0.01925404742360115,-0.0007761348970234394,0.031237708404660225
0.03875329717993736,0.005132756195962429,-0.02268407680094242,0.01926608756184578,-0.0007482373039238155,0.0315648689866066
0.039260584861040115,0.005019651260226965,-0.02328854240477085,0.018400631844997406,-0.0007085794932208955,0.031298838555812836
0.03901797533035278,0.004242734517902136,-0.02400350011885166,0.01811971701681614,-0.0007198010571300983,0.031689874827861786
0.03998662158846855,0.004392923787236214,-0.022387603297829628,0.0185663141310215,-0.0007022809004411101,0.031462665647268295
0.041025761514902115,0.004656747914850712,-0.022071370854973793,0.0186840258538723,-0.0006776053924113512,0.03172516077756882
0.0387803353369236,0.004717137664556503,-0.023326929658651352,0.018757415935397148,-0.0006879848660901189,0.03114446811378002
0.03863519802689552,0.004559134133160114,-0.022911904379725456,0.01913655549287796,-0.0006965252105146646,0.03228415921330452
0.039264898747205734,0.004138990771025419,-0.0230434387922287,0.01893753372132778,-0.0006414237432181835,0.03224017843604088
0.03997493535280228,0.00436097988858819,-0.023048067465424538,0.0192954633384943,-0.0006448201020248234,0.032927341759204865
0.04161781072616577,0.004494419787079096,-0.02291030064225197,0.01976320520043373,-0.0006044867914170027,0.03332977369427681
0.040322910994291306,0.004381959326565266,-0.023416932672262192,0.019534064456820488,-0.0006261445814743638,0.03187594935297966
0.03871695324778557,0.004120668396353722,-0.023613888770341873,0.01913250982761383,-0.000647378561552614,0.031204309314489365
0.04055028036236763,0.004195480607450008,-0.023475194349884987,0.018882539123296738,-0.0006446921615861356,0.03175906836986542
0.040720533579587936,0.004508050158619881,-0.023293638601899147,0.018821947276592255,-0.0006220155628398061,0.03232904523611069
0.04071515053510666,0.004727779421955347,-0.023134075105190277,0.019483083859086037,-0.000647421577014029,0.03208965063095093
0.04087890312075615,0.004393449518829584,-0.02275897189974785,0.020718714222311974,-0.0006753017660230398,0.03339820355176926
0.04062831029295921,0.0039795879274606705,-0.023486215621232986,0.020260881632566452,-0.0009308731532655656,0.03295615315437317
0.041125357151031494,0.004251894541084766,-0.023732079192996025,0.019617969170212746,-0.0009406385943293571,0.032042209059000015
0.040348876267671585,0.004207215737551451,-0.02365172654390335,0.018716448917984962,-0.0009059064323082566,0.03145011141896248
0.040348876267671585,0.004207215737551451,-0.02365172654390335,0.018716448917984962,-0.0009059064323082566,0.03145011141896248
0.04088656231760979,0.00438618054613471,-0.023540277034044266,0.018729181960225105,-0.0008520586416125298,0.032839883118867874
0.04055759310722351,0.004944721236824989,-0.02322501316666603,0.0197872593998909,-0.000834363279864192,0.03343062847852707
0.04087608680129051,0.004946180619299412,-0.023765593767166138,0.02023756317794323,-0.0008340628701262176,0.03354351595044136
0.0416853204369545,0.004501599818468094,-0.023351004347205162,0.01943083107471466,-0.000780765141826123,0.033089276403188705
0.04123150184750557,0.0040639834478497505,-0.023320263251662254,0.018752144649624825,-0.0007404874777421355,0.032779619097709656
0.03952651098370552,0.004131249617785215,-0.023282604292035103,0.019744964316487312,-0.0007062067743390799,0.032403718680143356
0.04062880948185921,0.004514188971370459,-0.023082010447978973,0.019948547706007957,-0.0007044391240924597,0.033247414976358414
0.0417606383562088,0.004777781665325165,-0.024112623184919357,0.019714150577783585,-0.0006811392959207296,0.03305675834417343
0.041621435433626175,0.004476016387343407,-0.02374008297920227,0.01943218894302845,-0.0007067465339787304,0.032954853028059006
0.03944548964500427,0.00443433690816164,-0.023465562611818314,0.019311314448714256,-0.0007521756342612207,0.033259160816669464
0.040859948843717575,0.004501041956245899,-0.0235003475099802,0.020229164510965347,-0.0008919774554669857,0.033383939415216446
0.042075470089912415,0.004174996633082628,-0.023310473188757896,0.02013288624584675,-0.001048024743795395,0.032710183411836624
0.041370730847120285,0.004353982396423817,-0.023252755403518677,0.020043855533003807,-0.0010334886610507965,0.03371746838092804
0.04129226133227348,0.004644060041755438,-0.02319672331213951,0.020253172144293785,-0.0009657666669227183,0.033498864620923996
0.04114749655127525,0.004719045013189316,-0.023167263716459274,0.020300263538956642,-0.0009002613369375467,0.03351815044879913
0.04178851842880249,0.0049199312925338745,-0.02343103662133217,0.019924376159906387,-0.0008526411838829517,0.03334570303559303
0.04219714179635048,0.004769990220665932,-0.02399883233010769,0.01982845924794674,-0.0008616281556896865,0.0338280126452446
0.04132332280278206,0.004313688725233078,-0.023637602105736732,0.020603477954864502,-0.0008670996176078916,0.033388398587703705
0.04129284247756004,0.0044701616279780865,-0.02387700229883194,0.020646503195166588,-0.0008711513364687562,0.03358429670333862
0.04171036556363106,0.0045053777284920216,-0.02468242309987545,0.02029506303369999,-0.0010675742523744702,0.03488432615995407
0.04268158972263336,0.004944257903844118,-0.02450966089963913,0.020607028156518936,-0.0009868461638689041,0.034690383821725845
0.042085789144039154,0.0053274966776371,-0.023524202406406403,0.020749805495142937,-0.0009696795023046434,0.03275168687105179
0.042716480791568756,0.00485049095004797,-0.023301545530557632,0.019914070144295692,-0.0009358229581266642,0.032613806426525116
0.042256709188222885,0.004520370624959469,-0.023387404158711433,0.019578400999307632,-0.0008521947311237454,0.03387223929166794
0.04253581166267395,0.004880235530436039,-0.0241131279617548,0.019677776843309402,-0.0007843344355933368,0.03435772284865379
0.04283640533685684,0.004498347640037537,-0.025221848860383034,0.019375596195459366,-0.0007939893403090537,0.035560354590415955
0.043249331414699554,0.00451658433303237,-0.024449948221445084,0.019401781260967255,-0.000792007427662611,0.035007294267416
0.042598214000463486,0.004726452752947807,-0.02367619425058365,0.020046480000019073,-0.0008035316714085639,0.033700741827487946
0.04351252317428589,0.005107572302222252,-0.023856360465288162,0.02056044712662697,-0.0008560504065826535,0.033071354031562805
0.043443772941827774,0.0048537710681557655,-0.024280477315187454,0.02007756382226944,-0.0009329258464276791,0.03465503454208374
0.04298584535717964,0.004553274251520634,-0.023962780833244324,0.019934123381972313,-0.0008979274425655603,0.034809503704309464
0.04298584535717964,0.004553274251520634,-0.023962780833244324,0.019934123381972313,-0.0008979274425655603,0.034809503704309464
0.043459612876176834,0.004658752121031284,-0.02430969662964344,0.020209217444062233,-0.0008388176211155951,0.034197986125946045
0.043448008596897125,0.00465532997623086,-0.024597687646746635,0.019845539703965187,-0.0008348304545506835,0.03564530238509178
0.04275231808423996,0.004878692794591188,-0.024050679057836533,0.019865956157445908,-0.0008152014925144613,0.03537602350115776
0.044875502586364746,0.004916682839393616,-0.024086644873023033,0.020191174000501633,-0.0008139858255162835,0.03496086224913597
0.04442756623029709,0.00457000033929944,-0.024236628785729408,0.02047928236424923,-0.0008573299273848534,0.035001907497644424
0.042424678802490234,0.004488734994083643,-0.024330750107765198,0.02064027450978756,-0.0008648052462376654,0.03478368744254112
0.043762415647506714,0.004607983864843845,-0.024965843185782433,0.021017784252762794,-0.0010113297030329704,0.03501887992024422
0.044301215559244156,0.004443919286131859,-0.023827580735087395,0.02066800929605961,-0.001023731892928481,0.03500305861234665
0.04509147256612778,0.005033730994910002,-0.024022391065955162,0.020759696140885353,-0.0009575542062520981,0.0347508080303669
0.042659904807806015,0.004888226743787527,-0.02413574606180191,0.020740438252687454,-0.0008935125661082566,0.03508441150188446
0.04471074044704437,0.004411803558468819,-0.024643294513225555,0.0209164060652256,-0.000829160213470459,0.03580820560455322
0.044590651988983154,0.004409337416291237,-0.02442180924117565,0.02101920172572136,-0.0008191283559426665,0.03600727766752243
0.0444653183221817,0.004568444564938545,-0.024400489404797554,0.02102009207010269,-0.0007981150411069393,0.03576255217194557
0.04401595890522003,0.004566574934870005,-0.024292724207043648,0.021460259333252907,-0.0007563586113974452,0.035989321768283844
